imanlab/tactile_prediction_flat_dataset/train/data_sample_2021-11-24-16-26-51/robot_state.csv
position_panda_joint1,position_panda_joint2,position_panda_joint3,position_panda_joint4,position_panda_joint5,position_panda_joint6,position_panda_joint7,position_panda_finger,velocity_panda_joint1,velocity_panda_joint2,velocity_panda_joint3,velocity_panda_joint4,velocity_panda_joint5,velocity_panda_joint6,velocity_panda_joint7,ee_state_position_x,ee_state_position_y,ee_state_position_z,ee_state_orientation_x,ee_state_orientation_y,ee_state_orientation_z,ee_state_orientation_w
0.0601096786559,0.00656675267965,-0.0705622062087,-2.56580042839,0.0331625677645,2.61802983284,-0.785571396351,0.0679650008678,-0.000336977449479,0.000571119075175,-0.000254382903222,-0.000185754775885,-9.54019124038e-05,0.000469579681521,0.000611887255218,0.458941689714,-0.00377556568928,0.154728957948,0.00112278296253,0.930818925649,0.364670091437,0.0243020803114
0.0601078048348,0.00656689610332,-0.0705653056502,-2.56580686569,0.0331613756716,2.61803174019,-0.785521745682,0.0679650008678,0.000372884474928,0.00329357245937,-2.93718603643e-05,-0.000367820030078,-4.53211250715e-05,-3.10829091177e-05,0.00132335640956,0.458938875241,-0.00377787974754,0.154726668804,0.00112169020739,0.930828765161,0.364645130181,0.0242998041065
0.0601102299988,0.00656582042575,-0.0705625116825,-2.56580305099,0.0331618003547,2.61804580688,-0.785444378853,0.0679650008678,0.000159325267305,0.000261438282905,-0.00302314246073,0.000103740967461,-0.000109945562144,-2.1531861421e-05,0.000655718729831,0.458943988068,-0.0037756145163,0.154729965527,0.00112427231188,0.930841797894,0.364611264328,0.0243086181257
0.0601149685681,0.00656614033505,-0.070559643209,-2.56580424309,0.033161662519,2.61805510521,-0.785383164883,0.0679656565189,7.7568947745e-05,0.000252014171565,-0.000511668680701,0.000834160950035,0.000210635276744,0.00262517156079,0.000646545842756,0.458945365903,-0.00377221450898,0.154730281875,0.00112504905158,0.930851484095,0.364586293548,0.0243121998958
0.0601125992835,0.00656825117767,-0.0705639347434,-2.56580424309,0.0331616587937,2.61805701256,-0.785361230373,0.0679656565189,3.50392037944e-05,-0.000885484158061,-0.000468672980787,-0.000190019331058,-9.56060393946e-05,-0.0001496856421,-0.000175257635419,0.458945374667,-0.00377531813084,0.154729502853,0.00112493445382,0.930856704494,0.364572973469,0.0243120735719
0.0601050965488,0.00656623812392,-0.0705680623651,-2.56580138206,0.0331630781293,2.61806440353,-0.78533744812,0.0679656565189,0.000406472710893,-0.00031952856807,-0.000459707312984,-0.000250697979936,0.000189148049685,5.54198231839e-05,-3.41756203852e-05,0.458948689258,-0.00378067966998,0.154732220629,0.00112678467656,0.930863251897,0.364555862187,0.0243178875042
0.0601069703698,0.00656605465338,-0.0705684795976,-2.56580209732,0.033162035048,2.61806583405,-0.785326838493,0.0679656565189,0.000591428659391,-0.00144009978976,0.000123591555166,-0.000593343924265,5.42603520444e-05,8.4043982497e-05,-0.000317040772643,0.458948679907,-0.00378005502421,0.154732176308,0.00112706987437,0.930864753562,0.364552006067,0.0243181998965
0.0601084157825,0.00656604627147,-0.0705661773682,-2.56580376625,0.0331616960466,2.61806941032,-0.78531062603,0.0679656565189,0.000526515592355,0.000389515189454,4.01687138947e-05,-0.00226213037968,2.92189924949e-05,0.000107719548396,0.00137129903305,0.458948613905,-0.00377809676965,0.154731835407,0.00112720907879,0.930866941683,0.364546364758,0.0243190030228
0.0601112954319,0.00656581297517,-0.0705646276474,-2.56580305099,0.0331624485552,2.61807465553,-0.785299241543,0.0679656565189,0.00050548260333,0.000693480600603,0.000493464351166,0.000243088288698,-1.26396105316e-06,-2.37222939177e-05,-0.000534378865268,0.45895017588,-0.00377636437202,0.154732792559,0.00112814848564,0.930868286318,0.364542729785,0.0243219788177
0.0601122230291,0.00656592426822,-0.0705635920167,-2.56580281258,0.0331611819565,2.61808395386,-0.785244226456,0.0679650008678,-5.09018100274e-05,-0.000145722660818,0.000799509231001,0.000105921069917,0.000110576700536,0.000168358572409,0.00269932672381,0.458952274443,-0.00377559909788,0.154733739784,0.00112964440269,0.930877675839,0.364518466136,0.0243262010541
0.0601110495627,0.00656566489488,-0.0705682337284,-2.56580352783,0.0331626459956,2.61808800697,-0.785220324993,0.0679650008678,-0.000151568179717,1.10180399133e-05,-7.46810837882e-05,-0.000458727095975,-0.000113686081022,1.15522134365e-05,4.21844197263e-05,0.458952817298,-0.00377825866679,0.154733989178,0.00112980565107,0.930883286037,0.364504018247,0.0243280020345
0.0601102262735,0.00656520575285,-0.0705668181181,-2.56580686569,0.0331623367965,2.6180896759,-0.785201728344,0.0679650008678,4.24742125915e-07,0.000299685489153,0.000131684006192,-9.01298699318e-05,4.00950957555e-05,-0.000150461753947,0.00315904663876,0.458951555214,-0.00377793137821,0.154732859194,0.00112932800362,0.93088674776,0.364495228774,0.0243272552723
0.0601088814437,0.00656557828188,-0.0705677121878,-2.56580400467,0.0331606268883,2.61809420586,-0.785181581974,0.0679650008678,2.05689448194e-05,0.000892928161193,-0.00362503738143,-0.00197553401813,2.5965671739e-05,-5.69941439608e-05,0.00151011883281,0.458953918414,-0.00377913922185,0.154734455628,0.00113100123889,0.930890285514,0.364485973122,0.0243304799218
0.0601122751832,0.00656701810658,-0.0705655142665,-2.56580448151,0.0331599861383,2.61810278893,-0.785137116909,0.0679656565189,-0.000460998649942,0.00109714944847,-0.00173859065399,0.000225769166718,-2.95374902635e-05,-5.86653441133e-05,-0.000634464202449,0.458955288414,-0.00377669005314,0.154734456894,0.00113194587824,0.930897217261,0.364468066418,0.0243334716086
0.0601116716862,0.00656516849995,-0.0705637857318,-2.56580448151,0.0331624113023,2.61810517311,-0.785119771957,0.0679656565189,0.000107437859697,0.00350709958002,0.000145886806422,0.000162637588801,0.000180687638931,0.000237369997194,0.000603681430221,0.458956136278,-0.00377609501063,0.154735538189,0.00113189680175,0.93090050201,0.364459528058,0.0243356992697
0.0601110383868,0.00656395871192,-0.0705655142665,-2.56580352783,0.0331612378359,2.61810803413,-0.785098552704,0.0679656565189,-0.000179913768079,-0.000620035862084,-0.00366896786727,0.000176199886482,2.7070294891e-05,3.49910842488e-05,-0.00074489985127,0.458957425894,-0.00377724024368,0.154736728864,0.00113289102916,0.9309045666,0.364448994883,0.0243379180436
0.0601078756154,0.0065671717748,-0.0705671310425,-2.56580233574,0.033162932843,2.61811351776,-0.785069942474,0.0679656565189,0.000219761568587,-0.00379173248075,0.0017943775747,-9.84327925835e-05,9.46286309045e-05,-4.29125384471e-06,0.00218743295409,0.458958603384,-0.00377947429171,0.154736241862,0.00113302596862,0.930910886342,0.364432736889,0.0243396365872
0.060108717531,0.00656493427232,-0.0705688819289,-2.56580305099,0.0331618711352,2.61811637878,-0.785059630871,0.0679656565189,-8.73171447893e-05,0.000559130450711,0.000224759962293,-0.000292488315608,-3.35088698193e-05,6.91607056069e-05,0.00102675682865,0.458959257563,-0.00377992971002,0.154737278352,0.00113395447439,0.930912723568,0.364427911375,0.0243415764004
0.0601090751588,0.00656785955653,-0.0705664232373,-2.56580686569,0.0331624858081,2.61812019348,-0.785050451756,0.0679656565189,4.86710850964e-05,-0.000778597022872,0.000143951678183,-0.000435468216892,0.000984806916676,-1.69286886376e-05,9.90801199805e-05,0.458957515938,-0.00377871081291,0.154734667392,0.00113316166321,0.930914187566,0.364424279967,0.0243399915327
0.0601112507284,0.0065665920265,-0.0705681443214,-2.56580424309,0.0331615433097,2.61812281609,-0.785038948059,0.0679656565189,4.29432839155e-05,-0.00256989547051,-0.000584801426157,4.99066445627e-05,9.63465572568e-05,0.000242379988777,0.000752537220251,0.458959767032,-0.00377851441259,0.154736702557,0.00113454924901,0.930915822561,0.364419887063,0.0243431653893
0.0601109303534,0.00656499853358,-0.0705661699176,-2.56580710411,0.0331619530916,2.61812973022,-0.7850086689,0.0679656565189,0.000221911919652,-0.000193047133507,0.000663440965582,0.000101194476883,6.70376248308e-05,1.5389337932e-05,0.000815043807961,0.458960215237,-0.00377756346349,0.154737148646,0.00113519103377,0.930921110263,0.364406185524,0.0243460354868
0.0601122230291,0.00656687561423,-0.0705643519759,-2.56580638885,0.0331621877849,2.61813116074,-0.785001337528,0.0679656565189,5.27814154339e-05,0.000116814837384,-0.000847822928336,0.000627245637588,-1.92067691387e-05,0.00010078412015,0.00025212528999,0.458960466071,-0.00377637714477,0.154736585533,0.00113509212723,0.930921860937,0.364404273796,0.0243459507821
0.060111425817,0.0065649067983,-0.0705655366182,-2.56580615044,0.0331620797515,2.61813378334,-0.784989535809,0.0679650008678,-0.000326168228639,-0.00331513513811,-0.000310073693981,-3.55393422069e-05,-1.46191069916e-07,-4.90989623358e-05,-0.00010537639173,0.458961489231,-0.0037772978866,0.154737833169,0.00113587458534,0.930924305274,0.364397877121,0.0243481923938
0.0601085796952,0.00656409515068,-0.0705683380365,-2.56580233574,0.0331626534462,2.61813831329,-0.784969508648,0.0679650008678,-0.00048765054089,0.00274693663232,-0.000328708614688,3.44734580722e-05,0.000106362567749,0.00111092871521,-0.000134966292535,0.458964468383,-0.00377992947295,0.154740077322,0.00113731577458,0.930928973782,0.364385658973,0.0243524845727
0.0601085461676,0.00656443228945,-0.0705685243011,-2.56580090523,0.0331620685756,2.61814165115,-0.784961700439,0.0679650008678,-8.3745631855e-05,7.19890886103e-05,-0.0013192211045,-0.000101904428448,-3.40500337188e-05,9.03771287994e-05,0.000352800736437,0.458965829165,-0.00378009394681,0.154740784909,0.0011382476467,0.93093030297,0.364382128116,0.0243544615722
0.0601097494364,0.00656753405929,-0.0705680623651,-2.56580257416,0.0331619679928,2.61814308167,-0.78494989872,0.0679650008678,-0.00229283655062,-0.000696411880199,-5.39441862202e-05,-4.03782141802e-05,5.4599098803e-05,-3.92980255128e-05,0.00233830884099,0.458964766349,-0.0037793715988,0.154738879559,0.00113760304233,0.930932179457,0.364377442643,0.0243528661213
0.0601104311645,0.00656686862931,-0.0705661177635,-2.56580471992,0.0331625938416,2.61814546585,-0.784942746162,0.0679650008678,4.68561722755e-09,-0.00240942416713,-0.000229455006775,-0.000207254954148,2.46355266427e-05,-7.44362332625e-05,0.00027593728737,0.458964347509,-0.00377814904182,0.154738614161,0.0011375061411,0.930933097054,0.364375066238,0.0243533504544
0.0601095594466,0.00656629214063,-0.0705674216151,-2.56580376625,0.0331618748605,2.61814665794,-0.784929454327,0.0679650008678,-0.000355084834155,0.000338967191055,-0.00110359163955,-0.000345160457073,-3.13071359415e-05,0.00142557127401,0.000559849024285,0.458965167613,-0.0037791833901,0.154739351725,0.00113805268135,0.930935775044,0.364368142651,0.0243545454578
0.0601088032126,0.00656474987045,-0.0705667436123,-2.5658018589,0.0331618152559,2.61815237999,-0.784914076328,0.0679650008678,7.04999038135e-05,-0.000283418397885,4.30870059063e-05,0.0001320616866,-1.54078497872e-05,-1.78772970685e-05,0.000240466499235,0.458967610869,-0.00377927040141,0.154741331915,0.00113961755061,0.930938488047,0.364360922579,0.0243587874579
0.0601070821285,0.00656547164544,-0.0705697163939,-2.56580519676,0.0331624522805,2.61815190315,-0.784904778004,0.0679650008678,-0.000117091731227,-0.000378590833861,8.9611079602e-05,0.000166549158166,3.36309021804e-05,-0.000133590569021,-0.00063145312015,0.458965715558,-0.00378139333815,0.15473970598,0.00113858740982,0.930941188992,0.364354161567,0.0243567422022
0.0601059384644,0.00656607467681,-0.0705712661147,-2.56580543518,0.033160880208,2.61815428734,-0.784897565842,0.0679650008678,-0.00192194036208,-0.000137640745379,7.21185497241e-05,-0.000826868053991,-2.42178612098e-05,2.60558990703e-05,-0.000451124913525,0.458965989973,-0.00378271251697,0.154739573325,0.00113925341424,0.93094274066,0.364350158928,0.0243572799842
0.0601085945964,0.00656770868227,-0.0705709010363,-2.56580591202,0.0331626422703,2.61815643311,-0.784886300564,0.0679650008678,0.000458001683,0.000940641213674,-0.000225669515203,9.45517240325e-05,-9.17616634979e-05,0.0010268233018,0.000568755785935,0.458965937815,-0.00378130338242,0.154738857512,0.00113874496652,0.930944519621,0.364345603713,0.0243574503514
0.0601105690002,0.00656462041661,-0.0705671831965,-2.56580162048,0.0331628583372,2.61816239357,-0.784865438938,0.0679656565189,0.00017805652169,0.000278079591226,0.00346995750442,-7.07621511538e-05,-5.06772012159e-05,0.000131131193484,-0.000553708116058,0.458969906296,-0.00377872696798,0.154742461188,0.00114082861301,0.930947172431,0.364338402413,0.024363679209
0.0601102560759,0.00656526489183,-0.070568561554,-2.56580448151,0.0331625156105,2.61816263199,-0.784858107567,0.0679656565189,0.00123513862491,0.00163403211627,-6.5709631599e-05,0.00033984077163,1.72551499418e-05,8.84579712874e-05,0.000427290913649,0.458968423594,-0.00377951119601,0.154741118281,0.00114025976608,0.930948804157,0.364334338884,0.0243621230892
0.0601094253361,0.0065647540614,-0.0705687999725,-2.56580710411,0.0331624634564,2.61816453934,-0.78485172987,0.0679656565189,0.000538833846804,0.00246840552427,0.000532563659362,0.000246474228334,0.000653335999232,-6.62102611386e-05,0.000595306803007,0.458967624857,-0.00378000432931,0.154740556947,0.00114017809075,0.930950161486,0.364330877655,0.0243620215589
0.0601099282503,0.00656553078443,-0.0705668106675,-2.56580662727,0.0331623628736,2.61816692352,-0.784839391708,0.0679656565189,3.44610180036e-06,0.00165772379842,-0.00047114372137,-0.000249419594184,3.03806282318e-05,-5.30379547854e-05,6.06195244472e-05,0.45896832205,-0.00377860609426,0.154740596968,0.00114047088226,0.930951612929,0.364327104569,0.0243629692668
0.0601077377796,0.00656597130001,-0.0705705806613,-2.56580352783,0.0331627763808,2.61817216873,-0.784810185432,0.0679656565189,-0.000420981552452,0.00356376939453,-0.000627090339549,-0.000324936117977,-7.39506431273e-05,0.000126339815324,0.000870055810083,0.458970596868,-0.00378201860208,0.154741896976,0.00114153026848,0.930958705988,0.364308750245,0.0243663463344
0.0601092092693,0.0065668146126,-0.0705680400133,-2.56580758095,0.0331629738212,2.61817336082,-0.784798800945,0.0679656565189,-0.000546433206182,1.2001021787e-05,-2.62510238827e-05,0.000203191157198,0.000134296526085,-8.08624390629e-05,0.00119637919124,0.458968918012,-0.00377984429341,0.15474029837,0.00114076080976,0.930959733594,0.364306220484,0.024364943915
0.0601088255644,0.00656548514962,-0.0705703124404,-2.56580424309,0.0331618823111,2.61817669868,-0.784782111645,0.0679656565189,-0.000321392406477,7.05407946953e-05,0.000453015178209,0.000229183788178,2.06747102993e-07,1.31073884404e-05,-0.000190409933566,0.458971507253,-0.00378113788874,0.154742483423,0.00114235489973,0.930963002424,0.364297621012,0.0243685484339
0.0601121261716,0.00656319502741,-0.0705639868975,-2.56580305099,0.03316064924,2.6181871891,-0.784720182419,0.0664126425982,-0.00019243422139,-0.000384715531254,5.85407942708e-05,-0.000618700636551,0.000154933630256,8.70247640705e-06,0.00464701559395,0.458974788212,-0.0037768391313,0.15474500319,0.00114443244947,0.930972202564,0.364273676431,0.0243749189191
0.0601079948246,0.00656703254208,-0.0705699548125,-2.56580376625,0.0331626981497,2.61819148064,-0.784696578979,0.0664126425982,-8.98669532035e-05,0.000425756035838,-0.000131545733893,-3.79876873922e-05,-0.000146661608596,-0.000137199705932,0.00499105965719,0.45897463784,-0.00378149350385,0.154743400568,0.00114393015428,0.930978672253,0.364257141904,0.0243749357055
0.060106318444,0.00656787538901,-0.070572681725,-2.56580448151,0.0331640355289,2.61819386482,-0.784679114819,0.0664126425982,-0.00162437534891,7.09185405867e-05,0.000265239708824,0.000211899241549,-8.8937311375e-05,8.24229500722e-05,0.0025850366801,0.458974631497,-0.00378350241536,0.154742981498,0.00114367271107,0.930982857807,0.364246411594,0.0243754345286
0.0601058527827,0.00656565325335,-0.070573836565,-2.56580471992,0.0331633239985,2.61819624901,-0.784665584564,0.0664126425982,0.000145315090776,-0.000452648615465,2.8136997571e-05,0.000148846651427,9.84070647974e-05,-3.05887951981e-05,0.00272020674311,0.458975413726,-0.0037842698888,0.154744142971,0.00114447576928,0.930985462195,0.364239620392,0.0243774071282
0.0601136796176,0.00656706700101,-0.0705661922693,-2.56580328941,0.0331635065377,2.61820530891,-0.784641265869,0.0664126425982,-0.000370332883904,-0.000147897517309,-0.000559977779631,0.000413112924434,-2.44318343903e-05,-2.99342991639e-05,0.000234375431319,0.458977870257,-0.00377726647685,0.154744916508,0.00114578544056,0.930987019415,0.364235355606,0.024381596897
0.0601128675044,0.00656525604427,-0.0705666318536,-2.5658018589,0.033162869513,2.61820578575,-0.784632384777,0.0664126425982,-0.000214991116081,-0.000620804203209,-0.000210941943806,-3.4024976685e-06,-2.08614146686e-05,-0.000178247879376,0.00026061211247,0.458978995491,-0.00377785512641,0.154746327799,0.00114648778301,0.930988723039,0.364230886247,0.0243832796672
0.0601075328887,0.00656436011195,-0.070571243763,-2.56580471992,0.0331637822092,2.61820793152,-0.784623324871,0.0664126425982,0.00019701468409,-8.44062742544e-05,-0.000171999578015,8.84615146788e-05,-0.00085357419448,7.9663377619e-06,-0.000707889150362,0.458978166705,-0.00378239287261,0.154745878333,0.00114632650011,0.930992329404,0.364221657273,0.0243834489713
0.0601083524525,0.00656324112788,-0.0705711767077,-2.56580138206,0.0331628099084,2.61821532249,-0.784598648548,0.0664126425982,-0.000184037824511,9.15766213438e-05,-0.0023604859598,-0.000127786188386,-5.18706219736e-05,3.57602111762e-05,0.000309885683237,0.458981601373,-0.00378209634413,0.154748363394,0.0011485220395,0.930996390984,0.364210907949,0.0243888312069
0.0601083114743,0.00656472705305,-0.0705702900887,-2.56580495834,0.0331632979214,2.61821579933,-0.784589707851,0.0664126425982,0.000220302914386,-0.00305700814351,-0.000120521275676,0.000251939345617,-1.71506610513e-06,-0.000104988612293,0.000638169236481,0.4589796775,-0.00378169378295,0.154746390668,0.00114748126086,0.930997997768,0.364206943928,0.0243867406302
0.0601096004248,0.0065659028478,-0.070567779243,-2.56580543518,0.0331621356308,2.61821627617,-0.784587264061,0.0609360411763,5.85202942602e-05,-0.000408353749663,-0.00237601483241,0.000546287221368,-9.39617821132e-05,0.000393345748307,0.000236895139096,0.458979347889,-0.00378000039793,0.154745719188,0.0011475010583,0.930997588129,0.364208036022,0.0243860681548
0.0601101219654,0.00656742276624,-0.0705713927746,-2.56580424309,0.0331630893052,2.61822128296,-0.7845723629,0.0609360411763,0.000316141842632,0.00353088486008,-0.0012065297924,4.72109604743e-05,-0.00454395264387,6.14423042862e-05,0.000505447853357,0.458980729871,-0.00378146410093,0.154745960904,0.00114813046361,0.931000969745,0.364199240947,0.0243882903895
0.0601072385907,0.00656510284171,-0.0705697610974,-2.56580328941,0.0331627503037,2.61822295189,-0.784567058086,0.0609360411763,-0.00175663968548,0.000315334822517,0.00082051102072,-1.22916708278e-05,0.000696365372278,7.4381045124e-05,-0.000383135076845,0.45898196623,-0.00378204449219,0.154747543167,0.00114902606134,0.931002056667,0.364196306939,0.0243905702735
0.0601111464202,0.00656625488773,-0.0705684795976,-2.56580281258,0.0331631675363,2.61822628975,-0.784563064575,0.0609360411763,-0.000469026621431,-0.000244498776738,-0.000217273816816,-0.000175099063199,0.00026091421023,-1.26137902043e-05,-0.000608219881542,0.458982732796,-0.00377969525831,0.154747520858,0.00114938971055,0.931001880985,0.364196671131,0.0243918209325
0.0601107701659,0.00656478572637,-0.0705688595772,-2.56580138206,0.0331631228328,2.61822867393,-0.784554898739,0.0609360411763,-3.43329884345e-05,-0.00112062005792,-0.000465060991701,-0.00010288861813,1.94035474124e-05,-8.9704975835e-05,0.00179836270399,0.458984209016,-0.0037800593993,0.154748962683,0.0011502814947,0.931003441839,0.364192513926,0.0243942743662
0.0601087249815,0.00656661996618,-0.0705718696117,-2.56580495834,0.033163394779,2.61823391914,-0.784543097019,0.0609360411763,-7.93455692474e-05,-0.0023974836804,-0.00144774641376,0.00020103470888,4.70820486953e-06,0.000580480147619,0.00146236445289,0.458983223831,-0.00378242808689,0.154747297874,0.00115024188583,0.93100657193,0.364184518993,0.0243941750739
0.0601085424423,0.00656627863646,-0.0705715119839,-2.56580209732,0.0331636406481,2.61823797226,-0.784538209438,0.0609360411763,9.8944074125e-05,-0.000192957624677,-0.000163383083418,-0.000243315662374,0.00364828924648,-0.000154714012751,0.000994388596155,0.458985567467,-0.00378239008931,0.154748922247,0.00115151814059,0.931007391873,0.364182192867,0.0243975483738
0.0601122304797,0.00656420504674,-0.0705686658621,-2.56580448151,0.0331637635827,2.61824083328,-0.784530818462,0.0609360411763,0.000313135533361,0.000738399627153,-0.00378658017144,-0.000205472504604,-0.00019877673185,0.0003453810059,0.000627877248917,0.458985397842,-0.00377937798323,0.154749258633,0.00115175536658,0.931007545067,0.364181719101,0.0243987631826
0.0601118355989,0.00656690495089,-0.0705668181181,-2.56580758095,0.0331629402936,2.61824202538,-0.784528613091,0.0609360411763,-0.000179748720257,0.00101232342422,-0.000568544724956,-0.000171695894096,4.15994691139e-05,8.71702795848e-05,8.56125407154e-05,0.458983591639,-0.00377909737287,0.154746841202,0.00115110789723,0.931007814927,0.364181191834,0.0243963664294
0.0601095966995,0.00656421901658,-0.0705710873008,-2.56580209732,0.0331636928022,2.61824584007,-0.784524142742,0.0531735830009,6.58741118968e-05,-0.000897895952221,-9.89371255855e-05,0.000439174415078,9.49981840677e-05,-1.65651238149e-06,0.000541031942703,0.458987627459,-0.00378176526038,0.154750635519,0.00115320505019,0.931009595844,0.364176245083,0.0244021467378
0.060107011348,0.00656534684822,-0.0705734714866,-2.56580448151,0.0331631489098,2.61824965477,-0.784518659115,0.0531735830009,1.99380137929e-05,0.000490622303914,-0.000279064028291,-0.000238660388277,5.44420145161e-05,0.0006298328517,-0.000312798016239,0.458987048815,-0.00378410515582,0.154749599923,0.00115348029338,0.931011424158,0.36417156684,0.0244021958236
0.0601080916822,0.00656685279682,-0.070571936667,-2.56580734253,0.0331632606685,2.6182513237,-0.784517347813,0.0531735830009,0.00014340384223,-0.000222240443691,0.000251917314017,0.000396945310058,5.64421097806e-05,0.00012460158905,0.000134697475005,0.458986204876,-0.0037824000983,0.154748444434,0.00115322918262,0.931011114604,0.364172392869,0.0244016905588
0.0601105540991,0.00656542927027,-0.0705691799521,-2.56580543518,0.0331630930305,2.61825370789,-0.784514188766,0.0531735830009,-0.000165513847605,0.000380527169909,5.36723673576e-05,-0.000323198590195,0.00061520881718,5.3393527196e-05,-0.000632681942079,0.458987462121,-0.00378054264259,0.154749600935,0.00115394982685,0.931010779172,0.364173121711,0.0244035770451
0.0601114369929,0.00656609702855,-0.0705677643418,-2.56579732895,0.0331645160913,2.61828041077,-0.784499108791,0.0531735830009,0.000360457343049,-0.00062902586069,0.00135331647471,0.000592851894908,0.00213268492371,0.00249386159703,-0.000520018744282,0.458997084112,-0.00377975194923,0.154754945007,0.00116014569932,0.931012991957,0.364166384024,0.0244194041925
0.0601130351424,0.00656585581601,-0.0705658867955,-2.56579685211,0.033163651824,2.61830568314,-0.784495294094,0.0531735830009,-0.000231090438319,-0.00104139768519,0.000510983052664,0.000221803755267,9.21421378735e-05,0.00238112709485,-0.000144870224176,0.459003306372,-0.00377867873307,0.154757939735,0.00116597919905,0.931012771207,0.364166052597,0.0244324817143
0.0601126477122,0.00656479038298,-0.0705676302314,-2.56580448151,0.0331640839577,2.61849069595,-0.784491479397,0.0531735830009,-0.000386308936868,-0.00196183263324,0.000126301601995,0.000574464094825,0.00413664756343,0.0123441303149,-0.000169665087014,0.459036011739,-0.00378092492398,0.154772071257,0.00119868865489,0.931012169528,0.364162451302,0.0245073883452
0.0601089298725,0.00656283320859,-0.0705721154809,-2.56578159332,0.0331642366946,2.61858177185,-0.784487247467,0.0531735830009,-6.89532535034e-05,3.19335013046e-05,-0.000495562097058,0.00112689682283,0.000132268498419,0.00297441449948,0.000215465624933,0.459070052314,-0.0037859555797,0.154791846002,0.001223880004,0.931013384657,0.364155293246,0.0245662734932
0.060113184154,0.00656600482762,-0.0705662965775,-2.56579875946,0.0331635028124,2.61861228943,-0.784484267235,0.0531735830009,3.69719673472e-05,8.25178576633e-05,9.23646657611e-05,-0.000712136446964,0.000929360452574,0.000116871276987,4.11894288845e-05,0.459067596928,-0.00378160072171,0.154786952473,0.00122628398701,0.931011953177,0.364158644429,0.0245707273268
0.0601122528315,0.00656656874344,-0.0705659985542,-2.56580233574,0.0331630632281,2.61861658096,-0.784483551979,0.0531735830009,0.000235469793552,-0.000364626699593,-0.00376678933389,0.000390336383134,-4.80377530039e-05,0.000242091278778,-0.000163801101735,0.459066648755,-0.00378193654588,0.154785774948,0.00122649035674,0.931012143173,0.364158158255,0.0245707233809
0.0601116716862,0.00656452123076,-0.0705658197403,-2.56578826904,0.0331637524068,2.61863827705,-0.784481346607,0.0531735830009,-0.000571226119064,-0.000153281958774,0.000400859804358,1.09178238006e-07,7.50970284571e-05,0.000203352799872,-0.000771955470555,0.459078609844,-0.00378236221609,0.15479410697,0.00123358605266,0.93101232653,0.364156484036,0.0245882275594
0.060111630708,0.00656519178301,-0.0705691874027,-2.56579351425,0.0331628918648,2.61865472794,-0.784478545189,0.0531735830009,0.000187578698387,2.86657195829e-05,0.00079686351819,0.00028820411535,-0.00395034020767,0.00226244935766,-0.000271870783763,0.459079416168,-0.00378410407641,0.154793447391,0.00123601655896,0.931013247836,0.364153803278,0.0245929229551
0.0601127371192,0.00656460272148,-0.0705669894814,-2.5657916069,0.0331632494926,2.61866259575,-0.784477472305,0.0531735830009,7.53334606998e-05,0.000217234963202,7.33648630558e-05,0.000280787615338,-1.72798754647e-05,1.56120895554e-05,0.000482540897792,0.459082162853,-0.00378265419387,0.154795202191,0.00123789087278,0.931012793755,0.364154633004,0.0245977323637
0.0601143874228,0.00656587816775,-0.0705659016967,-2.56579089165,0.0331628620625,2.6186709404,-0.784476876259,0.044410366565,-0.000101940975583,0.000260078930296,-0.000855708669405,0.000212994447793,-0.0055902544409,-0.000186046789167,0.000274340854958,0.459084088671,-0.00378150895835,0.154795703064,0.00123954565975,0.931012274689,0.364155717204,0.0246012442372
0.0601097233593,0.00656490260735,-0.070571295917,-2.56578826904,0.0331638418138,2.6187016964,-0.784473121166,0.044410366565,-0.000141788535984,-0.00275168451481,-0.000181553827133,0.000428569386713,6.90596425557e-05,0.00137241452467,0.00589267211035,0.459092117131,-0.00378640894722,0.154800147501,0.00124619671566,0.93101461442,0.364148640936,0.0246171021869
0.0601189434528,0.00656620273367,-0.0705648809671,-2.5657851696,0.0331627242267,2.61871290207,-0.784473955631,0.044410366565,0.000412066787248,-0.000341177685186,-0.00291814748198,-2.47451134783e-06,-2.2704458388e-05,0.000734920729883,5.64302245039e-05,0.459095876556,-0.00377940136659,0.154801808956,0.00124888255073,0.931011319031,0.364156661042,0.0246229574299
0.0601235367358,0.00656675361097,-0.0705568417907,-2.56578707695,0.0331627838314,2.61871647835,-0.784472346306,0.044410366565,-0.000270367367193,0.000442882854259,0.0029611333739,-0.000148270642967,-4.92625622428e-06,0.000107695348561,0.00241188611835,0.459095651323,-0.00377362253204,0.154801191079,0.00124894180911,0.931009318867,0.364161739635,0.0246234725002
0.0601066090167,0.00656389631331,-0.0705743953586,-2.56578564644,0.0331640392542,2.61873054504,-0.784469604492,0.044410366565,0.000142442368087,-0.000440009520389,0.00233950186521,0.000322067266097,-0.000142306438647,-0.00018817561795,0.000803280272521,0.45909975521,-0.00378954802398,0.154804418433,0.00125260687018,0.931016107386,0.364143792608,0.0246320269788
0.0601187497377,0.00656449701637,-0.0705647245049,-2.56578326225,0.0331629067659,2.61873960495,-0.784468114376,0.044410366565,0.000358479621354,0.00200090045109,0.000101279030787,7.75191001594e-05,-0.000303612585412,0.000557006744202,-0.00118454813492,0.459102848861,-0.0037796690089,0.154805921487,0.00125472600911,0.931012128304,0.364153628414,0.0246369074928
0.0601191110909,0.00656985165551,-0.0705631375313,-2.56578278542,0.0331628248096,2.61874938011,-0.784466743469,0.044410366565,4.5062522986e-05,0.00299638626166,0.000869088282343,-0.000140137170092,-1.86127581401e-05,0.000108123065729,-2.77964099951e-05,0.459104629801,-0.00377870671707,0.154804971278,0.00125614253905,0.931011919223,0.364153973075,0.0246396418188
0.0601169839501,0.00657205330208,-0.0705666542053,-2.56578397751,0.0331627354026,2.61875700951,-0.784464716911,0.044410366565,0.00237779109739,-0.000257636711467,-0.00173253158573,-0.000370919122361,0.00447346596047,0.000390171218896,0.000135232330649,0.459104870626,-0.00378162393038,0.154803898403,0.00125696175976,0.931013335446,0.364150261898,0.0246409357312
0.0601057633758,0.00656540133059,-0.0705755278468,-2.56578040123,0.0331642739475,2.6187684536,-0.784462094307,0.044410366565,0.000214085419429,4.1193816287e-05,0.000155913890922,5.15334977536e-05,-9.11566603463e-05,0.000160608353326,-0.000492563820444,0.459110200165,-0.00379086918258,0.154809409128,0.00126081656249,0.931017476925,0.364138969711,0.0246511343336
0.0601134113967,0.00656158104539,-0.0705692842603,-2.56578278542,0.0331636629999,2.61877369881,-0.78446149826,0.044410366565,0.000412721885368,0.00194415077567,0.000659724813886,0.00184055266436,-1.84830639682e-06,-0.000270247546723,0.00026323099155,0.459110879179,-0.00378450376449,0.154810778436,0.00126195557341,0.931014897058,0.364145354064,0.0246542029233
0.0601141341031,0.00656232656911,-0.0705690383911,-2.56578326225,0.0331639759243,2.61877632141,-0.784460365772,0.044410366565,-4.5861419494e-05,-0.000937167322263,-0.000173498192453,-9.23714978853e-05,0.000165015371749,2.85296282527e-05,0.000197768356884,0.459111077735,-0.0037840801322,0.154810515507,0.0012621747026,0.931014965994,0.364145132453,0.0246548616946
0.0601082257926,0.00657610408962,-0.0705725699663,-2.56578302383,0.0331641733646,2.61878418922,-0.784455597401,0.044410366565,3.45274347637e-05,-3.5913206375e-05,0.00137115910184,-0.000129284220748,0.000150692314492,0.000179277223651,0.000234997758525,0.459110397038,-0.00378863858094,0.154805065902,0.00126169543727,0.931017677083,0.364138393797,0.0246520370795
0.0601145327091,0.00657542701811,-0.0705690011382,-2.565782547,0.0331631451845,2.61878633499,-0.784453868866,0.044410366565,0.000418352283305,-0.000617349985987,0.00367724313401,0.0013008058304,-0.00432160450146,5.81482781854e-05,0.000424788158853,0.459111248902,-0.00378415086199,0.15480576361,0.00126240977748,0.931016001908,0.364142577261,0.0246534708157
0.0601199641824,0.00657219300047,-0.0705632120371,-2.56578111649,0.0331627726555,2.61878871918,-0.784452736378,0.0444077402353,0.000491387909278,-0.000932676484808,0.000134113201057,6.90058222972e-05,6.50609654258e-05,3.24015600199e-05,0.00261348951608,0.459113083174,-0.00377900118363,0.154808013038,0.00126357009274,0.931014028687,0.364147396818,0.0246567405289
0.0601211078465,0.00657019950449,-0.0705641284585,-2.56578159332,0.0331631936133,2.61879324913,-0.784453034401,0.0444077402353,-0.000365603802493,0.000644194253255,0.0006593997241,-0.000250488839811,6.69636283419e-05,-0.000102206635347,-0.000238677152083,0.459114175408,-0.00377890531501,0.154809191978,0.00126459638703,0.931013937621,0.364147433536,0.0246595840509
0.0601120777428,0.00657106935978,-0.0705716386437,-2.56578826904,0.033163651824,2.61879348755,-0.784449636936,0.0444077402353,-0.000753315864131,-0.000623404805083,-0.000170257990249,-4.47125348728e-05,-0.000100910190667,0.000538612483069,0.000403469399316,0.459110715103,-0.00378647112171,0.154806318274,0.00126333828277,0.931017729403,0.364137971466,0.0246562149411
0.0601133219898,0.00657240394503,-0.070569165051,-2.56578850746,0.0331631824374,2.61879825592,-0.78444314003,0.0444077402353,0.000131435575895,-0.000625257322099,0.000266028306214,0.000418549374444,-0.000134908026666,8.45890244818e-05,-0.000284758600174,0.459111396039,-0.00378483740209,0.154806084222,0.00126402081797,0.931018138904,0.364136827231,0.0246576158817
0.0601144321263,0.00656877364963,-0.0705723613501,-2.56578350067,0.0331637896597,2.61880159378,-0.7844389081,0.0444077402353,-0.000300334737403,-0.000215495500015,-4.90122147312e-05,0.000577059283387,0.000159639967023,-5.47519921383e-05,-0.000259017135249,0.459115222197,-0.00378579811538,0.154809950591,0.00126602059555,0.931019245115,0.364133610258,0.0246632516848
0.0601129643619,0.00657001696527,-0.0705717429519,-2.56578683853,0.0331642255187,2.6188044548,-0.784438788891,0.0444077402353,9.6628893516e-05,-0.000380355922971,-0.000123426754726,-0.000226879899856,0.000126913379063,-5.16938926012e-05,-0.000423726101872,0.459113964337,-0.00378619805738,0.154808411389,0.00126568038534,0.931019518894,0.364132964549,0.0246624675389
0.0601126775146,0.00657407054678,-0.0705709680915,-2.5657916069,0.0331638753414,2.61880540848,-0.784434378147,0.040149256587,-0.000166409779922,-0.000394745846279,0.000498418579809,-0.00019229244208,8.22044094093e-05,-1.61952484632e-05,-0.000571735086851,0.459111095445,-0.00378601378078,0.154804861703,0.00126437749867,0.93102027952,0.364131277097,0.024658734701
0.060114108026,0.00657082581893,-0.0705689787865,-2.56579017639,0.0331638678908,2.61881017685,-0.784433066845,0.040149256587,0.000248484546319,-0.000502448354382,0.000491510378197,0.000138714385685,-7.16067370377e-05,5.11568323418e-05,-0.000294030178338,0.459113414219,-0.00378446146626,0.154807350713,0.00126603465395,0.931019793185,0.364132217157,0.024663129714
0.0601066723466,0.0065711196512,-0.0705794095993,-2.5657889843,0.0331635698676,2.61881327629,-0.784433364868,0.040149256587,-0.000747839920223,0.000154827765073,-0.000960065692198,0.000211027712794,3.73193470296e-05,0.00010225285223,0.000934304029215,0.459114547815,-0.00379272609275,0.154807968391,0.00126716008755,0.931022906212,0.364124133078,0.0246649104792
0.0600982867181,0.0065689352341,-0.0706228911877,-2.56577157974,0.0331647098064,2.61882448196,-0.784428298473,0.040149256587,3.72441063519e-05,1.54405333888e-05,-0.00224892189726,-0.000120092547149,-3.14678618452e-05,-0.00487789092585,-3.99248674512e-05,0.459125737976,-0.00381672739975,0.154816596091,0.00127343067209,0.931033099865,0.36409707841,0.0246791918272
0.0601044036448,0.00656956341118,-0.0706420242786,-2.56577086449,0.0331637188792,2.61882519722,-0.784428596497,0.040149256587,-0.00094031880144,0.00121655652765,-0.00227914121933,0.000237068539718,1.89055481314e-05,-0.00019947020337,-0.000117980976938,0.459126083074,-0.00382277583185,0.154816649741,0.00127407214288,0.931035254959,0.364091549517,0.0246794249846
0.0601095147431,0.00656869215891,-0.0706553533673,-2.56573939323,0.0331631489098,2.61882472038,-0.784428477287,0.040149256587,-0.000325576809701,0.000570277799852,-0.00261271302588,0.00640393421054,-0.00388817349449,-0.000102367150248,0.00143137935083,0.459141638875,-0.00382672747506,0.154828793014,0.00128027189192,0.931036287352,0.364087890423,0.0246941343033
0.0601045489311,0.00654294062406,-0.0706846117973,-2.56561899185,0.033163562417,2.61881828308,-0.784427583218,0.040149256587,0.000177821653779,-0.00391689687967,-0.0011591546936,0.00941132195294,-0.000129722320708,-0.00131660257466,0.000523572263774,0.459204135424,-0.00384272949469,0.154885070411,0.00130585578048,0.931040986437,0.364071361297,0.0247592383225
0.060100980103,0.00597929907963,-0.0707342922688,-2.56517553329,0.0331621356308,2.61870408058,-0.784428119659,0.040149256587,-7.25745339878e-05,-0.0215773601085,-3.65612613678e-05,0.0130413100123,-7.65284712543e-05,-0.0103840064257,-6.06122921454e-05,0.459498325947,-0.00386237552302,0.155298431831,0.00145373348283,0.931038850748,0.364047380271,0.0251803427131
0.0601030886173,0.00539126386866,-0.0707441195846,-2.56496071815,0.0331603139639,2.6184592247,-0.784424066544,0.040149256587,0.00025903529604,-0.0404203608632,0.000108486230602,0.0195010527968,-0.000325054134009,-0.0148137267679,0.00030279616476,0.459655934927,-0.00385837067879,0.155624605285,0.00153582967472,0.931032897577,0.364043709587,0.0254472405351
0.0600930266082,-0.000252684461884,-0.0707896649837,-2.56261587143,0.0331578403711,2.61398291588,-0.784424364567,0.0385542139411,0.000462817173684,-0.140044227242,-0.000736436631996,0.0681024119258,-0.000230916775763,-0.152182340622,-0.000161623305758,0.46084069154,-0.00379177687572,0.158658164751,0.00194803347718,0.930982264608,0.364046902306,0.0271676417271
0.060093164444,-0.00304850260727,-0.070828191936,-2.56127119064,0.0331546254456,2.6107172966,-0.784423828125,0.0385542139411,0.00079265300883,-0.183939605951,-0.00280513637699,0.0795668065548,5.85990092077e-05,-0.212443441153,0.000222184826271,0.461284955874,-0.00375474341828,0.160130052597,0.00197749759926,0.930966317793,0.364053154353,0.0276243575022
0.0601038113236,-0.00616509933025,-0.0708782896399,-2.56002736092,0.033155631274,2.60714459419,-0.784424126148,0.0385542139411,0.000608739792369,-0.233113870025,-0.00373585708439,0.0863473638892,-9.08003057702e-05,-0.274023652077,-8.7348940724e-05,0.461689660135,-0.00370777287714,0.161797549619,0.00197377978325,0.930949655771,0.364061274377,0.0280754482929
0.0600917376578,-0.0115899583325,-0.0709319710732,-2.55792164803,0.0331504307687,2.60067868233,-0.784420788288,0.0385542139411,-0.000629100308288,-0.282376110554,-0.00037024388439,0.112458668649,-0.000759154732805,-0.356996417046,0.000140612813993,0.462226686055,-0.00363273989638,0.164344506743,0.00191190144075,0.930925964415,0.364078193635,0.0286402167512
0.0600816868246,-0.0286210756749,-0.0712043866515,-2.55112171173,0.0331473201513,2.57786941528,-0.784415364265,0.0385542139411,0.000510224199388,-0.441680163145,-0.00821220502257,0.170850783587,-0.00424105767161,-0.61252695322,0.000581322354265,0.463428233301,-0.00340155542856,0.172562905687,0.00124510548393,0.93088197582,0.364129514919,0.0294430442698
0.0600694566965,-0.0359573625028,-0.071336761117,-2.54807257652,0.0331497341394,2.56767010689,-0.784414410591,0.0385542139411,0.000196130742552,-0.475765675306,-0.00653626909479,0.207151755691,0.00193397491239,-0.660464763641,-4.69376391266e-05,0.463865862324,-0.00331183246834,0.1761311315,0.000904862307236,0.93086759833,0.364148561181,0.0296735686738
0.0600006096065,-0.0467089153826,-0.0715424641967,-2.54321670532,0.0331457927823,2.55291628838,-0.784411370754,0.0385542139411,-0.00883202906698,-0.550121486187,-0.011232053861,0.246508091688,0.000574802339543,-0.74562728405,0.000481345516164,0.464666910044,-0.0032171528517,0.181553572194,0.000520233671231,0.930846960314,0.364152253843,0.0302787307565
0.0596667528152,-0.0752858892083,-0.071999900043,-2.52927064896,0.03313825652,2.51322126389,-0.784404873848,0.0385542139411,-0.0130533017218,-0.668353319168,-0.00828192196786,0.343584567308,0.00143498729449,-0.919976830482,0.000133257286507,0.466779299385,-0.00301672578602,0.196465283301,-0.000398152677113,0.93077867355,0.364166762611,0.0321476442748
0.0594649761915,-0.0862887576222,-0.0721403434873,-2.52367377281,0.0331404022872,2.49794960022,-0.784402489662,0.0385542139411,-0.0151385655627,-0.697940647602,-0.00283167674206,0.3683129251,0.000263383524725,-0.974651575089,0.00189203547779,0.467537839836,-0.00296735632328,0.202351680096,-0.00070440987998,0.93075048197,0.364164141051,0.0329776011269
0.0592184215784,-0.0992272049189,-0.0722727403045,-2.51649332047,0.0331402160227,2.47991991043,-0.784402251244,0.0385542139411,-0.0162366870791,-0.737397491932,-0.00509310653433,0.423451900482,-0.00103895261418,-1.01764643192,-0.000302819971694,0.468563636096,-0.00290957271032,0.209551624959,-0.000962323638195,0.930699390345,0.364181687293,0.0341967406239
0.0587826296687,-0.114990316331,-0.0724361464381,-2.50714111328,0.0331389009953,2.45788383484,-0.784401476383,0.0385542139411,-0.021787924692,-0.757360875607,-0.00522382697091,0.465570479631,0.000979402335361,-1.06963336468,-0.000122471843497,0.469877846731,-0.00291859152027,0.218628143013,-0.00117041416264,0.930646359872,0.364149888758,0.0359282784114
0.0580525062978,-0.138475626707,-0.0725853070617,-2.4925096035,0.0331400409341,2.4249727726,-0.784394145012,0.0386651903391,-0.0316384583712,-0.819500923157,-0.00788603257388,0.535732150078,-0.00844825990498,-1.10527396202,-0.00062423927011,0.471716237783,-0.00295555188525,0.232562605874,-0.00135092015788,0.930540624323,0.364125891016,0.0387899042897
0.0575968399644,-0.15126490593,-0.0726775303483,-2.48373675346,0.0331397876143,2.4069211483,-0.784391760826,0.0386651903391,-0.0334215462208,-0.79787003994,-0.00479335896671,0.555508315563,0.00312326708809,-1.14416337013,-1.72301952261e-05,0.47275178675,-0.00302187231244,0.240045645289,-0.00131699350607,0.930478494356,0.364093453104,0.0405461978569
0.0570329874754,-0.164945617318,-0.0727527216077,-2.47403407097,0.0331415086985,2.38733506203,-0.784388065338,0.0386651903391,-0.034652762115,-0.794639229774,-0.00269688852131,0.56898099184,-5.0427934184e-05,-1.16912734509,0.000224168848945,0.473882138715,-0.00313934404413,0.24925457434,-0.00126693387217,0.930404434477,0.364039197218,0.0426783991934
0.0563078299165,-0.180458396673,-0.0727863386273,-2.4626686573,0.0331431776285,2.36512804031,-0.784385859966,0.0386651903391,-0.0425300896168,-0.818200588226,-0.000143323064549,0.616816043854,-0.0076608536765,-1.15112578869,0.00017092404596,0.474941311125,-0.00329085816012,0.258803931556,-0.00114374845303,0.930320060081,0.363977226691,0.0449872847074
0.0549524836242,-0.204735159874,-0.072847276926,-2.44379019737,0.0331471264362,2.33000779152,-0.784381091595,0.0386651903391,-0.0507331453264,-0.811102569103,-0.00235625146888,0.637559890747,-0.000444765610155,-1.18765354156,0.00174338230863,0.476586677392,-0.00370095538271,0.27573665877,-0.000757684488507,0.930178102729,0.363781876959,0.0493038416232
0.0540167801082,-0.219354525208,-0.0728895068169,-2.43187475204,0.0331426002085,2.30894565582,-0.78438103199,0.0386651903391,-0.0498317889869,-0.782638728619,-0.00248312577605,0.668020367622,0.00153888575733,-1.17044007778,0.000105871789856,0.477437283008,-0.00402763511366,0.285939641187,-0.000395694909399,0.930089893223,0.363617751666,0.0521034001633
0.0531648360193,-0.232013314962,-0.0729353651404,-2.42139101028,0.0331445559859,2.29042458534,-0.784377455711,0.0386651903391,-0.0578222163022,-0.812705397606,-0.00480309408158,0.643257200718,-0.000344972708263,-1.17150127888,0.000457796180854,0.477946083427,-0.00432189301794,0.294311365394,-0.000115563468667,0.930019670992,0.363471246348,0.0543327799292
0.0520280003548,-0.24615444243,-0.0730026438832,-2.40951657295,0.0331451408565,2.26988720894,-0.784375905991,0.0386651903391,-0.0669259503484,-0.775457620621,-0.00512642459944,0.670859873295,0.00087147107115,-1.13262176514,0.000646780186798,0.478415647248,-0.00480845930766,0.304969024909,0.00030238865531,0.929953126706,0.363191575579,0.0572622895411
0.0505130179226,-0.261246234179,-0.0730102583766,-2.39632201195,0.0331439785659,2.24764323235,-0.784373641014,0.0386651903391,-0.0847319886088,-0.738017559052,-0.000842189299874,0.627402245998,-0.0014914420899,-1.09448337555,-0.000128957995912,0.478728126738,-0.00547181329877,0.31654874145,0.000816474519532,0.929909275792,0.362783570588,0.0604661290416
0.048041742295,-0.28194630146,-0.0731182768941,-2.37866282463,0.033143363893,2.21780610085,-0.784371972084,0.0386651903391,-0.0959091112018,-0.713133394718,-0.00903906486928,0.617730081081,0.00101129640825,-1.039290905,0.000179762893822,0.478660329322,-0.00655439586226,0.331088015166,0.00154421709864,0.929914880106,0.362049054001,0.06462517569
0.0442880243063,-0.306754797697,-0.0735036879778,-2.35789513588,0.0331419333816,2.18220543861,-0.784371137619,0.0386651903391,-0.111000142992,-0.669697523117,-0.0174806006253,0.55239212513,0.000873532146215,-0.93625921011,-0.000446611782536,0.477747947877,-0.00841193039953,0.349045516307,0.00243182380541,0.930082492416,0.360675511466,0.0696693522778
0.0422616973519,-0.318335145712,-0.0739325657487,-2.34843873978,0.0331417545676,2.16587233543,-0.784369528294,0.0386658459902,-0.116828158498,-0.629222750664,-0.0283661354333,0.500387609005,-1.46307047544e-05,-0.889162361622,9.72768102656e-05,0.477032487123,-0.00953135041704,0.357355222339,0.00285119614218,0.930240624058,0.35979535062,0.0720524627557
0.03630489856,-0.344874233007,-0.0759358853102,-2.32850003242,0.0331270880997,2.12904858589,-0.784374654293,0.0386658459902,-0.145527034998,-0.526252508163,-0.0575338155031,0.369721382856,-0.000960594625212,-0.718854546547,-8.55444377521e-05,0.474423551196,-0.0130801400383,0.37525026069,0.00354399808153,0.930993003647,0.356816882586,0.0769491989849
0.0332207418978,-0.354731023312,-0.077202193439,-2.32167315483,0.0330992750823,2.11534428596,-0.784380555153,0.0386658459902,-0.162229806185,-0.474567830563,-0.0695315524936,0.317467004061,-0.00130328792147,-0.649728417397,0.00293913274072,0.472960054592,-0.0151656921954,0.382058770694,0.00367599176941,0.931553793326,0.354979936001,0.0786337201536
0.0306080020964,-0.361867159605,-0.0784260109067,-2.31709504128,0.0329710841179,2.10532569885,-0.784392952919,0.0386658459902,-0.166378155351,-0.432207673788,-0.0846708789468,0.258045256138,-0.0147658474743,-0.609091818333,-0.00258382712491,0.471749238467,-0.0169293009946,0.386531834743,0.00369337461955,0.932062627272,0.353430521245,0.0795769072296
0.0268383529037,-0.370477259159,-0.0807065069675,-2.31193971634,0.0323792174459,2.09310030937,-0.784435629845,0.0386658459902,-0.177773460746,-0.353137642145,-0.123022526503,0.212173074484,-0.0417691729963,-0.514504432678,-0.00428276602179,0.47005592902,-0.0197604253062,0.391702438115,0.003710478363,0.93289543519,0.351026589904,0.0804529192651
0.0214242935181,-0.379072278738,-0.0845410302281,-2.30687594414,0.0304528586566,2.07974004745,-0.784798681736,0.0386658459902,-0.206835836172,-0.260242581367,-0.156853541732,0.153630271554,-0.0953368023038,-0.436144143343,-0.025304177776,0.467938266186,-0.0242331681817,0.396638396694,0.00388723715463,0.934160171751,0.347607484414,0.0806145108883
0.0170655604452,-0.383729875088,-0.0879280641675,-2.30433320999,0.0277394242585,2.07137393951,-0.785541951656,0.0386658459902,-0.225421532989,-0.200400203466,-0.179472744465,0.10877340287,-0.173739984632,-0.389674514532,-0.0419685766101,0.466374998218,-0.0281300393742,0.399036218361,0.00429335664584,0.935145826231,0.34511562279,0.0798690012691
0.0132512990385,-0.386320620775,-0.0910229831934,-2.3028523922,0.024671304971,2.06546735764,-0.786290705204,0.0386658459902,-0.251205593348,-0.123023852706,-0.209844022989,0.077697224915,-0.198504641652,-0.345196336508,-0.0512912832201,0.465150823369,-0.0316999339102,0.400220626558,0.0048122778109,0.936011504947,0.343025073112,0.0786962736815
0.00863665435463,-0.387955367565,-0.0951293483377,-2.30165505409,0.0210219472647,2.05973982811,-0.787363469601,0.0386671610177,-0.269624143839,-0.0745079517365,-0.246047869325,0.0540422573686,-0.216369196773,-0.30772870779,-0.0742058232427,0.463853962767,-0.0361747993301,0.40081602536,0.00528287194532,0.937123903729,0.340362009981,0.0769713074571
-0.000347720313584,-0.388593226671,-0.103546179831,-2.30086016655,0.0132113881409,2.05140757561,-0.791654169559,0.0386671610177,-0.297947973013,0.0262221992016,-0.293304741383,0.00639548152685,-0.29169511795,-0.245351076126,-0.198934420943,0.4615280944,-0.0451594276254,0.400333938654,0.00631552465271,0.938987268447,0.336086894438,0.0728602972614
-0.00537158222869,-0.387780845165,-0.108577638865,-2.30088376999,0.00824366137385,2.04761457443,-0.795204222202,0.0386671610177,-0.329879254103,0.0733936131001,-0.340429633856,-0.00647115055472,-0.33393406868,-0.228595674038,-0.237453445792,0.460261959483,-0.0504034828113,0.399378894112,0.00698940638614,0.939873113366,0.334183735417,0.0700778826722
-0.0106485029683,-0.386022388935,-0.114239640534,-2.30096340179,0.00262654712424,2.04405879974,-0.799318492413,0.0386671610177,-0.338388234377,0.136352166533,-0.36695381999,-0.00281095341779,-0.370429694653,-0.226365312934,-0.272530794144,0.458972914575,-0.0561357403246,0.397972556167,0.00771374930611,0.940785960962,0.33225940735,0.0668278358436
-0.01703934744,-0.383221417665,-0.121332153678,-2.30095648766,-0.00420096376911,2.04010367393,-0.804788768291,0.0386671610177,-0.369379252195,0.164902582765,-0.413854569197,-0.002857997315,-0.389602810144,-0.203985109925,-0.331012159586,0.457440196348,-0.0631807115263,0.396051046826,0.00851653998207,0.941839127313,0.330040636441,0.0627670677509
-0.0362416990101,-0.371178209782,-0.144139930606,-2.30094242096,-0.0252769105136,2.03270602226,-0.824179589748,0.0386671610177,-0.416502177715,0.291392832994,-0.50918596983,-0.00181836925913,-0.444519042969,-0.107826322317,-0.457495838404,0.453249855229,-0.0846267505841,0.389252612076,0.0110196434702,0.944546889272,0.324217649693,0.0509181376393
-0.0449277944863,-0.364999353886,-0.155226528645,-2.30092692375,-0.0341118872166,2.03061079979,-0.833695828915,0.0386671610177,-0.436295628548,0.341111451387,-0.574638307095,0.00384855642915,-0.445868819952,-0.0932816639543,-0.492725789547,0.451106111448,-0.0952286742924,0.385735955336,0.0118470323305,0.945823916684,0.321255534957,0.0455153534665
-0.0515217073262,-0.359456181526,-0.164065495133,-2.30065584183,-0.0406821742654,2.0292596817,-0.841316342354,0.0386678166687,-0.442760914564,0.392347693443,-0.597871720791,0.0288141686469,-0.438828915358,-0.0829454660416,-0.519950449467,0.449512213062,-0.103077244638,0.382941213404,0.0122337439374,0.946747586053,0.319063488025,0.0414467623567
-0.0582539476454,-0.35365408659,-0.172999590635,-2.30010008812,-0.0469602197409,2.02807235718,-0.849170982838,0.0386678166687,-0.477651059628,0.402559816837,-0.63784134388,0.0469026863575,-0.427220880985,-0.0769328400493,-0.555825829506,0.447743710969,-0.111607957675,0.379972708714,0.0125268677657,0.947738253348,0.316625724666,0.0371945008556
-0.0749249532819,-0.338883936405,-0.196177765727,-2.29758739471,-0.0614831857383,2.02569937706,-0.869152903557,0.0386678166687,-0.48898884654,0.481678128242,-0.696269154549,0.113706834614,-0.393614798784,-0.06464587152,-0.609792768955,0.443394332604,-0.131478539606,0.373539579211,0.0127990232351,0.950047766512,0.310568541438,0.0281532788022
-0.083891749382,-0.329945355654,-0.208931222558,-2.29517865181,-0.0683787018061,2.02459597588,-0.880108177662,0.0386678166687,-0.499632626772,0.499462336302,-0.738664984703,0.157590568066,-0.364864826202,-0.0637580156326,-0.624940395355,0.441143427005,-0.141638195851,0.370324509791,0.0126116509647,0.95125112012,0.307242056985,0.0237606994633
-0.0924532562494,-0.321359306574,-0.221838757396,-2.29224276543,-0.074598453939,2.02354669571,-0.890836596489,0.0386678166687,-0.507685065269,0.504550993443,-0.767242014408,0.190782919526,-0.352300912142,-0.0635659322143,-0.643838763237,0.438692923984,-0.15218884343,0.367318510376,0.0123078453536,0.9525231021,0.303582960059,0.0196377941838
-0.100663684309,-0.312922090292,-0.234377413988,-2.28885555267,-0.080052383244,2.02269887924,-0.901366710663,0.0386678166687,-0.506740987301,0.546685099602,-0.790268838406,0.229742646217,-0.315667927265,-0.0472519546747,-0.6800557971,0.436282074923,-0.162342563183,0.364616793455,0.0119359588174,0.953736349145,0.299981784612,0.0159824214989
-0.111329808831,-0.301021665335,-0.251080155373,-2.28309512138,-0.0864361524582,2.02199077606,-0.916221737862,0.0386697873473,-0.519252359867,0.572502493858,-0.810581684113,0.311004310846,-0.288641571999,-0.0319681689143,-0.726518929005,0.433214924768,-0.175764823635,0.361337895778,0.0114394972456,0.955213641215,0.295466687424,0.0116393235307
-0.126600638032,-0.283919066191,-0.27632817626,-2.27260017395,-0.0943506807089,2.02127933502,-0.938878059387,0.0386697873473,-0.491358965635,0.580262601376,-0.848892569542,0.394741028547,-0.229158163071,-0.013312170282,-0.771758437157,0.428389478859,-0.196295842685,0.357509365599,0.0108537770001,0.957411137064,0.288451054275,0.00648838423483
-0.135538324714,-0.273211479187,-0.291606426239,-2.26509451866,-0.098210670054,2.02112770081,-0.953048527241,0.0386697873473,-0.494006931782,0.597283899784,-0.870064735413,0.430095016956,-0.194917112589,-0.0109529662877,-0.784596741199,0.425740617497,-0.207567225608,0.355750948835,0.010598805741,0.958561670192,0.28465767466,0.00414701132191
-0.143340542912,-0.263726562262,-0.305431813002,-2.25772738457,-0.100949540734,2.02105855942,-0.96589666605,0.0386697873473,-0.488705664873,0.58013600111,-0.876969993114,0.492924690247,-0.157692670822,-0.00293475924991,-0.81902307272,0.42317908381,-0.218219545167,0.354415130869,0.0103763655438,0.959655625502,0.280976433011,0.00237807992206
-0.152065008879,-0.253236532211,-0.321475446224,-2.2482881546,-0.103754356503,2.02095031738,-0.980971753597,0.0386697873473,-0.453197747469,0.579685270786,-0.864310204983,0.542280316353,-0.161225229502,0.00140052323695,-0.844022154808,0.420177999063,-0.230527139148,0.353498241138,0.0104490021142,0.960870153246,0.27680057486,0.000899113725537
-0.173093304038,-0.225904360414,-0.363212138414,-2.21991205215,-0.10951526463,2.02086043358,-1.02376711369,0.0386697873473,-0.417407691479,0.542423605919,-0.877190291882,0.644737780094,-0.102574512362,0.00210653594695,-0.914722263813,0.41219827212,-0.262322894638,0.35285331625,0.0119189325546,0.963381119728,0.267866000885,-0.00160076885539
-0.180169403553,-0.216274470091,-0.37861469388,-2.20844101906,-0.111306466162,2.02085828781,-1.04015851021,0.0386697873473,-0.369506806135,0.523361444473,-0.850897967815,0.657010674477,-0.0824198499322,0.00644675921649,-0.912268638611,0.409091990718,-0.273917030749,0.353285865383,0.0129998473472,0.96414888787,0.265035117058,-0.00207663339385
-0.186433002353,-0.207724586129,-0.392734110355,-2.19701552391,-0.112458281219,2.0208761692,-1.05575835705,0.0386697873473,-0.357604980469,0.48765668273,-0.83727401495,0.676049411297,-0.0614478737116,-0.00321370572783,-0.926417171955,0.406275476829,-0.284563122283,0.354240590146,0.0143335857869,0.964777848755,0.26266726056,-0.00203980224017
-0.195148169994,-0.195546731353,-0.41380238533,-2.17973303795,-0.113952130079,2.02090907097,-1.08022785187,0.0386697873473,-0.325356304646,0.440887719393,-0.801113426685,0.679245173931,-0.0548281744123,0.0048920889385,-0.945710003376,0.401814551226,-0.300204958323,0.356050827861,0.0166652286691,0.96548158171,0.259931366836,-0.00180824759291
-0.19972871244,-0.189294144511,-0.42559325695,-2.16950368881,-0.114724487066,2.02088356018,-1.0945417881,0.0386697873473,-0.287822902203,0.403904914856,-0.765496373177,0.673919320107,-0.0427639447153,0.000890996190719,-0.950315058231,0.399259131211,-0.308929754826,0.357589906341,0.0183748380425,0.965757858818,0.258789951396,-0.00137266463952
-0.202763840556,-0.185011610389,-0.433722645044,-2.16226768494,-0.115162111819,2.02092289925,-1.10495436192,0.0386697873473,-0.275907814503,0.357195496559,-0.712092220783,0.636700451374,-0.0342078208923,0.00395298330113,-0.931937873363,0.395969453089,-0.319692356837,0.359709588304,0.0206907960098,0.965941733205,0.257930042667,-0.000742829092189
-0.216877475381,-0.168127715588,-0.469656646252,-2.12812829018,-0.117289163172,2.02101278305,-1.15558707714,0.0386710986495,-0.219186887145,0.211451634765,-0.55294406414,0.560218155384,-0.0340179093182,0.00895388890058,-0.862688243389,0.388693904499,-0.34207375059,0.365983383272,0.0271926347733,0.965794792579,0.257874366679,0.00133788784569
-0.220802292228,-0.164331540465,-0.479683279991,-2.11774945259,-0.117766916752,2.02107214928,-1.17193436623,0.0386710986495,-0.19701269269,0.178456813097,-0.493089437485,0.523094177246,-0.0168770123273,0.00171887734905,-0.850352883339,0.386070073203,-0.349773675337,0.368859078135,0.0299720341099,0.965475752968,0.258751275548,0.00245452595967
-0.225043058395,-0.161058112979,-0.490279883146,-2.10623168945,-0.118113517761,2.02107191086,-1.1913536787,0.0386710986495,-0.171933099627,0.100558228791,-0.41235896945,0.44626480341,-0.0170187689364,0.000789130455814,-0.777773320675,0.383176750781,-0.358006874019,0.37251206867,0.0333201047965,0.964865514504,0.260592299136,0.00399535493119
-0.23117826879,-0.158729568124,-0.503283441067,-2.09022164345,-0.118364460766,2.02113056183,-1.21983551979,0.0386710986495,-0.138423651457,0.0208407249302,-0.248249441385,0.360757619143,-0.00876145996153,0.000294247816782,-0.677185535431,0.379327295305,-0.36879195287,0.378714307635,0.0387297300231,0.963588876376,0.264478059802,0.00691671247986
-0.233318343759,-0.15874274075,-0.507170915604,-2.08421826363,-0.118486300111,2.02112030983,-1.23160111904,0.0386710986495,-0.108354642987,-0.0063220881857,-0.189938664436,0.311286181211,-0.00587227288634,1.8445061869e-05,-0.647562861443,0.378170561025,-0.372372325851,0.381494163255,0.0410789301911,0.962788366649,0.266988167703,0.00827046178066
-0.23492026329,-0.159019529819,-0.510140359402,-2.07930183411,-0.118514090776,2.02114033699,-1.24232375622,0.0386710986495,-0.0773973613977,-0.0256854165345,-0.151872217655,0.272355437279,0.000135254376801,0.000708796083927,-0.617371916771,0.377286312335,-0.375295113197,0.384048399517,0.0432134149678,0.96187485255,0.269885598343,0.00954632381221
-0.23673735559,-0.161366343498,-0.514580368996,-2.06823825836,-0.1185888201,2.02115750313,-1.26901972294,0.038672413677,-0.00430528167635,-0.0573685653508,-0.0308503769338,0.170874431729,-0.00113522727042,0.000163828910445,-0.498833984137,0.376748157308,-0.379834439947,0.390245471268,0.0482771023504,0.959004120368,0.278958365938,0.0127533630568
-0.236665412784,-0.162488207221,-0.514808297157,-2.0653488636,-0.118604548275,2.02115702629,-1.27778124809,0.038672413677,0.0146673871204,-0.0656665042043,0.00941210798919,0.142405360937,2.53608614003e-05,-0.000383158127079,-0.468430221081,0.377108422422,-0.38048325694,0.392179587669,0.0498385085347,0.957751325124,0.282912119647,0.0137569814622
-0.23617452383,-0.163552731276,-0.514548301697,-2.06317520142,-0.11860626936,2.02116632462,-1.28563225269,0.038672413677,0.0445793271065,-0.0601414404809,0.0216909199953,0.109252646565,0.000130402957438,0.000690507527906,-0.457374542952,0.377734467488,-0.380632849615,0.393843220025,0.0511778452943,0.956410127319,0.287135361162,0.0146212370832
-0.235076680779,-0.164701610804,-0.513946473598,-2.06137728691,-0.118606179953,2.02117586136,-1.29411494732,0.038672413677,0.0702515691519,-0.0528432652354,0.0388582125306,0.0797869488597,-8.0501769844e-05,-0.000338197278325,-0.440547168255,0.378568533089,-0.380346902012,0.395206298025,0.0522681066244,0.954978220862,0.291632961521,0.0153250824956
-0.232430532575,-0.166214555502,-0.512343883514,-2.05982065201,-0.118608087301,2.02117300034,-1.30638492107,0.038672413677,0.0960389524698,-0.0446036830544,0.065920740366,0.0281820185483,-3.96275390813e-05,6.49099310976e-05,-0.387950509787,0.380339873791,-0.379024137864,0.396747765954,0.0534981126253,0.952495463811,0.299385576225,0.0160816604537
-0.230732351542,-0.166863083839,-0.510999679565,-2.05950188637,-0.118608042598,2.02117061615,-1.31260085106,0.038672413677,0.105941854417,-0.029328815639,0.0928597003222,0.00574272219092,5.89169394516e-05,-1.22654018924e-05,-0.35050547123,0.3815718785,-0.377840328063,0.397288514563,0.0539410868698,0.951000998476,0.304009366455,0.0163022955756
-0.229039475322,-0.167238175869,-0.509422957897,-2.05947971344,-0.118607766926,2.02116298676,-1.31810677052,0.038672413677,0.102649383247,-0.0130423391238,0.104183956981,-0.00576113071293,-9.08558213268e-05,-0.000520443194546,-0.336003690958,0.382707211027,-0.376654257731,0.397521438312,0.0541551119209,0.949733791026,0.307906241301,0.0163308387063
-0.226892828941,-0.167301148176,-0.507044255733,-2.05959916115,-0.118610732257,2.02112722397,-1.32483804226,0.038672413677,0.107656031847,0.0058209002018,0.123395100236,-0.00432992912829,-7.55444416427e-05,-0.00258688046597,-0.343223959208,0.384371153926,-0.374877034395,0.397597352861,0.0542928275249,0.947982502698,0.313241914843,0.0161544399911
-0.22058314085,-0.166403219104,-0.500721216202,-2.06023955345,-0.118609465659,2.02110075951,-1.3398989439,0.0386737249792,0.139202639461,0.0260840393603,0.135592266917,-0.0181306451559,4.41291049356e-05,-0.000484759773826,-0.267344504595,0.389002274851,-0.36984066574,0.397153170208,0.0542374032983,0.943562360926,0.326366867611,0.0152657308911
-0.218460783362,-0.165947809815,-0.498749941587,-2.06055593491,-0.118609808385,2.02109146118,-1.34374678135,0.0386737249792,0.146345049143,0.0302985478193,0.128510892391,-0.0235357265919,6.0247923102e-05,0.000430719053838,-0.245122656226,0.390480546875,-0.368177520332,0.396874195965,0.0541139576943,0.942264893602,0.330130544549,0.0149121799529
-0.21540056169,-0.165133491158,-0.496133506298,-2.06102800369,-0.118607722223,2.02108573914,-1.34877181053,0.0386737249792,0.146241933107,0.039012670517,0.128263086081,-0.0203944537789,-0.000824174727313,-0.000123965088278,-0.235257163644,0.392525760749,-0.365858695905,0.396380603333,0.0538706448793,0.940495674764,0.335201179698,0.0143529853155
-0.20439901948,-0.161020472646,-0.485654562712,-2.06324601173,-0.1186080724,2.021058321,-1.36666476727,0.038672413677,0.123928055167,0.0525354854763,0.11583391577,-0.031376644969,-4.595858627e-05,9.70663095359e-05,-0.193636000156,0.400115818197,-0.356911058664,0.393829499177,0.0525033474188,0.933764354492,0.35382289402,0.0116999206468
-0.202179417014,-0.160008683801,-0.483282834291,-2.06386423111,-0.118607245386,2.02104759216,-1.37030148506,0.038672413677,0.101345792413,0.0548890978098,0.122581653297,-0.0336754098535,-6.17683326709e-05,-8.77067141118e-05,-0.169162869453,0.401690561128,-0.3549509444,0.393152315539,0.0521146274672,0.932312904509,0.357707715315,0.0110410044185
