imanlab/tactile_prediction_flat_dataset/test/data_sample_2021-11-25-13-38-56/robot_state.csv
position_panda_joint1,position_panda_joint2,position_panda_joint3,position_panda_joint4,position_panda_joint5,position_panda_joint6,position_panda_joint7,position_panda_finger,velocity_panda_joint1,velocity_panda_joint2,velocity_panda_joint3,velocity_panda_joint4,velocity_panda_joint5,velocity_panda_joint6,velocity_panda_joint7,ee_state_position_x,ee_state_position_y,ee_state_position_z,ee_state_orientation_x,ee_state_orientation_y,ee_state_orientation_z,ee_state_orientation_w
-0.0789060816169,0.0139122083783,0.0670541152358,-2.4941599369,0.033294249326,2.51464295387,-0.817226290703,0.0397913716733,2.41775069298e-05,0.00157830724493,-0.000111904111691,-0.018473116681,-6.92896282999e-05,-2.16703338083e-05,0.0260012075305,0.470160542265,-0.00351774013973,0.168794604813,-0.00807922726413,0.925146536646,0.379456752175,0.00715435047499
-0.078908495605,0.0139145953581,0.0670500099659,-2.49439191818,0.0332935042679,2.51464176178,-0.816868901253,0.0397913716733,0.000305405410472,-0.000275720696663,0.000465650256956,-0.0139557784423,3.20584440487e-05,0.00389789626934,0.0239189621061,0.470048737957,-0.00351941234262,0.168704472997,-0.00812630618026,0.925216231448,0.379287837673,0.00704443677998
-0.0789033472538,0.0139177897945,0.0670537948608,-2.49463105202,0.0332934297621,2.51464319229,-0.816373348236,0.0397913716733,0.000144620731589,0.000147037731949,0.000800919253379,-0.0106228943914,3.35493459716e-05,0.000301085907267,0.0333953499794,0.469933982538,-0.00351373852009,0.168611487798,-0.00817514227744,0.92530926964,0.37906183696,0.00693152296228
-0.0788938701153,0.0139169450849,0.0670585036278,-2.49505925179,0.0332931689918,2.51465249062,-0.815053343773,0.0397920310497,0.000123366058688,-9.7758800166e-07,3.15295028486e-06,-0.00118606491014,6.95952439855e-06,0.00257946900092,0.0168449059129,0.469730982505,-0.00350459988864,0.168448731266,-0.00826097806849,0.925557895223,0.378456072601,0.00673347068185
-0.0789034962654,0.0139176417142,0.0670592114329,-2.49511694908,0.0332942530513,2.51465702057,-0.814816474915,0.0397920310497,-0.00361583358608,0.000125442020362,-0.000697340117767,-0.00235837535001,-1.69204486156e-05,0.000233911589021,0.0176047962159,0.469704171098,-0.00350841477752,0.168426721189,-0.0082724920146,0.925604746887,0.378341674947,0.00670783855105
-0.0789086669683,0.0139186056331,0.0670534297824,-2.49516034126,0.0332949124277,2.51466012001,-0.814559042454,0.0397920310497,0.000192742809304,0.000477304216474,0.000278332794551,-0.0031859066803,-0.000107423664303,-0.000146293226862,0.00770998653024,0.469683850608,-0.00351329155924,0.168409932484,-0.00828147974975,0.925655748946,0.378217032343,0.00668787453547
-0.0789068862796,0.0139152295887,0.0670536905527,-2.49520111084,0.0332945808768,2.51466727257,-0.814230263233,0.0397920310497,0.00041820036131,-0.00366323324852,-0.000188153557247,-0.000756975961849,-1.61080133694e-05,6.81308010826e-05,0.0247991476208,0.469666428106,-0.00351222217088,0.168396544705,-0.00828818948161,0.925717597719,0.378065752566,0.00667245151054
-0.0789000615478,0.0139102833346,0.0670551881194,-2.49523425102,0.0332941710949,2.51468896866,-0.8127835989,0.0397920310497,-1.33498042487e-05,0.000248015945544,0.000528589764144,-0.000109044340206,2.35012430494e-05,-0.000114492853754,0.0260173901916,0.469656117254,-0.00350842091132,0.168388110304,-0.00829378402291,0.9259892946,0.377399842252,0.00666319626433
-0.0789012163877,0.0139096723869,0.0670571029186,-2.49524140358,0.0332935526967,2.51469182968,-0.81236320734,0.0397920310497,-0.000294221536024,-0.000110514622065,-4.52477906947e-05,0.000730246771127,-0.00284547870979,-6.95450144121e-05,0.0247844923288,0.469653414759,-0.00350808923725,0.168385913806,-0.0082956924476,0.926068388484,0.377205739498,0.00665966291197
-0.0789065361023,0.0139075350016,0.0670543462038,-2.49524497986,0.0332937091589,2.51469540596,-0.811945021152,0.0397920310497,0.000346548855305,3.79566918127e-05,-5.60859079997e-05,0.000436966365669,-3.82283942599e-05,-2.27328473557e-05,0.0229258202016,0.469652803223,-0.00351192252711,0.168385863838,-0.00829655920916,0.926148792603,0.377008275379,0.0066589071569
-0.0789176821709,0.0139134703204,0.0670532435179,-2.49525141716,0.0332939662039,2.51470637321,-0.81079608202,0.0397920310497,0.000140011528856,0.000788314791862,-6.83294128976e-05,-0.000306913891109,0.000100251105323,-3.02237276628e-05,0.0322788879275,0.469651094578,-0.00351765993985,0.168381596625,-0.00830072266672,0.926367609219,0.376470290946,0.00665359393847
-0.0789180919528,0.013910622336,0.0670524612069,-2.49525880814,0.0332933068275,2.51470661163,-0.810281157494,0.0397920310497,3.8746015889e-06,0.00034652321483,-0.00323097757064,0.00019256354426,3.2265372738e-06,-4.02975456382e-05,0.0430887937546,0.469648064915,-0.00351825395123,0.168380121799,-0.00830299235049,0.926464645854,0.37623145276,0.0066493562022
-0.0789155215025,0.0139117008075,0.0670547708869,-2.49525952339,0.033294390887,2.51471209526,-0.809127628803,0.0397920310497,4.2215531721e-05,0.000392446498154,0.000161662785104,-0.000156469846843,-4.14973364968e-05,0.000155456509674,0.0714543834329,0.469648677168,-0.00351597600821,0.168379847259,-0.0083062491621,0.926668373943,0.375729364042,0.00664647571123
-0.0789143592119,0.0139096649364,0.0670553818345,-2.49527001381,0.0332943014801,2.5147190094,-0.805551886559,0.0397913716733,3.13522868964e-05,-0.000589808158111,-0.000376007374143,-0.000434459012467,-2.72461384156e-05,-2.53193175013e-05,0.0893076136708,0.46964558245,-0.00351513816505,0.168377388647,-0.00831840542173,0.92735064874,0.374042259285,0.00663071379578
-0.078921072185,0.0139098362997,0.0670545995235,-2.49527287483,0.0332939103246,2.51472187042,-0.804293334484,0.0397913716733,-0.000123175472254,0.000648820772767,0.000229711746215,-0.00271010119468,6.61225858494e-05,3.99272794311e-05,0.0767461806536,0.469644779906,-0.00351869232697,0.168376467434,-0.00832244373275,0.927587193969,0.37345526999,0.00662536905936
-0.0789247453213,0.0139090418816,0.0670523419976,-2.49527740479,0.0332936868072,2.51472306252,-0.802861630917,0.0397913716733,0.000278589781374,-0.000812424579635,0.000499462010339,0.00015473664098,-0.000103281141492,-0.000154829787789,0.0803506299853,0.469642977015,-0.00352149062882,0.168375210577,-0.00832753938126,0.927855379842,0.372788472421,0.00661820974101
-0.0789221823215,0.0139094246551,0.0670546889305,-2.49528217316,0.0332940258086,2.51472616196,-0.801280915737,0.0397913716733,-3.84926715924e-06,-0.000455352681456,0.000248131516855,-0.0021349915769,6.14548889644e-06,6.8404529884e-05,0.0756171420217,0.469641506749,-0.00351880806503,0.168373637022,-0.00833369305286,0.928176500477,0.371988220881,0.00661035037606
-0.0789147242904,0.0139099014923,0.0670558437705,-2.4952814579,0.0332937166095,2.51473116875,-0.799619913101,0.0397913716733,-0.000326501583913,-0.00039968432975,-6.65575498715e-05,0.000117513161968,-6.51073642075e-05,-1.0151194374e-06,0.091960310936,0.469642710664,-0.00351517800627,0.168373980684,-0.00833764579593,0.92845591269,0.371290265034,0.00660610537394
-0.0789162740111,0.0139135830104,0.0670545175672,-2.49528622627,0.0332936681807,2.51473236084,-0.797983825207,0.0397913716733,-0.00044935560436,0.000394383649109,0.000467272591777,-0.00183829199523,2.05208361876e-05,-1.37645865834e-05,0.07151915133,0.46964007021,-0.00351647005852,0.168370536436,-0.00834449842495,0.928759885881,0.370529265402,0.00659597526946
-0.0789220333099,0.0139108113945,0.0670554935932,-2.49528861046,0.0332940779626,2.51473736763,-0.796079874039,0.0397913716733,-0.000128725849208,-0.000588334281929,0.000453411048511,-0.000373987219064,-8.71598967933e-05,-8.31141296658e-05,0.0723840296268,0.469640459286,-0.00351876398603,0.168371369441,-0.00834970188715,0.929113146408,0.369642541214,0.00659052802907
-0.0789227709174,0.0139110228047,0.0670551359653,-2.49528980255,0.0332941673696,2.51474046707,-0.794946372509,0.0397920310497,0.000230015240959,-0.000553471792955,-4.97711116623e-05,-6.4688778366e-05,0.000115721777547,7.34781933716e-05,0.0694446787238,0.469640513856,-0.00351908248899,0.168371393784,-0.00835336626403,0.929347806822,0.369052157659,0.006586337352
-0.0789197012782,0.0139108197764,0.0670548975468,-2.49528837204,0.0332945175469,2.51474356651,-0.793668746948,0.0397920310497,-0.000310993258609,0.000668738619424,-0.000805383839179,-0.00094647007063,4.37566086475e-05,-0.000145498794154,0.0622852668166,0.469641929583,-0.00351749730087,0.168372225788,-0.00835617517613,0.929546121723,0.368552349139,0.00658388595811
-0.0789207294583,0.0139115871862,0.0670549720526,-2.49529099464,0.0332938432693,2.5147459507,-0.792601466179,0.0397920310497,7.4366464105e-05,-0.000210693702684,4.37528142356e-05,-7.17436196283e-05,-4.85624768771e-05,7.99535919214e-05,0.0579329319298,0.469641064744,-0.00351847505467,0.168370857966,-0.00835997691891,0.929754461796,0.368026460167,0.00657843884943
-0.0789209678769,0.0139085948467,0.0670560002327,-2.49530339241,0.0332935899496,2.51475310326,-0.790254175663,0.0397920310497,-0.000334876327543,-2.41847337747e-05,0.000373279064661,5.30348370376e-05,4.22728189733e-05,-0.000142717632116,0.0423501506448,0.469637175901,-0.00351815382936,0.168368151987,-0.00836787789728,0.930185605969,0.366935396307,0.00656747201727
-0.0789230838418,0.0139081533998,0.0670550391078,-2.49530696869,0.0332939364016,2.51475548744,-0.789295554161,0.0397920310497,0.000397047086153,-0.00033502234146,-0.000138369563501,-0.00112403160892,1.50786499944e-05,-1.15026386993e-05,0.0514744408429,0.469636044035,-0.00351958994667,0.168367202377,-0.00837120128607,0.930362000659,0.366487920051,0.00656314400559
-0.0789242163301,0.0139070004225,0.0670542046428,-2.49531149864,0.0332943089306,2.51476025581,-0.787885427475,0.0397920310497,-0.000358199729817,0.000151792788529,-0.000325317349052,0.000155795263709,-1.48247090692e-05,1.20307822726e-05,0.042049150914,0.469635096177,-0.00352053094472,0.168366433661,-0.00837555946439,0.930620594039,0.36583077193,0.00655789207487
-0.0789236500859,0.0139094013721,0.0670559182763,-2.49531388283,0.0332938879728,2.51476144791,-0.787032663822,0.0397920310497,-9.20768798096e-05,-0.000110781336844,-0.000476797780721,-0.000384246872272,-0.0001700707071,8.93755932339e-05,0.0575830005109,0.469633826726,-0.00351944714098,0.168364502912,-0.00837899389854,0.93077603051,0.3654351327,0.00655263013077
-0.0789254233241,0.0139115080237,0.0670554190874,-2.49531459808,0.0332941003144,2.51476335526,-0.786134421825,0.0397920310497,0.000218153567403,0.000588054477703,-6.56060656183e-05,-0.000801800284535,-8.17965628812e-05,-0.000174335669726,0.0700930580497,0.469633546814,-0.00352049130422,0.16836341231,-0.00838219583822,0.93094051632,0.365015904836,0.00654849360625
-0.0789318233728,0.0139108337462,0.0670549049973,-2.49531984329,0.0332944318652,2.51476573944,-0.785052895546,0.0397920310497,0.000119570599054,-0.000798540189862,-6.2186489231e-05,0.000235595842241,-5.9936017351e-05,0.000307500653435,0.0450795888901,0.469631639543,-0.00352372217813,0.168361933168,-0.00838616035052,0.931139090996,0.364509059556,0.00654299017267
-0.0789793729782,0.0139103895053,0.0670547783375,-2.49532294273,0.0332946740091,2.51477265358,-0.783430039883,0.0397920310497,-0.000801481073722,0.000869718089234,0.000140713033034,0.000122609373648,8.91123127076e-05,-1.88949034055e-05,0.0452893190086,0.469631567817,-0.00354615713081,0.168361571447,-0.00839047834583,0.931443275688,0.363731045981,0.00653834247843
-0.0790226086974,0.0139113785699,0.0670563876629,-2.49532485008,0.0332932583988,2.51477527618,-0.782638967037,0.0397920310497,-0.00270961923525,0.00030568416696,0.000392080924939,-3.65371670341e-05,0.000145045531099,4.27390586992e-05,0.0389760695398,0.469630912685,-0.00356578605417,0.168360610913,-0.00839260256822,0.931594440653,0.363343717356,0.00653491466792
-0.0790694057941,0.0139112053439,0.0670541450381,-2.49532914162,0.0332940742373,2.5147755146,-0.782043397427,0.0397920310497,-0.00183896662202,0.000424753030529,0.000273157667834,-0.000408001855249,9.93323264993e-05,-0.000134124798933,0.03707671538,0.46962876166,-0.00358875347535,0.168359070596,-0.00839531322692,0.93171162987,0.363043116521,0.00653090445044
-0.0791717991233,0.0139083499089,0.0670515447855,-2.49533486366,0.0332950763404,2.51478123665,-0.780452489853,0.0397920310497,0.000376751704607,0.000659222714603,0.000141692697071,0.000174717555637,6.35311371298e-05,0.00014224446204,0.0321905165911,0.469627358472,-0.00363807114292,0.168358728048,-0.00839972718354,0.932019294223,0.362252523024,0.00652602694026
-0.0791713446379,0.013907795772,0.0670502409339,-2.49533963203,0.0332943499088,2.51478242874,-0.779663205147,0.0397920310497,-0.000276773207588,-0.000592391355895,0.00034534331644,-0.000605365203228,-2.21858999794e-06,-0.000304924731608,0.0423512123525,0.469625418607,-0.00363850457836,0.168357267288,-0.00840262578686,0.932162245009,0.361884537279,0.00652121331616
-0.0791703164577,0.0139089869335,0.0670506954193,-2.49534273148,0.0332927815616,2.51478290558,-0.779003441334,0.0397920310497,-1.3825347196e-05,0.000172972650034,-3.63812650903e-05,7.48334059608e-05,8.11981408333e-06,-1.15460079542e-05,0.0327208228409,0.46962384321,-0.00363786716561,0.168355563832,-0.00840509970096,0.932281093791,0.361578278291,0.00651650301717
-0.0791713669896,0.0139093091711,0.0670514777303,-2.49534869194,0.0332935117185,2.51478457451,-0.778648972511,0.0397920310497,-0.000219100067625,-0.000439931609435,-0.000361901678843,-0.000581774336752,4.22265802626e-05,1.33910962177e-05,0.0139034735039,0.469621705639,-0.0036376676979,0.168353607903,-0.00840702933681,0.932342495633,0.361419931736,0.00651347248896
-0.0791743695736,0.013912152499,0.0670500397682,-2.49535989761,0.0332942120731,2.51478981972,-0.777980446815,0.0397920310497,-1.60653303283e-06,-0.000582069449592,0.00329723209143,-0.000177404290298,-0.000136077782372,-2.46754079853e-05,0.0129077685997,0.469616588854,-0.00363992265892,0.168348128253,-0.00841131060277,0.932467038768,0.361098519778,0.00650616362378
-0.0791660994291,0.0139101417735,0.0670549571514,-2.4953584671,0.0332931317389,2.51478981972,-0.777654826641,0.0397920310497,0.000135005888296,0.000438283052063,-0.000135059293825,-4.54945475212e-05,-2.5360734071e-05,-4.42595046479e-05,0.0173482634127,0.469617651169,-0.00363381529376,0.16834961869,-0.00841144771548,0.932523271898,0.360953271144,0.00650620103768
-0.0791674628854,0.0139111597091,0.0670541375875,-2.49536895752,0.0332938581705,2.51479029655,-0.77700394392,0.0397920310497,-0.000310875184368,0.00218370161019,-0.000194320527953,0.000222595917876,4.07601582992e-05,-3.27830457536e-05,0.0196108985692,0.469614777649,-0.00363350926766,0.168345774123,-0.0084148555732,0.932613377099,0.360720414311,0.00650088039005
-0.0791776254773,0.0139092635363,0.0670513734221,-2.49538254738,0.0332949385047,2.51479578018,-0.776325881481,0.0397920310497,-0.000155128233018,0.000182098519872,-0.000319737708196,-0.000118944728456,-6.07615656918e-05,0.000129747044411,0.0184607952833,0.469607499811,-0.00364074040027,0.168341345207,-0.00841929135621,0.932765964173,0.360325706225,0.00649282149269
-0.0791709274054,0.0139107620344,0.0670534223318,-2.49555373192,0.0332934856415,2.51480340958,-0.775419712067,0.0397920310497,-0.000179072478204,-0.00060632370878,0.000181311741471,-0.00716982455924,0.00018554435519,-6.29181085969e-05,0.00450829230249,0.469523361349,-0.00363558959656,0.168273105213,-0.00845378916009,0.932929804625,0.359901990125,0.00640860990964
-0.0791744291782,0.0139102926478,0.0670531988144,-2.49561214447,0.0332942120731,2.51480484009,-0.775296032429,0.0397920310497,-2.20175388677e-05,0.000797922140919,0.000222892849706,-0.00295322667807,-7.46940859244e-05,3.93208392779e-06,0.00203351769596,0.469499236328,-0.00363708290255,0.16825380705,-0.0084634989619,0.932951071385,0.359847040826,0.006385489872
-0.0791758820415,0.0139130745083,0.0670530945063,-2.49565196037,0.033294506371,2.51480507851,-0.775204777718,0.0397920310497,-7.55164219299e-05,0.000110451714136,-6.41578371869e-05,-0.00274911848828,-6.85151171638e-05,-6.55857074889e-05,0.0148760331795,0.469481335967,-0.00363745957859,0.168238572919,-0.00847117137995,0.932966520296,0.359807130206,0.00636710297959
-0.0791730880737,0.013910016045,0.0670507922769,-2.4957151413,0.0332942642272,2.51480507851,-0.775034189224,0.0397920310497,0.000458641297882,0.000610098300967,2.70036307484e-05,-0.00067476904951,-1.87727273442e-05,-0.00077237788355,0.00330142350867,0.469449937215,-0.00363695577786,0.168214549516,-0.00848333049184,0.932998678676,0.359723982183,0.00633679895623
-0.07917560637,0.0139085073024,0.0670514404774,-2.49577403069,0.0332942008972,2.51480674744,-0.774863064289,0.0397920310497,-0.000241140820435,-5.86460118939e-05,-2.79456435237e-05,-0.00141918216832,-8.23099617264e-05,2.40033568844e-05,0.00163337297272,0.46942230026,-0.00363750919565,0.168192875633,-0.00849411940271,0.933029951564,0.359643074084,0.00631017976189
-0.0791759192944,0.013911084272,0.0670530050993,-2.49579429626,0.0332935154438,2.51480984688,-0.774793863297,0.0397920310497,-0.000494567619171,0.000141198543133,-0.00077763403533,-0.0018654622836,9.92161076283e-05,-8.43670750328e-06,0.000973010377493,0.469412837555,-0.00363683065296,0.168184192328,-0.00849786714179,0.933042140894,0.359611527818,0.00630065984295
-0.0791730806231,0.013913162984,0.0670527145267,-2.49581217766,0.033293876797,2.51480960846,-0.77469342947,0.0397920310497,-5.02334878547e-05,0.000720239011571,-0.000191485465621,-0.00101375509985,2.49929489655e-05,0.000142442600918,0.00661303661764,0.469403877948,-0.00363547460403,0.168176357744,-0.00850210013863,0.93305984973,0.359565647993,0.0062909127574
-0.0791720747948,0.0139121739194,0.0670520737767,-2.49583649635,0.0332938507199,2.51481056213,-0.774558007717,0.0397920310497,-0.000133963825647,-0.000569409923628,0.000378167926101,-0.000833914149553,2.57326009887e-05,-0.00556467892602,0.00489288708195,0.469392586235,-0.00363517881052,0.168167602809,-0.00850662238149,0.933084193803,0.359502554802,0.00627992253148
-0.079177223146,0.0139068337157,0.0670511052012,-2.49588751793,0.0332946144044,2.5148127079,-0.774183154106,0.0397920310497,0.000349406822352,0.00178382080048,-8.46426792123e-06,9.57141965046e-05,9.21805403777e-05,2.55133163591e-05,0.0079930126667,0.469369440188,-0.00363778533704,0.168150778147,-0.00851585874259,0.933152901048,0.359324336518,0.00625813768489
-0.0791755020618,0.0139102581888,0.0670519396663,-2.49591350555,0.0332946591079,2.51481342316,-0.773842334747,0.0397920310497,-2.30322148127e-05,0.000141148266266,-8.02778668003e-05,-0.000124595724628,-3.44174732163e-05,-7.40685136407e-05,0.00676074484363,0.469356578376,-0.00363638370399,0.168139298846,-0.00852236225774,0.933213752796,0.359166368959,0.00624339869768
-0.0791732743382,0.0139077184722,0.0670529827476,-2.49593782425,0.0332944951952,2.51481556892,-0.773322582245,0.0397920310497,0.000338845915394,-0.000144389137859,0.000249260861892,0.000372748880181,-6.29984861007e-05,-4.28390994784e-05,0.0149720562622,0.469345811504,-0.00363476076148,0.168131377662,-0.00852748634919,0.933306514803,0.358925331205,0.00623199070041
-0.0791750177741,0.0139081478119,0.0670518949628,-2.49594163895,0.0332947783172,2.51481580734,-0.773213088512,0.0397920310497,0.000246657553362,-0.000298965926049,0.000197671382921,0.000436492962763,-2.21223526751e-05,-8.59955544001e-05,0.00193661043886,0.469343953396,-0.00363604916263,0.168129738675,-0.00852864046214,0.933326724208,0.358872788864,0.00622970857714
-0.0791739448905,0.0139095941558,0.0670533776283,-2.49594569206,0.0332946665585,2.51481723785,-0.773141562939,0.0397920310497,0.000336956611136,0.000157919042977,-5.83101154916e-06,-0.000310170726152,-0.000103238300653,-5.03656337969e-05,0.00220485730097,0.469342093228,-0.00363482372277,0.168127639228,-0.00852962977106,0.93333910023,0.358840615376,0.00622750675541
-0.0791753306985,0.0139132533222,0.0670521184802,-2.49595856667,0.0332944840193,2.5148191452,-0.772995233536,0.0397920310497,0.000106587147457,0.000156183668878,-0.000410862005083,-6.62827296765e-05,-3.72549220629e-05,5.37653977517e-05,0.00671726837754,0.469335722561,-0.00363597089342,0.168121170983,-0.00853281464054,0.933365849551,0.358771085535,0.00622011539696
-0.0791790410876,0.0139101771638,0.0670515447855,-2.49596357346,0.0332948714495,2.5148203373,-0.772825300694,0.0397920310497,0.000805901247077,-2.84058824036e-05,0.000167764388607,-9.14710908546e-05,-3.03732413158e-05,0.000158442824613,0.00212467391975,0.469334072049,-0.00363798225706,0.168120802459,-0.00853345891378,0.933397159994,0.35868962178,0.00621905992088
-0.0791734457016,0.0139103950933,0.0670518428087,-2.49597096443,0.0332941785455,2.5148203373,-0.772765517235,0.0397920310497,0.000726341677364,-0.000265875365585,-0.000135762005812,-0.000146331774886,4.96329012094e-05,5.99207887717e-05,0.00302642327733,0.46933051096,-0.0036352067161,0.168117872976,-0.00853489077588,0.933406747982,0.358664703855,0.00621517135729
-0.0791704803705,0.0139088993892,0.0670565217733,-2.49597454071,0.0332943201065,2.51482057571,-0.772730410099,0.0397920310497,0.000512083061039,-0.000183362470125,0.000206069889828,0.000130793865537,4.70992927148e-05,3.101557013e-05,0.00485745724291,0.469329122367,-0.00363160034831,0.168117228963,-0.00853538334034,0.933411699165,0.358651824503,0.00621414184074
-0.079172052443,0.013909144327,0.0670549347997,-2.49598121643,0.0332938916981,2.51482081413,-0.7726328969,0.0397920310497,-0.000587401969824,-8.73839089763e-05,-0.000247617601417,-0.000342272833223,-4.26787028118e-06,8.20134373498e-05,0.00411032699049,0.469325919299,-0.0036330690793,0.16811458108,-0.00853679047379,0.933429710424,0.358604973799,0.00621058437455
-0.079175837338,0.0139107191935,0.0670533180237,-2.49601006508,0.0332943126559,2.51482486725,-0.772469103336,0.0397920310497,0.000209858146263,8.73573808349e-05,0.000247575662797,0.000383105158107,5.86088899581e-05,-0.00423564296216,0.00277113425545,0.469312688382,-0.00363542709647,0.168103171101,-0.00854226083323,0.93346019469,0.358525707438,0.00619770126839
-0.0791746228933,0.0139089310542,0.0670535117388,-2.49602007866,0.0332949981093,2.51482844353,-0.772366166115,0.0397920310497,0.000338012032444,-0.000485140131786,0.000161147123436,-0.000358616671292,0.00448388233781,6.64351682644e-05,0.00281476788223,0.469308966521,-0.00363472516766,0.168100497734,-0.0085435320052,0.933478517911,0.358478011455,0.00619513099349
-0.079175285995,0.013909323141,0.0670535638928,-2.49602293968,0.0332946404815,2.51482892036,-0.772342026234,0.0397920310497,0.000407753075706,-9.24839405343e-05,-7.28999248167e-06,0.000172151674633,0.000130031257868,0.000127261169837,-4.61940871901e-05,0.469307630783,-0.00363501436013,0.168099262058,-0.00854402735284,0.933482913007,0.358466579253,0.00619370361784
-0.079177506268,0.0139102684334,0.0670525580645,-2.49602794647,0.0332943461835,2.51482701302,-0.772317945957,0.0397920310497,0.000356427917723,8.79918588907e-05,-0.00014939889661,0.000255923951045,0.000140784264659,9.93400026346e-05,-3.12266020046e-05,0.469304644648,-0.00363648445605,0.168096734198,-0.00854551137145,0.933487780903,0.35845393197,0.00618994997668
-0.0791804566979,0.0139101818204,0.0670516043901,-2.49603056908,0.0332930199802,2.5148293972,-0.772281229496,0.0397920310497,0.000447978585726,0.000510948942974,-1.10983364721e-05,6.78587239236e-05,-4.06766230299e-05,-1.86873512575e-05,0.00285001401789,0.469303904111,-0.00363840417831,0.168095981938,-0.00854524203325,0.933494881738,0.3584354523,0.00618957407294
-0.0791725292802,0.0139100607485,0.0670550018549,-2.49603819847,0.0332938693464,2.51483058929,-0.772231638432,0.0397920310497,9.90266053122e-05,-0.000624799460638,-0.00027426876477,-0.000194709340576,-3.12698430207e-05,2.55628274317e-05,-0.000257049978245,0.469300568231,-0.00363300006519,0.168093229546,-0.00854683191802,0.933501882587,0.358417234594,0.00618647738081
-0.0791720747948,0.0139097673818,0.067054875195,-2.49604582787,0.0332937128842,2.51483011246,-0.77221429348,0.0397920310497,0.000165011151694,-0.000137955445098,0.000488608668093,0.000439257506514,0.00100771931466,-0.00138263753615,0.00167889299337,0.469296853376,-0.00363280723509,0.168090406484,-0.00854828439047,0.933504930694,0.35840932529,0.00618275296681
-0.0791750177741,0.0139084458351,0.0670535713434,-2.49604582787,0.0332950018346,2.5148332119,-0.772193849087,0.0397920310497,1.53375549417e-05,-0.00461184186861,-0.000347589375451,-0.000334102573106,-0.000919823476579,4.9730137107e-05,0.000216416170588,0.469297391825,-0.00363478861616,0.168090922144,-0.00854800518979,0.933509774529,0.35839668816,0.00618434055174
-0.0791776776314,0.0139084011316,0.0670519769192,-2.4960474968,0.0332929678261,2.5148332119,-0.772160351276,0.0397920310497,-5.3536183259e-05,-0.00143373594619,-0.000138752249768,0.000100580269645,-4.7941766752e-06,7.73780411691e-05,0.00464445026591,0.469296921086,-0.00363688544084,0.168090681395,-0.00854760660393,0.933516018076,0.358380445294,0.00618373136423
-0.0791783481836,0.0139103550464,0.067052192986,-2.49605631828,0.0332937911153,2.51483392715,-0.772112369537,0.0384222231805,-0.000234347578953,0.00024941880838,1.79696453415e-05,-0.000530399964191,0.000168063415913,-4.37856651843e-05,-0.000118425981782,0.469292524621,-0.00363697865244,0.168086457892,-0.00854988933645,0.933524845288,0.35835747883,0.0061789703322
-0.0791715234518,0.0139088686556,0.0670568346977,-2.49606585503,0.0332945324481,2.51483631134,-0.772067189217,0.0384222231805,-0.000467800506158,-0.000432661065133,-0.000309888564516,0.000349792244378,-9.59538883762e-05,-5.8281209931e-05,-7.06542705302e-05,0.469288758951,-0.00363153000487,0.168083721819,-0.00855126699924,0.933531016194,0.358341418706,0.00617616075863
-0.0791793614626,0.0139121711254,0.0670532807708,-2.49607586861,0.0332946330309,2.51483726501,-0.771989941597,0.0356189124286,-0.000197518515051,-0.000473761640023,-0.00010523320816,-0.00236023822799,0.000117387084174,8.50795113365e-05,0.00280067580752,0.469283578866,-0.00363678327762,0.168078429877,-0.0085538495647,0.933546949831,0.358299947994,0.0061701760715
-0.0791755840182,0.013910073787,0.0670524165034,-2.496083498,0.0332945324481,2.51483774185,-0.771973788738,0.0356189124286,-0.000200815149583,0.000403848855058,-0.000288642651867,0.000497697619721,3.499327795e-05,-6.51263471809e-05,0.000100607321656,0.469280378121,-0.00363540903489,0.168076535967,-0.00855473947055,0.933549323942,0.358293783568,0.00616770152235
-0.0791771411896,0.0139102349058,0.0670538395643,-2.49608659744,0.0332947149873,2.51483845711,-0.771953761578,0.0356189124286,-0.000619588769041,0.00130524998531,0.000122107259813,-2.70484342764e-05,-2.58714517258e-05,0.000106144732854,-0.000543576141354,0.469279021154,-0.00363544451846,0.16807533981,-0.00855532579873,0.933552971458,0.358284287086,0.00616645718448
-0.079178661108,0.0139073012397,0.0670535340905,-2.49609136581,0.0332950018346,2.5148396492,-0.771926760674,0.0356189124286,0.000164580284036,-0.000610293704085,0.000119994889246,0.000165749792359,3.98334923375e-05,7.28882005205e-05,0.000128529762151,0.469277470277,-0.00363630660024,0.168074995844,-0.00855549335244,0.933558182677,0.358270711568,0.00616603669418
-0.0791771039367,0.0139091061428,0.0670533031225,-2.49609327316,0.0332946069539,2.5148396492,-0.771891891956,0.0356189124286,0.000459697272163,0.000217380104004,0.000340343220159,0.000593931763433,0.000100937300886,-9.07112043933e-05,0.000191357365111,0.469276262455,-0.00363567199141,0.168073421019,-0.00855623746917,0.933564145521,0.358255188525,0.00616413646167
-0.0791733562946,0.0139122884721,0.0670553445816,-2.49610209465,0.0332950986922,2.5148396492,-0.771857857704,0.0356189124286,-0.000473242893349,-0.000155638495926,-5.15712345077e-05,4.04184611398e-05,-2.89254639938e-05,7.40738178138e-05,0.000131145192427,0.469271529939,-0.00363282667438,0.168068559543,-0.008558822418,0.933569308596,0.358241769272,0.00615849334978
-0.0791758298874,0.0139104481786,0.0670529603958,-2.49611020088,0.0332942605019,2.51484107971,-0.771837413311,0.0356189124286,9.25714994082e-05,0.00319215259515,0.00691883265972,-0.000242254187469,0.000150879423018,0.000203120376682,8.23321461212e-05,0.469268236208,-0.00363514827194,0.168066446318,-0.00855944661695,0.933573741011,0.358230245428,0.00615604692773
-0.0791753306985,0.013908430934,0.067053258419,-2.4961180687,0.0332946293056,2.51484441757,-0.771781384945,0.0356189124286,0.000500955735333,-0.000300873594824,0.000407965504564,-0.000234080871451,-4.79096015624e-05,-2.97046208289e-05,0.00315801147372,0.469265526146,-0.00363476472651,0.168064679488,-0.00856008446993,0.933583705334,0.358204285639,0.00615463436256
-0.0791754201055,0.0139122856781,0.0670542269945,-2.49612355232,0.0332950241864,2.51484537125,-0.771752119064,0.0356189124286,1.2101277207e-05,-0.00263892277144,-0.000137510054628,-0.000513503502589,-1.77410001925e-05,-0.000101331956103,0.000931136892177,0.469262474213,-0.00363425316704,0.168060864011,-0.0085619462575,0.933588872318,0.358190841713,0.00615070392205
-0.0791785567999,0.01391044911,0.0670518279076,-2.49612975121,0.0332958772779,2.51484441757,-0.771734178066,0.0356189124286,-0.000130899628857,-0.000504293944687,-0.000542037538253,-0.000575121957809,-0.000293356773909,0.00485328910872,0.00297868088819,0.469259575516,-0.00363678334601,0.168059268295,-0.00856313891627,0.933593210029,0.358179549316,0.00614824980494
-0.0791701674461,0.0139073384926,0.0670556947589,-2.49614405632,0.0332944765687,2.51484489441,-0.77168571949,0.0328957177699,0.000155951973284,0.000980097218417,-0.00139044062234,-0.000226587610086,5.47886593267e-05,-0.000159920746228,-0.000397014606278,0.469253936397,-0.00363124738813,0.168055485817,-0.00856462683299,0.933599144371,0.358164130611,0.00614329104527
-0.0791736096144,0.013907420449,0.0670577734709,-2.49615001678,0.0332944057882,2.5148460865,-0.771663606167,0.0328957177699,0.000371214846382,-0.000299396808259,3.44565632986e-05,-0.000279903411865,4.44584875368e-05,-8.93450851436e-05,-0.000117173956824,0.4692507533,-0.00363167424468,0.168053086157,-0.00856578847431,0.93360373922,0.35815217391,0.00614047162527
-0.0791767835617,0.0139085398987,0.0670538917184,-2.49616074562,0.0332950428128,2.51484584808,-0.771639585495,0.0328957177699,-0.000691354798619,-0.000343863473972,0.00260814838111,0.000395236274926,-4.91692117066e-05,-8.73167082318e-05,0.000355649855919,0.469245345235,-0.00363487412314,0.168048437413,-0.0085682594545,0.933609428195,0.358137381042,0.00613485953086
-0.0791794136167,0.0139110470191,0.0670533329248,-2.49617147446,0.0332953929901,2.51484680176,-0.771609663963,0.0328957177699,-0.000474761065561,-0.00017084069259,-7.93722647359e-05,-0.000446628138889,2.64160098595e-05,6.3210776716e-05,-6.13502561464e-05,0.469239983241,-0.00363626261846,0.168043246495,-0.00857076702152,0.933615444951,0.358121734414,0.00612910494564
-0.0791746154428,0.0139084374532,0.0670532137156,-2.49621629715,0.0332948043942,2.51484632492,-0.771529734135,0.0328957177699,-0.000156249152496,-0.000618036952801,-0.000367893662769,-0.00104895536788,2.06496242754e-05,8.63217064762e-05,0.00103644654155,0.469218820171,-0.00363385327588,0.168027286263,-0.00857867586149,0.933628955079,0.358086669249,0.00610880912702
-0.079173155129,0.0139088770375,0.0670552328229,-2.4962451458,0.0332944914699,2.51484870911,-0.771502614021,0.0328957177699,-0.000217806358705,2.56584598901e-06,2.61324785242e-05,0.000375252100639,2.39084183704e-05,-9.52899863478e-05,0.000131186345243,0.469205440239,-0.00363207486547,0.168016263064,-0.00858364956908,0.933633228016,0.358075625025,0.00609614243331
-0.0791726335883,0.0139078740031,0.0670550316572,-2.49626421928,0.033295083791,2.51484918594,-0.771479606628,0.0328957177699,-0.000334458920406,0.000433148641605,-0.00199257675558,-0.00245784618892,8.32931837067e-05,-7.25544887246e-05,-0.000116084040201,0.469197218978,-0.00363177975167,0.168010076664,-0.00858681855997,0.933637102154,0.358065577001,0.00608853679022
-0.0791756659746,0.0139089105651,0.0670530200005,-2.49631166458,0.0332936011255,2.51484775543,-0.771372258663,0.0328957177699,0.000138163624797,0.00301486044191,-0.000137508264743,-0.00190776574891,1.96681630769e-05,2.88346909656e-05,0.000167399208294,0.46917329231,-0.00363392592089,0.167990728909,-0.00859625487693,0.933657470819,0.358012649936,0.00606413702513
-0.0791751295328,0.0139088509604,0.0670526772738,-2.49632358551,0.0332942940295,2.51484966278,-0.771352350712,0.0279641505331,0.000133637760882,-0.0045290091075,0.00035735531128,-0.000959758646786,3.32972522301e-05,0.000210158541449,0.00409184768796,0.469168001178,-0.00363374313234,0.167986369686,-0.00859831458846,0.933661133038,0.358003128318,0.00605949176842
-0.0791752561927,0.0139086507261,0.0670536532998,-2.49633836746,0.033295288682,2.51484918594,-0.771319746971,0.0279641505331,0.00040892342804,6.1405087763e-05,-4.99533634866e-05,-0.000768261030316,1.84219188668e-05,4.86435856146e-05,0.000530942634214,0.469160843035,-0.00363319202578,0.16798077152,-0.00860147283259,0.933666998717,0.357987873425,0.00605246545811
-0.0791745781898,0.0139083825052,0.067055337131,-2.49634814262,0.0332949459553,2.5148499012,-0.771297931671,0.0279641505331,3.85128078051e-05,-0.000999176409096,0.0018568324158,-0.00168759538792,0.000141268901643,-1.27123785205e-05,0.000620788428932,0.469156492935,-0.0036319536368,0.167977362288,-0.00860299149573,0.933670211704,0.357979525883,0.0060483920996
-0.0791748836637,0.0139104910195,0.0670545399189,-2.49635577202,0.0332940705121,2.51485133171,-0.771276116371,0.0279641505331,-0.000670159060974,0.000209787220228,0.00237109535374,-0.00176333845593,0.000144682999235,-0.000423211051384,0.000466891477117,0.469152660029,-0.00363255959341,0.167973446548,-0.00860446987763,0.933674465336,0.357968466656,0.00604420729775
-0.079174220562,0.0139057831839,0.0670538395643,-2.49636602402,0.0332953594625,2.51486420631,-0.771178841591,0.0279641505331,0.000393065216485,0.000869931071065,0.00338673149236,0.000289769435767,4.62142634206e-06,-0.000282276450889,6.43448875053e-05,0.46915132962,-0.00363263647637,0.167972876606,-0.00860345183437,0.933692091346,0.35792246386,0.00604720801802
-0.079175658524,0.013906929642,0.0670525431633,-2.49636530876,0.0332950614393,2.51486349106,-0.771152436733,0.0279641505331,-0.000495493295603,-9.18358491617e-05,0.000559213804081,-0.000691170804203,-2.53621346928e-05,-0.000248935190029,0.00365808722563,0.46915091978,-0.00363391763931,0.16797224837,-0.00860387831831,0.933697713842,0.357907804955,0.00604609645712
-0.0791710019112,0.0139114726335,0.0670542940497,-2.49639129639,0.0332943685353,2.51486349106,-0.77104562521,0.0279641505331,-0.000126148850541,-0.000250547251198,0.00359359476715,-0.000787841971032,0.000294382480206,-6.29113128525e-05,-3.73800103262e-05,0.469138122432,-0.00363073110976,0.167960488555,-0.00860962968459,0.93371521736,0.357862240774,0.00603187044484
-0.0791761726141,0.0139100011438,0.0670544356108,-2.4963965416,0.0332946889102,2.5148627758,-0.771025896072,0.0279641505331,0.000126835904666,-0.000574306759518,0.000517019885592,-0.000661582744215,0.000165160454344,5.33537822776e-05,0.00262829079293,0.469135375341,-0.00363306091885,0.167958601361,-0.00861076327721,0.933719888222,0.357850069715,0.00602929393061
-0.0791751369834,0.0139094283804,0.0670529901981,-2.49639987946,0.0332935340703,2.5148639679,-0.770999610424,0.0227797664702,-0.00010052221478,-0.0042632073164,0.000505918811541,-0.000156973808771,-8.40953289298e-05,8.97782665561e-05,-0.000101047175121,0.46913442265,-0.00363331191022,0.167958204951,-0.00861056708848,0.933724324341,0.357838508416,0.00602875171637
-0.0791737288237,0.0139028215781,0.0670535191894,-2.49638938904,0.0332949534059,2.51487398148,-0.770971119404,0.0227797664702,0.000239483400946,-0.000424993660999,0.00113264890388,0.000298784230836,-6.42123050056e-05,-0.00016388054064,0.000281685614027,0.469142740243,-0.0036325755842,0.167966199201,-0.00860571696134,0.933729237972,0.357825592869,0.00604123867337
-0.0791784077883,0.0139108411968,0.0670533180237,-2.49642562866,0.0332944355905,2.51487278938,-0.770865499973,0.0227797664702,-0.00108758721035,-0.000124310186948,9.58037780947e-05,-0.000938850280363,-0.00569159723818,4.56665884485e-06,0.00479682721198,0.469123752706,-0.00363455417774,0.167948486529,-0.00861452791124,0.933749054593,0.357774028359,0.00601974021435
-0.0791779607534,0.0139095820487,0.0670523196459,-2.49644446373,0.0332951508462,2.51487374306,-0.770803928375,0.0227797664702,0.000365686923033,0.00108043302316,-0.000744079996366,-0.00121681683231,-1.5850593627e-05,-4.10096690757e-05,0.00324658653699,0.469114687823,-0.00363439030852,0.167941635126,-0.00861807571477,0.933760546832,0.357744088473,0.00601138904672
-0.0791729167104,0.0139081673697,0.0670557618141,-2.49647307396,0.0332943722606,2.51487374306,-0.770691692829,0.0227797664702,0.000151021784404,0.00315357418731,5.3099138313e-05,-0.00395320495591,-0.000670556735713,0.00721877533942,0.00384013587609,0.469101663585,-0.00363058172788,0.16793168784,-0.00862306331738,0.933778840542,0.35769643101,0.00599855512709
-0.0791803076863,0.0139028746635,0.0670513734221,-2.49649953842,0.0332956239581,2.5150578022,-0.77065551281,0.0227797664702,5.89667142776e-05,-0.000717740505934,-0.00019622106629,-0.00208784011193,-0.002679588506,0.0299484934658,0.00177687127143,0.469129989579,-0.00363785764629,0.167940415451,-0.00859094533206,0.933787808638,0.357672530934,0.00607325267579
-0.0791847109795,0.0138871604577,0.0670489370823,-2.49647974968,0.0332930088043,2.51542901993,-0.770605325699,0.0227797664702,-0.000171838866663,0.00071505428059,-0.000680439115968,0.00235624937341,-0.000374705588911,0.0207591522485,0.00176237721462,0.469223096027,-0.00364539357249,0.167988364756,-0.00851021659507,0.933797820588,0.357645107544,0.00625964967991
-0.0791800916195,0.0139059945941,0.067052565515,-2.49653434753,0.0332947820425,2.51590037346,-0.77045238018,0.0227226372808,-0.000492200779263,-0.000269011157798,0.000312506716,-0.0015916263219,0.000202214665478,0.000720460840967,0.00309489062056,0.469296742483,-0.00364571304691,0.168000660836,-0.00843254443437,0.933824475969,0.357574106447,0.00644192199629
-0.0791779235005,0.0139149259776,0.0670514777303,-2.49655151367,0.0332941152155,2.51591563225,-0.770413100719,0.0227226372808,0.000150684922119,0.00110883533489,-0.000145628087921,0.000114713438961,-0.000170665778569,-0.000123613572214,0.000210918165976,0.469290370514,-0.00364518183353,0.167991273731,-0.00843456981808,0.933831297552,0.357556337662,0.00643667831891
-0.0791770294309,0.0139168146998,0.0670528262854,-2.49655508995,0.0332936942577,2.51593756676,-0.770382285118,0.0227226372808,-0.000255677528912,0.000163643344422,0.000257021543803,-3.38976933563e-05,-0.000149861531099,0.000120405544294,0.00442683976144,0.469293326207,-0.00364454674915,0.167991112733,-0.00843101668935,0.933836812075,0.35754187643,0.00644458336643
-0.0791756734252,0.0139060951769,0.0670538246632,-2.49655914307,0.0332941971719,2.51595520973,-0.770333349705,0.0227226372808,0.000171337291249,0.00074402987957,0.000620780745521,3.76909920305e-05,3.77926990041e-05,6.46505068289e-05,0.00318707246333,0.469296819703,-0.00364349257493,0.167996018244,-0.0084265942327,0.933844766442,0.357521017246,0.00645496795027
-0.0791739821434,0.0139039335772,0.0670527815819,-2.49657034874,0.0332937501371,2.51597929001,-0.770279943943,0.0227226372808,-0.000413582281908,0.000995212001726,-0.00285348412581,0.000245268485742,9.45556166698e-05,0.00235387869179,0.00226428010501,0.469297012735,-0.00364344426053,0.167994237187,-0.00842368345685,0.933854810375,0.35749473327,0.00646142915516
-0.0791783183813,0.0139093585312,0.0670528113842,-2.49657464027,0.0332936085761,2.51599311829,-0.77024769783,0.0227226372808,-0.000907028617803,0.00161967228632,0.000391031382605,0.000519203371368,0.000148538165377,-2.05705764529e-05,0.00174484879244,0.469297108,-0.00364549939887,0.167991941574,-0.00842279015135,0.933860726627,0.357479265542,0.00646330121257
-0.0791789218783,0.0139082465321,0.0670531988144,-2.49658036232,0.0332943014801,2.51600766182,-0.77020996809,0.0227226372808,0.000329354486894,0.000658895936795,-3.28869755322e-05,-0.000130964457639,-0.000192309438717,5.42914640391e-05,0.000628192734439,0.469297721128,-0.00364569032766,0.16799157111,-0.00842105532959,0.933867630045,0.357461191311,0.00646774868645
-0.079179264605,0.0139031782746,0.0670535936952,-2.49658513069,0.0332942381501,2.51601934433,-0.770186007023,0.0227226372808,0.000150843246956,-0.000340891594533,0.00387967913412,-0.00204191729426,-6.34228490526e-05,0.00132829730865,0.000442004646175,0.469298817331,-0.00364582625407,0.16799316148,-0.00841860783241,0.933871901081,0.357449994128,0.00647308239063
-0.079177133739,0.0139197232202,0.0670527294278,-2.49659895897,0.0332942456007,2.51603794098,-0.770129442215,0.0177634898573,0.000216104002902,0.000665726780426,8.58480707393e-05,-0.000333598349243,0.000100496152299,-0.000171557840076,-0.000119764023111,0.469293525008,-0.00364512459909,0.167981785429,-0.00842123954673,0.933881885886,0.357423946028,0.00646749027224
-0.0791765451431,0.0139192370698,0.0670546069741,-2.49661588669,0.0332932770252,2.51604247093,-0.770114660263,0.0177634898573,-9.18089062907e-05,-0.000604826083872,-0.000377058517188,-0.000444215169409,0.000132515604491,0.00136429374106,2.09147510759e-05,0.469286478994,-0.00364396680564,0.167975943019,-0.00842316864265,0.933884001832,0.357418475785,0.00646174931331
-0.0791729986668,0.0139065431431,0.0670545399189,-2.49666380882,0.0332934297621,2.51605606079,-0.770080208778,0.0177634898573,-0.000200295718969,-0.000780662347097,0.000294346682495,-0.00321568246,-0.000171851410414,0.000246868672548,0.000868055154569,0.469268553132,-0.00364233594462,0.167964770531,-0.00842676225025,0.933889674374,0.357403757756,0.00645131016275
-0.079176813364,0.0138988643885,0.067053578794,-2.49666976929,0.0332930795848,2.51608037949,-0.770061552525,0.0177634898573,0.000261704524746,-0.000728425569832,0.000128570594825,-0.000530583434738,4.094886026e-05,0.00375132169574,0.00163137586787,0.469272246828,-0.00364491441529,0.167968252171,-0.0084213673034,0.9338938228,0.357392832272,0.00646308247583
-0.0791826471686,0.0138848563656,0.0670522078872,-2.49665117264,0.0332946367562,2.51615047455,-0.770022213459,0.0177634898573,0.00168294378091,-0.0014185331529,-0.000188961566892,0.00381402787752,0.000165411125636,0.00728832790628,0.00235424633138,0.469298752211,-0.0036492337882,0.167988170746,-0.00840165084512,0.933902305695,0.357370272085,0.00651029924821
-0.0791806951165,0.0138737829402,0.0670517832041,-2.49665164948,0.0332946777344,2.51631641388,-0.769982755184,0.0177634898573,0.00054163124878,0.000508471566718,0.00043648618157,-0.00014507236483,-0.00016676382802,0.00995911564678,0.00140096037649,0.469336571614,-0.00365037597725,0.168007969275,-0.00836684537454,0.933909152078,0.357351714219,0.00659117552319
-0.0791722759604,0.0138771273196,0.0670546814799,-2.49665403366,0.0332931913435,2.51648187637,-0.769938230515,0.0177634898573,-0.000781033537351,-0.000188099758816,0.000327831105096,0.000227281430853,4.56070774817e-05,0.00114597892389,0.0030942785088,0.469371030846,-0.00364679725214,0.168020251935,-0.00833524437544,0.933914979025,0.357335869383,0.00666421718313
-0.0791723355651,0.0138754295185,0.0670566260815,-2.49665951729,0.0332943610847,2.51663351059,-0.769871532917,0.0177634898573,0.000250682351179,-0.00347637524828,-0.000211534323171,-0.000231910787988,-0.000280409876723,0.00122464180458,0.00023795607558,0.469401783363,-0.00364740028642,0.168032483703,-0.00830661377304,0.933926810781,0.357304341405,0.00673198117012
-0.0791727304459,0.0138753633946,0.0670539960265,-2.49666547775,0.0332943983376,2.51665449142,-0.769851863384,0.0177634898573,0.000142151737236,-0.000424412166467,0.00060820824001,-0.00030193242128,-3.2528612337e-06,0.00325117236935,0.000876526581123,0.469403326555,-0.00364884557001,0.168032021982,-0.00830392207224,0.933930720159,0.357294068985,0.00673815807852
-0.0791779607534,0.013879342936,0.0670536756516,-2.49666523933,0.0332944430411,2.51667976379,-0.769836127758,0.0177634898573,4.68150246888e-05,-0.000202931070817,-0.000670431472827,0.000420620810473,8.2187638327e-05,0.00322572421283,-0.000442907359684,0.469408457386,-0.00365182030341,0.168032589808,-0.00829950363236,0.933934731196,0.357283487988,0.00674870369278
-0.0791757032275,0.0138799557462,0.0670571774244,-2.4966647625,0.0332923270762,2.5167131424,-0.769808411598,0.0177634898573,0.000731453008484,-0.000628724461421,0.00311994017102,-0.000553482677788,-0.000169621940586,0.000232584367041,0.00209074257873,0.469415886885,-0.00364956957589,0.168035464164,-0.00829254072522,0.933938369195,0.357273857658,0.00676362580227
-0.0791615471244,0.0138805415481,0.0670623928308,-2.49666619301,0.0332934334874,2.51672887802,-0.769795835018,0.0177634898573,9.83584468486e-05,0.000545080634765,0.000350929389242,-0.000270451739198,-2.86053873424e-05,4.45656478405e-05,-1.30568887471e-05,0.469418612365,-0.00364054832182,0.168036051138,-0.00829027582227,0.933937325472,0.357276519056,0.00676993592794
-0.0791616663337,0.0138782449067,0.0670631378889,-2.4966635704,0.0332937017083,2.51675200462,-0.769778192043,0.0165532529354,-0.000377362128347,-0.000143727840623,-0.000464884476969,0.000464173732325,-9.65472718235e-05,2.49954809988e-05,0.000369068584405,0.469425298297,-0.00364052318668,0.168040195233,-0.00828488844263,0.933940398449,0.357268367448,0.00678277789337
-0.0791688337922,0.0138841811568,0.06706032902,-2.49666857719,0.0332943275571,2.51679730415,-0.769752979279,0.0165532529354,-0.000213024861296,0.000905622029677,-0.000551766250283,-0.00082462397404,-0.000254648010014,0.000689526321366,-0.000156499139848,0.469431770502,-0.00364553783788,0.168039544236,-0.00827837982793,0.933946827284,0.35725141158,0.00679859127993
-0.0791687443852,0.013882807456,0.0670602098107,-2.49667644501,0.0332946553826,2.51680493355,-0.769737958908,0.0165532529354,-0.000609308772255,8.78390710568e-05,-0.000360389618436,-0.00058298301883,0.000178807647899,-0.000122990997625,2.99237708532e-05,0.469429887381,-0.00364558190221,0.168037859033,-0.00827817266728,0.933949586271,0.357244195141,0.00679903555891
-0.0791675448418,0.0138975130394,0.0670615285635,-2.49669313431,0.0332945324481,2.5168197155,-0.769712090492,0.0165532529354,0.000105743289168,0.00049801019486,0.00235617673025,-1.66293539223e-05,5.92308533669e-05,7.51065381337e-05,7.05120692146e-05,0.469422999287,-0.00364441835052,0.168026703299,-0.00828135056418,0.933953661746,0.357233606443,0.0067916902852
-0.0791682377458,0.0139052327722,0.067059867084,-2.49671220779,0.0332946889102,2.5168235302,-0.769695460796,0.0165532529354,-0.000437052774942,0.00127949996386,0.000370722031221,-0.000127635707031,-0.000115444956464,-0.00012361870904,0.00479039829224,0.469413100788,-0.00364518318276,0.168015337568,-0.00828607716665,0.933957343117,0.357224081536,0.00678066504342
-0.0791682749987,0.0139044588432,0.0670590624213,-2.49673891068,0.0332943759859,2.51682424545,-0.769688248634,0.0165532529354,6.19306229055e-05,0.000339650345268,-0.000135946291266,-0.00310808583163,-0.000672468042467,-1.03001457319e-05,-0.000573440396693,0.46940056884,-0.00364545068372,0.168005548128,-0.00829062185675,0.933958819968,0.357220338588,0.00676886830858
-0.0791664049029,0.0139000797644,0.0670591592789,-2.49693179131,0.0332930162549,2.51683402061,-0.769676744938,0.0165532529354,-0.000529310607817,-0.000653288559988,-0.000567409791984,-0.00556368101388,6.42272971163e-06,0.000441704440163,4.59333859908e-05,0.469310879323,-0.00364357270815,0.167934694329,-0.00832297364824,0.933960928884,0.357215642766,0.00668548246321
-0.0791752487421,0.0138950217515,0.0670551136136,-2.49700832367,0.0332938060164,2.5168428421,-0.769671797752,0.0165532529354,-0.000601145788096,0.00278535229154,-0.000244355091127,-0.00277189281769,6.27373301541e-05,0.000114612128527,-0.000466651079478,0.469276865727,-0.00364927098524,0.167908579981,-0.00833441509363,0.933964454695,0.357206701321,0.00665635840895
-0.0791822448373,0.0138936275616,0.0670536831021,-2.49706053734,0.0332939475775,2.51685404778,-0.769667804241,0.0165532529354,0.000155264133355,0.000118931224279,0.000100241821201,-0.00169967440888,-0.000153532411787,0.000293521647109,0.000356713804649,0.469254453477,-0.00365303219791,0.167890265204,-0.00834154652909,0.933966856888,0.357200597427,0.00663790025579
-0.0791794359684,0.0138947768137,0.0670538246632,-2.49710321426,0.0332929752767,2.51687097549,-0.769665181637,0.0165532529354,0.000124250567751,0.000331619579811,-0.000373509305064,-0.00371177471243,-2.50965786108e-05,0.000102245707239,-0.000154329056386,0.469237486766,-0.00365159911095,0.167874917446,-0.00834608257137,0.933966804991,0.357200863037,0.00662519525547
-0.0791827440262,0.0138763254508,0.0670555084944,-2.49719166756,0.0332927368581,2.5168838501,-0.769665658474,0.0165532529354,0.000425288308179,-0.000806467025541,-0.000277232058579,-0.00554894469678,4.1600655095e-05,0.000264440430328,5.20916146343e-05,0.469200877135,-0.00365219878621,0.167850881443,-0.00835582025999,0.933967201387,0.357200096441,0.00659831719754
-0.0791990980506,0.0138640580699,0.0670460760593,-2.49732756615,0.0332946665585,2.51692223549,-0.769659817219,0.0165532529354,-0.00201854808256,0.000758755661082,-0.000300799118122,-0.000385236053262,0.000191322877072,0.000123982099467,0.000418335752329,0.469145957754,-0.00366392632932,0.167808087385,-0.00837107173053,0.933973526342,0.357183932492,0.00655860543228
-0.0792180895805,0.0138628901914,0.0670412257314,-2.49734091759,0.0332928150892,2.51695275307,-0.769660115242,0.0176131129265,0.000696485221852,0.000432692206232,6.05350214755e-05,3.71319292753e-05,-8.92857642611e-05,0.00302665308118,0.000621745712124,0.469146310388,-0.00367547624971,0.167806246913,-0.0083666652612,0.933977523177,0.357173433346,0.0065668341597
-0.0792873427272,0.0138163957745,0.067032136023,-2.49734568596,0.0332942642272,2.51697063446,-0.769654393196,0.0176131129265,-0.00134763889946,-0.00773899815977,-0.0011384121608,-1.74352935574e-05,3.10005452775e-05,0.000202610972337,-0.000553787802346,0.46915529283,-0.00371293303476,0.167827774264,-0.00835412806698,0.93399262836,0.3571337202,0.00659426231299
-0.0793140605092,0.0137352831662,0.0670300126076,-2.49736142159,0.0332928821445,2.51694560051,-0.769651949406,0.0176131129265,-0.00181486888323,-0.00564049417153,2.98039140034e-05,-0.00117719115224,5.85081716054e-06,0.000239305925788,0.00012918941502,0.469155519858,-0.00372724991137,0.167857481179,-0.00834403863539,0.933997813947,0.357120066139,0.00661200487534
-0.0793340206146,0.0136389248073,0.067029081285,-2.49734020233,0.0332946255803,2.51682806015,-0.769649147987,0.0176131129265,-0.00174144143239,-0.00895275175571,-0.000137834213092,0.00429636100307,4.46673111583e-05,-0.00927736889571,0.000493810861371,0.469155835106,-0.0037371263538,0.16790020446,-0.00834294434698,0.934001878183,0.357109469511,0.00661160345696
-0.0793394222856,0.0132528049871,0.0670281797647,-2.49705767632,0.0332923941314,2.51559209824,-0.76963788271,0.0182303804904,-0.00331664411351,-0.0216625947505,0.000394800852519,0.0206681750715,-8.61174412421e-05,-0.0811455771327,-0.000112575646199,0.469085087739,-0.00373418160123,0.168078743963,-0.008450432488,0.934001990113,0.357111417629,0.00634883767377
-0.0793369710445,0.0128607526422,0.067032083869,-2.49670219421,0.0332911871374,2.51388382912,-0.76963531971,0.0182303804904,0.00398007454351,-0.0253655686975,0.000173424952663,0.0237403921783,0.000297044345643,-0.13118045032,0.000648018380161,0.468959641089,-0.00372159865044,0.168234282187,-0.00862058297098,0.933997970864,0.357124836563,0.00594363242907
-0.0793701708317,0.00888114701957,0.0670183449984,-2.49287104607,0.0332857221365,2.4965441227,-0.769615530968,0.0182303804904,6.95189155522e-05,-0.121410056949,-0.000409422267694,0.118569724262,-1.11452654892e-05,-0.49489825964,-0.000249781820457,0.467637307282,-0.00363882837582,0.17004708485,-0.0104836828117,0.933962077545,0.357215123455,0.0015117415989
-0.0793856084347,0.00184857542627,0.0670194774866,-2.48579931259,0.0332787707448,2.46928286552,-0.769582211971,0.0182303804904,-0.000742088188417,-0.228658214211,0.000197932706214,0.223315000534,-0.000359934521839,-0.79970985651,0.00348853156902,0.466145306525,-0.00349756175065,0.173702312607,-0.0130251424774,0.933858182978,0.357377172956,-0.00456022846742
-0.0793921723962,-0.0031936308369,0.0670186057687,-2.48076033592,0.0332781784236,2.45172119141,-0.769514024258,0.0182303804904,-0.000444860663265,-0.273948699236,-0.00035130881588,0.276049524546,-0.00313923717476,-0.941942572594,0.00790760945529,0.465417872058,-0.00340974149094,0.176676033803,-0.0145358706293,0.933779357079,0.357459977782,-0.00819662905583
-0.0794077143073,-0.0206972882152,0.0670175105333,-2.46278548241,0.0332574285567,2.39632987976,-0.768811702728,0.0182303804904,-0.00290049239993,-0.418542385101,-0.000537690299097,0.459514051676,0.000369867309928,-1.24522423744,0.0217942837626,0.464217661565,-0.00317264783609,0.187142928903,-0.0182399373894,0.933576450986,0.357498270014,-0.0172424322712
-0.0794381424785,-0.0287363436073,0.06702131778,-2.45388102531,0.033259794116,2.37293457985,-0.76831561327,0.0182829126716,-0.00103494664654,-0.471574127674,0.00179769832175,0.518994390965,0.000668051710818,-1.33171868324,0.0322075635195,0.464256822756,-0.00308873465318,0.192530541266,-0.019447783135,0.933522297111,0.35741880526,-0.0202410933481
-0.0794292613864,-0.0365932136774,0.067038282752,-2.4453830719,0.0332469642162,2.35126614571,-0.767679691315,0.0182829126716,0.00173286907375,-0.505990386009,0.00012862321455,0.549687087536,0.00125711224973,-1.38369703293,0.0472047701478,0.464362012932,-0.00299607283294,0.197502869564,-0.0203622024393,0.933491385427,0.357308709609,-0.0225765313492
-0.079492084682,-0.0646287947893,0.0670467168093,-2.4121799469,0.0331827066839,2.2802760601,-0.764984548092,0.0182829126716,-0.000687880266923,-0.622194230556,-1.46240063259e-05,0.792404353619,-0.0119585925713,-1.46263122559,0.0395589582622,0.466721484313,-0.00275692139955,0.218875066315,-0.0220684310761,0.933584595999,0.356629701801,-0.0273503554351
-0.0795345529914,-0.0754575356841,0.0670300200582,-2.39855980873,0.0329193361104,2.25547146797,-0.764353275299,0.0182829126716,-0.00825740396976,-0.643798470497,-0.000718849943951,0.83409678936,-0.0173288695514,-1.48189175129,0.0387887433171,0.468208267598,-0.00272389244609,0.227660279407,-0.0219585078782,0.933577674543,0.356635378966,-0.0275999217702
-0.079572468996,-0.0995018035173,0.0670597106218,-2.36704134941,0.0327022783458,2.20356011391,-0.762446224689,0.0182829126716,-0.00323334452696,-0.686085283756,-0.00161508785095,0.888365745544,-0.000697856827173,-1.40833187103,0.0546782575548,0.471994969094,-0.00255366387348,0.248225521712,-0.0209515303031,0.933743264813,0.356377337039,-0.026071864638
-0.0796587318182,-0.115943089128,0.0670500397682,-2.34523963928,0.0326761156321,2.17214989662,-0.761347293854,0.0182829126716,-0.0007661243435,-0.703737914562,0.00125243072398,0.933051168919,-0.00200315797701,-1.33814740181,0.0501966029406,0.475084461281,-0.00246568686781,0.263549089862,-0.0193904493833,0.933918271479,0.35622651965,-0.022876604942
-0.0797021016479,-0.133201852441,0.0670409873128,-2.32208347321,0.0326675027609,2.14138388634,-0.760062873363,0.0182829126716,-0.00640670442954,-0.731084108353,0.000498773762956,0.972626268864,-0.00561664020643,-1.23340749741,0.0526551827788,0.478245632874,-0.00234731013642,0.279534852658,-0.0173000701289,0.934133783168,0.356026501666,-0.0184367164827
-0.0798054262996,-0.148020356894,0.0670628473163,-2.30292224884,0.0326507873833,2.11759114265,-0.759097933769,0.0182829126716,-0.000524249800947,-0.750372588634,-0.00150079955347,0.957958519459,0.00273063732311,-1.13569581509,0.0421823486686,0.480634961706,-0.0022627928898,0.29250694991,-0.0152629667194,0.934290339355,0.355908671643,-0.0140577654732
-0.0798631459475,-0.160758316517,0.0670511052012,-2.28691530228,0.0326476916671,2.09913444519,-0.758701920509,0.0182888228446,-0.00717589259148,-0.751500308514,-0.000851549615618,0.934651076794,0.00334391300566,-1.06215977669,0.0196822360158,0.482738515484,-0.00218254084203,0.304315627462,-0.0131251656283,0.934351865619,0.355986191281,-0.00938895862131
-0.0799476876855,-0.174324169755,0.0670514777303,-2.27068209648,0.0326537489891,2.08106970787,-0.758484840393,0.0182888228446,-0.00634197844192,-0.760796010494,-0.000575553392991,0.895310342312,0.000101446683402,-0.95828974247,0.0115000363439,0.484701090203,-0.00209469897146,0.316740760157,-0.010690322974,0.934363475127,0.356137794039,-0.00406013363967
-0.0801110565662,-0.1995690763,0.0670488923788,-2.2434387207,0.0326583348215,2.05201911926,-0.75784611702,0.0182888228446,-0.0018543091137,-0.757481992245,-0.00116148148663,0.773170530796,-0.00109468330629,-0.796782076359,0.0260856058449,0.487476199571,-0.00192431005231,0.339080265052,-0.00581269729375,0.934354500186,0.356236714449,0.00657901934975
-0.0801684856415,-0.209243476391,0.0670374110341,-2.23433566093,0.0326572470367,2.04218387604,-0.757488846779,0.0182888228446,-0.00576847046614,-0.768175244331,-0.0031340457499,0.693262755871,-0.000262848683633,-0.7365270257,0.0306871235371,0.488113218562,-0.00185724360045,0.347181516739,-0.00393823861477,0.934344045049,0.356191873492,0.0106322482311
-0.0802732184529,-0.225497245789,0.0669923052192,-2.22033333778,0.0326542295516,2.02754116058,-0.756958663464,0.0182888228446,-0.00526241166517,-0.752537786961,-0.00563658773899,0.600307762623,-0.00119451980572,-0.642984926701,0.0214165747166,0.488882230769,-0.00175884618695,0.36039637874,-0.000666204084999,0.934280264376,0.356098693141,0.0177105674075
-0.0803296118975,-0.236809164286,0.0668859258294,-2.21201276779,0.0326537527144,2.01820540428,-0.756689429283,0.0182888228446,3.70392262994e-05,-0.735273122787,-0.00698436563835,0.511380076408,-0.000823784794193,-0.597336173058,0.0203893631697,0.488965908607,-0.00171494555651,0.369014973643,0.00150574099813,0.934206714953,0.356026679289,0.0223729703294
-0.0804708451033,-0.258250057697,0.0666594877839,-2.19894337654,0.032413225621,2.00209188461,-0.756325542927,0.0182888228446,-0.0103165153414,-0.716439306736,-0.0120883816853,0.389887183905,-0.0192475896329,-0.519647419453,0.00876143015921,0.488281123943,-0.00169280926982,0.384214306432,0.00552914551326,0.933996133276,0.355923655617,0.0306431498585
-0.0806320682168,-0.2709672153,0.0664402320981,-2.19280862808,0.0314237885177,1.99327850342,-0.756171762943,0.0182888228446,-0.0100191058591,-0.695345699787,-0.0117579000071,0.306115090847,-0.082045994699,-0.475462377071,0.00507530290633,0.487364000189,-0.00189416890027,0.392508587824,0.00811656549669,0.933819338862,0.355936692453,0.034994776519
-0.0808114260435,-0.283697664738,0.0661891624331,-2.18806290627,0.0288779195398,1.98494851589,-0.756102979183,0.0182888228446,-0.00621879892424,-0.651734232903,-0.0195336062461,0.211854115129,-0.181090891361,-0.429068893194,0.000955915020313,0.4860338959,-0.00237860082665,0.400158819711,0.0112149786478,0.933541355438,0.356203036367,0.0386543465687
-0.0810844600201,-0.294336020947,0.0658049359918,-2.18506455421,0.0251027476043,1.97812008858,-0.756095290184,0.0182888228446,-0.0213269162923,-0.592610478401,-0.0243082270026,0.140906840563,-0.258726388216,-0.378415167332,-0.000162395808729,0.484600567595,-0.00320508496162,0.406070877552,0.0143539965543,0.933262209049,0.356555201219,0.0410365704363
-0.0817687734962,-0.307933032513,0.0650383085012,-2.1826403141,0.0180846173316,1.96961808205,-0.756096482277,0.0182888228446,-0.0378406606615,-0.531224012375,-0.0351267531514,0.0701847523451,-0.33565980196,-0.345109373331,0.000263511581579,0.482346269432,-0.00493508529742,0.412928173395,0.0190890810527,0.932903754706,0.35702211361,0.0431439627135
-0.0826777741313,-0.316859602928,0.0642105415463,-2.18185949326,0.0114002563059,1.96382963657,-0.756100952625,0.0182888228446,-0.062916174531,-0.464701265097,-0.0491684377193,0.0180699471384,-0.408545047045,-0.31390196085,-0.000761290662922,0.480555419778,-0.00680547689438,0.416992072697,0.0228925679218,0.932704965127,0.357251616923,0.0436882163939
-0.0841624736786,-0.324851125479,0.0630558729172,-2.18178296089,0.00272004352883,1.95798265934,-0.756125211716,0.0182888228446,-0.094387948513,-0.38328909874,-0.0710847824812,-0.00289503159001,-0.503903746605,-0.29671010375,-0.00351717020385,0.478608656514,-0.00946163537621,0.420247243794,0.0272013858762,0.932581600048,0.357343268184,0.0430979376269
-0.0868060365319,-0.332269728184,0.0611036010087,-2.18199968338,-0.010339406319,1.9510294199,-0.756338298321,0.0182888228446,-0.132755964994,-0.263526767492,-0.107967294753,-0.00889243744314,-0.634179294109,-0.308435350657,-0.0204084403813,0.476334599473,-0.0138076332762,0.422984808222,0.0329649209464,0.932541327984,0.357231470038,0.0408125236771
-0.0903052911162,-0.336812078953,0.0581633262336,-2.18209052086,-0.0255435816944,1.94468128681,-0.757309615612,0.018292106688,-0.196216642857,-0.131139233708,-0.163267686963,-0.00352845946327,-0.735445022583,-0.251770168543,-0.0805656686425,0.474391568733,-0.0194320082446,0.424523538531,0.0390763943347,0.932584017322,0.356901449039,0.0371677467878
-0.102837353945,-0.338311433792,0.0472436770797,-2.18223071098,-0.0641705840826,1.93503415585,-0.764457941055,0.018292106688,-0.324456423521,0.0734772607684,-0.30500048399,-0.00118174566887,-0.829820036888,-0.13286408782,-0.262072741985,0.471288753724,-0.0371863306803,0.424587862822,0.053192087452,0.933005316397,0.354945608859,0.0261781558715
-0.109956227243,-0.335725426674,0.0402206555009,-2.18221998215,-0.0808770954609,1.93292939663,-0.770946264267,0.018292106688,-0.391119390726,0.168393880129,-0.392482995987,-6.41435472062e-05,-0.8315756917,-0.0680889189243,-0.37922078371,0.47035126508,-0.0467772865586,0.423410037138,0.0586350074801,0.933211116507,0.353902130465,0.020790133774
-0.117900341749,-0.331770032644,0.0317922458053,-2.18215870857,-0.0964688137174,1.93198788166,-0.779298901558,0.018292106688,-0.452076911926,0.238489449024,-0.502047896385,0.00398690160364,-0.812893867493,-0.0235613547266,-0.493949890137,0.469560432447,-0.0566374336723,0.421834814575,0.0630354808463,0.933480555838,0.352694663545,0.0157179521488
-0.126016110182,-0.327187895775,0.022501476109,-2.18185377121,-0.109680004418,1.93174743652,-0.788432359695,0.018292106688,-0.501633584499,0.307761311531,-0.57786232233,0.031533844769,-0.733456373215,-0.00371347810142,-0.579671919346,0.468692250778,-0.0677544001486,0.419928741114,0.066714504408,0.933965709305,0.350920063797,0.0105989270032
-0.14288879931,-0.31486415863,0.00189966510516,-2.17955422401,-0.12987677753,1.9317625761,-0.808649897575,0.018292106688,-0.588758707047,0.467374771833,-0.76476919651,0.118047624826,-0.587516605854,0.00581552926451,-0.721754491329,0.467043998471,-0.0890193776069,0.415543658979,0.0702026829949,0.935430095869,0.346467600109,0.00152341812353
-0.153234049678,-0.306291252375,-0.0119766835123,-2.17700242996,-0.138957321644,1.93194794655,-0.821626842022,0.018292106688,-0.612971782684,0.541041076183,-0.85447627306,0.186616301537,-0.48436960578,0.0206944942474,-0.808053910732,0.4659101122,-0.102106961639,0.412836419124,0.0707264843593,0.936665194092,0.342994393158,-0.00330522826569
-0.162311121821,-0.298095494509,-0.0244579855353,-2.17403936386,-0.145195037127,1.93237328529,-0.833406329155,0.0182947330177,-0.668615162373,0.615013957024,-0.92272657156,0.233127832413,-0.409606903791,0.0450749248266,-0.869922041893,0.464751738458,-0.115152728047,0.41009357799,0.0703621125587,0.938032916623,0.339242506245,-0.00761197022081
-0.199289977551,-0.259850770235,-0.079860419035,-2.15564823151,-0.160802260041,1.93611264229,-0.884091377258,0.0182947330177,-0.756237566471,0.836308717728,-1.18764197826,0.461950242519,-0.218830838799,0.109090186656,-1.04491949081,0.459885094706,-0.160757929042,0.401028404275,0.0656029723971,0.943548454159,0.324109319417,-0.0191236351609
-0.212786793709,-0.244008928537,-0.101573973894,-2.14621853828,-0.164236277342,1.93844008446,-0.903224050999,0.0182947330177,-0.757972419262,0.90115660429,-1.22778952122,0.556054115295,-0.161889269948,0.137638047338,-1.08655071259,0.457649146269,-0.178637607448,0.397860626711,0.0633978803358,0.945851809708,0.317559292299,-0.022386567471
-0.224244087934,-0.230070665479,-0.120450720191,-2.13748288155,-0.166379526258,1.94062519073,-0.919780194759,0.0182947330177,-0.775215506554,0.943514287472,-1.29127442837,0.601548790932,-0.126407593489,0.149882242084,-1.12009429932,0.455564287448,-0.192964442954,0.395390759042,0.0615671747881,0.947709443977,0.312163135222,-0.02470768065
-0.240302145481,-0.209526345134,-0.147696137428,-2.12400341034,-0.168678358197,1.943983078,-0.943978130817,0.0182947330177,-0.76732891798,0.998142898083,-1.30748617649,0.676682472229,-0.0955844148993,0.177375897765,-1.15375757217,0.452008261014,-0.213916602288,0.391835671741,0.0589569830041,0.950341036853,0.304301413184,-0.0278682157888
-0.259252697229,-0.184523060918,-0.18034863472,-2.1067943573,-0.170699417591,1.94798350334,-0.973038971424,0.0182947330177,-0.755272567272,1.00689256191,-1.29366958141,0.686751842499,-0.045328181237,0.137235715985,-1.16357135773,0.446081721146,-0.242238164135,0.387225333579,0.0558186088202,0.953775605114,0.293560147163,-0.0319189236567
-0.273600310087,-0.1656665802,-0.204711616039,-2.09341716766,-0.171105563641,1.95077335835,-0.995151996613,0.0182947330177,-0.764075398445,0.979375243187,-1.27591764927,0.70007109642,-0.00696276081726,0.134179070592,-1.17341899872,0.440741610261,-0.262813121159,0.383914657447,0.0534726279806,0.956245991994,0.285530368795,-0.0347374299451
-0.287738800049,-0.147259742022,-0.228473842144,-2.08044695854,-0.171313464642,1.95294451714,-1.01722931862,0.0182967036963,-0.739468812943,0.936595141888,-1.21046090126,0.653545737267,-0.0102333594114,0.0846601426601,-1.16339361668,0.435112376979,-0.280772656193,0.380865276388,0.0513475746216,0.958303167841,0.278578373667,-0.037583966026
-0.312478542328,-0.117391586304,-0.267688184977,-2.05940675735,-0.171771734953,1.95548021793,-1.05512547493,0.0182967036963,-0.707557082176,0.83436191082,-1.07408177853,0.554853856564,-0.00985538680106,0.0520581379533,-1.06516087055,0.422758832187,-0.312305938706,0.375512183995,0.047704892615,0.961722893031,0.266343615979,-0.0432943201805
-0.333353728056,-0.0952998846769,-0.297514200211,-2.04471898079,-0.172227144241,1.95593452454,-1.08611559868,0.0182967036963,-0.674002885818,0.660782396793,-0.906721293926,0.438272416592,-0.0162668153644,-0.00443020835519,-0.997667849064,0.410504442441,-0.33640043673,0.371011847832,0.0442897949967,0.964154651921,0.257037442196,-0.0487439661866
-0.347030460835,-0.0825831517577,-0.315340876579,-2.03682184219,-0.172621890903,1.95585656166,-1.10643482208,0.0182967036963,-0.63341075182,0.550669074059,-0.807111203671,0.321415692568,-0.0336998663843,-0.00901612266898,-0.934260845184,0.401804499222,-0.350857018682,0.368144107732,0.0419337472408,0.965456124508,0.251776399698,-0.052389662523
-0.357310712337,-0.0743006020784,-0.328086674213,-2.03212428093,-0.173216328025,1.95558869839,-1.12153196335,0.0182967036963,-0.581203222275,0.43752092123,-0.697432994843,0.234950214624,-0.0322509221733,-0.0199185404927,-0.848089277744,0.394785530553,-0.361075483788,0.366053477245,0.0400898154484,0.966328962589,0.248105574212,-0.0551794028342
-0.373494505882,-0.0639338493347,-0.346315413713,-2.02734684944,-0.174346417189,1.95458722115,-1.14583742619,0.0182967036963,-0.500710010529,0.25560593605,-0.529081940651,0.0985616892576,-0.0413773916662,-0.0373432300985,-0.781486809254,0.383138226215,-0.375560182955,0.362866311031,0.0367815789222,0.967371055671,0.243511841468,-0.0595175508614
-0.381734341383,-0.0603070743382,-0.354931652546,-2.02618384361,-0.175171196461,1.95361375809,-1.15933716297,0.0182967036963,-0.422859847546,0.159194588661,-0.44034075737,0.0375084914267,-0.0499161332846,-0.052998509258,-0.731859862804,0.376832862448,-0.382233277291,0.361452360065,0.0349119626185,0.967668441436,0.242069762384,-0.0616536466761
-0.387650638819,-0.0585214979947,-0.360920906067,-2.02592802048,-0.1759429425,1.95270526409,-1.17000246048,0.0182967036963,-0.365331083536,0.0840385332704,-0.358270257711,-0.00159593787976,-0.0419519357383,-0.0612468570471,-0.704321920872,0.372110517109,-0.386752851795,0.360562170814,0.0334936012553,0.967733225053,0.241625523863,-0.0631481568587
-0.393513888121,-0.0577233396471,-0.366427958012,-2.02611613274,-0.176558494568,1.95146012306,-1.18217718601,0.018305240199,-0.286168068647,0.0117707923055,-0.26079595089,-0.0105663295835,-0.0282149408013,-0.0863882154226,-0.653362095356,0.367383150546,-0.390848734604,0.359925451729,0.0319641850818,0.967577663921,0.242121372069,-0.0644127008782
-0.402180850506,-0.0603172518313,-0.374577283859,-2.02626943588,-0.177227199078,1.94734108448,-1.21132540703,0.018305240199,-0.0662237331271,-0.118035309017,-0.0648414418101,0.00464450055733,-0.0119405379519,-0.073208488524,-0.5476796031,0.35979602076,-0.39648933223,0.360747868722,0.0294870130193,0.966046013347,0.24820591892,-0.0654174110276
-0.40271294117,-0.0628969743848,-0.375267922878,-2.0261452198,-0.17734156549,1.94622862339,-1.22223603725,0.018305240199,0.0130170900375,-0.148653566837,0.00211165822111,-0.00014934882347,-0.00300590018742,-0.0313064940274,-0.530290484428,0.359130806948,-0.396750785794,0.361907477959,0.0294976034507,0.964941743107,0.252594444264,-0.0649104785123
-0.402212619781,-0.0652644261718,-0.374903321266,-2.0261862278,-0.177355334163,1.94595360756,-1.22943198681,0.018305240199,0.0622896663845,-0.184481590986,0.0454243645072,-0.00243673846126,0.000489696336444,-0.00792935397476,-0.5000654459,0.359351653279,-0.396368358618,0.36302150784,0.0298997680466,0.963971094602,0.256412928375,-0.0641727550935
-0.400275439024,-0.0690158009529,-0.373449325562,-2.02610230446,-0.177361041307,1.94579923153,-1.23894608021,0.018305240199,0.131405800581,-0.196240380406,0.0923056453466,0.00480288872495,0.000443932483904,-0.00674901902676,-0.463940918446,0.360575552199,-0.395098309463,0.36489321763,0.0308710085167,0.962383527432,0.262516960785,-0.0628472111808
-0.39114522934,-0.078895881772,-0.366427898407,-2.02544331551,-0.177350714803,1.94578135014,-1.25886940956,0.0183078665286,0.250749528408,-0.22593614459,0.197300106287,0.0248809419572,1.80307688424e-05,-0.00101384008303,-0.394720822573,0.366722475172,-0.38921625356,0.370127240879,0.034294663779,0.957709781202,0.279516721525,-0.0590445010653
-0.385733276606,-0.0834082067013,-0.361906528473,-2.02497506142,-0.177349239588,1.94579017162,-1.26645803452,0.0183078665286,0.290647268295,-0.222628369927,0.254218548536,0.0292994137853,0.000313865777571,7.23263437976e-05,-0.363300651312,0.370503773632,-0.38557736835,0.372632253652,0.0361187489753,0.955314628407,0.28773729204,-0.0572420054104
-0.380826801062,-0.0868605300784,-0.357400268316,-2.02440476418,-0.177345514297,1.94579195976,-1.27206945419,0.0183078665286,0.317035079002,-0.208589598536,0.290177822113,0.0443307422101,0.000314154021908,-0.000196418943233,-0.342251718044,0.374099238764,-0.382125715209,0.374674784128,0.0377009527311,0.953192690942,0.294767647004,-0.0558065056112
-0.363287478685,-0.0966932550073,-0.341654479504,-2.02128148079,-0.177334532142,1.94584476948,-1.28845345974,0.0183078665286,0.358711361885,-0.167246341705,0.325704455376,0.0803294852376,0.0044989073649,0.000396477757022,-0.308598101139,0.386829857716,-0.369873455363,0.381310338878,0.0431629907949,0.945763588093,0.317861767165,-0.0513038821759
-0.351037085056,-0.101768694818,-0.330269873142,-2.01858377457,-0.177320197225,1.94599986076,-1.29802560806,0.0183078665286,0.375616312027,-0.139841750264,0.347269326448,0.0826282426715,-0.000338818324963,0.00804486870766,-0.27907076478,0.395793449288,-0.361019076671,0.385364770382,0.046764336873,0.940439485201,0.333196986622,-0.0486460611468
-0.327967494726,-0.108109667897,-0.308545351028,-2.01346683502,-0.177295327187,1.94632744789,-1.31278598309,0.0183085240424,0.340348362923,-0.0724294185638,0.341581344604,0.0730731487274,-9.89245381788e-05,0.00250950758345,-0.202398344874,0.412339449702,-0.343658427951,0.391483697098,0.0526457574728,0.9301895575,0.360518408114,-0.0447469377037
-0.321926265955,-0.108971394598,-0.302605986595,-2.01213097572,-0.177292764187,1.94647884369,-1.31649887562,0.0183085240424,0.323753803968,-0.0318864062428,0.310725867748,0.070923499763,-6.93842303008e-05,0.00971510354429,-0.204692095518,0.416680315665,-0.338893693747,0.392702943027,0.0539712579503,0.927336980236,0.367691517984,-0.0440019964111
-0.31601908803,-0.109430119395,-0.296914428473,-2.0108897686,-0.177282392979,1.94662725925,-1.32025206089,0.0183085240424,0.296175658703,-0.022579325363,0.296363592148,0.0571091920137,-0.000214549087104,0.0126668484882,-0.189221784472,0.42084084733,-0.334224285951,0.393668762329,0.0551021604187,0.924487078326,0.374701347587,-0.0434314830977
-0.307716965675,-0.109717436135,-0.288700550795,-2.00948524475,-0.177275747061,1.94671487808,-1.32594347,0.0183085240424,0.259846836329,0.00356654799543,0.258706867695,0.0298949275166,-6.60400401102e-05,6.89002117724e-05,-0.187704324722,0.426595393878,-0.327422532115,0.394672671711,0.056388342595,0.920263154653,0.384831802921,-0.0429017965702
-0.304026424885,-0.109670318663,-0.284963905811,-2.00914478302,-0.177265197039,1.94675135612,-1.32868564129,0.0183085240424,0.243530884385,0.00196787179448,0.241630747914,0.0108609283343,-2.97762835544e-05,0.00147636700422,-0.178193569183,0.428937387401,-0.32449241258,0.394882473751,0.0567598561071,0.9184165074,0.389173825706,-0.0428155431591
-0.300020247698,-0.109567992389,-0.280724585056,-2.00906872749,-0.177264034748,1.94678139687,-1.33159542084,0.0183085240424,0.213017553091,0.00977230444551,0.216453447938,-0.00276876334101,0.000195023501874,-0.00056042149663,-0.159770444036,0.431784714056,-0.320737638946,0.394964051552,0.057081686224,0.916089335572,0.394573812681,-0.0428195793602
-0.289180159569,-0.107776731253,-0.270149111748,-2.00923371315,-0.177257120609,1.94673335552,-1.34088909626,0.0183085240424,0.0930531919003,0.034760504961,0.0990867763758,-0.00578950485215,0.000401680852519,0.000254616403254,-0.116502955556,0.438616156539,-0.311378162418,0.394170415215,0.0571054335105,0.909875035535,0.408615834377,-0.043583124602
-0.287775099277,-0.107148997486,-0.268718630075,-2.00932574272,-0.177255108953,1.94672358036,-1.3428375721,0.0183091796935,0.0720113962889,0.0368823520839,0.0650827810168,-0.00774533906952,0.000110168635729,-0.000529665965587,-0.105963014066,0.43951264729,-0.310123757129,0.393831402704,0.056935641549,0.908883039425,0.410810336118,-0.0438727795377
-0.286724478006,-0.106591388583,-0.267891556025,-2.0094845295,-0.177254796028,1.94670546055,-1.34443044662,0.0183091796935,0.0545980408788,0.0281622819602,0.0341697409749,-0.0103454012424,-9.62661506492e-05,-0.000310378498398,-0.0944405198097,0.440089010275,-0.309279088713,0.393483403744,0.0567203915013,0.908158438657,0.412409417683,-0.044153361922
-0.28648006916,-0.104676172137,-0.267887175083,-2.01024270058,-0.177257537842,1.94666349888,-1.35010576248,0.0183091796935,-0.0332648344338,0.0268674362451,-0.0288381334394,-0.0115364557132,4.15363138018e-05,-0.00243381992914,-0.0635386258364,0.440103687891,-0.309085425858,0.392134612145,0.0556439993226,0.906899921134,0.415197099444,-0.0452509301404
-0.287121355534,-0.104289315641,-0.268587380648,-2.01045823097,-0.177256599069,1.94665277004,-1.35122525692,0.0183091796935,-0.0420808941126,0.0216674692929,-0.0521472170949,-0.00764943286777,-1.02565400084e-05,-0.00518343318254,-0.063305079937,0.439661821371,-0.309651062288,0.391819093456,0.0553403361321,0.906940322529,0.415121875221,-0.0455030434092
-0.288913249969,-0.103764235973,-0.270191609859,-2.01079440117,-0.177259027958,1.94663500786,-1.35335791111,0.0183091796935,-0.0724928155541,0.0159676410258,-0.0584862530231,-0.0126130040735,5.84908884775e-05,-0.000349043955794,-0.0626481622458,0.43856069878,-0.311104826078,0.39135788578,0.0548336644364,0.907195263927,0.41458838376,-0.0458965585033
-0.290331363678,-0.103561960161,-0.271345317364,-2.01097631454,-0.177259638906,1.94659292698,-1.35456156731,0.0183091796935,-0.0803765878081,0.0111904451624,-0.0581463389099,-0.00673667574301,-0.000218719913391,-0.00353653123602,-0.0652981027961,0.437722767718,-0.312207687247,0.391141877298,0.054543597218,0.907477323158,0.413986443289,-0.0460991150395
-0.291571050882,-0.103473596275,-0.272424399853,-2.011074543,-0.177260860801,1.94646894932,-1.35541498661,0.0183104928583,-0.0819533914328,0.00908850785345,-0.0777916461229,-0.00636541936547,5.47683011973e-05,-0.00725389784202,-0.0475669912994,0.436956951588,-0.313200740456,0.391018161382,0.054309634849,0.907783084105,0.413329917431,-0.046246241033
-0.293486744165,-0.103431575,-0.274349629879,-2.01121306419,-0.177262291312,1.94642174244,-1.35613548756,0.0183104928583,-0.0897667780519,0.00133505510166,-0.0876112654805,-0.00634364970028,-0.000342493731296,-0.000312672927976,-0.0297580324113,0.435657370965,-0.314934300612,0.390885882587,0.0540293216479,0.908461191997,0.411859579823,-0.0463765158766
-0.294958263636,-0.103447452188,-0.275746017694,-2.01128530502,-0.177261978388,1.94642162323,-1.35656273365,0.0183104928583,-0.0925128161907,-0.00116970727686,-0.0890211611986,-0.000986407743767,-2.47465522989e-05,2.22919461521e-05,-0.0259918253869,0.434792560584,-0.31610019482,0.39083796269,0.0538842787836,0.908934656067,0.410826954161,-0.0464272432266
-0.299185693264,-0.103515617549,-0.280308067799,-2.01126527786,-0.177263393998,1.94642782211,-1.35841882229,0.0183104928583,-0.0924425423145,-0.00406608823687,-0.102720022202,0.000306759728119,0.000113554538984,4.32608139818e-05,-0.0346218198538,0.431998760063,-0.319927762644,0.390799385557,0.05349439044,0.910364656027,0.40768854917,-0.0465251523665
-0.300694853067,-0.10352575779,-0.281864523888,-2.01126909256,-0.177265569568,1.94642591476,-1.35902774334,0.0183104928583,-0.0961080417037,-0.000186552322702,-0.104064114392,-0.00111659045797,0.00482794363052,-0.000435927446233,-0.0430218912661,0.431076444357,-0.321171744994,0.390776003252,0.0533599724009,0.910836387001,0.406646567014,-0.0465656383684
-0.3056897223,-0.103511407971,-0.286049634218,-2.01128029823,-0.17726701498,1.94642388821,-1.36092674732,0.0183104928583,-0.0970349833369,0.00115803547669,-0.0721284225583,-0.00101324054413,6.2692022766e-05,-2.5953308068e-05,-0.039455819875,0.428044337773,-0.32521104439,0.390682973817,0.0529205836061,0.912351338021,0.403275078245,-0.0467296350108
-0.308676183224,-0.10352165997,-0.288559615612,-2.01131510735,-0.177267536521,1.94642174244,-1.36203813553,0.0183104928583,-0.0743208006024,0.00144237442873,-0.0744640901685,-0.00151525705587,-0.000102394616988,-8.33758458612e-05,-0.0196280088276,0.426241866524,-0.327561469756,0.390623874569,0.0526572883699,0.913238778018,0.401284961344,-0.0468243930481
-0.309770017862,-0.103534504771,-0.289689660072,-2.01132798195,-0.177267834544,1.94642150402,-1.36223292351,0.0183104928583,-0.0680229887366,-0.000910905015189,-0.0656746700406,-0.000430874759331,5.55927772439e-06,4.37298294855e-05,-0.0123502435163,0.425508806266,-0.328510128803,0.390602743399,0.052555895512,0.913648001825,0.400362911682,-0.0468481081643
-0.312736093998,-0.103557571769,-0.29260084033,-2.0113940239,-0.177268445492,1.94642138481,-1.36262726784,0.0183104928583,-0.048641551286,-0.000184370786883,-0.0499967373908,-0.00110069173388,-0.000409304513596,0.00015502529277,-0.0113180465996,0.423555380606,-0.331004111911,0.390526992275,0.0522765366529,0.914748301455,0.397870647076,-0.0469218134424
-0.313662260771,-0.103565588593,-0.293640196323,-2.01150560379,-0.177263796329,1.9464225769,-1.36276435852,0.0183104928583,-0.036528956145,-0.00125340127852,-0.0422018319368,-0.00750633561984,0.00291884760372,0.000198743364308,-0.00270198727958,0.422880794892,-0.331820685972,0.390456996375,0.052141887331,0.915113392797,0.39704277922,-0.0469652324431
-0.314595580101,-0.103567190468,-0.294862151146,-2.01176691055,-0.177218511701,1.94642233849,-1.36297142506,0.0183104928583,-0.018244702369,0.000179595474037,-0.0321894660592,-0.00705430004746,-0.000387057720218,2.08787769225e-05,-0.0093115279451,0.422113941689,-0.332686277112,0.390306429118,0.0519174158229,0.91550426591,0.396161852392,-0.0470351722217
-0.315412849188,-0.103570111096,-0.295747697353,-2.01233124733,-0.176689118147,1.94642388821,-1.36335539818,0.0183104928583,-0.0153802959248,-0.000831133686006,-0.00602935208008,-0.0176256336272,0.00864379480481,8.0255267676e-05,-0.0102099105716,0.421467306491,-0.33324303833,0.389997211048,0.0514488012435,0.915817344262,0.39550320735,-0.0469981431118
-0.315655320883,-0.103575780988,-0.295813798904,-2.01291155815,-0.1760661304,1.94642400742,-1.36372005939,0.018311150372,0.00400701165199,-0.000217058812268,0.000613268115558,-0.0205246917903,0.0214032325894,-1.23900699691e-05,-0.0110495518893,0.42130737159,-0.333183748211,0.389710294307,0.0510360877662,0.915858355398,0.395470790013,-0.0469216849788
-0.315620154142,-0.103581547737,-0.295781433582,-2.01326441765,-0.1757299155,1.94642865658,-1.36389124393,0.018311150372,0.00299244583584,0.000107162806671,0.00347269210033,-0.0240798834711,0.0201765969396,-0.000702498771716,-0.00534834805876,0.421286615752,-0.333049081028,0.3895353018,0.0508021905624,0.915840533971,0.395546698167,-0.0468835047801
-0.315536975861,-0.103590972722,-0.295724779367,-2.01366758347,-0.17527449131,1.94643163681,-1.36406195164,0.018311150372,0.0105828717351,-0.000182389150723,0.000391127949115,-0.0292678102851,0.0352636352181,-8.69466293807e-06,-0.0101493420079,0.421289422348,-0.332858102781,0.3893353696,0.0505192938221,0.915819731577,0.39563975945,-0.0468102619988
-0.315398484468,-0.10358992964,-0.29564255476,-2.01421666145,-0.174437150359,1.94642984867,-1.36426067352,0.018311150372,0.00743075693026,0.000101418903796,0.00403845822439,-0.0286262221634,0.0642875880003,-0.000482463889057,-0.00935853365809,0.421322061287,-0.332553377776,0.389050785732,0.0500725329532,0.915813313868,0.395732488592,-0.0466316709901
-0.314937919378,-0.103606194258,-0.295429974794,-2.01678347588,-0.16803111136,1.94644260406,-1.36477398872,0.018311150372,0.0116444760934,-0.000646469939966,0.00390831101686,-0.052095785737,0.12534584105,-0.000395725423004,-0.00871952529997,0.421577753884,-0.33092035669,0.38767740322,0.0473491267759,0.916178470821,0.395432912897,-0.0448093837884
