imanlab/tactile_prediction_flat_dataset/test/data_sample_2021-11-25-13-41-23/robot_state.csv
position_panda_joint1,position_panda_joint2,position_panda_joint3,position_panda_joint4,position_panda_joint5,position_panda_joint6,position_panda_joint7,position_panda_finger,velocity_panda_joint1,velocity_panda_joint2,velocity_panda_joint3,velocity_panda_joint4,velocity_panda_joint5,velocity_panda_joint6,velocity_panda_joint7,ee_state_position_x,ee_state_position_y,ee_state_position_z,ee_state_orientation_x,ee_state_orientation_y,ee_state_orientation_z,ee_state_orientation_w
0.113689474761,0.0248751789331,-0.138490229845,-2.50389647484,0.0273011382669,2.55292916298,-0.805298149586,0.0469904094934,-0.00029986872687,0.000688623462338,-0.00068383681355,6.9703317422e-05,0.000133230583742,-3.30722141371e-05,-0.000132008790388,0.471882790936,-0.0109457567151,0.1634881211,-0.000565647403096,0.928937865895,0.369985420186,0.0135981573406
0.113685831428,0.0248771514744,-0.138491198421,-2.50390148163,0.0273006055504,2.55294704437,-0.805277526379,0.0469904094934,0.000193863466848,0.000653349794447,-0.000405674072681,8.83738757693e-05,1.07705964183e-05,-6.23108426225e-05,0.000185251512448,0.471883830036,-0.0109481211201,0.16348675137,-0.000563225488458,0.928942567585,0.369973445617,0.0136028720552
0.113690204918,0.0248740464449,-0.138489544392,-2.50390100479,0.0272994618863,2.55295610428,-0.805270791054,0.0469904094934,0.000112763082143,0.000294097641017,-6.86810599291e-05,-0.000191586295841,-7.83133655204e-05,5.14486637258e-05,9.93279973045e-05,0.471886636699,-0.0109454026858,0.163489432602,-0.000560590207959,0.928942316402,0.369973866441,0.0136086873506
0.113692238927,0.0248742159456,-0.138489484787,-2.50389504433,0.0273032970726,2.55296897888,-0.80526214838,0.0469904094934,0.000355079071596,-0.000217880311538,-0.000613604090177,0.000255434104474,0.000107590509288,0.000131439141114,0.00110553589184,0.471892307592,-0.0109444419443,0.16349283209,-0.000557845299665,0.928944005805,0.369969299224,0.0136176431051
0.11369331181,0.0248774625361,-0.138488605618,-2.50389361382,0.0273016709834,2.55298566818,-0.805254340172,0.0469904094934,-6.43362000119e-05,0.000318906037137,-0.00014053065388,-0.000541454472113,-9.91881315713e-05,-0.000136343835038,0.000193041574676,0.471896082581,-0.010943862901,0.163493414783,-0.000554196967048,0.928944779608,0.369967122382,0.013624145638
0.11369509995,0.0248805694282,-0.138487890363,-2.50389885902,0.0273012649268,2.5530064106,-0.805244684219,0.0469904094934,0.00011081968114,0.000171070321812,3.15637316817e-06,-0.000579959421884,-7.97899883764e-06,-0.000100816687336,0.00108518009074,0.471897541348,-0.0109429375338,0.163491893467,-0.000551333324521,0.928946007791,0.369963840814,0.0136296300562
0.113691873848,0.0248773507774,-0.138486817479,-2.50389790535,0.0273007825017,2.55304765701,-0.805236041546,0.0469904094934,7.33623237466e-05,-0.000139619995025,0.000231318088481,0.000461117189843,1.33932308017e-05,0.00278919609264,0.000163297692779,0.471907448725,-0.0109443889087,0.163497609228,-0.000542130766068,0.928947716236,0.369958800928,0.0136503441204
0.113690935075,0.0248721260577,-0.138488322496,-2.50389838219,0.0273019392043,2.55307531357,-0.8052277565,0.0469904094934,-0.000447011232609,0.000130393644213,-8.61650696606e-05,-0.000200623093406,-8.74944453244e-05,0.00550662819296,1.91474518942e-05,0.471914062172,-0.0109457006355,0.163502454274,-0.00053614353517,0.928949717863,0.369953229221,0.0136653614869
0.113689206541,0.0248694568872,-0.138488173485,-2.50389957428,0.0273020546883,2.55309319496,-0.805222094059,0.0469904094934,-0.00212209089659,0.000274230143987,-6.3203224272e-05,-0.000277101731626,-4.56624438812e-05,0.00023683780455,0.000895585457329,0.471917789608,-0.0109465787507,0.163504915881,-0.000532391174859,0.928950984343,0.369949725928,0.0136742538292
0.113689638674,0.0248721651733,-0.138488337398,-2.50389790535,0.0273013729602,2.55310916901,-0.805215418339,0.0469904094934,-0.000132383778691,0.000283465429675,0.000553452468012,-3.95545357605e-05,2.48276719503e-05,0.000242537920712,6.99933880242e-05,0.471921599674,-0.0109467369067,0.163505777214,-0.000528985969574,0.92895199998,0.369946934584,0.0136809057847
0.113691717386,0.0248782485723,-0.138488858938,-2.50389647484,0.0273022688925,2.55312943459,-0.805206179619,0.0469904094934,-4.44456736659e-06,0.000386594765587,0.00295536732301,-0.000361008394975,2.93858502118e-05,0.0023713610135,8.89562797965e-05,0.47192567306,-0.0109463230545,0.16350537128,-0.000525612721629,0.928953494739,0.369942925328,0.013687951887
0.113690525293,0.0248791556805,-0.138487294316,-2.50390028954,0.0273010674864,2.55313801765,-0.805198311806,0.0469904094934,0.000146826147102,-0.000544767011888,-1.60153031175e-05,0.000126795188407,3.48299568032e-06,4.18488843934e-06,-0.000165645076777,0.471925535552,-0.0109462731589,0.163504288516,-0.0005244714517,0.928954695433,0.369939853398,0.0136895330118
0.113690212369,0.0248746518046,-0.13848952949,-2.50389671326,0.0273031368852,2.5531642437,-0.805184185505,0.0469904094934,0.000132569126436,-6.34383322904e-05,-0.000310370669467,-0.000112383022497,-1.89777472315e-06,9.34657509788e-05,0.00228552217595,0.4719336776,-0.0109476338733,0.163510212725,-0.000518345155945,0.928957914963,0.369931185591,0.0137055156135
0.113689363003,0.0248775351793,-0.138491079211,-2.50389623642,0.027301447466,2.55317521095,-0.805174171925,0.0469904094934,-6.85229097144e-05,-0.000922636769246,0.000285440182779,0.000559290754609,-1.87694547549e-06,0.000165785764693,0.00259498087689,0.471935767316,-0.0109490389314,0.16351007154,-0.000515959707765,0.928959921735,0.369926015406,0.0137091358295
0.113694265485,0.0248767770827,-0.138487324119,-2.50389909744,0.0273031648248,2.55318760872,-0.805165886879,0.0469904094934,0.00020539383695,6.79808435962e-05,0.000292654789519,0.00011945940787,3.23956214743e-06,0.000105215724034,-6.3163221057e-05,0.471937739083,-0.0109444058951,0.163510638149,-0.00051420559846,0.928959882988,0.369925917066,0.0137144798456
0.113694146276,0.0248762518167,-0.138487145305,-2.50389862061,0.0273018013686,2.55319333076,-0.805161595345,0.0469904094934,-0.000355319905793,-0.000119822921988,-0.000278911611531,0.000660259684082,-8.79211656866e-05,-9.51630113377e-07,4.70983359264e-05,0.471938719862,-0.0109448901098,0.163511309208,-0.000512850733122,0.928960516539,0.369924242179,0.0137167936857
0.113687418401,0.0248754285276,-0.138489425182,-2.50389862061,0.0273008663207,2.55320668221,-0.805150032043,0.0469904094934,-0.00030645163497,0.000816277228296,0.00012018444977,0.000396728806663,-9.23794068513e-05,0.000127862527734,-0.000112488691229,0.471941777493,-0.0109494886842,0.163513081076,-0.000509680309273,0.928964212428,0.369914723351,0.0137233154159
0.113690443337,0.0248771402985,-0.13848862052,-2.50389814377,0.0273036435246,2.55320882797,-0.805147051811,0.0469904094934,0.000252564961556,-0.000829172844533,-0.000559803971555,1.59650353453e-05,3.55933116225e-05,0.00208252621815,0.0021608248353,0.471942040299,-0.0109476346776,0.163512361241,-0.000510239822761,0.928964481201,0.369914034311,0.0137236739432
0.11369176954,0.0248770304024,-0.138487428427,-2.5038998127,0.027303725481,2.55321359634,-0.805141031742,0.0469904094934,-8.91152958502e-05,-0.000515133840963,0.00290732365102,0.000866954040248,0.000109441578388,7.73678912083e-05,0.00299914856441,0.471942503477,-0.0109464432672,0.163512520721,-0.000509563318937,0.928965123197,0.369912356283,0.0137254719926
0.113689050078,0.0248775091022,-0.138488039374,-2.50389957428,0.0273024234921,2.55321717262,-0.805136203766,0.0469904094934,-0.000506740878336,-8.40877619339e-05,-0.000117260206025,3.58139623131e-05,-8.24003000162e-05,-2.11511996895e-05,-2.39220207732e-05,0.471943273136,-0.0109481326986,0.163512721931,-0.000508506645413,0.928966420617,0.369909049206,0.0137268272346
0.1136906147,0.0248761735857,-0.138487890363,-2.50389838219,0.027303237468,2.55322194099,-0.805132746696,0.0469904094934,0.000187972167623,0.000601355044637,-0.000291366130114,-5.04476993228e-05,0.000110808898171,-4.68145881314e-05,0.000488212885102,0.471945126873,-0.0109473251858,0.163514247013,-0.000507359565063,0.928966826115,0.369907904193,0.0137302827373
0.113693401217,0.0248751360923,-0.138486266136,-2.50389909744,0.027303442359,2.55322504044,-0.805129468441,0.0469904094934,-0.000130308457301,-0.000357589742634,0.000366927648429,-4.04998281738e-05,-5.24735951331e-05,-0.000175310953637,0.000271065888228,0.471945674859,-0.0109452346995,0.163514745966,-0.000506848661544,0.928966631783,0.369908333184,0.0137318922183
0.113691754639,0.0248754192144,-0.138487711549,-2.50389838219,0.0273036025465,2.55322909355,-0.80512624979,0.0469904094934,-1.98982197617e-05,0.000138082265039,-0.000167123187566,-0.000535759725608,-3.11770672852e-05,1.8886570615e-05,-0.000125441787532,0.471946817439,-0.0109467511163,0.16351526743,-0.000505932536551,0.928967801078,0.36990532178,0.013733943174
0.113686621189,0.02487481758,-0.138488635421,-2.50389862061,0.027303699404,2.55323314667,-0.805121660233,0.0469904094934,2.11899678106e-05,-0.000430257205153,9.03783875401e-05,-0.000177699592314,-2.59118241956e-05,-2.56497023656e-05,0.00179826922249,0.471947615284,-0.010949640799,0.163515837665,-0.000505066667347,0.928969763908,0.369900318008,0.0137359773863
0.113690644503,0.0248768310994,-0.138489052653,-2.50390028954,0.027303667739,2.55323839188,-0.805119812489,0.0469904094934,0.000521694426425,0.000250506796874,3.12836637022e-05,-0.000269069365459,0.000206150609301,0.000172265572473,-0.000328147027176,0.471947644805,-0.0109480225909,0.163514749113,-0.000504598487297,0.928969436186,0.369901117823,0.0137366200477
0.11369331181,0.0248771347106,-0.138488441706,-2.50389742851,0.0273046083748,2.55323910713,-0.805115818977,0.0469904094934,-3.05605090034e-06,0.00145038485061,-0.00237565720454,0.000250047422014,-7.44756744098e-06,8.92291209311e-05,0.000454256107332,0.4719491688,-0.0109464719707,0.163515765852,-0.000504228950285,0.928969687919,0.369900426614,0.0137382224154
0.113692693412,0.0248765572906,-0.13848797977,-2.50389766693,0.0273046027869,2.55324339867,-0.805113494396,0.0469904094934,0.000125118778669,0.0020604475867,0.000449003651738,-0.000363562256098,4.5557753765e-05,2.72644301731e-05,-0.000363182276487,0.471950077879,-0.0109465792726,0.163516344748,-0.000503332124792,0.928970124155,0.369899253417,0.0137403453575
0.113693632185,0.0248731076717,-0.138487577438,-2.50389933586,0.0273038856685,2.55324792862,-0.805105924606,0.0469904094934,-0.000323336484144,-0.000841792207211,0.000167698803125,-6.24550448265e-05,4.57342866866e-05,0.000370782479877,-7.56288063712e-05,0.471950845741,-0.0109459466331,0.163517742606,-0.000502152282332,0.928971135999,0.369896607,0.0137432215362
0.113692373037,0.0248681157827,-0.138485893607,-2.50389814377,0.0273043308407,2.55325174332,-0.805102586746,0.0469904094934,-0.000656599877402,-0.000184265081771,-7.31963446015e-05,1.43304596349e-05,-9.27134533413e-06,0.000203269708436,-4.46293197456e-05,0.471952967917,-0.0109451685083,0.163520748013,-0.000500774170408,0.928971467098,0.369895612431,0.0137476591281
0.113687813282,0.0248692110181,-0.138488903642,-2.5038933754,0.0273035429418,2.5532553196,-0.805102169514,0.0469904094934,-0.000513741746545,0.00113475427497,-0.000304350687657,-7.01320605003e-05,0.00011110973719,1.66526592693e-06,0.0002877615334,0.471955903755,-0.0109494131521,0.163522532683,-0.000498815892646,0.928972994811,0.369891648015,0.0137511638601
0.113685891032,0.0248766466975,-0.138490021229,-2.50389862061,0.0273030512035,2.55325746536,-0.805097877979,0.0469904094934,-9.01421299204e-05,0.00119373446796,0.000234768434893,-0.000800099049229,-4.7333753173e-05,-0.00014506620937,-0.000254589889664,0.471952547665,-0.0109509874921,0.163517254375,-0.000500245044077,0.928974356882,0.369888414174,0.0137460813992
0.11369227618,0.0248817428946,-0.138487532735,-2.5038998127,0.0273026563227,2.55326008797,-0.805097162724,0.0469904094934,3.55042975571e-05,0.00336723402143,-0.000386391911888,0.000334155425662,-8.70139920153e-05,0.000155971603817,7.94797670096e-05,0.471951776238,-0.0109469236068,0.163514656529,-0.000500598741297,0.928972820439,0.369892341284,0.0137442289667
0.113692045212,0.024879116565,-0.138487234712,-2.50389885902,0.0273050870746,2.55326509476,-0.80509519577,0.0469904094934,-0.00015078393335,-0.000670648063533,-0.000236905398197,-0.000247768010013,-0.000159536779393,0.000160027251695,0.000163908407558,0.471954083559,-0.0109472763777,0.163517381033,-0.000499350116591,0.92897373525,0.369889856023,0.0137493258458
0.113689281046,0.0248712170869,-0.138488322496,-2.50389790535,0.0273032281548,2.55327153206,-0.805094957352,0.0469904094934,0.000216013198951,-0.000514847692102,0.000335690536303,0.000392909161747,1.57539088832e-05,-4.64387767352e-06,-0.00260241073556,0.471956907925,-0.0109486332953,0.163521377368,-0.000496606956633,0.928973875632,0.36988927918,0.0137554573181
0.11369163543,0.024870229885,-0.138487130404,-2.50389814377,0.0273044034839,2.55327868462,-0.805092990398,0.0469904094934,0.00027257061447,0.000832842197269,-0.00019370141672,-0.000456257082988,7.05934362486e-05,-7.10241511115e-05,0.00013495858002,0.471958548187,-0.0109469575994,0.16352241459,-0.000495402044646,0.928973723267,0.36988952362,0.0137592171746
0.113691516221,0.0248738974333,-0.138487234712,-2.50390028954,0.0273044928908,2.55328416824,-0.805090427399,0.0463665761054,-0.000541917688679,0.000273756828392,-0.000560407352168,1.20309841805e-05,-0.000174542568857,1.04010832729e-05,0.000199824775336,0.471958078576,-0.01094716908,0.163520392278,-0.000495208674703,0.928974268223,0.369888164538,0.0137589668083
0.113688521087,0.0248767081648,-0.138488456607,-2.50389957428,0.0273037943989,2.55328798294,-0.805089712143,0.0463665761054,0.000229004115681,-0.00068142474629,-0.000121968769236,-9.4400573289e-05,0.000124794038129,7.42082411307e-05,0.000100218036096,0.471958729523,-0.0109493029499,0.163519708585,-0.000494428989502,0.92897507127,0.369886125425,0.0137595930657
0.113687902689,0.0248738117516,-0.138488203287,-2.50390100479,0.027304334566,2.55328893661,-0.805088341236,0.0463665761054,0.000525157374796,-0.000467574020149,-0.000279830303043,7.34414206818e-05,9.26763168536e-05,-5.04365525558e-05,0.000327257934259,0.471958729519,-0.0109493880469,0.163520605901,-0.000494282710974,0.928975460394,0.369885102336,0.0137608293661
0.113692179322,0.0248716548085,-0.138487324119,-2.50389671326,0.0273037645966,2.55329465866,-0.805089771748,0.0463665761054,-8.23067421152e-06,-0.000420344847953,0.0012392795179,0.00029354300932,4.13689158449e-05,-9.75466755335e-05,-7.28542945581e-05,0.471962459889,-0.0109470478562,0.16352378576,-0.000491863696516,0.928974082988,0.369888358215,0.0137663846911
0.113694414496,0.0248744282871,-0.138486564159,-2.50389885902,0.0273042339832,2.55329918861,-0.805088698864,0.0463665761054,2.30502173508e-05,-0.000533721817192,0.000530240649823,-0.000392029003706,4.79361769976e-05,7.67369783716e-06,2.62825196842e-05,0.471961970065,-0.0109456904096,0.163522091376,-0.000491870695677,0.928973812765,0.369889044584,0.0137661774383
0.113690465689,0.0248757377267,-0.138486787677,-2.50389885902,0.0273041501641,2.55330562592,-0.805085897446,0.0463665761054,-1.16114551929e-05,-0.000218381042941,-0.000229784840485,0.000143244673382,4.24923891842e-05,4.43042408733e-05,-5.74556579522e-05,0.471963097294,-0.0109477627631,0.163522080331,-0.000490678134355,0.928975069263,0.369885805277,0.013768466179
0.11369137466,0.02487366274,-0.138487383723,-2.50389671326,0.0273040533066,2.55330729485,-0.805086195469,0.0463665761054,-0.000149702580529,-0.000390218046959,0.000286778056761,-8.21282355901e-06,1.42651206261e-05,9.10668604774e-05,0.000247102696449,0.471965910546,-0.0109478109229,0.163524414197,-0.000488990836149,0.928975069931,0.36988565989,0.0137723864009
0.113692514598,0.0248756222427,-0.138485893607,-2.50389766693,0.0273044314235,2.55331110954,-0.805085301399,0.0463665761054,1.83128468052e-05,0.00106035696808,-5.49449760001e-05,-0.000105858503957,-0.000615414814092,-2.77770959656e-05,-1.16788651212e-05,0.471964912251,-0.010946429297,0.163523100251,-0.00048940338221,0.928974642803,0.36988676134,0.0137716005725
0.113690637052,0.0248769260943,-0.138486936688,-2.50389909744,0.0273038428277,2.55331325531,-0.805083036423,0.0463665761054,-0.000405192520702,0.000394774251617,2.7953654353e-05,-9.75227230811e-05,-0.000130868516862,0.000205702177482,-0.000192251143744,0.471964433119,-0.0109478745354,0.163522145933,-0.000489242589136,0.928975522731,0.369884565766,0.0137712200122
0.113692849874,0.024874927476,-0.138485252857,-2.5038998127,0.0273045320064,2.5533182621,-0.805081665516,0.0458399318159,-0.000308304704959,-0.000380035198759,0.000197576315259,0.000147037499119,1.65107539942e-05,-6.78047654219e-05,-3.89432971133e-05,0.47196555124,-0.0109460061499,0.16352327273,-0.000488320890085,0.928975128432,0.369885445653,0.0137742178127
0.113693639636,0.0248723588884,-0.138486817479,-2.50389909744,0.0273043699563,2.55332159996,-0.8050801754,0.0458399318159,-0.000241159810685,-0.00109090469778,9.32703460421e-06,-0.000561579014175,-8.28879565233e-05,0.000275852682535,-0.000378243654268,0.471967043815,-0.0109463821109,0.163525061181,-0.000487098283991,0.92897548437,0.369884439209,0.0137772816209
0.113693416119,0.0248706005514,-0.138486981392,-2.50389766693,0.0273053944111,2.55332970619,-0.805079758167,0.0458399318159,-0.000117140494694,6.29950882285e-05,-0.000112230962259,-0.000769353704527,3.68797118426e-05,5.3787149227e-05,-0.000125265927636,0.471969784037,-0.0109465895998,0.163527187517,-0.000485174569973,0.928975727746,0.369883632556,0.0137825946629
0.113690264523,0.0248770527542,-0.138485684991,-2.50389695168,0.0273055583239,2.55334925652,-0.805079519749,0.0458399318159,-4.6980472689e-05,0.000768106780015,0.000271041790256,6.83884645696e-05,-5.16534310009e-05,0.000480806542328,0.000128349784063,0.471972913784,-0.0109479221922,0.163526284667,-0.000482154010308,0.928976117287,0.369882448422,0.0137882222284
0.113693386316,0.0248843804002,-0.138484731317,-2.50391173363,0.0273047313094,2.55351614952,-0.805079817772,0.0458399318159,-0.000256430677837,0.000236936306464,-7.00978416717e-05,-9.78551470325e-05,-0.00011998674745,0.0130041753873,-0.000159438393894,0.472001045395,-0.0109477952422,0.163532779733,-0.000451081302223,0.928974545779,0.369883965957,0.01385428572
0.113691419363,0.0248764548451,-0.138485640287,-2.50389671326,0.0273059718311,2.55365681648,-0.805077672005,0.0458399318159,0.000288218376227,-0.000639652716927,-0.000434688030509,0.00115107384045,0.000331803836161,0.00589794199914,-0.000192749459529,0.472040055882,-0.0109507003444,0.163555367099,-0.000418326438665,0.928974838016,0.369880457243,0.0139291912932
0.113690979779,0.0248669870198,-0.13848759234,-2.50388598442,0.0273059811443,2.55370402336,-0.805076956749,0.0458399318159,0.000155204761541,-0.000159329283633,-0.00020748253155,0.000454750523204,-3.96379546146e-05,0.00227248691954,-2.60414526565e-05,0.472057025675,-0.010952304713,0.16356830797,-0.000405190154276,0.928975045416,0.369878782779,0.013960177277
0.113691158593,0.0248686894774,-0.138487309217,-2.50390076637,0.027306035161,2.55379939079,-0.805075347424,0.0458399318159,-0.000506131909788,9.54309289227e-05,4.4801930926e-05,-0.000454145105323,-5.27657539351e-05,0.00103844574187,-0.000218021639739,0.472070241674,-0.0109530403606,0.163570779306,-0.000388638176566,0.928974941945,0.369877707355,0.0139959810188
0.113690309227,0.0248829368502,-0.138486236334,-2.50390267372,0.0273054335266,2.55399227142,-0.805075585842,0.0458399318159,-0.000152869542944,-0.000188400183106,-6.38783385511e-05,0.000169810969965,8.93748074304e-05,0.00115309935063,0.000140225558425,0.472108664362,-0.0109554016267,0.163581417316,-0.000350874986317,0.928973967512,0.36987715704,0.0140759708797
0.113690808415,0.0248791184276,-0.138486251235,-2.50390434265,0.027305688709,2.55402135849,-0.805074930191,0.0458399318159,1.04680646018e-06,0.000433656387031,0.000260734843323,0.000611104478594,5.17839507665e-05,0.00011972640641,0.00313213630579,0.472114801156,-0.0109553996539,0.163585286512,-0.000344764662722,0.928973885453,0.369876822682,0.0140903162356
0.113689996302,0.0248717907816,-0.138487234712,-2.50389909744,0.0273057110608,2.55405831337,-0.805075645447,0.0458399318159,0.000324426626321,-0.000822724192403,-0.000142226199387,0.000993425259367,-0.000109298693133,8.26067771413e-05,0.000138179064379,0.472126546698,-0.010956584648,0.163594176065,-0.000335113340374,0.928973820741,0.369876125971,0.0141130860749
0.113694652915,0.0248777531087,-0.138486415148,-2.50390100479,0.0273055620492,2.55423903465,-0.805073440075,0.034969471395,8.16016836325e-05,1.54970184667e-05,0.000338027894031,-0.00054739578627,9.62351623457e-05,0.000303607346723,0.00180600897875,0.472163787138,-0.0109561477431,0.163607563209,-0.000298945743703,0.928972384477,0.36987676061,0.0141915874919
0.113693088293,0.0248768739402,-0.138485327363,-2.5038998127,0.027305919677,2.55427193642,-0.805076777935,0.034969471395,0.000399313605158,-0.0036099604331,0.000134903559228,-0.000247620540904,0.000115485723654,0.00174723519012,0.000178255257197,0.472171625392,-0.0109567204001,0.163611507173,-0.000291875054684,0.928971735642,0.369877781791,0.0142075827813
0.113691270351,0.0248781777918,-0.138486519456,-2.50390005112,0.0273051876575,2.5543115139,-0.805075585842,0.034969471395,-5.92198884988e-05,0.000920130230952,1.40803995237e-05,0.000104734717752,-2.59933312918e-05,2.67213217739e-05,-0.000361109967344,0.472179820343,-0.010958653205,0.163614511236,-0.000283697146166,0.928972222322,0.369875905089,0.0142247737485
0.113693140447,0.0248759258538,-0.138487368822,-2.50389790535,0.0273055303842,2.55435347557,-0.805075824261,0.034969471395,0.000105390405224,-0.000742413685657,-0.000608358182944,0.000200392096303,-0.000113700516522,0.00268122716807,-0.000229983634199,0.472190327737,-0.0109586138742,0.163620313476,-0.000274392444438,0.928971805808,0.369876141844,0.0142459854808
0.113690853119,0.0248759798706,-0.138484686613,-2.50389862061,0.0273051317781,2.55444860458,-0.805073261261,0.034969471395,-0.000149845989654,-2.52202698903e-05,-0.000313062424539,-0.000248677213676,-7.60466582506e-06,0.00347468978725,-9.37900695135e-05,0.472210557898,-0.0109595084412,0.163628915027,-0.0002548303038,0.928971691444,0.369874787732,0.014288899265
0.113692104816,0.0248786602169,-0.138486862183,-2.50390124321,0.0273050442338,2.55448031425,-0.805072844028,0.034969471395,-0.000116577481094,0.00031362962909,2.69627435046e-05,0.000305165885948,0.000101291385363,0.00235328334384,-0.000206691023777,0.472216306701,-0.0109605619621,0.163630035057,-0.000248639105555,0.928972000219,0.369873508094,0.0143020516755
0.113691702485,0.0248801112175,-0.138486817479,-2.50389647484,0.0273042935878,2.55453872681,-0.805071949959,0.034969471395,-9.48670276557e-05,-0.000752035237383,-0.00154975813348,0.00107117462903,0.000246240437264,-0.00118524499703,0.000170085142599,0.472230383054,-0.0109612871345,0.163636242393,-0.00023608340549,0.928971617997,0.369873440415,0.0143288164136
0.113688781857,0.0248696990311,-0.138486027718,-2.50388789177,0.0273071657866,2.55463981628,-0.805071294308,0.034969471395,0.000266442802968,-0.000452610140201,0.000268882839009,-0.000447899714345,5.12354090461e-05,0.00622702389956,-0.000287472765194,0.472258134791,-0.0109631907586,0.163653861742,-0.000212882001244,0.92897193114,0.369870520767,0.0143841366518
0.113694153726,0.024882113561,-0.138485506177,-2.50390434265,0.0273060146719,2.55472445488,-0.805070579052,0.034969471395,-0.00034610851435,0.00174742552917,0.000108420244942,-0.000252657016972,-0.000137793569593,-0.000147517959704,3.23382737406e-05,0.472266470964,-0.010961484228,0.163649692142,-0.00020000376453,0.928970601415,0.369872900592,0.0144089831883
0.11369163543,0.0248812083155,-0.138485535979,-2.50390648842,0.027305284515,2.55472922325,-0.805071115494,0.0282800067216,1.20494414659e-05,0.000365609448636,-0.000621976796538,5.57486455364e-05,4.28501043643e-05,0.000213899344089,0.000178578280611,0.472266588658,-0.0109627365928,0.163649742101,-0.000199109967262,0.928970849985,0.369872216862,0.0144105208258
0.113686807454,0.0248753391206,-0.138488337398,-2.50388479233,0.0273070987314,2.55481886864,-0.805072009563,0.0282800067216,0.000455857632915,0.000242048292421,0.000248337630183,0.000626158434898,1.40158199429e-05,0.00543580157682,0.000294621917419,0.472297372219,-0.0109673995858,0.163669184042,-0.000175927079611,0.928971714572,0.369867956491,0.0144643361771
0.11369137466,0.0248723793775,-0.138485655189,-2.50389575958,0.0273063387722,2.554895401,-0.805071175098,0.0282800067216,0.000157901245984,0.00125761737581,-0.000131990673253,-0.00192879023962,-6.18211561232e-05,0.00447398982942,1.38793820952e-05,0.472309204215,-0.0109646959373,0.163673544751,-0.000161770451297,0.92897009925,0.369870800668,0.0144954829533
0.113693624735,0.0248738117516,-0.138484299183,-2.50389862061,0.0273066274822,2.55493450165,-0.805070877075,0.0282800067216,0.0003492894175,-0.000995417824015,-0.000146535167005,0.00232259579934,0.000405870989198,-0.000900067272596,0.000403095385991,0.472318016413,-0.0109634232697,0.163677219124,-0.000153526109316,0.928969336763,0.369871988186,0.014514124972
0.11369073391,0.0248693227768,-0.138486132026,-2.50387644768,0.0273094847798,2.55496835709,-0.80507004261,0.0282800067216,-6.75712144584e-05,0.000304428307572,-0.000185571581824,-0.000144328645547,-0.000224567294936,0.00343754980713,-0.000167779362528,0.472334823985,-0.0109660496878,0.163689196509,-0.000143306657424,0.928970453209,0.369868195261,0.014539406665
0.113691948354,0.0248812492937,-0.13848733902,-2.50390148163,0.027304366231,2.55503439903,-0.805069625378,0.0282800067216,-0.000108175183414,-0.00102943123784,-0.000193001527805,-0.000888138019945,0.000110634624434,0.00328259007074,-0.000432307773735,0.472334999142,-0.0109670079097,0.163680236002,-0.000134804096753,0.928969710098,0.369869584644,0.014551618034
0.113695278764,0.0248755849898,-0.138483777642,-2.5038869381,0.0273092240095,2.55518531799,-0.805069983006,0.0282800067216,0.000302237109281,-0.00124994595535,1.46811034938e-05,-0.00128854741342,0.000135046691867,0.00486346101388,0.000133494017064,0.47237570587,-0.0109652637935,0.163702593337,-0.000101360229713,0.928968190665,0.369870307345,0.0146303071502
0.113696299493,0.0248773545027,-0.138484925032,-2.50389814377,0.0273058693856,2.55522298813,-0.80506926775,0.0282800067216,-0.00163634866476,0.000186732577276,5.94207049289e-05,-0.000572263321374,9.53154594754e-05,0.000133395791636,0.000366104912246,0.472378134603,-0.0109658307438,0.163701014395,-9.51322363496e-05,0.928967751618,0.36987098611,0.0146410628432
0.113689832389,0.0248781181872,-0.138488888741,-2.50389623642,0.0273082498461,2.55529475212,-0.805069088936,0.0208997298032,0.00343669205904,0.00024495672551,0.000282854802208,-1.43324859891e-06,-1.33875337269e-05,0.00171408231836,3.61659913324e-05,0.472394341865,-0.0109715093963,0.163708124619,-8.05180518915e-05,0.928969701231,0.369864767775,0.014674500168
0.113692834973,0.024879489094,-0.138485699892,-2.50389814377,0.0273086391389,2.55531048775,-0.805067300797,0.0208997298032,0.000238930166233,-0.000427641352871,-0.000245901814196,-0.000198715788429,5.5063090258e-05,0.00207640556619,-0.000112831759907,0.472396660535,-0.0109687376508,0.163708224921,-7.80174262073e-05,0.928968891607,0.36986657641,0.0146801797446
0.113700948656,0.0248792655766,-0.13848233223,-2.50389266014,0.0273074321449,2.5553290844,-0.805068254471,0.0208997298032,-0.000164050085004,1.57847443916e-05,0.000377938878955,0.000418722484028,9.12259856705e-05,0.000343231949955,-0.000176170040504,0.472403490602,-0.0109636229709,0.163712164085,-7.2874524528e-05,0.928966270316,0.369872725657,0.0146911471484
0.113687314093,0.024878539145,-0.138484880328,-2.50389647484,0.0273068547249,2.55536937714,-0.805067420006,0.0208997298032,0.000268077827059,0.000344330386724,-0.000478176079923,0.000298878381727,-7.74520740379e-05,0.000280116626527,-0.000191602041014,0.472410306969,-0.0109717081645,0.163714829559,-6.49088862259e-05,0.928969150812,0.36986482217,0.0147080125087
0.113685779274,0.0248695258051,-0.138489037752,-2.50388240814,0.0273075848818,2.55541086197,-0.805066347122,0.0208997298032,1.69366630871e-05,-0.00109885167331,6.83058851791e-06,0.000977360643446,4.59159782622e-05,7.17127841199e-05,-3.20194089909e-06,0.47242753073,-0.0109748265598,0.163728325708,-5.2496690339e-05,0.928970122741,0.369861197906,0.01473778365
0.113684795797,0.0248480439186,-0.138488873839,-2.50386023521,0.0273081343621,2.55558729172,-0.805066168308,0.0208997298032,-0.000209574398468,-0.00123743258882,0.000137209499371,0.0031259006355,0.000198971363716,0.0162365436554,0.00032983647543,0.472479999497,-0.0109770124119,0.163763418445,-9.00461547301e-06,0.928969152429,0.369859602798,0.0148387214978
0.113687127829,0.0248294677585,-0.138489425182,-2.50385260582,0.027309961617,2.55586528778,-0.805066108704,0.0208997298032,-5.67756360397e-05,-0.00110307510477,-3.42382700182e-05,-0.000409983040299,-4.14862261096e-05,0.0119246467948,-0.000352318689693,0.472546943567,-0.0109789649898,0.163801142082,5.1902134434e-05,0.928967472665,0.369858206246,0.0149779502577
0.11369330436,0.0248480439186,-0.138486206532,-2.50387263298,0.027307279408,2.55607485771,-0.805065751076,0.0204958803952,0.000210830054129,0.00102775567211,-0.000251574907452,-0.00192537263501,0.000148251419887,0.00491644861177,-5.55948026886e-05,0.472579555717,-0.010977160878,0.163804469039,8.94266036685e-05,0.928964601888,0.369862285875,0.0150548867051
0.113689318299,0.0248538721353,-0.138486206532,-2.50387406349,0.0273071136326,2.55610322952,-0.805065155029,0.0204958803952,-0.00051167194033,9.6287294582e-05,-0.00159728468861,0.00023499657982,0.000120644464914,9.06209315872e-05,-0.000281636719592,0.47258397504,-0.0109794709928,0.163803859012,9.43137328743e-05,0.928965330451,0.369860070923,0.0150643136618
0.113684058189,0.0248533450067,-0.138491213322,-2.50386691093,0.0273077283055,2.5561273098,-0.805065453053,0.0204958803952,-0.000713844492566,-0.000682191981468,-0.000590369687416,-0.00024192041019,0.000135041598696,0.00440084422007,-0.000106654486444,0.472592615161,-0.0109846531567,0.163809113074,0.000100744924012,0.928967077503,0.369855087937,0.015078871843
0.113682925701,0.0248354971409,-0.138491407037,-2.50386452675,0.0273063983768,2.55618166924,-0.805064499378,0.0204958803952,0.000299718260067,-0.00179443135858,5.1806702686e-05,9.22549443203e-05,9.13480289455e-06,0.00226419698447,4.74869702884e-05,0.472608501445,-0.0109856436503,0.163823492476,0.000115134294545,0.928966858361,0.369854234152,0.0151131722071
0.113688014448,0.0248110275716,-0.138489812613,-2.50385403633,0.0273077245802,2.55641555786,-0.805063962936,0.0204958803952,0.000774659449235,0.000108512213046,5.36553743586e-05,0.000160166629939,-0.000103425845737,0.0124837802723,0.000286632886855,0.472668317386,-0.01098471118,0.16386095767,0.000168321963976,0.928964409882,0.369855306457,0.0152364303761
0.113685108721,0.0248141158372,-0.138490691781,-2.50386071205,0.0273073688149,2.55661988258,-0.805066585541,0.0204958803952,-0.0016768486239,0.00107612216379,-0.000480914866785,0.000296413869364,2.37159747485e-05,0.00913695152849,-0.00012717487698,0.472710525827,-0.0109893318765,0.163876692992,0.000210710240518,0.928963723725,0.369853198112,0.0153286377328
0.113684333861,0.0248222928494,-0.138490378857,-2.50386357307,0.0273074451834,2.55674862862,-0.805065155029,0.0204958803952,6.64254775984e-06,0.0040127672255,0.00024025485618,-0.000279227184365,3.13340387947e-05,0.00888702832162,0.000188716599951,0.47273376608,-0.0109906274896,0.16388337486,0.00023392852873,0.92896330616,0.369852175574,0.0153781986326
0.113684460521,0.0248223189265,-0.1384896487,-2.50386285782,0.0273075271398,2.55683803558,-0.805063545704,0.0204958803952,0.000138675211929,0.000538867607247,-0.000186696939636,0.000492537161335,1.97229892365e-05,0.00500309187919,-5.29690369149e-05,0.472753440106,-0.0109912380393,0.163892052232,0.000252494223006,0.928962967079,0.369851306824,0.0154192271557
0.113688364625,0.0248197149485,-0.138489231467,-2.50386595726,0.0273080412298,2.5569088459,-0.805064737797,0.0204958803952,0.000356750388164,0.000356532516889,0.000226040196139,-0.000330716226017,3.04619097733e-05,0.00304797827266,-0.000107977823063,0.472769051128,-0.0109895803547,0.16389894389,0.000268303106561,0.928961375746,0.369853811877,0.0154547051058
0.113689444959,0.0248210467398,-0.138486400247,-2.50387072563,0.027306875214,2.55700063705,-0.805066406727,0.0204958803952,-0.000420415657572,-0.000137441573315,2.5327608455e-05,5.42317357031e-05,6.0726852098e-06,0.0013878045138,3.25418113789e-06,0.472785083908,-0.0109890999651,0.163904944109,0.000284808061687,0.928959986698,0.369855804316,0.0154901806348
0.113685429096,0.0248245168477,-0.138489425182,-2.50387334824,0.0273085050285,2.55701708794,-0.805064618587,0.0204958803952,-0.000540293636732,-0.00056408677483,-0.000160167794093,-0.000391858455259,4.44000907009e-05,0.00551021425053,0.000145392550621,0.472786733123,-0.0109930451795,0.163903796878,0.000287145933498,0.928961971023,0.369850606367,0.0154952442553
0.113682031631,0.0248229708523,-0.138491332531,-2.50387644768,0.0273074433208,2.55703902245,-0.805063247681,0.0204958803952,0.000226678501349,0.000573049124796,0.000463212258182,8.23415248306e-05,-4.29716274084e-05,0.000240441921051,0.000252929836279,0.472789988671,-0.0109959040953,0.163905639942,0.000291218271852,0.928962935433,0.369847819245,0.0155038726795
0.113687090576,0.0248256158084,-0.138487070799,-2.50387454033,0.0273090135306,2.5570731163,-0.80506336689,0.0204958803952,-0.00102929258719,-5.4930413171e-05,3.65185842384e-05,-0.000227998709306,-1.40695838127e-05,0.000691923662089,0.00016647062148,0.472798109779,-0.0109913006379,0.163908173138,0.000297896293524,0.928961101556,0.369851766443,0.0155194586429
0.113682247698,0.0248326472938,-0.138491854072,-2.50387620926,0.0273072142154,2.55711627007,-0.805062830448,0.0204958803952,-0.000226495554671,0.000208239347558,-0.000231027617701,1.15604925668e-05,-2.45153623837e-05,0.00299453129992,0.000190935126739,0.47280534089,-0.0109965630837,0.163908312077,0.000306157136852,0.928962539669,0.369847506793,0.0155347211819
0.113691188395,0.0248312242329,-0.138488605618,-2.50388216972,0.0273058544844,2.55719947815,-0.805062174797,0.0204958803952,0.000396219838876,0.0017652802635,-0.00263630319387,-3.78321528842e-05,-0.000126134647871,0.000144624151289,3.95327515434e-05,0.472820812737,-0.0109917043615,0.163914531337,0.000322581203961,0.928959782806,0.369852916853,0.0155704030257
0.113698065281,0.0248323790729,-0.138482764363,-2.50388288498,0.0273073744029,2.55720639229,-0.80506336689,0.0176544841379,0.000396857241867,0.000511081772856,0.000116896102554,0.000504922121763,-8.78551072674e-05,0.000237812433625,0.000127329491079,0.472821907847,-0.0109856883989,0.16391435955,0.000323167060331,0.928957417539,0.369858753733,0.0155728588647
0.113700605929,0.0248376466334,-0.138480708003,-2.5038819313,0.0273079909384,2.55721354485,-0.805062353611,0.0176544841379,-0.000518723973073,0.00115781545173,2.60075939877e-05,-0.000431199150626,0.000107623811346,0.0013884450309,-0.000372372567654,0.472823079931,-0.0109836696463,0.163912927568,0.000323915051149,0.928956841385,0.36986014834,0.0155740899351
0.113687306643,0.0248475391418,-0.138490587473,-2.50389957428,0.0273068659008,2.55721712112,-0.805063545704,0.0176544841379,-0.000256034632912,0.000329233065713,0.000288798182737,-0.000681560137309,-5.52267010789e-05,-0.000207129429327,-6.47825290798e-05,0.472813419439,-0.0109947646687,0.163901893043,0.000320491784295,0.928960941564,0.369850333711,0.015562669186
0.113684646785,0.0248396061361,-0.138489663601,-2.50389313698,0.0273071471602,2.55721783638,-0.805061936378,0.0176544841379,9.70388500718e-05,4.99291600136e-05,-0.000102229823824,0.000555833161343,0.000101060177258,-5.03590126755e-05,3.70697562175e-05,0.472817996128,-0.0109954928988,0.163908139359,0.000322860501271,0.928961483463,0.369848669718,0.015569816837
0.113679118454,0.024837533012,-0.138495922089,-2.50388932228,0.0273077059537,2.55721926689,-0.805062294006,0.0176544841379,7.37182126613e-05,0.000798122375272,7.31085219741e-06,-0.000169325532624,4.68044636364e-05,0.000224482544581,6.42955419607e-05,0.472820183388,-0.0110015510368,0.163910223869,0.000324045566654,0.928963731002,0.369842899055,0.0155727704822
0.113681018353,0.0248426031321,-0.138494387269,-2.50389933586,0.0273057669401,2.55721950531,-0.805061578751,0.0176544841379,0.000955423398409,-0.00126155663747,0.000609608832747,-0.000783080351539,-6.00336024945e-05,9.71460322035e-05,-0.00011938836542,0.472814767484,-0.010999536716,0.163904526973,0.000322069999095,0.928962951129,0.369845140181,0.0155661064472
0.113696925342,0.0248209275305,-0.138485625386,-2.50389719009,0.0273072905838,2.55721902847,-0.805061340332,0.0176544841379,6.76095369272e-05,0.000715407717507,0.00235820445232,0.000839662912767,-3.27254347212e-05,0.000141806260217,-4.71187122457e-05,0.472820506486,-0.0109869385172,0.163916763949,0.000325031990556,0.928958238639,0.369856432529,0.0155789672164
0.113696724176,0.0246760528535,-0.138484746218,-2.50389695168,0.0273063220084,2.55721116066,-0.805061936378,0.0178114268929,-0.000693837646395,-0.0078404052183,-0.000126859784359,-0.0011726153316,-5.63865432923e-05,-0.000267328665359,-0.000982741476037,0.472841145418,-0.0109840783594,0.163974796679,0.000340526105517,0.928957020389,0.369857033751,0.0156368980874
0.113690316677,0.0245274305344,-0.13848862052,-2.50392103195,0.0273068081588,2.55718302727,-0.805060446262,0.0178114268929,-0.000365862477338,-0.00911859143525,-0.000892166222911,-0.00475601898506,3.54534313374e-05,-0.00446008285508,-2.93731973215e-05,0.472849504413,-0.0109856527374,0.164040444721,0.000351107838333,0.92895847681,0.369851043744,0.0156917242854
0.113686256111,0.0242937654257,-0.138492301106,-2.50393128395,0.0273048114032,2.55713677406,-0.805061519146,0.0178114268929,3.33191674144e-05,-0.0198910459876,4.87639517814e-05,0.000632646668237,3.56609257324e-06,-0.0110854711384,0.000202910290682,0.472873687592,-0.0109843107859,0.164141649425,0.000370782559431,0.928957931359,0.369848704947,0.0157784478961
0.11369241029,0.0238031391054,-0.138490304351,-2.50393724442,0.0273061729968,2.55692791939,-0.805061221123,0.0178114268929,0.00380686693825,-0.037414714694,0.000303273671307,0.0011377055198,4.23551318818e-05,-0.0141758993268,-3.33529169438e-05,0.472908041699,-0.0109685567465,0.16434956389,0.000390299519214,0.928954059628,0.369852451079,0.0159175024027
0.113688312471,0.021515339613,-0.138491138816,-2.50350522995,0.027304796502,2.55531978607,-0.805060565472,0.0178114268929,0.000821649329737,-0.0707604512572,0.000220655230805,0.0169027261436,3.01048712572e-05,-0.0467787235975,0.00591013394296,0.473151028349,-0.010913687798,0.165435695906,0.000442982964825,0.928942044543,0.369857591868,0.0164876641261
0.113696426153,0.020272931084,-0.138486653566,-2.50316309929,0.0273029822856,2.55453634262,-0.805061101913,0.0178114268929,0.000487740559038,-0.0832444429398,-5.71232048969e-05,0.0222915951163,-1.60036906891e-05,-0.0456574633718,-0.000373439164832,0.473353149232,-0.010879004268,0.166075643051,0.000511395332105,0.928930703282,0.369867946931,0.0168875247459
0.113697752357,0.01845773682,-0.13848438859,-2.5026371479,0.027302917093,2.55345797539,-0.805060327053,0.0178114268929,0.000325936125591,-0.111088700593,-0.000321469909977,0.0298317652196,-9.56489166128e-05,-0.0725202709436,0.000194112799363,0.473690953907,-0.0108337582225,0.167085709544,0.000635357926227,0.928915650555,0.369874746921,0.0175494087937
0.113695189357,0.0140347173437,-0.13848477602,-2.50144147873,0.0273005347699,2.55008482933,-0.80506002903,0.0178114268929,0.000295114208711,-0.171514704823,-0.000384577724617,0.0423280708492,-0.000365226907888,-0.138432651758,0.000128211046103,0.474243748891,-0.0107298269575,0.169245690474,0.000747751700984,0.928887921037,0.369889720045,0.0186618784844
0.113697588444,0.0109068537131,-0.138484418392,-2.50060725212,0.0273004155606,2.54725122452,-0.80506169796,0.0181167759001,-0.000789615500253,-0.189881742001,-0.00039483862929,0.0584516301751,-0.000286970142042,-0.189138308167,4.79914560856e-05,0.474538354609,-0.0106474838912,0.170768937933,0.000736068640998,0.928868948505,0.369906496248,0.0192644341629
0.113687127829,0.00765790697187,-0.138492688537,-2.4995443821,0.0273001790047,2.54383015633,-0.805059731007,0.0181167759001,-0.000659162004013,-0.21957154572,-0.000193964704522,0.0694827213883,-0.000344080646755,-0.235020786524,0.00024035750539,0.474828887246,-0.0105695344235,0.172383301791,0.000664103402168,0.928854744191,0.369915997968,0.0197630283973
0.113689772785,0.00276862503961,-0.138493299484,-2.49788141251,0.0272989440709,2.53846478462,-0.805060505867,0.0181167759001,0.000553089950699,-0.268572598696,0.00473533058539,0.0944502726197,-0.000211277496419,-0.299553602934,9.79249234661e-05,0.475260783783,-0.0104292688295,0.174954286409,0.00051565723448,0.928825095857,0.369951661886,0.0204803065236
0.113693453372,-0.01133255288,-0.138491466641,-2.49155163765,0.0272954888642,2.52096319199,-0.805061817169,0.0181167759001,1.13883907034e-05,-0.32640054822,0.000691866734996,0.169716864824,-0.000168816011865,-0.440434664488,0.000218155852053,0.476616449663,-0.0100589763454,0.182282741782,2.11704013413e-06,0.928740245197,0.37006655807,0.0221878171461
0.113698631525,-0.016978085041,-0.138487890363,-2.48869132996,0.0272935889661,2.51350021362,-0.805059015751,0.0181167759001,0.00178665027488,-0.362954318523,0.00130466988776,0.193994432688,0.000221081747441,-0.497970491648,-0.000130288943183,0.47718275014,-0.00990680323037,0.185369516476,-0.000235905495404,0.928702458952,0.370122366433,0.0228280668376
0.113695979118,-0.0228626783937,-0.138489291072,-2.4852604866,0.0272929985076,2.50515913963,-0.805059552193,0.0181167759001,-0.000204311159905,-0.363876789808,-0.00314421788789,0.233298033476,9.66265652096e-05,-0.548808455467,-0.000341119419318,0.477834003469,-0.00975581496244,0.188722130466,-0.000511414976822,0.928663101003,0.370182203921,0.0234460844172
0.113701611757,-0.0314101986587,-0.138487026095,-2.47968244553,0.0272917095572,2.49247527122,-0.805058538914,0.0181167759001,0.000930272624828,-0.411297529936,0.000461812858703,0.271290242672,0.000100442484836,-0.607964634895,6.27338595223e-05,0.478878670486,-0.00953560598027,0.193797179202,-0.000910875379582,0.928598887251,0.370283635038,0.0243578777851
0.11371447891,-0.0427000634372,-0.138452410698,-2.47186851501,0.0272878073156,2.47513079643,-0.8050583601,0.0181167759001,-0.00101334857754,-0.422398298979,-0.00116350711323,0.311609953642,-0.000837491767015,-0.670803427696,-0.000566162925679,0.480231500518,-0.00923530764894,0.20066569264,-0.00146957299212,0.92850155106,0.370449219074,0.025496780293
0.113705910742,-0.0505050234497,-0.138436406851,-2.46568512917,0.0272884946316,2.46277475357,-0.805056631565,0.0181574895978,0.000407671876019,-0.446821242571,0.000761025410611,0.374883919954,-0.00111539650243,-0.716534078121,-4.67691243102e-05,0.481365979821,-0.00905236467101,0.205729778873,-0.00177647246768,0.928430326994,0.370557631548,0.0264766585597
0.113716691732,-0.0578670240939,-0.138399139047,-2.45947742462,0.0272870473564,2.45087623596,-0.805056631565,0.0181574895978,-0.000287935050437,-0.459544301033,0.000815527746454,0.394240021706,0.000348672270775,-0.757147371769,-6.133934221e-05,0.482490035818,-0.00886792453027,0.210663996815,-0.00204018488488,0.928349881192,0.370686134582,0.0274613373373
0.113708369434,-0.0667522847652,-0.13833270967,-2.45162296295,0.0272817499936,2.43622303009,-0.8050583601,0.0181574895978,-0.00157699757256,-0.470890551805,0.0048015457578,0.424765795469,-0.000742052332498,-0.793435513973,0.00175381207373,0.483859504584,-0.00865447663683,0.21677707914,-0.0023434625695,0.928246558909,0.370850658645,0.0286814002973
0.113703101873,-0.0900837630033,-0.138045579195,-2.42877388,0.0272829737514,2.39653778076,-0.805056452751,0.0181574895978,0.000288028008072,-0.49569016695,0.00442516803741,0.524244070053,0.000560357060749,-0.871011018753,0.000268123549176,0.487681128182,-0.00808930262895,0.233850926472,-0.00293909084112,0.927917545721,0.371367364887,0.0323522807524
0.113709636033,-0.098022595048,-0.137923687696,-2.42019605637,0.0272788405418,2.38237833977,-0.805055260658,0.0181574895978,-0.00074529950507,-0.493698358536,0.0068515362218,0.5395398736,0.00121197139379,-0.899651587009,0.000192406296264,0.489007783445,-0.00790009632903,0.240011006934,-0.00311124060703,0.92778783082,0.371572999962,0.0336684800209
0.113708488643,-0.107624419034,-0.137720897794,-2.40935063362,0.0272807721049,2.36520433426,-0.80505502224,0.0181574895978,0.000707895087544,-0.500128686428,0.0120660625398,0.586692392826,-0.00031655334169,-0.907736420631,2.91263695544e-05,0.490667496206,-0.00766565880713,0.247713291822,-0.00323279047824,0.92761178055,0.371845417798,0.0354530477862
0.113699354231,-0.117623634636,-0.137433022261,-2.39726638794,0.0272793043405,2.3467168808,-0.805054545403,0.0181574895978,-0.000129155509057,-0.495861977339,0.0153420269489,0.603870689869,0.0012375714723,-0.935824811459,-0.000388267915696,0.492508812978,-0.00739351818127,0.256502258219,-0.00332592198802,0.927393516189,0.372189780316,0.0374829492689
0.113691829145,-0.131396740675,-0.136965155602,-2.37987494469,0.0272715371102,2.32027173042,-0.805049777031,0.0181574895978,-0.000396012794226,-0.506193876266,0.0238064527512,0.667945206165,-0.000680628116243,-0.992062330246,-0.00116754462942,0.494652769636,-0.00703514407551,0.267954337966,-0.00347390480882,0.927093145761,0.37267851509,0.0399619211425
0.113685667515,-0.140834584832,-0.136468142271,-2.36729359627,0.0272755343467,2.3013985157,-0.80503898859,0.0181673392653,-0.000810726487543,-0.488701790571,0.0288931503892,0.671034991741,0.0017764098011,-1.01835238934,-0.000537664454896,0.496071127194,-0.00671176459856,0.276383495364,-0.003591199915,0.926841766963,0.373114519908,0.041677296144
0.113672941923,-0.149267956614,-0.135960832238,-2.35549235344,0.0272748339921,2.28409957886,-0.80502218008,0.0181673392653,-0.000562374014407,-0.493405222893,0.0325520858169,0.709734797478,-0.000551425269805,-1.02731716633,0.00553224561736,0.497381124564,-0.00639330434595,0.284644256658,-0.00366476714834,0.926584304347,0.373560953522,0.0433625426746
0.113678567111,-0.15907356143,-0.135257169604,-2.34121990204,0.0272762738168,2.26350545883,-0.804855048656,0.0181673392653,0.00230877124704,-0.482933580875,0.0407771579921,0.707661151886,-0.00281703425571,-1.03438007832,0.0162324458361,0.498657199073,-0.00601145233066,0.29350214458,-0.00372654519468,0.926310587921,0.374028643574,0.045137357425
0.113646641374,-0.171632558107,-0.133983254433,-2.32196354866,0.027269680053,2.2364385128,-0.804448485374,0.0181673392653,0.00105005491059,-0.477614223957,0.0510690361261,0.755515575409,0.000256933504716,-1.05504560471,0.0159040726721,0.500274972458,-0.00536751689992,0.305926675241,-0.00371962749412,0.925897327525,0.374739187486,0.047653376576
0.113672472537,-0.178626090288,-0.133218377829,-2.31068277359,0.0272761974484,2.22038507462,-0.804076731205,0.0181673392653,0.000260151136899,-0.468469560146,0.0573290474713,0.767485022545,-0.000300105370115,-1.07102060318,0.0303681828082,0.501155077956,-0.00488069592658,0.314538034241,-0.00380190092475,0.925631855782,0.375202298636,0.0491370317843
0.113653607666,-0.186464995146,-0.132183521986,-2.29745817184,0.0272635836154,2.20229554176,-0.803318560123,0.0181673392653,-0.00154051615391,-0.454098314047,0.0627298727632,0.782671511173,-0.00157103850506,-1.07442510128,0.0617159567773,0.501654792586,-0.00459375621918,0.319387844491,-0.00378434796269,0.92549939701,0.375406558982,0.0500645583301
0.113672211766,-0.197499111295,-0.130474179983,-2.27792978287,0.0272665917873,2.17527270317,-0.801414847374,0.0181673392653,-0.000206108001294,-0.436236709356,0.0718470513821,0.822057425976,0.00189563061576,-1.07923126221,0.0801567584276,0.502709919108,-0.00364429716512,0.33335185246,-0.00388263941071,0.925244871253,0.375725630633,0.052317334608
0.113648235798,-0.208318799734,-0.128466799855,-2.25737071037,0.0272689629346,2.14705252647,-0.798687815666,0.0181673392653,0.000766864221077,-0.404988974333,0.0806331634521,0.823432266712,0.000324685242958,-1.08916509151,0.118644490838,0.503301078116,-0.00271116390964,0.34570495415,-0.00403279867291,0.92514117125,0.375739001477,0.0540162220496
0.113622553647,-0.216777592897,-0.126504093409,-2.24060940742,0.0272407028824,2.12430286407,-0.79595541954,0.0181673392653,0.000252562982496,-0.388370275497,0.0956132337451,0.763644099236,0.00099393108394,-1.08725452423,0.138857990503,0.503566406332,-0.00181097093916,0.355678053963,-0.00411225927444,0.925092551744,0.375668019804,0.0553208695852
0.113657601178,-0.223219648004,-0.124807320535,-2.22740769386,0.0272440686822,2.10591125488,-0.793399035931,0.0181745626032,0.00199210108258,-0.372110038996,0.10906919837,0.784753382206,-0.00311895506456,-1.07139027119,0.158781126142,0.503510405288,-0.000997677732004,0.363401419272,-0.0042977717821,0.92510701168,0.375526889937,0.0560187532397
0.113648727536,-0.229249894619,-0.122953020036,-2.21407842636,0.0272191427648,2.08750629425,-0.790534675121,0.0181745626032,-0.000115316768643,-0.337816387415,0.110954634845,0.76877784729,-0.00203045108356,-1.09591639042,0.172747075558,0.503353898677,-0.000138853932931,0.371003455351,-0.00448794640566,0.925164367261,0.375302870645,0.0565553432973
0.113641597331,-0.240163743496,-0.1192663908,-2.1888153553,0.0272186044604,2.05166172981,-0.783793509007,0.0181745626032,-0.000223766037379,-0.307976365089,0.116131462157,0.736696362495,-0.0026681534946,-1.07681024075,0.236628502607,0.502480992437,0.00158108761654,0.385101076537,-0.00511223824419,0.925519571494,0.374371050925,0.0568656637595
0.113630630076,-0.244253888726,-0.117572680116,-2.17863416672,0.027232280001,2.03663372993,-0.780408024788,0.0181745626032,-0.000508774246555,-0.286842703819,0.117592334747,0.749302685261,-5.394627442e-05,-1.05697488785,0.258225470781,0.501879075835,0.00237665788581,0.390582885463,-0.00550917251616,0.925771098069,0.373789198876,0.0565610951538
0.113637037575,-0.249204948545,-0.115388318896,-2.16548347473,0.0272210016847,2.01788187027,-0.775788605213,0.0181745626032,0.00459626596421,-0.273151755333,0.123709462583,0.706714093685,-0.0014495740179,-1.03859341145,0.25395861268,0.501192215622,0.00334211343765,0.397207220255,-0.00589223212198,0.926113133159,0.372970275947,0.056328670628
0.113634310663,-0.254522293806,-0.112610518932,-2.15119314194,0.0272246599197,1.99624657631,-0.770433843136,0.0181745626032,0.00218603038229,-0.244691893458,0.138318866491,0.678131580353,-0.000687451392878,-0.999148726463,0.265227109194,0.499930250276,0.00471523239433,0.405032435675,-0.00657170890154,0.926542673712,0.372032702244,0.0553818975636
0.113692872226,-0.258316069841,-0.110285118222,-2.13985705376,0.0272222626954,1.9795255661,-0.765911996365,0.0181745626032,0.00144912034739,-0.212401390076,0.137475416064,0.635878384113,-0.000405746861361,-0.965327501297,0.267824053764,0.498921581241,0.00591155737994,0.411106520997,-0.00706928849584,0.926908717083,0.371229198133,0.0545814757338
0.113801553845,-0.268853127956,-0.101943925023,-2.10602164268,0.0272056795657,1.92618465424,-0.750348567963,0.018183099106,0.00955540593714,-0.130910947919,0.130202025175,0.462209820747,-0.00149190111551,-0.789550185204,0.242903709412,0.494941877898,0.00987532196525,0.427259288171,-0.00896320279084,0.928131747536,0.36872285646,0.0503445629491
0.11397947371,-0.271387696266,-0.0994782671332,-2.09764480591,0.0271924156696,1.91193926334,-0.745455384254,0.018183099106,0.0141645232216,-0.124778993428,0.123795568943,0.42346560955,-0.00111855496652,-0.707944273949,0.264316141605,0.493595868705,0.0111422127936,0.431199460393,-0.00958629946573,0.928546458594,0.367879588767,0.0487256087589
0.115112192929,-0.275993227959,-0.0941554307938,-2.08160400391,0.026748592034,1.88080394268,-0.733210086823,0.018183099106,0.023179396987,-0.0598790235817,0.0862340629101,0.223294973373,-0.0212634783238,-0.519306898117,0.203232645988,0.490064240394,0.0141745327923,0.438229376728,-0.0112604228067,0.92964858454,0.365689030846,0.0435688483175
0.115451574326,-0.27673587203,-0.0929344445467,-2.07859230042,0.0264496337622,1.87317538261,-0.730272889137,0.018183099106,0.0192231945693,-0.0406418070197,0.0692510008812,0.156857207417,-0.0235680229962,-0.447292745113,0.170001909137,0.489008472912,0.0148756289789,0.439308408897,-0.0117803263674,0.929923345517,0.36519691475,0.0416534334044
0.115685231984,-0.277359098196,-0.0917081385851,-2.07618355751,0.0259355437011,1.86550045013,-0.727178096771,0.018183099106,0.0113735888153,-0.0357617251575,0.0642366558313,0.112273231149,-0.0382801704109,-0.41372859478,0.174322098494,0.487817424885,0.0154897238285,0.440027264836,-0.0123184994992,0.930246749425,0.364611962194,0.0393364521097
0.115835927427,-0.277718067169,-0.0905861333013,-2.07470917702,0.0249117482454,1.85809111595,-0.724098265171,0.018183099106,0.00540245324373,-0.00334737100638,0.0484223440289,0.0496105663478,-0.0761380717158,-0.369775563478,0.143744707108,0.486505207296,0.0159214710134,0.440181990564,-0.0127685300809,0.930594149038,0.36400491192,0.0364954544837
0.115958169103,-0.277560442686,-0.0895749554038,-2.07445788383,0.0212937239558,1.84795582294,-0.720014631748,0.018183099106,0.0035204582382,0.01805036515,0.0244230367243,-0.0111477486789,-0.178570792079,-0.341198593378,0.134282141924,0.484404660142,0.0158070104707,0.43919788443,-0.0127863922812,0.931096438833,0.363217959514,0.0311230354531
0.115902550519,-0.275901317596,-0.0894192382693,-2.07574176788,0.012761797756,1.8355332613,-0.71574985981,0.0181916374713,-0.00906115025282,0.0688354298472,-0.0105542466044,-0.0557966642082,-0.264905720949,-0.298627078533,0.093350097537,0.481659629032,0.0142665684925,0.436500421222,-0.0114619400612,0.931659726116,0.362455745091,0.0224635526954
0.115778923035,-0.274827986956,-0.089704297483,-2.07658672333,0.00845758896321,1.83127474785,-0.714371502399,0.0181916374713,-0.00723977712914,0.0729930475354,-0.0320912152529,-0.0683513209224,-0.325656443834,-0.272803068161,0.0915698111057,0.480688068589,0.0132621046155,0.435138818586,-0.0105372944689,0.931858862623,0.362177620248,0.0188519668066
0.114969283342,-0.269584804773,-0.0922200679779,-2.08029055595,-0.0106390696019,1.8199262619,-0.712222874165,0.0181916374713,-0.0275463983417,0.117216691375,-0.0716432929039,-0.086617410183,-0.463293224573,-0.198767125607,0.0133064724505,0.478041053713,0.00806039403652,0.42968277306,-0.00531711950718,0.932157406185,0.36196057945,0.00623192937598
0.114398635924,-0.267406374216,-0.0937496572733,-2.08179855347,-0.0187446251512,1.81662154198,-0.712076961994,0.0182054266334,-0.0392984412611,0.148709863424,-0.100585572422,-0.0843410640955,-0.481099873781,-0.188452705741,0.00184282299597,0.47723988837,0.0055147199744,0.427591733407,-0.00288833104563,0.932217850233,0.361882301783,0.00165426491317
0.11345192045,-0.264128178358,-0.0959356501698,-2.08350634575,-0.0287246089429,1.81301105022,-0.712068676949,0.0182054266334,-0.0571852624416,0.170161694288,-0.111031599343,-0.085807621479,-0.511927962303,-0.176864996552,-0.0056355916895,0.476425093815,0.00212091021431,0.424870362751,8.10539821018e-05,0.932323462381,0.361603513623,-0.00398165104665
0.109611473978,-0.254775077105,-0.10383951664,-2.08741307259,-0.0554306730628,1.80525755882,-0.712101876736,0.0182054266334,-0.0880569815636,0.202577024698,-0.195025578141,-0.0693898722529,-0.546237468719,-0.129617899656,-0.00521375611424,0.4747214506,-0.00857086714888,0.417904736522,0.0080492354313,0.933004002604,0.359318814372,-0.0181309199042
0.108014814556,-0.251589268446,-0.107157878578,-2.08845949173,-0.0642216131091,1.80338692665,-0.712175607681,0.0182054266334,-0.107311114669,0.197124838829,-0.224433720112,-0.0625101178885,-0.544787049294,-0.10854550451,-0.00330348825082,0.474313204341,-0.0125885253781,0.415760632735,0.010693314256,0.933346535736,0.358116707382,-0.0224125152054
0.106008589268,-0.247975960374,-0.111311517656,-2.08942532539,-0.0734451189637,1.80170714855,-0.712385237217,0.0182054266334,-0.12272323668,0.223892733455,-0.25912129879,-0.0524931773543,-0.544003546238,-0.0955088660121,-0.0156407058239,0.473950662706,-0.0172781637476,0.41347672476,0.0133953111366,0.933827520417,0.356463446587,-0.0268428516288
0.103410623968,-0.243373006582,-0.116726659238,-2.0903134346,-0.0841017365456,1.80014610291,-0.712947309017,0.0182054266334,-0.143447890878,0.231932282448,-0.283399909735,-0.0340140126646,-0.540859043598,-0.0723979398608,-0.0343716181815,0.473630193058,-0.0231173911589,0.410785738405,0.0164566297172,0.934442310129,0.354300983875,-0.0318992302341
0.095991268754,-0.233783558011,-0.130455687642,-2.0914440155,-0.106510527432,1.79740583897,-0.714705705643,0.0182054266334,-0.19344907999,0.230446457863,-0.356221169233,-0.0182502064854,-0.483744174242,-0.0462349317968,-0.0402041785419,0.472857055618,-0.0377849328066,0.405463340101,0.0228203588482,0.936307248766,0.347889502661,-0.0422002459151
0.0921889320016,-0.229386404157,-0.137535095215,-2.09163713455,-0.115575544536,1.79654562473,-0.71578335762,0.0182054266334,-0.207928106189,0.218011260033,-0.392696350813,-0.00709618395194,-0.470977991819,-0.0414834171534,-0.0707936435938,0.47251148059,-0.0443259935536,0.403371927859,0.0249799900333,0.937264835081,0.344651826993,-0.046105822351
0.088604837656,-0.22595500946,-0.144314095378,-2.09171247482,-0.123442076147,1.79584860802,-0.717346489429,0.0182054266334,-0.219418019056,0.195273146033,-0.406887114048,-0.00233804318123,-0.455114006996,-0.033651150763,-0.105241261423,0.472052034614,-0.0511274795594,0.401582477767,0.0270239141808,0.93822404392,0.341378751893,-0.0496578182778
0.0834135189652,-0.221765816212,-0.153682723641,-2.09169006348,-0.133368268609,1.79516100883,-0.720049083233,0.0182054266334,-0.238859117031,0.186514258385,-0.432899653912,0.000468004465802,-0.440683156252,-0.0231455247849,-0.142059549689,0.471394676904,-0.0595340562668,0.399662050141,0.0292557269876,0.93940626517,0.337330404406,-0.0535552924309
0.0758983641863,-0.216581448913,-0.167261883616,-2.0916852951,-0.146038547158,1.79477441311,-0.724635124207,0.0182054266334,-0.25758087635,0.152385383844,-0.467391848564,0.00128804938868,-0.400906741619,-0.0127434227616,-0.172901391983,0.470211173258,-0.0719222661184,0.397168971447,0.0320251464657,0.941153066125,0.331322615783,-0.0585714954159
0.0673709288239,-0.212527513504,-0.182292819023,-2.0915760994,-0.158541023731,1.79424548149,-0.730701804161,0.0182054266334,-0.282760888338,0.123400405049,-0.502210915089,0.00978092383593,-0.403190284967,-0.0218521226197,-0.21152125299,0.468370983692,-0.0858575760963,0.395153958287,0.0346005143018,0.943089321894,0.32461887122,-0.0633081627896
0.061187017709,-0.210230544209,-0.192919820547,-2.09127473831,-0.167250275612,1.79368281364,-0.735486447811,0.0182310361415,-0.302567392588,0.0910994037986,-0.50396668911,0.0213636234403,-0.423915237188,-0.0303792059422,-0.242713630199,0.466927072232,-0.0949770588045,0.394180583469,0.0362452253478,0.944285956925,0.320361082588,-0.0661747054786
0.0527762658894,-0.208118647337,-0.206568136811,-2.09034633636,-0.178843259811,1.79274356365,-0.74233007431,0.0182310361415,-0.313907653093,0.0682695582509,-0.514702379704,0.0497142598033,-0.423157632351,-0.0335756316781,-0.26476624608,0.464700080399,-0.107546339055,0.393489117266,0.0387214489662,0.945830012884,0.314721789918,-0.0696880962349
0.0465580448508,-0.206824749708,-0.216822013259,-2.08907318115,-0.187037408352,1.79221200943,-0.747909784317,0.0182310361415,-0.321548074484,0.0530920140445,-0.521196424961,0.0848411545157,-0.415228486061,-0.0248383656144,-0.284596979618,0.462915123924,-0.117371493781,0.393372944915,0.04060958846,0.947004124543,0.310419180645,-0.0719303927435
0.0400865636766,-0.205843925476,-0.227375790477,-2.0870449543,-0.195706024766,1.79163324833,-0.754072606564,0.0182310361415,-0.329775869846,0.0422537215054,-0.538318037987,0.118386596441,-0.437409281731,-0.031734533608,-0.313434749842,0.461228995946,-0.126524846455,0.393734250437,0.0426015291863,0.94802934193,0.306590428861,-0.0736735038503
0.0341316945851,-0.205118104815,-0.237077996135,-2.08454871178,-0.203716367483,1.79090070724,-0.759918689728,0.0182310361415,-0.322700113058,0.0361328534782,-0.534294128418,0.1567145437,-0.446659773588,-0.0483825840056,-0.327492117882,0.459525694087,-0.135450276094,0.39442873414,0.0446442477085,0.949005229947,0.302892540102,-0.075180273469
0.0286265704781,-0.204543665051,-0.245905816555,-2.0816719532,-0.211339563131,1.79006767273,-0.76554942131,0.0182310361415,-0.32188269496,0.0284723713994,-0.509760916233,0.184500232339,-0.448431938887,-0.0438965074718,-0.339789837599,0.457921046354,-0.143701049934,0.395375944505,0.046734634161,0.949841597358,0.299617470343,-0.0764603495496
0.0190621688962,-0.204128086567,-0.261483669281,-2.07531881332,-0.224303036928,1.78885197639,-0.776127755642,0.0182310361415,-0.301471859217,0.0066032842733,-0.525513589382,0.247153371572,-0.402855336666,-0.0394187830389,-0.368850708008,0.455118215945,-0.158177097577,0.397907914632,0.0506186765794,0.951273549288,0.294042183809,-0.0778175933657
0.0139801846817,-0.204053714871,-0.27041849494,-2.0708026886,-0.231092080474,1.7884067297,-0.782329201698,0.0182310361415,-0.293210655451,0.00026696594432,-0.519346177578,0.280871868134,-0.38732329011,-0.0246489923447,-0.364795953035,0.453656442694,-0.16624233989,0.399832521104,0.0528772523147,0.952087325943,0.290955471176,-0.0779655914352
0.00334372418001,-0.204191207886,-0.288765460253,-2.05967187881,-0.244637280703,1.78753697872,-0.795068025589,0.0182763468474,-0.289955288172,-0.00560065172613,-0.49061319232,0.333047628403,-0.339411884546,-0.0260048378259,-0.354691028595,0.450608880387,-0.182977260844,0.404766182046,0.0578931962086,0.953852093805,0.284283292146,-0.077443982806
-0.00926810968667,-0.204937204719,-0.310461074114,-2.04317975044,-0.257975637913,1.78699219227,-0.811017870903,0.0182763468474,-0.252359598875,-0.0314415954053,-0.463529407978,0.377740383148,-0.228389650583,-0.00189127237536,-0.337969690561,0.447023990526,-0.203020061845,0.412538120294,0.0639739951883,0.956128889086,0.275967405394,-0.0746114350885
-0.0138122942299,-0.205581218004,-0.319140762091,-2.03609800339,-0.2620036304,1.78696799278,-0.817429482937,0.0182763468474,-0.225645124912,-0.0418990775943,-0.455554574728,0.377299666405,-0.200325757265,-0.00123891991097,-0.334182411432,0.44571555452,-0.21006408212,0.415756008548,0.0660043448639,0.956995362995,0.272921975035,-0.0729170549242
-0.0210830196738,-0.20751413703,-0.333904832602,-2.0239405632,-0.267827957869,1.78697180748,-0.828285574913,0.0182763468474,-0.197718337178,-0.0840365663171,-0.396565437317,0.328275203705,-0.139878019691,-0.000185450015124,-0.27874571085,0.442912205437,-0.223346628654,0.422468092946,0.0697897129632,0.958698371828,0.266975068121,-0.0689285174117
-0.0271531622857,-0.210768356919,-0.346014112234,-2.01378893852,-0.271821767092,1.78697347641,-0.837372004986,0.0182763468474,-0.163197427988,-0.105705529451,-0.321754008532,0.262532323599,-0.103238545358,-0.000217490189243,-0.249093934894,0.440622019791,-0.232362886188,0.427793093396,0.0724038904332,0.959917054755,0.262773165371,-0.0653237161664
-0.0285737942904,-0.211805969477,-0.348839938641,-2.01149940491,-0.27265265584,1.78697252274,-0.839547634125,0.018286196515,-0.154110789299,-0.123410657048,-0.299377650023,0.240667894483,-0.0855738446116,-0.00011892170005,-0.229859262705,0.439878952186,-0.234915271905,0.429404135379,0.073138501612,0.96026734631,0.261570148847,-0.0641750739466
-0.0348361767828,-0.218737870455,-0.3608327806,-2.00281667709,-0.274654775858,1.78697991371,-0.850337922573,0.018286196515,-0.114593632519,-0.160984873772,-0.192445293069,0.116111725569,-0.000522817543242,-8.58470448293e-05,-0.207863166928,0.436512423009,-0.244147571454,0.435973412618,0.0753334715259,0.961531897804,0.257532033763,-0.058809258203
-0.0364936701953,-0.221680954099,-0.363795638084,-2.00122117996,-0.274652183056,1.78697574139,-0.853771686554,0.018286196515,-0.0854429677129,-0.187641859055,-0.154733642936,0.0712800696492,-0.0006216619513,-0.000232468621107,-0.198542296886,0.435386870298,-0.246373258822,0.437896611535,0.0756971416207,0.961817411791,0.256766751532,-0.0569916145198
-0.0377820283175,-0.225143790245,-0.36610147357,-2.00041174889,-0.274629086256,1.78698527813,-0.857277572155,0.018286196515,-0.0599496513605,-0.183331221342,-0.107997193933,0.0258531682193,0.00125434237998,1.69711438502e-05,-0.184519305825,0.434297447927,-0.248043522976,0.43970352577,0.0759986350607,0.961952425585,0.256561165132,-0.055209660542
-0.038795940578,-0.230192020535,-0.368318229914,-2.00041246414,-0.274310678244,1.78695392609,-0.862030029297,0.018286196515,-0.01653698273,-0.182687669992,-0.0526737906039,-0.0129000758752,0.0240385718644,-0.000670516106766,-0.154917597771,0.432975919698,-0.249393253005,0.441808472151,0.0761519830064,0.961921455803,0.2571055606,-0.0529595954446
-0.0388635732234,-0.233654722571,-0.36890912056,-2.00094056129,-0.273333013058,1.78695571423,-0.865105092525,0.018286196515,0.00345187541097,-0.172398731112,-0.01047850959,-0.0353995151818,0.0815954953432,0.000989081338048,-0.148386001587,0.432404307941,-0.249431962202,0.443018531092,0.0759553134993,0.961757583417,0.258099051011,-0.0513616651819
-0.0386002063751,-0.236557930708,-0.368813872337,-2.0017850399,-0.271409422159,1.78695774078,-0.867680370808,0.018286196515,0.0312683172524,-0.150265261531,0.0156633350998,-0.0550473593175,0.147151485085,0.000123140533105,-0.143613681197,0.432145525116,-0.248814872538,0.443831095329,0.0753243483942,0.961565846071,0.259292174755,-0.0498491124445
-0.0378508456051,-0.238972619176,-0.368382811546,-2.00293731689,-0.268340796232,1.78696644306,-0.870112717152,0.018286196515,0.0611514002085,-0.138609156013,0.0384770482779,-0.0812349691987,0.211025863886,-8.49705829751e-05,-0.146925270557,0.432169545713,-0.247503775437,0.444275410937,0.0740538427441,0.961326397663,0.260845602489,-0.0482406144847
-0.0330951325595,-0.244568318129,-0.365425229073,-2.00884175301,-0.252962291241,1.78697562218,-0.875848829746,0.018286196515,0.134384527802,-0.096547536552,0.0828329250216,-0.163690149784,0.424482196569,0.000583527958952,-0.103472456336,0.433333397034,-0.240704134812,0.443540232584,0.0674933345994,0.960606073854,0.266039712129,-0.0436290261353
-0.0306408647448,-0.245920524001,-0.363752096891,-2.01185941696,-0.245157346129,1.78698384762,-0.877588331699,0.018286196515,0.15661726892,-0.0722482353449,0.114161074162,-0.195751532912,0.487590700388,1.4317226487e-05,-0.0989284291863,0.434110880643,-0.237108673806,0.442537674629,0.0639408701289,0.960294785756,0.268305267378,-0.041925800719
-0.0273233801126,-0.247074529529,-0.361447691917,-2.01593160629,-0.234757199883,1.78698682785,-0.879262149334,0.018286196515,0.189043492079,-0.0567575879395,0.122863315046,-0.230038478971,0.591976106167,0.00047828417155,-0.0910111889243,0.435199791017,-0.232252099,0.440914178977,0.0591131158235,0.959907587192,0.271079829175,-0.039984865829
-0.0238899011165,-0.247970104218,-0.35924038291,-2.02017712593,-0.224037989974,1.7869976759,-0.880792140961,0.0182888228446,0.213282734156,-0.0382364168763,0.145688891411,-0.271945267916,0.666329503059,-0.000114394933917,-0.0893049091101,0.436334564088,-0.226988003225,0.438979007385,0.0537336010805,0.9594920893,0.273933516297,-0.038053370754
-0.0127853918821,-0.248894065619,-0.351270437241,-2.03500580788,-0.189366415143,1.78712701797,-0.884524464607,0.0182888228446,0.264883130789,-0.00265397434123,0.202998921275,-0.37759527564,0.825705647469,0.000760811497457,-0.0619423165917,0.439592836442,-0.21075173897,0.432059978992,0.0372072118183,0.958042343923,0.282190533258,-0.0337489743553
-0.00781155191362,-0.248854100704,-0.347446233034,-2.04227805138,-0.173865035176,1.78714156151,-0.885376751423,0.0182888228446,0.292970597744,0.00254913582467,0.218879178166,-0.423013150692,0.879659235477,0.000153049943037,-0.0428022108972,0.440865674646,-0.203133072251,0.428494327421,0.0294394808254,0.957340173375,0.285632250458,-0.0323624257541
-0.00171271001454,-0.248596414924,-0.342803806067,-2.05123543739,-0.155500769615,1.78715324402,-0.886251151562,0.0182888228446,0.3130171597,0.0184429157525,0.242115333676,-0.46074166894,0.950170993805,0.00494760926813,-0.0534166172147,0.442161216293,-0.194392880049,0.424315318214,0.0205999859508,0.956446902872,0.289511182417,-0.0311165151013
0.00794932618737,-0.247675254941,-0.335609465837,-2.06548976898,-0.12659291923,1.78731966019,-0.887312889099,0.0182888228446,0.351122915745,0.0443727150559,0.266395390034,-0.523964703083,1.01733839512,-0.000133689085487,-0.0321752689779,0.444049821765,-0.179403520854,0.416997362952,0.00534794145672,0.954788966338,0.295773394859,-0.0294538259867
0.0131809785962,-0.246978566051,-0.331510603428,-2.07331061363,-0.111580692232,1.78736245632,-0.887650668621,0.0182914491743,0.366731852293,0.0530889593065,0.283248960972,-0.555494308472,1.06156075001,-0.00057287531672,-0.0152774807066,0.444897024142,-0.170850036486,0.41275481819,-0.00313869816346,0.953723383778,0.299266484609,-0.0290073557662
0.0201020408422,-0.245822831988,-0.326271921396,-2.0836224556,-0.0913579761982,1.78746879101,-0.88788408041,0.0182914491743,0.377896219492,0.0701783895493,0.287272751331,-0.553610503674,1.12173748016,0.0167989134789,-0.00521303201094,0.445694895327,-0.161202850961,0.40794547704,-0.0128952491921,0.952512749346,0.302879933326,-0.0285818222075
0.0277895685285,-0.243869632483,-0.32039090991,-2.09506320953,-0.0686143115163,1.78762161732,-0.888002812862,0.0182914491743,0.396757036448,0.102278754115,0.301380634308,-0.58814150095,1.15854609013,0.00885659363121,0.000219958310481,0.446463754068,-0.149634389518,0.402032524954,-0.0246913737126,0.95098054206,0.306945535144,-0.028474248588
0.0395164303482,-0.240612789989,-0.311242312193,-2.11221981049,-0.0343787781894,1.78790163994,-0.888049840927,0.0182914491743,0.413021117449,0.150005444884,0.330686211586,-0.588931322098,1.18709445,0.0136695615947,-0.000361716141924,0.447185103765,-0.132067637068,0.393249282185,-0.0423810037356,0.948427317042,0.312828469471,-0.0287719166555
0.048354499042,-0.237184166908,-0.30431240797,-2.12482070923,-0.00873471144587,1.78827273846,-0.888056159019,0.0182914491743,0.422633528709,0.174971193075,0.326619416475,-0.607500731945,1.21458721161,0.0242812968791,9.65071812971e-05,0.447463330974,-0.118929326678,0.386527197333,-0.0556045277061,0.946349377579,0.316948985957,-0.0295691062454
0.0558961369097,-0.233948811889,-0.298365354538,-2.13553404808,0.0141311688349,1.78881287575,-0.888057172298,0.0182914491743,0.414563447237,0.178811505437,0.327113330364,-0.58551967144,1.30795884132,0.0446938574314,0.000272670469712,0.447529302174,-0.10757460113,0.380814204846,-0.0672230264873,0.944506854533,0.320116582563,-0.0302198561458
0.0617853850126,-0.231126815081,-0.293586194515,-2.14379405975,0.0323971100152,1.78939247131,-0.888055384159,0.0182914491743,0.435837179422,0.217841297388,0.351704895496,-0.592096567154,1.32284891605,0.0351488664746,0.00017760542687,0.447499356665,-0.0986198555157,0.376366676454,-0.0763909531412,0.943002819445,0.322432284867,-0.0307819128631
0.0810093805194,-0.220422267914,-0.277814358473,-2.16929030418,0.091916590929,1.79157829285,-0.888043403625,0.0182947330177,0.422622740269,0.2622435987,0.345329910517,-0.559669435024,1.36687231064,0.0810437276959,-1.53600794874e-05,0.446789089075,-0.0697052799461,0.36231877913,-0.105813354156,0.937761959105,0.329081980757,-0.0333330431355
0.0896723866463,-0.214851751924,-0.270692586899,-2.18043398857,0.120192214847,1.79337882996,-0.888037919998,0.0182947330177,0.429388225079,0.281055808067,0.360137045383,-0.539003312588,1.43182766438,0.0999054685235,-0.000272947858321,0.446276241323,-0.0566041643164,0.356119153236,-0.119357486003,0.935305865284,0.331326171577,-0.0343467118526
0.0964548513293,-0.210380807519,-0.264915436506,-2.18867683411,0.143237888813,1.79505550861,-0.888020157814,0.0182947330177,0.418091744184,0.277242124081,0.354583919048,-0.508786320686,1.4428486824,0.126784667373,0.00367448781617,0.445892237524,-0.046208065634,0.351571492995,-0.130085717506,0.933333090617,0.332797477013,-0.0348265278163
0.123926877975,-0.191107019782,-0.241390690207,-2.21885228157,0.240651845932,1.80605089664,-0.887620985508,0.0182947330177,0.40216678381,0.303673386574,0.357607275248,-0.396257281303,1.49640023708,0.214936196804,0.00658573349938,0.444469389752,-0.00443353852534,0.335204623121,-0.173008388761,0.925271377061,0.335770381772,-0.0346298515316
0.12988756597,-0.186607033014,-0.23602424562,-2.22456026077,0.263149738312,1.80926454067,-0.887435615063,0.0182947330177,0.392129868269,0.295794427395,0.354329675436,-0.361002027988,1.50565814972,0.213269948959,0.0135643258691,0.44428003089,0.00473681215017,0.33213612142,-0.182373244319,0.923494444138,0.335766332939,-0.0340438063414
0.138727620244,-0.180189028382,-0.22785140574,-2.23230719566,0.297245174646,1.81474602222,-0.887079000473,0.0182947330177,0.383530467749,0.271774083376,0.376035839319,-0.314995765686,1.45546746254,0.249089315534,0.0225418750197,0.444180875145,0.0189635727446,0.328009957436,-0.196673785223,0.92074820228,0.335396084545,-0.0324289432252
0.149614155293,-0.17253613472,-0.21697036922,-2.2403318882,0.339774638414,1.82336485386,-0.886459290981,0.0182947330177,0.357141345739,0.231494545937,0.362420588732,-0.245210558176,1.40512526035,0.323612272739,0.0223943274468,0.444606147522,0.0352430532356,0.324264909684,-0.21222479716,0.917656439344,0.334672197855,-0.0293566766667
0.155817195773,-0.168669447303,-0.210538953543,-2.24428772926,0.364253044128,1.82918715477,-0.886071622372,0.0182947330177,0.341859430075,0.212427347898,0.364115357399,-0.209011211991,1.3713350296,0.334111958742,0.0282191447914,0.44508199459,0.0448305044722,0.322624486664,-0.221046610647,0.915859650327,0.334096109403,-0.0268195113154
0.159948050976,-0.166234463453,-0.20620110631,-2.24659943581,0.380390048027,1.83329844475,-0.885747849941,0.0182947330177,0.341149777174,0.204654797912,0.361269682646,-0.193875029683,1.33864212036,0.343271583319,0.0262236054987,0.445557555404,0.0521805634363,0.321619670426,-0.227605404071,0.914493590745,0.333603566428,-0.0246152934525
0.168049916625,-0.161710783839,-0.197482898831,-2.25000095367,0.41090130806,1.84189653397,-0.884875833988,0.0183039270341,0.324733227491,0.171603888273,0.364957600832,-0.111403644085,1.18547868729,0.369710534811,0.0438498035073,0.446545163963,0.0633005086115,0.320599247597,-0.236930121024,0.912449192193,0.332965554614,-0.020845348107
0.175787121058,-0.158209964633,-0.188256978989,-2.25221276283,0.439845174551,1.85165262222,-0.883748650551,0.0183039270341,0.295267373323,0.11592849344,0.362926125526,-0.0690861493349,1.10869896412,0.415562719107,0.0390181094408,0.448000870757,0.0750637513371,0.320376293941,-0.245895565331,0.910361881207,0.33245500527,-0.0158204091566
0.182442948222,-0.155893102288,-0.17983739078,-2.25319623947,0.463381797075,1.86177062988,-0.882992506027,0.0183039270341,0.28094124794,0.0733322352171,0.368298649788,-0.0233127493411,0.935885250568,0.465656101704,0.0326649695635,0.449780255924,0.0854002855742,0.320890839575,-0.252643100829,0.908566393326,0.332525847179,-0.010253446224
0.186581447721,-0.154972091317,-0.174304664135,-2.25340628624,0.47677525878,1.86891806126,-0.882495284081,0.0183039270341,0.269579708576,0.0458911694586,0.370786488056,-0.00541753694415,0.855695724487,0.49595105648,0.0361203476787,0.450933195225,0.0910140589073,0.321501520234,-0.255634616455,0.907621313321,0.332909653813,-0.00675696321954
0.191640973091,-0.154581651092,-0.16691172123,-2.2533352375,0.492434024811,1.87910628319,-0.881587147713,0.0183039270341,0.233465820551,-0.00258329580538,0.381188571453,0.00632105674595,0.718833982944,0.53222489357,0.0512705668807,0.452707931573,0.0984339936663,0.322759927935,-0.258816306199,0.906471500644,0.333648838507,-0.0014108179224
0.201823145151,-0.155757188797,-0.149151176214,-2.25226974487,0.519416451454,1.90625798702,-0.878790557384,0.0183039270341,0.197219893336,-0.0606810413301,0.369880974293,0.0311562661082,0.433586448431,0.593663752079,0.0723586380482,0.457282196462,0.113495904357,0.326474117309,-0.261473263768,0.904539836751,0.336597650056,0.0118927591529
0.213765159249,-0.16250449419,-0.118720337749,-2.24712657928,0.534803509712,1.95681035519,-0.870206475258,0.0183091796935,0.0925871729851,-0.0780367255211,0.32911798358,0.0800128057599,-0.00340089784004,0.573716163635,0.13305079937,0.465706571009,0.132033631982,0.334624667435,-0.252676813024,0.903313656699,0.34493280639,0.0346442568771
0.216301262379,-0.165842399001,-0.10788295418,-2.24446702003,0.532710015774,1.97580134869,-0.864953219891,0.0183091796935,0.0691581368446,-0.0988489314914,0.305166035891,0.0827924609184,-0.148984909058,0.544532895088,0.188983768225,0.468879848551,0.136678629754,0.337888835821,-0.246571577274,0.903510667308,0.34793846536,0.0425412193212
0.217352077365,-0.167488962412,-0.102836191654,-2.24297356606,0.528888881207,1.98539912701,-0.861135065556,0.0183091796935,0.054793484509,-0.0857640355825,0.263919591904,0.0852819830179,-0.262485831976,0.511606693268,0.23096562922,0.470663089523,0.138531747776,0.33957684263,-0.242137576921,0.903932018815,0.349453301496,0.046461693417
0.219009280205,-0.170647636056,-0.0953359305859,-2.24048805237,0.517133772373,2.0003554821,-0.853526711464,0.018311150372,0.0522479899228,-0.106216445565,0.213554024696,0.0822138637304,-0.509063243866,0.4515209198,0.252886921167,0.47324097377,0.140299805602,0.342079144586,-0.233299695808,0.904865286473,0.352313837632,0.051623877832
0.219855546951,-0.172314494848,-0.0919115096331,-2.23903656006,0.506754040718,2.00818514824,-0.848716437817,0.018311150372,0.0374587513506,-0.0842887163162,0.169850036502,0.0802720859647,-0.629528462887,0.414174765348,0.281550675631,0.474627942675,0.140411238583,0.343218014159,-0.227032521401,0.905564770089,0.354280364431,0.0537968814801
0.220354124904,-0.173590004444,-0.0896999016404,-2.23798346519,0.497187584639,2.01384115219,-0.844616413116,0.018311150372,0.0342835485935,-0.10126747936,0.150436744094,0.0755871087313,-0.736807405949,0.388727992773,0.305860489607,0.475653676715,0.140034698224,0.343966288432,-0.221703010239,0.906220033169,0.355775306874,0.0551085967089
0.220871478319,-0.175604343414,-0.0869329422712,-2.23656892776,0.48090955615,2.02125811577,-0.838319540024,0.018311150372,0.0219407435507,-0.0954488366842,0.119791805744,0.0718618035316,-0.889997303486,0.351086109877,0.326075732708,0.477001074054,0.138900408662,0.344930457479,-0.213211309697,0.907231937268,0.358167912836,0.0564525934833
0.221475571394,-0.178075417876,-0.0842465534806,-2.23430609703,0.451701134443,2.0305621624,-0.827647387981,0.018311150372,0.0215368475765,-0.078798212111,0.0647036284208,0.0759297460318,-1.05458116531,0.278114050627,0.381390064955,0.47888904202,0.135879423873,0.345889835307,-0.199055510118,0.908989730443,0.361750836733,0.0570167137044
0.221731588244,-0.179589882493,-0.0832734629512,-2.23279953003,0.430447816849,2.0352666378,-0.820045232773,0.018311150372,0.00887538958341,-0.0748171582818,0.0385389700532,0.0823854580522,-1.16216289997,0.224269703031,0.413174569607,0.479976582654,0.133240412812,0.34635550402,-0.189259016048,0.910207549282,0.364005870392,0.0565947707354
0.22175219655,-0.180822595954,-0.0828808248043,-2.23121500015,0.407606631517,2.03921031952,-0.811786353588,0.018311150372,-0.00664961803705,-0.0581085346639,0.00459509668872,0.0835229679942,-1.28196537495,0.1896083951,0.452742487192,0.481058680119,0.13002525397,0.346653920515,-0.179004187407,0.911545476234,0.36598860735,0.0556298895984
0.221685513854,-0.181560844183,-0.0828663632274,-2.23010802269,0.39114522934,2.04160475731,-0.805954217911,0.018311150372,-0.00163440732285,-0.054441768676,-0.000174738510395,0.0797921791673,-1.28408551216,0.17393258214,0.451069921255,0.481802166634,0.127558130543,0.346797410928,-0.171713144992,0.912471753034,0.367304174073,0.0547497866627
0.220509469509,-0.183993861079,-0.0833276286721,-2.22616314888,0.321551173925,2.04826259613,-0.781900525093,0.0183118060231,-0.0404230728745,-0.0327929258347,-0.0129335829988,0.0785374641418,-1.50084400177,0.0978910848498,0.525543749332,0.484355990593,0.116511178745,0.346891153947,-0.14152791681,0.915900086411,0.372363525475,0.0494194804941
0.218932539225,-0.185311600566,-0.0840672105551,-2.22319412231,0.263589382172,2.04998612404,-0.762094259262,0.0183118060231,-0.0441981181502,-0.0255887433887,-0.0264776330441,0.0831608697772,-1.61778593063,0.00794724281877,0.5290107131,0.48590905142,0.106869960855,0.346667548676,-0.116965450482,0.918166144655,0.376049004236,0.0433262079676
0.218122839928,-0.185612812638,-0.0845560207963,-2.22175383568,0.235832497478,2.05003261566,-0.752977609634,0.0183118060231,-0.0470554158092,-0.0113496221602,-0.0259972084314,0.0851031914353,-1.64657568932,8.7888467533e-05,0.541299700737,0.486585045477,0.102143746777,0.34649613469,-0.105283661022,0.919012989094,0.377789297813,0.0400714703723
0.215806096792,-0.186244413257,-0.086047925055,-2.21811270714,0.157383576035,2.04975152016,-0.727015554905,0.0183118060231,-0.0520722903311,-0.00623124744743,-0.0230775214732,0.0779924243689,-1.74848771095,-0.0242912676185,0.567934989929,0.488572474735,0.0882890385402,0.346208492546,-0.071393594973,0.920822716354,0.382166648459,0.0306126139193
0.214815497398,-0.186368718743,-0.0866378247738,-2.21658778191,0.123835325241,2.04890012741,-0.716321706772,0.0183118060231,-0.0512105673552,-0.00354453758337,-0.0335743874311,0.0815467685461,-1.77524852753,-0.0596018210053,0.553051233292,0.489296842997,0.0827720414647,0.346185905467,-0.0579618918111,0.92115865744,0.383922756746,0.026654520364
0.213208541274,-0.18667922914,-0.0878958776593,-2.21357488632,0.0574778541923,2.04585385323,-0.695073008537,0.0183170605451,-0.0355475284159,-0.00284876301885,-0.0285909492522,0.0833295509219,-1.81672537327,-0.0993637219071,0.57791018486,0.49068214563,0.0712970419888,0.346485954907,-0.0299303356788,0.921288423326,0.387302146119,0.0181345897258
0.212042167783,-0.186820372939,-0.0888796299696,-2.21074414253,0.00271892291494,2.04122519493,-0.677941858768,0.0183170605451,-0.0369821153581,-0.000565121590625,-0.032267332077,0.109556496143,-1.81648778915,-0.208014056087,0.564037024975,0.491679213065,0.0615050661578,0.347122098958,-0.00607200366978,0.92070781566,0.390069799982,0.0102859018998
0.211499482393,-0.186819031835,-0.0893849432468,-2.20893073082,-0.0265021324158,2.03761529922,-0.66892772913,0.0183170605451,-0.0264825280756,-0.00274414289743,-0.0327910259366,0.121106036007,-1.83692860603,-0.248188436031,0.581419229507,0.492082990778,0.0567548752562,0.347591257771,0.00545661088828,0.92020614597,0.391347032139,0.00619471017544
0.211019277573,-0.186844944954,-0.0900120288134,-2.20650815964,-0.061449021101,2.03235077858,-0.657980322838,0.0183170605451,-0.0162156205624,0.000225963711273,-0.0292604025453,0.134796962142,-1.84116172791,-0.307635933161,0.591316819191,0.49253266761,0.0507036406332,0.348389890829,0.0201642898014,0.919410110087,0.392782185788,0.00077787945952
0.210666701198,-0.186862722039,-0.0905691683292,-2.20388197899,-0.09437943995,2.0261361599,-0.647655129433,0.0183170605451,-0.0239961352199,-0.00633779214695,-0.027219556272,0.150064229965,-1.83596158028,-0.369901001453,0.563925087452,0.492854956961,0.0449828080172,0.349350962927,0.0340190291306,0.918479504525,0.393975210981,-0.00465169193466
0.210117042065,-0.18692818284,-0.0915961712599,-2.19564628601,-0.183363422751,2.00466895103,-0.620979547501,0.0183170605451,-0.00509741622955,-0.00410357024521,-0.0172396600246,0.187962472439,-1.80497288704,-0.500919759274,0.540388047695,0.493383278933,0.0294997680431,0.35292236696,0.071673660419,0.914820433425,0.396922485888,-0.0204695106877
0.210064545274,-0.186923861504,-0.0917990133166,-2.1928858757,-0.208661794662,1.9974155426,-0.61350184679,0.0183170605451,-0.00608283886686,-0.000913430820219,-0.0164590999484,0.201240077615,-1.81185412407,-0.521019518375,0.528305888176,0.493504130148,0.0250637989371,0.354262633501,0.0824790870279,0.913534216816,0.397515537164,-0.0251760263474
0.210025280714,-0.186908811331,-0.0919737443328,-2.18862056732,-0.246107399464,1.98582422733,-0.602888047695,0.0183255970478,-0.00269956514239,0.000739049457479,-0.0056807892397,0.20739607513,-1.78116285801,-0.577156841755,0.497750252485,0.493632675605,0.0181487202008,0.356572718783,0.0993152239005,0.911247001208,0.398366357724,-0.0327052565072
0.20999892056,-0.186925396323,-0.09202067554,-2.18471956253,-0.279495447874,1.9745849371,-0.59376847744,0.0183255970478,0.000312434742227,-0.000663318031002,-0.000152300432092,0.208463326097,-1.73923945427,-0.607968449593,0.472761571407,0.493653700951,0.0125131291744,0.358629024022,0.112961965094,0.909169745175,0.398908030175,-0.0390173300156
0.210069864988,-0.186964064837,-0.091973118484,-2.17365503311,-0.359604656696,1.94431507587,-0.571991980076,0.0183255970478,0.00296123395674,-0.000940612284467,-0.00113232759759,0.247175037861,-1.67508387566,-0.695736765862,0.430243462324,0.493811300656,-0.00237773159323,0.365418585199,0.148781016359,0.903169766287,0.398821246989,-0.0555895229705
0.21009889245,-0.186953797936,-0.0919502079487,-2.17008185387,-0.383011519909,1.93451154232,-0.566166579723,0.0183255970478,-0.00257945084013,-0.000696865550708,-0.000747015466914,0.254332572222,-1.65142917633,-0.703880608082,0.407063901424,0.493827464441,-0.00644430954405,0.36752890507,0.158386391195,0.901340447461,0.398594725461,-0.060178013982
0.210117891431,-0.186965882778,-0.091932117939,-2.16449570656,-0.417425960302,1.91945004463,-0.558065235615,0.0183255970478,-0.000465487682959,0.00394644448534,0.00158944283612,0.267046451569,-1.62917602062,-0.715633749962,0.367549240589,0.493856383048,-0.0120616160289,0.370664438593,0.171513828792,0.898709136511,0.398104619465,-0.0664650744458
0.21010825038,-0.186978563666,-0.0919360220432,-2.15651059151,-0.465286403894,1.89775168896,-0.547319531441,0.0183255970478,-0.00411011045799,0.00145344913471,-0.00146616902202,0.275852799416,-1.55005645752,-0.727448642254,0.356494367123,0.493923449224,-0.0222799171606,0.376814676615,0.195146841456,0.893617249561,0.396634664157,-0.0777615870493
0.210081756115,-0.186995536089,-0.0919453129172,-2.14614129066,-0.520715534687,1.87141144276,-0.535481035709,0.0183255970478,-0.000688950298354,-0.00208907807246,-0.00481540942565,0.290212333202,-1.52551579475,-0.738811135292,0.29841080308,0.494167866108,-0.0332064388216,0.38443563254,0.220314197026,0.887814383858,0.394024774075,-0.0893965966489
0.210088402033,-0.187003418803,-0.091935120523,-2.14141440392,-0.544716775417,1.85964679718,-0.530975580215,0.0183255970478,-0.00388429057784,0.00208838819526,-0.00178496714216,0.298195868731,-1.47424542904,-0.737917006016,0.270101726055,0.494295536445,-0.0379667132326,0.388058010446,0.231277045007,0.885061561192,0.392757370939,-0.0944383851983
0.210078030825,-0.187026172876,-0.091906696558,-2.13185358047,-0.592888951302,1.83500552177,-0.522608160973,0.018330194056,-0.00258193770424,0.000765211880207,0.00140148634091,0.287115812302,-1.44429373741,-0.744999587536,0.245179161429,0.494399006096,-0.0476384585916,0.395751636073,0.253319650676,0.879191034829,0.389684493866,-0.104872655006
0.210059985518,-0.18705162406,-0.0918952748179,-2.12778902054,-0.612829148769,1.82470142841,-0.519371151924,0.018330194056,-0.000558145751711,-0.00278893718496,0.000653949915431,0.29467779398,-1.39896416664,-0.738968193531,0.224332645535,0.494463934519,-0.0519362625685,0.399410638504,0.263128744915,0.876453757801,0.388095876356,-0.109424240739
0.21003253758,-0.187175795436,-0.0918856784701,-2.12216567993,-0.639238059521,1.81070625782,-0.515243709087,0.018330194056,0.000389497436117,-0.0100179798901,0.00116924860049,0.29115858674,-1.38181710243,-0.745117068291,0.215518802404,0.494526425344,-0.0569975175694,0.403974865368,0.274658927795,0.873171721194,0.385970924321,-0.114717321869
0.210028335452,-0.187334761024,-0.091805331409,-2.11694788933,-0.664074242115,1.79728186131,-0.511409521103,0.018330194056,-0.00798468850553,-0.00619293143973,0.00591923110187,0.290049761534,-1.36120581627,-0.737761080265,0.213821619749,0.494521535204,-0.0619916544893,0.408647146879,0.286126622601,0.869801566068,0.383629591832,-0.120021362446
0.210016474128,-0.18744507432,-0.0917036384344,-2.11118841171,-0.691177427769,1.78246736526,-0.507195413113,0.018330194056,0.00578327989206,-0.00472338078544,0.00887289643288,0.279945492744,-1.33619832993,-0.741795063019,0.203280135989,0.494506324501,-0.0671619913897,0.413663628318,0.298044946202,0.866224509201,0.380888230309,-0.125492889768
0.209960877895,-0.188003152609,-0.0913561061025,-2.09881734848,-0.75160831213,1.74865019321,-0.498728215694,0.0183354467154,-0.00208764942363,-0.0104831764475,0.00639630714431,0.266801178455,-1.27582085133,-0.724065601826,0.158319011331,0.494140468088,-0.079475912384,0.426307981083,0.326549472285,0.857076737042,0.373521500219,-0.138804169645
0.209930643439,-0.188269004226,-0.0912216678262,-2.09424686432,-0.774486839771,1.73572349548,-0.496121674776,0.0183354467154,-0.00172056490555,-0.0238704103976,0.00724509963766,0.245440840721,-1.24895691872,-0.718637645245,0.13027998805,0.493931302884,-0.0839948701041,0.431218660171,0.337054468429,0.85344060912,0.370624625226,-0.143773428891
0.209902480245,-0.188644066453,-0.0910619199276,-2.09042692184,-0.794230222702,1.72435247898,-0.494008153677,0.0183354467154,-0.000298861035844,-0.0232514794916,0.00759680522606,0.233474075794,-1.20324110985,-0.703633844852,0.128605857491,0.493640531302,-0.0881073978719,0.435847932485,0.346659110841,0.850017690903,0.367808923996,-0.148371092577
0.209861963987,-0.18909355998,-0.0908249169588,-2.08580064774,-0.819876194,1.70987033844,-0.491160333157,0.0183354467154,0.000193094863789,-0.0241538882256,0.0127655519173,0.207496166229,-1.2194763422,-0.675413608551,0.135230854154,0.493280545516,-0.0928113522518,0.441223150872,0.357816497739,0.845924944898,0.364375184212,-0.153652420532
0.209809795022,-0.189616858959,-0.0905246660113,-2.08156204224,-0.846661329269,1.69502186775,-0.488404303789,0.0183354467154,-0.00109337794129,-0.0217042472214,0.0149371679872,0.177855312824,-1.24417102337,-0.671363472939,0.123121619225,0.492799802665,-0.0978616433972,0.447061310595,0.369965737005,0.841233182711,0.360581953742,-0.159476456076
0.209649473429,-0.191382959485,-0.0896935984492,-2.07433319092,-0.903734326363,1.6633541584,-0.483411878347,0.0183354467154,-0.007282177452,-0.0421922765672,0.0206326395273,0.113114617765,-1.14585626125,-0.615449905396,0.0801979154348,0.491359699474,-0.107909263075,0.459087507745,0.394521248332,0.831043702539,0.352510382707,-0.171626859271
0.209577411413,-0.192122682929,-0.0893454626203,-2.07268714905,-0.92214268446,1.65329694748,-0.482229471207,0.0183354467154,-0.00475068669766,-0.0411282926798,0.0284775309265,0.0921865776181,-1.12651181221,-0.637488603592,0.0710300132632,0.490676342509,-0.111575503647,0.463577289278,0.403684045914,0.826902230288,0.349539128803,-0.176335730096
0.209467574954,-0.19292293489,-0.0888808220625,-2.0712389946,-0.941172719002,1.64269089699,-0.480978488922,0.0183354467154,-0.0108010098338,-0.0488065443933,0.0286894459277,0.0752477347851,-1.12542486191,-0.612360358238,0.0697305351496,0.489946610228,-0.11487876404,0.467689812672,0.412052897023,0.823009364687,0.346680972033,-0.180776931536
0.209319263697,-0.193921431899,-0.0882989019156,-2.07014036179,-0.963215768337,1.63059830666,-0.479514122009,0.0183354467154,-0.00614645238966,-0.0516623295844,0.0282179154456,0.0483355112374,-1.10665404797,-0.602397799492,0.0835921019316,0.489023348695,-0.118614375996,0.47233548662,0.421671915072,0.818365588081,0.343349702531,-0.18596112956
0.209219768643,-0.195569172502,-0.0874395221472,-2.06937646866,-0.996355414391,1.61218833923,-0.477297633886,0.0183387305588,-0.00167861813679,-0.0484756343067,0.026094308123,0.00847270153463,-1.0445754528,-0.584379374981,0.0481873825192,0.487419348003,-0.124072980557,0.479207136078,0.435988693892,0.811137680709,0.338152463112,-0.193965030539
0.209188818932,-0.196365863085,-0.0870009586215,-2.06931591034,-1.01358830929,1.60240447521,-0.476487517357,0.0183387305588,-0.000674203271046,-0.0404735989869,0.0248034521937,-0.00272271898575,-0.997148633003,-0.564400613308,0.0501051694155,0.486494516145,-0.126856923532,0.482708106641,0.443322018314,0.807200786904,0.335472279062,-0.198370429566
0.209174737334,-0.196985244751,-0.0865969434381,-2.0693731308,-1.02939414978,1.59350860119,-0.475587725639,0.0183387305588,-0.0030654175207,-0.0355446375906,0.0272365417331,-0.00327840447426,-0.978266894817,-0.549350678921,0.0685373321176,0.485664484025,-0.129344938996,0.48587958231,0.450028840307,0.803538396204,0.332930812606,-0.202378759708
0.20916415751,-0.19751124084,-0.0861518234015,-2.06938576698,-1.04573714733,1.58421766758,-0.474544405937,0.0183387305588,-0.00106765376404,-0.0281862374395,0.0237599872053,0.00414742482826,-0.948669433594,-0.53183555603,0.052892267704,0.4848192468,-0.131858049488,0.489192905121,0.456955702428,0.79971017021,0.330169014267,-0.206503150926
0.20917519927,-0.19807125628,-0.0855532586575,-2.06936311722,-1.07231771946,1.5691754818,-0.472678780556,0.0183387305588,-0.00104133342393,-0.0127386534587,0.0214512441307,-0.00740327034146,-0.872950434685,-0.480240315199,0.0764247253537,0.483427525874,-0.136121713252,0.494944970787,0.46890223491,0.792976225594,0.325132532195,-0.213560848212
0.20914028585,-0.198235064745,-0.0852822139859,-2.06938123703,-1.08829689026,1.56051933765,-0.471198648214,0.0183387305588,-0.00106321147177,-0.00668318197131,0.00808539614081,0.000912455434445,-0.798140823841,-0.431084424257,0.0661926791072,0.482810578739,-0.138225829556,0.497812706321,0.474891200988,0.789586900384,0.322457938543,-0.216914156931
0.209161296487,-0.198289871216,-0.0851708650589,-2.06934070587,-1.10233974457,1.55299317837,-0.470191210508,0.0183393862098,-0.000750089238863,-0.00109641836025,0.0067233517766,0.00315720494837,-0.755047440529,-0.393784463406,0.0521405935287,0.482232047564,-0.140282943309,0.500664168671,0.480739930481,0.786165649765,0.319881222059,-0.220246892788
0.209129422903,-0.198240742087,-0.0851322188973,-2.06938672066,-1.11426174641,1.54694414139,-0.469507157803,0.0183393862098,-0.00105308089405,0.00664619309828,7.85028605605e-05,-0.00406659441069,-0.720563292503,-0.362764924765,0.041849270463,0.481803760672,-0.142011673605,0.503027022928,0.485653905943,0.783195567635,0.317805171967,-0.223035554984
0.208875522017,-0.198103517294,-0.0851510241628,-2.06941199303,-1.14406597614,1.53139102459,-0.467853784561,0.0183393862098,-0.0111428033561,0.00250135618262,-0.00315632671118,-0.00132992502768,-0.516732394695,-0.271682441235,0.0145948538557,0.480625528745,-0.14638347869,0.509099270162,0.497828062571,0.775718504073,0.312218659362,-0.23010330492
0.208501473069,-0.198143571615,-0.0851693823934,-2.06936168671,-1.16019153595,1.52282178402,-0.467426896095,0.0183393862098,-0.0144679918885,-0.00467107165605,-0.00207192241214,0.00134559976868,-0.366595476866,-0.200902998447,0.0138481687754,0.479911403416,-0.148802936206,0.5125404857,0.504305214655,0.771604798177,0.30909366432,-0.23401579431
0.208284825087,-0.198150292039,-0.0851746276021,-2.06937289238,-1.16623866558,1.51932454109,-0.467363506556,0.0183393862098,-0.0102340420708,0.00145781261381,-0.000227156240726,-0.00245236395858,-0.315484732389,-0.193350255489,0.000644549494609,0.479569437876,-0.149758520654,0.513837333417,0.506692847059,0.770044171337,0.307840467432,-0.235645027426
0.207813441753,-0.198097631335,-0.0851689353585,-2.06939554214,-1.17889261246,1.51197314262,-0.467364311218,0.0183393862098,-0.0113823292777,0.000213406805415,0.00239542103373,-1.3095069562e-06,-0.229132026434,-0.142597705126,0.000821012305096,0.478857841226,-0.151730331916,0.516548040268,0.511654211699,0.76672671411,0.305236636993,-0.239103969803
0.207668051124,-0.198094546795,-0.0851808637381,-2.06941962242,-1.18268728256,1.50981116295,-0.467363834381,0.0183393862098,-0.00755019020289,-0.000826492847409,0.000798593973741,-0.00171017681714,-0.208049595356,-0.108254909515,-0.000436035945313,0.478627100051,-0.15237880945,0.517448484164,0.513293344819,0.765622618607,0.304376014565,-0.240223207078
0.207557573915,-0.198106899858,-0.0851784497499,-2.06942343712,-1.18582546711,1.50808429718,-0.467367470264,0.0183400437236,-0.00513494154438,-0.00483379373327,-4.35558104073e-05,0.00179429852869,-0.166905686259,-0.0889242514968,0.000488251564093,0.478486640148,-0.152787395914,0.518050592981,0.514367643934,0.764902395452,0.303821052409,-0.240921190103
0.207472220063,-0.198134958744,-0.0851590558887,-2.06941246986,-1.19237792492,1.50432443619,-0.467368632555,0.0183400437236,-0.000443536031526,-0.000577740895096,3.32373929268e-05,0.00110887666233,-0.0917877852917,-0.0527418851852,0.00041455621249,0.478147311594,-0.153694962403,0.519508561005,0.516953485942,0.763151819216,0.302500706269,-0.242593726903
0.207473099232,-0.198136746883,-0.0851577371359,-2.06939220428,-1.19365727901,1.50364947319,-0.467370271683,0.0183400437236,0.000637747580186,0.000683630874846,-0.00015946381609,0.00012425420573,-0.0809684321284,-0.0379291176796,-2.7636563118e-06,0.478099067182,-0.153857822677,0.519798013513,0.517462981762,0.76280854253,0.302260949352,-0.24288579183
0.207474634051,-0.198133870959,-0.0851562619209,-2.06941175461,-1.19497072697,1.50314569473,-0.467369198799,0.0183400437236,-0.000666847394314,0.000589000235777,-0.000268095493084,-0.0019071646966,-0.0783993005753,-0.020994912833,-0.000318948586937,0.478085174219,-0.154006388706,0.520068282627,0.51798888668,0.762447545962,0.302078716234,-0.243124868243
0.207473054528,-0.198119416833,-0.0851525887847,-2.06942605972,-1.19645369053,1.50286829472,-0.467368930578,0.0183400437236,0.000879215251189,-0.000118491545436,0.00070327159483,0.00133841473144,-0.0580686032772,-0.0068140248768,0.000397576979594,0.478134203354,-0.15414591089,0.520360685117,0.518593075376,0.762036486377,0.301956332457,-0.243277595185
0.207477971911,-0.198138862848,-0.0851496309042,-2.06938481331,-1.19728851318,1.50286018848,-0.467371493578,0.0183413568884,-0.000560167885851,0.000669641653076,6.25522443443e-05,-0.000672201276757,-0.00644304184243,0.00212901784107,-8.96367491805e-05,0.478195824195,-0.154207483441,0.520553059409,0.518945967041,0.761814650151,0.301914681871,-0.243271548701
0.207493141294,-0.198145568371,-0.0851429104805,-2.06941556931,-1.19729220867,1.5028885603,-0.467370569706,0.0183413568884,0.000948250642978,0.000107790641778,0.000852872850373,-0.00129057385493,-0.000231287805946,0.000448400707683,0.000145673300722,0.478200033619,-0.154194958697,0.520542486403,0.518949209518,0.761806328244,0.301936507422,-0.243263604145
0.207503259182,-0.198148936033,-0.0851420909166,-2.0694167614,-1.19728910923,1.50302195549,-0.467370897532,0.0183413568884,-0.000414567592088,0.000365084182704,-0.000287817587378,0.00106373790186,-0.000679371121805,0.00942271389067,0.000336211698595,0.478228997256,-0.15417686115,0.520537522415,0.518954301144,0.761804731494,0.301978606125,-0.243205479522
0.207490518689,-0.198141992092,-0.0851887613535,-2.06940102577,-1.19725871086,1.50353181362,-0.46736869216,0.0183413568884,0.00086809694767,0.000676782918163,-0.00475940667093,-0.00101679225918,0.00283874082379,0.0400193557143,-0.000142028802657,0.478329651404,-0.154155015003,0.520512661236,0.518950982593,0.761821347618,0.302101808013,-0.243007425816
0.207503169775,-0.198144733906,-0.085476949811,-2.06941533089,-1.19648587704,1.50536668301,-0.467370957136,0.0183413568884,0.000145672660437,-0.00103201402817,-0.0147329876199,0.00148993288167,0.0618141368032,0.0633632391691,6.88678992447e-05,0.47862112381,-0.154059494547,0.520267310757,0.518640100314,0.76207033962,0.302563877879,-0.242314553934
