imanlab/tactile_prediction_flat_dataset/train/data_sample_2021-11-24-16-13-36/robot_state.csv
position_panda_joint1,position_panda_joint2,position_panda_joint3,position_panda_joint4,position_panda_joint5,position_panda_joint6,position_panda_joint7,position_panda_finger,velocity_panda_joint1,velocity_panda_joint2,velocity_panda_joint3,velocity_panda_joint4,velocity_panda_joint5,velocity_panda_joint6,velocity_panda_joint7,ee_state_position_x,ee_state_position_y,ee_state_position_z,ee_state_orientation_x,ee_state_orientation_y,ee_state_orientation_z,ee_state_orientation_w
-0.13769775629,0.136043414474,0.122777894139,-2.50924229622,-0.038970656693,2.63789319992,-0.707992315292,0.0556433051825,0.000389983411878,0.00200530560687,-0.00048647573567,-0.000479803129565,0.000130310174427,-8.09650191513e-06,-2.16554599319e-05,0.466590422213,-0.00501931082848,0.117355903243,-0.000101224678536,0.934796990413,0.355167852783,-0.00322063718925
-0.137701749802,0.136049032211,0.122771553695,-2.50925016403,-0.038971465081,2.63789415359,-0.707992076874,0.0556433051825,4.71236598969e-05,6.66648702463e-05,-0.000396685558371,0.000428494910011,-6.30190843367e-05,-0.000103409642179,-6.18136691628e-05,0.466585283203,-0.00502403166695,0.117350641979,-0.00010332421145,0.934798687513,0.355163331477,-0.00322657822986
-0.137705057859,0.136048361659,0.12276956439,-2.50925016403,-0.0389714837074,2.63789534569,-0.707992553711,0.0556433051825,3.4418389987e-05,-0.000332022784278,0.00142437859904,-0.000292229698971,0.000111899797048,4.25482285209e-05,1.79672661034e-05,0.466585653593,-0.00502656781247,0.117351039712,-0.000102848456737,0.934799539908,0.35516109525,-0.00322578917743
-0.137703731656,0.136045023799,0.122769393027,-2.50924825668,-0.03897126019,2.63789534569,-0.70799279213,0.0556439645588,-0.000180624891073,-2.97017468256e-05,0.000267594325123,0.000250303099165,-9.04901389731e-05,-0.00276620779186,0.000159023402375,0.466587358677,-0.00502615231136,0.117353236114,-0.000101733067762,0.934799341135,0.3551616402,-0.00322342677443
-0.137704417109,0.136045619845,0.122770085931,-2.50924348831,-0.03897010535,2.63789701462,-0.707993805408,0.0556439645588,0.000283047702396,-0.000234737934079,-0.00021765998099,-1.46342645166e-05,1.64418179338e-05,5.72846511204e-05,0.000130669679493,0.466590067577,-0.00502614083468,0.117354742413,-0.000101015323813,0.934799364086,0.3551616059,-0.00322057154211
-0.13770455122,0.136046096683,0.122771002352,-2.50923967361,-0.038971517235,2.63789820671,-0.707995355129,0.0556439645588,2.62019839283e-05,0.000424536090577,-0.000155416637426,-8.10729397926e-05,7.9787139839e-05,-7.57204325055e-05,8.1026708358e-05,0.466592146302,-0.00502582773786,0.117355801129,-9.99956872976e-05,0.934798791227,0.35516313272,-0.00321850319988
-0.137706503272,0.136057138443,0.122772030532,-2.50924539566,-0.0389714352787,2.63789868355,-0.707994282246,0.0556439645588,-0.000596635392867,0.000232438658713,-6.24202948529e-05,-9.13537296583e-05,-0.000662842998281,-6.22417428531e-06,-7.80082846177e-05,0.466586994063,-0.00502582237884,0.117348918345,-0.00010366775512,0.934799075226,0.355162318254,-0.0032257691909
-0.137701570988,0.13606262207,0.122772537172,-2.50924730301,-0.0389702506363,2.6378993988,-0.707996428013,0.0556439645588,6.21934668743e-05,-5.02451912325e-05,-0.000155256129801,0.000103500184196,2.29940638974e-07,-3.90885616071e-05,-0.0005403526593,0.466585021323,-0.00502304623983,0.117345793352,-0.000105508335304,0.934797897379,0.355165392011,-0.003228610623
-0.137697339058,0.136058881879,0.122775867581,-2.50924491882,-0.0389709770679,2.63790011406,-0.707993447781,0.0556439645588,0.00029601083952,0.000322866166243,-0.00066190760117,-8.91254385351e-05,-8.41465134727e-06,-6.17586265435e-05,-0.000149121886352,0.466587191972,-0.00501966400409,0.117348370295,-0.000104093442422,0.934796980126,0.355167833636,-0.00322563897333
-0.137698471546,0.136056020856,0.122773401439,-2.50924086571,-0.038971491158,2.63790202141,-0.707994639874,0.0556439645588,-0.00160518207122,-0.000431501830462,-0.00313703645952,9.04406770132e-05,0.00561016518623,-3.30735529133e-05,0.00496407877654,0.466590316588,-0.00502113002821,0.117351178712,-0.000102122998254,0.934797218649,0.355167242532,-0.00322166021016
-0.137704744935,0.136057794094,0.122768320143,-2.50923991203,-0.0389712080359,2.63790130615,-0.707996308804,0.0556439645588,-0.000438267248683,-0.000194950509467,0.000136057278723,-0.000119746524433,-0.00553179020062,-9.56654330366e-05,-0.000703120604157,0.466590242887,-0.00502686461079,0.117350689258,-0.000102204172591,0.934799118539,0.355162235463,-0.00322237803853
-0.137704342604,0.136063143611,0.12276776135,-2.50924754143,-0.0389715097845,2.63790154457,-0.707996308804,0.0556439645588,0.000533712562174,-0.000302060187096,-0.00017542061687,-0.00111539696809,-8.40489956317e-05,5.88211223658e-05,0.000172323008883,0.466585201295,-0.00502669387901,0.117345618091,-0.000104758495496,0.934799055222,0.355162348516,-0.00322819821136
-0.137700095773,0.136068299413,0.122773610055,-2.50925278664,-0.0389716774225,2.63790130615,-0.70799767971,0.0556439645588,3.97653566324e-05,-0.000422380311647,-0.000698402058333,-0.000240867055254,-0.00241080252454,2.00670365302e-05,-0.000435055524576,0.466581407106,-0.00502161897196,0.117341462682,-0.00010730304797,0.934796970027,0.355167793869,-0.00323283140678
-0.137699633837,0.13606365025,0.122774317861,-2.50923705101,-0.0389722920954,2.63790440559,-0.707994818687,0.0556439645588,0.00346487970091,8.10696728877e-05,-8.62416854943e-05,1.37652896228e-05,-0.0100703593343,0.000201554808882,-9.88387982943e-05,0.466591233089,-0.00502141823571,0.117349274596,-0.000102648644622,0.93479725884,0.355167133034,-0.00322205311161
-0.137700602412,0.136062800884,0.122772745788,-2.50924253464,-0.0389714054763,2.63790416718,-0.707996845245,0.0556439645588,-0.000369419693016,7.50918752601e-06,-0.000350385380443,-0.000462688214611,-0.000173570922925,-6.1000657297e-05,0.00484141148627,0.466588504846,-0.00502256646447,0.117347757561,-0.000103613498564,0.93479746189,0.355166577771,-0.00322431815702
-0.137700766325,0.136065065861,0.122773349285,-2.50924539566,-0.0389713644981,2.63790512085,-0.707997620106,0.0556439645588,-0.000547106785234,0.000148003760842,0.000241592351813,0.000392881600419,-2.288779433e-05,-4.56654051959e-05,0.000141338299727,0.46658675429,-0.00502223424259,0.117345817437,-0.000104571030564,0.934797238134,0.355167149612,-0.00322616853799
-0.137702062726,0.13606916368,0.122770771384,-2.50924372673,-0.0389712005854,2.63790631294,-0.707998216152,0.0556439645588,-0.000383463833714,-0.000408151187003,0.00035496786586,0.00025530232233,-7.28107333998e-05,6.48702625767e-05,-0.00442321365699,0.466586974532,-0.00502399791542,0.117344574567,-0.000104935255988,0.93479784412,0.355165549721,-0.00322670014671
-0.13770031929,0.136069208384,0.122770786285,-2.50925016403,-0.0389711558819,2.63790488243,-0.707997024059,0.0556439645588,0.00163669965696,3.37510937243e-05,0.000578802602831,4.97988503412e-06,-1.96855489776e-05,-0.000120416712889,-1.56836802034e-06,0.466583328401,-0.00502309039296,0.117342226798,-0.000106385003595,0.934797719305,0.355165844367,-0.00323037854954
-0.137697547674,0.136066824198,0.122775107622,-2.50924539566,-0.0389715991914,2.63790583611,-0.707996487617,0.0556439645588,-0.00324726896361,4.37585640611e-06,-1.9197957954e-05,0.00115572486538,4.35264482803e-05,0.000140348274726,0.000231924816035,0.466586567773,-0.00501982036775,0.117345079655,-0.000104914033398,0.934796519801,0.355169036547,-0.00322656537713
-0.137699663639,0.136065602303,0.122773587704,-2.5092394352,-0.0389711223543,2.63790941238,-0.707997083664,0.0556439645588,0.000200322654564,0.000126734637888,-0.00121558213141,-0.0010777694406,-1.59002320288e-05,8.90315131983e-05,0.000177096124389,0.466590673897,-0.00502164533663,0.117347982977,-0.000102937387162,0.934797165148,0.355167383759,-0.00322158882957
-0.13770544529,0.136069521308,0.122768111527,-2.50925040245,-0.038971375674,2.63790631294,-0.707996964455,0.0556439645588,-0.000204526892048,-0.000273722689599,0.000144279445522,-0.000363880011719,1.21423618111e-05,1.03259872049e-05,4.83784606331e-05,0.466583402461,-0.00502678380007,0.117342102893,-0.000106066120881,0.934799076634,0.355162274861,-0.00323005801108
-0.137704461813,0.136071532965,0.122766032815,-2.50925135612,-0.0389713905752,2.63790583611,-0.707997083664,0.0556439645588,0.000116300660011,0.000409716449212,0.000213225197513,0.000611138355453,9.33283590712e-05,7.62893250794e-05,-0.00015556946164,0.466582360773,-0.00502727559772,0.117340787409,-0.000106680984028,0.934799235984,0.355161840541,-0.00323167644954
-0.137699320912,0.136068850756,0.122771963477,-2.5092394352,-0.0389711149037,2.63790869713,-0.707998216152,0.0556439645588,0.000586218084209,-0.00137283129152,0.00028914338327,0.000253288279055,-0.000113731395686,0.000235194675042,-0.000380329525797,0.466589810108,-0.00502218993872,0.117346404393,-0.00010374704004,0.934797183962,0.355167317552,-0.0032234023199
-0.137693881989,0.136069133878,0.122778564692,-2.50924682617,-0.0389717146754,2.63790822029,-0.708000183105,0.0556439645588,0.000322575622704,-0.000261908367975,0.000801819202024,-0.000163995078765,-4.58613321825e-05,4.79103982798e-05,-3.62603168469e-05,0.466585906915,-0.00501631670782,0.117343755294,-0.000105504242783,0.934794579138,0.355174139998,-0.00322701790101
-0.137693703175,0.136068090796,0.122778467834,-2.50924563408,-0.0389712005854,2.63791108131,-0.707999706268,0.0556439645588,-0.000356734992238,-2.54431652138e-05,-0.000595243822318,0.000417756731622,-3.86363717553e-05,-0.000147062208271,6.07339461567e-05,0.466587577787,-0.00501691457565,0.117345162661,-0.000104556794166,0.93479502026,0.355173003769,-0.00322432077219
-0.137699306011,0.136070325971,0.122770257294,-2.50924348831,-0.0389714688063,2.63790988922,-0.708000481129,0.0556439645588,-0.000142319971928,0.000946171756368,-0.000190334249055,-0.000156334950589,3.19919627145e-06,-0.000175090797711,-0.000135980837513,0.466587643985,-0.0050229259236,0.117344423982,-0.000104474490074,0.934797004669,0.355167770599,-0.00322545498825
-0.137705340981,0.13607019186,0.122768089175,-2.50924706459,-0.0389717370272,2.63791036606,-0.707999587059,0.0556439645588,-0.000412639521528,-0.000306658039335,-5.11905818712e-05,-0.000203580333618,-4.37246399088e-06,8.01899295766e-05,-2.0536658667e-06,0.466585876805,-0.00502676645355,0.117343285992,-0.000104845565074,0.934798559209,0.355163665583,-0.00322692479666
-0.137703537941,0.136070176959,0.122767597437,-2.50924563408,-0.0389713644981,2.63791060448,-0.707999765873,0.0556439645588,0.000321924133459,0.000382826721761,0.000497979170177,0.000622875289991,9.89642794593e-05,-3.64739789802e-05,6.27689878456e-05,0.466586677089,-0.00502617555696,0.117343799197,-0.000104590008111,0.934798358745,0.355164200526,-0.00322612740272
-0.137696430087,0.136071190238,0.122771441936,-2.50924110413,-0.0389715991914,2.63791108131,-0.707999646664,0.0556439645588,-0.000110994224087,0.00020037718059,-0.000196438282728,0.000141979689943,0.000107637344627,5.58729225304e-05,-0.000111381930765,0.466588980057,-0.00502100863935,0.117344952765,-0.000104072518883,0.934796424387,0.355169309966,-0.00322413814873
-0.137697726488,0.136071428657,0.122771427035,-2.50924372673,-0.038971349597,2.63791012764,-0.707999646664,0.0556439645588,-0.000282736204099,4.12764165958e-05,0.000328565831296,0.000373225018848,-0.000108761501906,-0.000191933460883,0.001761182677,0.466587355768,-0.00502157391658,0.117343862016,-0.000104833744347,0.93479668262,0.355168614175,-0.00322588953747
-0.137698501348,0.13607019186,0.122773043811,-2.50924611092,-0.0389728993177,2.6379108429,-0.707999885082,0.0556439645588,0.000252530968282,0.000145197016536,-0.000257789943134,3.57461140084e-05,-0.0024680274073,-0.000168663347722,0.000132605491672,0.466586554543,-0.00502118583998,0.117343693485,-0.000104602492759,0.934796243682,0.355169766774,-0.00322619154818
-0.137695923448,0.136071160436,0.122773759067,-2.50924396515,-0.0389723181725,2.63791298866,-0.708001494408,0.0556439645588,-7.06689679646e-05,0.000262452318566,-0.000623855739832,0.000115548034955,-5.90234340052e-05,0.000102307996713,-0.000286492402665,0.466587948184,-0.00501960742986,0.117344171222,-0.000104246290708,0.934795475872,0.355171802728,-0.00322453952593
-0.137701451778,0.136069715023,0.122769162059,-2.50924348831,-0.0389719866216,2.63791298866,-0.708002328873,0.0556439645588,2.86802114715e-05,1.15847860798e-05,-0.000378462777007,0.000103612241219,0.000135847818456,-0.000153943445184,0.000234888124396,0.46658843445,-0.00502448514417,0.117344966597,-0.000103630009691,0.93479717436,0.355167339193,-0.00322380621045
-0.137704759836,0.136070325971,0.122766979039,-2.50924611092,-0.0389729402959,2.63791298866,-0.708003044128,0.0556433051825,-0.000136817165185,0.000107688021671,-0.000100543096778,-0.000474927539472,4.31752487202e-05,9.24545820453e-05,-0.000259275053395,0.46658691092,-0.00502707355572,0.117343768753,-0.000103926740395,0.934797857097,0.355165527303,-0.00322544070914
-0.13770146668,0.136070221663,0.122769519687,-2.50924825668,-0.038972619921,2.63791418076,-0.708002746105,0.0556433051825,4.31391526945e-05,-0.000511799240485,7.65242439229e-05,4.63097021566e-05,-8.25304159662e-05,3.19930695696e-05,-0.000217501539737,0.466586123614,-0.00502424783209,0.117343206256,-0.000104310783053,0.934796920123,0.355167990745,-0.00322572202147
-0.13769364357,0.136068865657,0.122775278986,-2.5092446804,-0.0389718711376,2.63791370392,-0.708004772663,0.0556433051825,-6.8204550189e-05,0.000780265079811,-0.00367363821715,0.000263950234512,-2.67339255515e-05,3.61939491995e-05,-6.71267334837e-05,0.466588250086,-0.00501783914536,0.117345062713,-0.000103897325948,0.934794292497,0.355174927356,-0.00322344273504
-0.137694522738,0.136072844267,0.122775092721,-2.50924324989,-0.0389720313251,2.63791489601,-0.708003878593,0.0556433051825,-0.00041748143849,-0.000125185906654,-0.000633276067674,0.00012894939573,-3.17140620609e-05,-7.04371705069e-05,9.25063723116e-05,0.466588396178,-0.00501824271749,0.117343812598,-0.000104339288706,0.934794616823,0.355174068732,-0.00322398155759
-0.137701779604,0.136073306203,0.122770115733,-2.50924301147,-0.0389715731144,2.6379160881,-0.708002388477,0.0556433051825,-0.00037446821807,0.000363431172445,-0.000348187837517,-0.000183895244845,3.32253584929e-05,4.43700300821e-05,-0.000125779188238,0.466588601128,-0.00502404522714,0.117343743779,-0.000104029089295,0.934797119052,0.355167486185,-0.00322363664638
-0.137702822685,0.136075004935,0.122768677771,-2.50924301147,-0.0389723703265,2.63791561127,-0.708002626896,0.0556433051825,-0.00015811517369,0.00027483899612,-0.000114192320325,0.000497792847455,1.68432379724e-05,2.83965837298e-05,-8.75453406479e-05,0.466588115829,-0.00502521283875,0.117342904704,-0.000104256377284,0.934797387208,0.355166770518,-0.00322471778086
-0.13769954443,0.136074617505,0.122770518064,-2.50924658775,-0.0389743112028,2.63791584969,-0.708004832268,0.0556433051825,0.000132620654767,3.32010167767e-05,-7.82571623859e-06,0.000280350650428,0.000225826937822,-0.00236932188272,-0.000389193359297,0.466586434144,-0.0050227951714,0.117341895524,-0.000104451493249,0.934795771448,0.35517100969,-0.00322619507093
-0.137697443366,0.136074855924,0.122772581875,-2.50924873352,-0.0389743112028,2.6379160881,-0.708006680012,0.0528544448316,-0.000278991647065,0.000203019139008,0.00040208757855,0.000688084983267,-7.46828809497e-05,-0.000110657558253,-0.000325046188664,0.466585354164,-0.0050207629146,0.117341087957,-0.000104984502428,0.934794697249,0.355173828392,-0.00322711690913
-0.137695297599,0.136073797941,0.122772157192,-2.5092458725,-0.038974121213,2.63791871071,-0.708009064198,0.0508102402091,0.000246945215622,-0.000224496747251,-0.000186022618436,2.47644074989e-05,3.45566295437e-05,-0.000138254297781,0.000344426691299,0.466587643326,-0.00502002533804,0.117342780713,-0.00010377651322,0.934794015197,0.355175651365,-0.00322408838565
-0.137697458267,0.136071786284,0.122772686183,-2.50924324989,-0.0389760285616,2.63792037964,-0.708011031151,0.0508102402091,0.00034411760862,0.00041923567187,-9.88561514532e-05,0.000429871957749,-2.57998017332e-05,-6.15555909462e-05,-0.000252946978435,0.466589791531,-0.00502091749597,0.117344758421,-0.000102133029816,0.934793676237,0.355176568883,-0.0032213408899
-0.13769748807,0.136072590947,0.122770689428,-2.50924515724,-0.0389746315777,2.63792133331,-0.708012700081,0.0508102402091,-0.000311072217301,0.00023432400485,-0.000903730688151,0.000285897462163,-1.63251334016e-05,9.31421236601e-05,-0.00017285834474,0.466588823045,-0.00502181784412,0.117343799717,-0.000102720282996,0.934793945592,0.355175853074,-0.00322208179237
-0.137695893645,0.1360745579,0.122773706913,-2.50924158096,-0.038975764066,2.63792276382,-0.708016335964,0.0508102402091,4.34930516349e-05,0.000278522638837,2.08922792808e-05,-0.00032423666562,-6.98644143995e-05,4.64549812023e-05,-0.00011823893874,0.466590603394,-0.00501960982091,0.117344261526,-0.000102211385804,0.934792324163,0.355180134058,-0.00322060458992
-0.137693837285,0.136073201895,0.122775375843,-2.50924348831,-0.0389765202999,2.63792204857,-0.70801538229,0.0508102402091,0.000183700874913,0.000108772757812,-7.75294101913e-05,3.38019381161e-05,4.52902677353e-05,3.86465108022e-05,-0.00534132029861,0.46658977468,-0.00501786855311,0.117344187789,-0.000102280765733,0.934791709313,0.355181746488,-0.00322123979061
-0.137696713209,0.136076629162,0.122772924602,-2.50924372673,-0.0389737002552,2.63792181015,-0.708014667034,0.0508102402091,-0.000250345619861,-0.00101168325637,-0.000374485302018,-0.000430050276918,-0.000105846083898,3.04955774482e-05,0.000344978267094,0.466588828907,-0.00502023010202,0.117342479372,-0.000103685972317,0.934793211416,0.355177778422,-0.00322281551539
-0.137698963284,0.136076450348,0.122770443559,-2.50924396515,-0.0389751903713,2.63792228699,-0.708014965057,0.0508102402091,-0.000104135251604,2.59252901742e-05,-0.000349589739926,-0.000508086930495,8.09390912764e-05,-0.00013313900854,0.000195657092263,0.466588815553,-0.00502254140468,0.117342502059,-0.000103130678572,0.934793761861,0.355176329773,-0.00322282549492
-0.137696638703,0.13607147336,0.122772358358,-2.50922751427,-0.038975931704,2.63793063164,-0.708020985126,0.0508102402091,-0.000173000924406,-0.00110758130904,0.000153864035383,0.000554382684641,4.67759673484e-06,0.00262514548376,0.000198085748707,0.466600253239,-0.00502088008943,0.117351174887,-9.74309996532e-05,0.934791920834,0.355181301284,-0.00320907387386
-0.137695208192,0.136076048017,0.122773334384,-2.50924491882,-0.038976483047,2.63792777061,-0.708021640778,0.0508102402091,-0.000111072557047,0.000779730849899,-0.00364430970512,-0.00154960819054,0.000167270030943,-0.00016084346862,0.000115288530651,0.466590693556,-0.00501947202886,0.117343713978,-0.000101637796207,0.934791233362,0.355183015969,-0.00321940244961
-0.13769492507,0.136076703668,0.122773982584,-2.50926113129,-0.0389763005078,2.63792276382,-0.708020746708,0.0325555615127,0.00113860738929,0.00156090315431,0.00395536934957,-0.00200560409576,2.01200400625e-05,0.000123484118376,9.52130335463e-07,0.466580034835,-0.00501870075979,0.117336579299,-0.000106244049099,0.934791143987,0.355183147625,-0.00323065993852
-0.137696668506,0.136080518365,0.122772224247,-2.50923967361,-0.0389769040048,2.63793349266,-0.70801872015,0.0325555615127,0.000136646645842,-0.000245842908043,-2.24267350859e-05,-0.000213551698835,-4.47684396931e-05,0.000134987727506,-8.6917214503e-05,0.466592655553,-0.00502053788589,0.117343073363,-0.000101137590079,0.93479213397,0.355180663742,-0.00321742555582
-0.137695506215,0.136077553034,0.122774586082,-2.50923609734,-0.0389775186777,2.63793587685,-0.708021759987,0.0325555615127,-8.56247279444e-05,-0.000403923651902,-5.63704743399e-05,0.000569501542486,-5.19515742781e-05,-0.000188501129742,0.000219050591113,0.466595690494,-0.0050189807657,0.11734589553,-9.93620463906e-05,0.934790900332,0.355183948221,-0.00321331541993
-0.13769890368,0.136074885726,0.122770339251,-2.5092382431,-0.0389760881662,2.63793349266,-0.708019435406,0.0325555615127,-0.000218103203224,-0.000664671650156,-0.000250321289059,-0.00077886483632,-8.13023234514e-06,-0.000156890862854,0.000314973876812,0.466594570488,-0.00502267023042,0.117346154987,-9.96004442772e-05,0.934792878332,0.355178733535,-0.00321428535968
-0.137700498104,0.13608071208,0.122770771384,-2.50924563408,-0.0389775522053,2.6379327774,-0.708021461964,0.0325555615127,0.000572789052967,-0.00034127527033,0.000349773588823,-0.000180589398951,0.000115402639494,-0.000133840498165,-0.000180494898814,0.466589340538,-0.00502297085197,0.117340870062,-0.000102187951317,0.934792453221,0.3551797934,-0.00322071502307
-0.137691184878,0.136081397533,0.122777976096,-2.50924515724,-0.0389770083129,2.6379365921,-0.708022296429,0.0325555615127,-0.000357927579898,-0.00284652481787,-0.000215121326619,0.000396682502469,0.00299551617354,0.000317761994665,4.1433962906e-05,0.466590389416,-0.00501504094804,0.117341104267,-0.000102145685529,0.9347894743,0.355187651565,-0.00321872100155
-0.137696787715,0.136077806354,0.122772492468,-2.50923204422,-0.0389772355556,2.63793873787,-0.708023488522,0.0325555615127,-0.000793770712335,-0.000671738001984,6.29220812698e-05,0.000117208452139,0.000106665480416,-6.82386526023e-05,2.38907329475e-08,0.466598336527,-0.00502063640743,0.117347396679,-9.81367926013e-05,0.934791255085,0.355183042688,-0.00321024275432
-0.137702167034,0.136080190539,0.122767008841,-2.50923800468,-0.0389764420688,2.63793730736,-0.708024799824,0.0325555615127,0.000338983227266,9.78108364507e-05,-0.000317775382427,-0.001559004304,-3.47169880115e-05,-0.000118986798043,5.79051993554e-05,0.466593416426,-0.00502561404757,0.117343450669,-0.000100308828496,0.934793059367,0.355178243461,-0.00321576653641
-0.137691438198,0.136088445783,0.12277405709,-2.50925302505,-0.0389762893319,2.63793587685,-0.708023965359,0.0325555615127,0.000483444862766,8.10566780274e-05,0.000316137302434,0.000469102989882,-2.27696054935e-05,-0.000149290266563,0.000243453556322,0.4665846181,-0.00501674807842,0.117335055658,-0.000105352736957,0.93478997645,0.355186264187,-0.00322587159555
-0.137690007687,0.136088237166,0.122775390744,-2.50924158096,-0.0389770008624,2.63793754578,-0.708023905754,0.0304837804288,-0.000115736671432,-0.000551104254555,-4.55007830169e-05,0.000876485486515,0.000110178421892,0.000120658369269,-0.000200468479306,0.466590558932,-0.0050155256898,0.117338793915,-0.000103064740703,0.93478934921,0.355187966521,-0.00322026493467
-0.137697428465,0.136086329818,0.122771203518,-2.5092394352,-0.038976598531,2.63793873787,-0.708024203777,0.0304837804288,-0.000554606085643,-0.000281342188828,-0.000108357213321,0.00127870787401,-3.87193067581e-05,-2.82062683254e-05,4.31064336226e-06,0.466592675664,-0.00502119462111,0.11734091138,-0.000101621755696,0.934791520694,0.355182277869,-0.0032174035358
-0.137699693441,0.1360822469,0.122769244015,-2.5092446804,-0.0389757603407,2.63793730736,-0.708024561405,0.0304837804288,-5.44748909306e-05,2.92037311738e-05,-0.000195924425498,-0.000311632844387,8.95344710443e-05,-6.87071442371e-05,0.000273862213362,0.466590489902,-0.0050232434879,0.117340866263,-0.000101933803032,0.934792315749,0.355180173394,-0.00321871713813
-0.137690976262,0.136087194085,0.122776076198,-2.50924229622,-0.0389771014452,2.63793802261,-0.708026051521,0.0304837804288,-9.26002485357e-06,0.000478415808175,0.000350359710865,-0.00424186699092,8.61466978677e-05,-0.000105884530058,-0.00480049755424,0.466590929832,-0.00501574208812,0.117339509219,-0.000102640748061,0.934789095648,0.35518864244,-0.00321933068009
-0.137695848942,0.136087879539,0.122771345079,-2.50924873352,-0.0389759391546,2.63793683052,-0.708026170731,0.0304837804288,-0.000595685734879,-3.65838313883e-05,-6.54420655337e-05,-0.00218239543028,-0.000145904676174,-0.000159018949489,0.000139131501783,0.466587122691,-0.00502020116789,0.117336847438,-0.000104194229659,0.934790921555,0.355183801049,-0.0032232406924
-0.137699469924,0.136084645987,0.122768417001,-2.50924086571,-0.0389770492911,2.63793778419,-0.70802539587,0.0304837804288,-0.000505953445099,-0.00095129100373,-0.000288315408397,0.00205224752426,-1.42161079566e-05,4.10710927099e-05,0.000188834324945,0.466592050634,-0.00502356275056,0.117341096208,-0.00010138552722,0.934792086399,0.355180784527,-0.00321790533535
-0.137695819139,0.136084273458,0.122770294547,-2.50923085213,-0.0389768071473,2.63793945312,-0.708024978638,0.0304837804288,0.000541406159755,0.000131460605189,0.000243543530814,-0.000124019235955,6.23274318059e-05,5.29686003574e-05,0.000107494503027,0.466597713878,-0.00502107423806,0.117344855609,-9.93180945143e-05,0.934791267955,0.355182990562,-0.00321222550889
-0.137688949704,0.136086672544,0.122776210308,-2.50924515724,-0.0389769896865,2.63793730736,-0.708028078079,0.0304837804288,-0.000314306089422,0.00151968956925,-0.000409940286772,-0.00349152693525,-0.000124240294099,-1.52223792611e-05,4.71583080071e-05,0.466589414904,-0.00501470583385,0.117338710492,-0.000103198782807,0.934788356566,0.355190574494,-0.00322075374927
-0.13769428432,0.136087864637,0.122769214213,-2.50924491882,-0.038977149874,2.63793778419,-0.708026468754,0.0304837804288,-0.000500372203533,-0.00047219285625,-0.000552447454538,0.000518717453815,-5.65779555473e-06,7.18577284715e-05,-0.000206696713576,0.466589298742,-0.00502060243292,0.11733822558,-0.000102924960297,0.934790795363,0.355184152214,-0.00322118186323
-0.137697860599,0.136085122824,0.122768953443,-2.50923776627,-0.0389763824642,2.63794016838,-0.708028197289,0.0304837804288,-0.000236402935116,-0.000575828365982,0.000548418611288,0.000838191423099,7.5357616879e-05,7.20082753105e-05,0.000306940695737,0.466594570667,-0.00502240662471,0.117342630831,-0.000100428995447,0.934791325191,0.355182816709,-0.00321475699004
-0.13769453764,0.136084571481,0.122769802809,-2.5092394352,-0.0389771796763,2.63793945312,-0.708029091358,0.0304995402694,-2.20454257942e-05,0.00302321999334,0.000194529362489,3.37181263603e-05,-2.18762764348e-07,2.62046323769e-05,-3.08950147883e-05,0.466593210495,-0.00502059959389,0.117341776044,-0.000100869657693,0.934790298771,0.355185503192,-0.00321638861343
-0.137694060802,0.13608519733,0.122772037983,-2.5092382431,-0.0389752723277,2.63794088364,-0.708029150963,0.0304995402694,-0.000261288601905,0.00106949789915,0.0014864691766,-0.00039818737423,-0.000201659888262,-0.000185459430213,-0.000287622504402,0.466593745789,-0.00501911048741,0.117341513612,-0.000101400431913,0.934790079923,0.35518608589,-0.00321562931727
-0.137691035867,0.136087745428,0.122774921358,-2.50923800468,-0.038976944983,2.63794159889,-0.708026885986,0.0304995402694,0.000129923922941,-1.19018195619e-05,-9.63131242315e-05,0.000249873177381,8.23716436571e-06,-6.55940821161e-05,0.000223861759878,0.46659378964,-0.00501649073912,0.117340988357,-0.000101352823758,0.93478915816,0.355188508836,-0.00321595877148
-0.1376888901,0.136088117957,0.122776038945,-2.50923967361,-0.0389765910804,2.63794112206,-0.708029270172,0.0304995402694,-0.000392663350794,-0.00035422592191,0.00284712458961,0.000170528539456,2.04876087082e-05,-3.45752632711e-05,0.000356359872967,0.466592779915,-0.00501476880986,0.117340247469,-0.000101968192133,0.934788254098,0.355190878371,-0.00321701897924
-0.137692198157,0.136086985469,0.122771814466,-2.50923609734,-0.0389762893319,2.63794136047,-0.708030581474,0.0304995402694,3.30927068717e-05,-0.000318011967465,-8.77734055393e-05,-0.000334133103024,-0.000411656306824,5.65112786717e-05,-0.00565882725641,0.466594870262,-0.00501846157624,0.11734198248,-0.000100825232848,0.934789417418,0.355187836598,-0.00321486171919
-0.137695595622,0.136084794998,0.122768908739,-2.50924277306,-0.038976803422,2.63793992996,-0.708030641079,0.0304995402694,0.000293451623293,-0.000319165410474,0.00030456087552,0.00045715898159,-3.08175440296e-05,2.45527871812e-06,5.20860339748e-05,0.466591526442,-0.00502146637675,0.117340564292,-0.000101497608244,0.934790412462,0.355185190919,-0.00321781070492
-0.137692809105,0.136087164283,0.122770607471,-2.50924015045,-0.0389770679176,2.63794112206,-0.708029270172,0.0304995402694,0.000329754519043,0.000505770905875,0.000296154496027,0.000357942190021,0.000681978999637,4.0833663661e-05,0.000694479851518,0.466592668639,-0.00501930085878,0.117340482186,-0.000101411620815,0.934789830598,0.355186729314,-0.00321703746714
-0.137690842152,0.136086419225,0.122771501541,-2.5092356205,-0.0389763526618,2.6379404068,-0.708029329777,0.0304995402694,0.00102096772753,-0.000723913428374,0.000136478047352,-0.000137727474794,0.000744149496313,-9.61412515608e-05,0.000149223589688,0.466595032695,-0.00501801182016,0.117342322633,-0.000100725692239,0.934789445948,0.355187761591,-0.00321485613683
-0.137686997652,0.136086925864,0.122777380049,-2.5092394352,-0.0389770120382,2.63794231415,-0.708029687405,0.0304995402694,-0.000354149524355,-0.000653225404676,-0.00028267223388,0.000220613947022,2.07352404686e-05,4.50727420684e-05,-0.000334303738782,0.46659344137,-0.00501327267047,0.117340994926,-0.000101416655153,0.934787546775,0.35519275095,-0.003215815257
-0.137694031,0.136088162661,0.122770339251,-2.50923752785,-0.0389764234424,2.63794159889,-0.708030164242,0.0305001959205,0.000158619412105,7.47443191358e-05,0.000561957189348,0.000141614524182,-5.60150947422e-05,1.98542365979e-05,0.000100149460195,0.466593908412,-0.00501998946771,0.117340956828,-0.000101218778924,0.934790047519,0.355186167966,-0.00321598904028
-0.137688994408,0.136085867882,0.122772440314,-2.50923752785,-0.0389769561589,2.63794279099,-0.708031535149,0.0305001959205,-4.5299325393e-06,-0.000284115638351,-0.000221823545871,0.00056338153081,-9.40650716075e-05,-1.42311762374e-06,0.00017017198843,0.466594704712,-0.00501668545255,0.117342139179,-0.000100461898911,0.934788461993,0.355190355401,-0.00321439692394
-0.13769069314,0.136087089777,0.122772119939,-2.50923705101,-0.0389766767621,2.63794207573,-0.708033263683,0.0305001959205,-8.50451979204e-05,-6.84430997353e-05,0.000207781806239,0.000260374537902,1.83313495654e-05,-5.54530925001e-05,0.000156293564942,0.466594521926,-0.0050176009497,0.117341672242,-0.00010083794398,0.934788555981,0.355190102159,-0.0032150354127
-0.137692630291,0.136085912585,0.122772604227,-2.50923776627,-0.0389767736197,2.6379430294,-0.708034276962,0.0305001959205,0.000237709347857,0.000379125849577,0.000214031300857,0.000346095010173,3.36644152412e-05,-1.70131970663e-05,0.00019282590074,0.466594607242,-0.00501829053536,0.117342058849,-0.000100537376136,0.93478861956,0.355189940716,-0.0032143945333
-0.137695580721,0.136085242033,0.122768118978,-2.50923633575,-0.0389762744308,2.63794326782,-0.708032429218,0.0305001959205,0.000369163317373,-0.000427189166658,0.000165781748365,-0.000601792882662,-3.96540999645e-05,-0.000133373774588,0.00015766332217,0.466595487745,-0.00502189521027,0.117342843529,-9.99261129645e-05,0.934790346549,0.355185404506,-0.00321342897896
-0.13769313693,0.136086121202,0.122769840062,-2.50923752785,-0.0389762446284,2.63794326782,-0.708033084869,0.0305001959205,7.21214860278e-07,9.86922023003e-05,0.00021034902602,1.22267977076e-06,5.02437542309e-05,2.12640497921e-05,-8.39630738483e-05,0.466594710732,-0.00501986588703,0.117342042368,-0.000100461253432,0.934789491133,0.355187647692,-0.0032143099019
-0.137688487768,0.136086568236,0.122775226831,-2.50923895836,-0.0389764197171,2.63794231415,-0.708035230637,0.0305001959205,-0.000154021327035,0.000110376189696,-0.00359117123298,0.000155520334374,-9.50009143708e-06,0.000100969991763,-0.000299138220726,0.466593737416,-0.00501502604495,0.117341306373,-0.00010126287568,0.93478730094,0.355193401207,-0.00321545831206
-0.137690216303,0.136085152626,0.12277379632,-2.50923585892,-0.0389768928289,2.63794398308,-0.70803463459,0.0305001959205,-0.000377917051082,0.00064484809991,0.000593284203205,-0.000509528559633,0.000962108257227,-2.44472885242e-05,0.000114118374768,0.466595988892,-0.0050166271654,0.117343155635,-9.98796411764e-05,0.934787910112,0.355191823374,-0.00321269771206
-0.137689471245,0.136086598039,0.122773639858,-2.50923705101,-0.0389761552215,2.63794326782,-0.708035171032,0.0305001959205,-8.14329905552e-05,-0.000438723771367,-0.000286421098281,8.70679505169e-05,2.76428090729e-05,-5.6371667597e-05,-0.0049750986509,0.466594908145,-0.00501627880163,0.117342015308,-0.000100725190526,0.934787816497,0.355192056217,-0.00321416680846
-0.13769261539,0.136086314917,0.122771121562,-2.50924086571,-0.0389759503305,2.63794326782,-0.708035051823,0.0305001959205,-0.000102041420178,0.000268553063506,-0.000952337868512,0.000393597059883,-3.62612045137e-05,1.49924335346e-05,0.000182252653758,0.466593223289,-0.00501936191179,0.117340852625,-0.000101189808234,0.93478901538,0.355188886353,-0.00321577092935
-0.13768902421,0.136086478829,0.122773706913,-2.50923728943,-0.038976226002,2.63794469833,-0.708035588264,0.0300707370043,0.000115065209684,9.55211435212e-05,9.47187218117e-05,0.000163977994816,-0.000129786523758,-3.26397057506e-05,-0.000132745306473,0.466595274461,-0.00501570082859,0.11734223889,-0.000100417034282,0.934787468917,0.355192977964,-0.00321340350988
-0.137685805559,0.136087760329,0.12277726084,-2.50923585892,-0.0389766283333,2.63794398308,-0.708036959171,0.0300707370043,0.000126172715682,-0.00144830252975,0.000911935057957,-0.000433033768786,0.000149042229168,-8.41876244522e-05,-0.00050834461581,0.466595484949,-0.0050127823861,0.117341976364,-0.000100762642771,0.934786141519,0.355196468508,-0.00321370730721
-0.13768684864,0.136087492108,0.122775323689,-2.50923728943,-0.0389764420688,2.63794493675,-0.708038747311,0.0300707370043,-0.000282533350401,0.000178767513717,-0.000162912197993,0.000524378148839,0.000147579616169,6.97961149854e-05,-0.000557563093025,0.466594988522,-0.00501419935416,0.117341678007,-0.000100736101008,0.934786374174,0.35519585491,-0.00321385294045
-0.137693345547,0.136086881161,0.122771032155,-2.50923657417,-0.0389761999249,2.63794398308,-0.708036363125,0.0300707370043,-0.000119049276691,-0.00296862027608,-0.000414601061493,5.90739546169e-05,-6.55911717331e-05,3.8951591705e-05,0.000389833847294,0.466595208581,-0.00501936418508,0.117342088551,-0.000100431054429,0.934788747262,0.35518960985,-0.00321382115912
-0.137691929936,0.136086449027,0.122769936919,-2.50923633575,-0.0389772243798,2.63795042038,-0.708039283752,0.0300707370043,0.000511785503477,0.00315407570451,0.000192966137547,0.000329262256855,-0.00151098973583,8.32168952911e-05,-0.000430718500866,0.466596835025,-0.00501926032188,0.117342919308,-9.89026988506e-05,0.934788019846,0.355191553719,-0.00321061091826
-0.137692674994,0.136083945632,0.122771337628,-2.50923061371,-0.038978330791,2.63794469833,-0.708038210869,0.0300707370043,-0.000441512325779,-0.000315178418532,0.000193480605958,-2.04722732633e-06,4.67702593596e-05,-0.000184752949281,-8.34521997604e-05,0.466599084539,-0.00501912953239,0.11734555195,-9.80412660173e-05,0.934787946551,0.355191756057,-0.00320959270073
-0.137694731355,0.136087521911,0.122768953443,-2.50924158096,-0.0389783382416,2.63795042038,-0.708040237427,0.0300707370043,0.000232501581195,0.00156568712555,0.000403031735914,0.000281370099401,-0.000150562133058,9.66348743532e-05,-0.000371789326891,0.466593868997,-0.00502097731111,0.11734061963,-9.98284267661e-05,0.934788321609,0.355190731891,-0.00321364009129
-0.137692406774,0.136078998446,0.122770853341,-2.50922870636,-0.0389789491892,2.6379506588,-0.708047628403,0.0285354498774,6.32873488939e-05,-0.000370304856915,6.52772678222e-06,-0.000441747397417,-4.04546017307e-06,8.14361828816e-06,0.000225296171266,0.466602656083,-0.00501935437303,0.117349115447,-9.52370157121e-05,0.934786134135,0.355196580366,-0.00320364475438
-0.137692242861,0.136077389121,0.122769191861,-2.50922656059,-0.0389785841107,2.63794851303,-0.708050012589,0.0285354498774,0.00026545394212,0.0001580214157,1.36691760417e-05,-5.00295464008e-05,6.88137442921e-05,0.000134202782647,0.000244423135882,0.466603358414,-0.00502016679435,0.117350189716,-9.49440626018e-05,0.934786151453,0.355196538627,-0.00320322809048
-0.137690261006,0.136077404022,0.122772455215,-2.5092227459,-0.0389784425497,2.6379506588,-0.708049535751,0.0285354498774,-0.000266564951744,0.000706128077582,-0.000152445441927,-0.000489306228701,2.24099931074e-05,-0.000152532811626,0.00026562763378,0.46660588412,-0.00501773617865,0.117351798368,-9.40612207327e-05,0.934785346196,0.355198685043,-0.0032002372705
-0.137687698007,0.1360796839,0.122775532305,-2.50922751427,-0.0389790311456,2.63794946671,-0.708052575588,0.0285354498774,0.00017674814444,1.35478649099e-05,-0.00358214438893,0.000477808527648,-6.16609613644e-05,-0.000109491920739,7.17496368452e-05,0.466602708568,-0.00501491622291,0.117349032341,-9.57384639185e-05,0.934783691099,0.355203006761,-0.00320396058257
-0.137688308954,0.136077210307,0.122772283852,-2.50922417641,-0.0389796346426,2.63795042038,-0.708054304123,0.0285354498774,-0.000147365557496,-0.000255584425759,0.000481557508465,-0.00022262740822,6.55679032207e-05,-5.42816778761e-05,-0.000104538084997,0.466605141733,-0.00501693035387,0.117351376432,-9.40452336399e-05,0.934783990291,0.355202246239,-0.00320103151077
-0.137687504292,0.136077076197,0.122773222625,-2.50922989845,-0.0389775261283,2.63794970512,-0.708054900169,0.0241830628365,0.0003564193903,-0.000555127102416,-2.2198406441e-05,-0.000291141244816,4.54369874205e-05,3.83214392059e-05,-2.19607481995e-05,0.466602063509,-0.0050159602772,0.117349425399,-9.572257515e-05,0.934783878633,0.355202515003,-0.0032037642171
-0.137686669827,0.136078000069,0.122774429619,-2.5092253685,-0.0389776416123,2.63794946671,-0.708055138588,0.0241830628365,0.00219263136387,-0.000226714779274,0.00370579189621,0.00061198649928,-5.2095609135e-05,3.44830441463e-05,0.000196371111088,0.466603936159,-0.00501474213681,0.117350389102,-9.53248801824e-05,0.934783343335,0.355203936736,-0.00320233489036
-0.137686476111,0.136078819633,0.12277238071,-2.50922513008,-0.0389778800309,2.63794922829,-0.708057641983,0.0241830628365,5.15777828696e-05,0.000283261557342,-0.000349268084392,-0.000263398978859,-3.4902637708e-05,-2.1677598852e-05,0.00014575215755,0.4666044953,-0.00501607946792,0.117350702114,-9.49183663656e-05,0.934783367751,0.355203875938,-0.00320196361791
-0.137682259083,0.136078745127,0.122776776552,-2.50922560692,-0.0389787778258,2.63795018196,-0.708057403564,0.0241830628365,-0.000109345244709,-3.54426410922e-05,9.60108736763e-05,3.68978544429e-05,-2.34617687056e-06,0.000148783845361,-9.12446703296e-05,0.466603954646,-0.00501173985668,0.117349986267,-9.52910130915e-05,0.93478164879,0.355208394215,-0.00320255677024
-0.137683495879,0.136080175638,0.122774399817,-2.50922322273,-0.0389789417386,2.63795185089,-0.708060383797,0.0241830628365,-8.14423474367e-05,0.000450487306807,0.000257844774751,-0.000128043247969,-6.68784487061e-05,-7.04021513229e-05,0.000392534566345,0.466605358629,-0.00501354481447,0.117350471161,-9.46197852228e-05,0.934781792955,0.35520802822,-0.0032010906706
-0.137684896588,0.136078327894,0.122773803771,-2.50923132896,-0.0389789752662,2.63795042038,-0.708056747913,0.0242264028639,-0.000269562500762,-0.000400786055252,-0.00188866246026,-0.000827943149488,2.39665423578e-05,-0.000157925198437,0.000119101714517,0.466601231867,-0.00501443944803,0.117348423119,-9.58722042663e-05,0.934782751362,0.355205472776,-0.00320474031236
-0.137677997351,0.136079624295,0.12277649343,-2.50921487808,-0.0389779321849,2.63794851303,-0.708061337471,0.0242264028639,0.000396689225454,0.000124464757391,0.000713116780389,-0.00021414339426,-8.33989470266e-05,-0.000195779692149,-6.19587081019e-05,0.466608176955,-0.00501125355358,0.117352528291,-9.4255519595e-05,0.934781054398,0.355209986753,-0.00319944527373
-0.137683779001,0.136083990335,0.12277084589,-2.50913572311,-0.03897985816,2.63793873787,-0.708059310913,0.0242264028639,0.000110599779873,-0.00246448628604,-0.000163951728609,0.00340062775649,-4.43150092906e-05,-0.000562914297916,0.00309112994,0.46664691401,-0.00501661483661,0.117377491337,-8.11491181325e-05,0.934782891327,0.355205433329,-0.00316848787117
-0.137675583363,0.136038944125,0.122777976096,-2.50891709328,-0.0389808863401,2.63791704178,-0.708059728146,0.0242264028639,-0.000116228853585,-0.00514644989744,0.00141576910391,0.0111455433071,1.9392957995e-07,-0.000179670518264,0.000179139926331,0.466771511598,-0.00501400448289,0.11747758463,-3.05465873554e-05,0.934780969621,0.355211532717,-0.00305034606595
-0.137676686049,0.135890603065,0.122775934637,-2.5085914135,-0.0389802791178,2.63785624504,-0.708060801029,0.0242264028639,0.000547335250303,-0.0110460110009,-0.000323177606333,0.0151564422995,3.37712081091e-05,-0.00336102303118,-0.00596557650715,0.46695177731,-0.00502448907443,0.11764635381,5.18484988123e-05,0.934783026806,0.355207622922,-0.00286956646588
-0.137672945857,0.135692864656,0.122777931392,-2.50828576088,-0.0389809124172,2.63772845268,-0.708060503006,0.0242264028639,0.000231832149439,-0.0207262244076,0.000192011342733,0.0213114786893,-6.79891172695e-06,-0.0173129420727,-0.00025879155146,0.467124009853,-0.00503242390261,0.11783166009,0.000134298748525,0.934783430886,0.355207859646,-0.00270100660294
-0.137682572007,0.135210394859,0.122770778835,-2.5076713562,-0.0389811061323,2.63716173172,-0.70805978775,0.0242264028639,0.000272468227195,-0.0309216715395,-0.000869757728651,0.0377488136292,-3.54818585038e-05,-0.046915885061,7.82446732046e-05,0.467437728198,-0.00506797544969,0.118241719247,0.000276314021754,0.934789573221,0.35519337161,-0.00245884078384
-0.13768042624,0.133522346616,0.122769027948,-2.50621414185,-0.0389839038253,2.63501548767,-0.708059668541,0.0242264028639,0.00327323959209,-0.0891209021211,0.000615641183686,0.0570381842554,-0.000118729789392,-0.110183805227,-6.58530407236e-05,0.468059809299,-0.00514445732349,0.119314235199,0.000581137198504,0.934794884316,0.35518153957,-0.00206401814164
-0.137676790357,0.132004395127,0.122773781419,-2.50523877144,-0.0389852896333,2.63276314735,-0.708058536053,0.0242264028639,-0.000477687455714,-0.11366892606,-0.000343358464306,0.076131105423,-2.48175365414e-05,-0.183066099882,6.7452332587e-05,0.468367689009,-0.00520226167655,0.120096434292,0.000735069979572,0.934796946342,0.355176177265,-0.0020028908123
-0.137677177787,0.128909021616,0.122771322727,-2.50331711769,-0.0389859564602,2.62743973732,-0.708058595657,0.0242264028639,0.0003263700346,-0.166481733322,0.0007963165408,0.0991287827492,-0.00018137342704,-0.294757574797,-0.000288515817374,0.468861209807,-0.0053482640309,0.121798742709,0.000943874899622,0.934805487506,0.355151660804,-0.00225989862695
-0.137675270438,0.126175150275,0.122775837779,-2.50187206268,-0.0389907024801,2.62263917923,-0.708059489727,0.0242264028639,-0.00050178845413,-0.218720644712,-0.00041604010039,0.107462100685,3.03586912196e-05,-0.384595453739,0.000322599516949,0.469120522825,-0.00546442491866,0.123154317729,0.00105646893352,0.934809440007,0.355138252901,-0.00264872767754
-0.137678667903,0.121156968176,0.122771650553,-2.49944448471,-0.0389929190278,2.61373281479,-0.708058357239,0.0242277160287,0.000242713533225,-0.276713848114,-0.00133102433756,0.131448149681,0.000301962514641,-0.500455498695,0.000112593486847,0.469446494802,-0.0056828259946,0.125563381849,0.00120444099606,0.934820987325,0.355099904738,-0.00351117068792
-0.137683138251,0.112371899188,0.122771002352,-2.49559783936,-0.0390002392232,2.59808731079,-0.708061277866,0.0242277160287,-3.02496555378e-05,-0.384141623974,-0.000425483769504,0.170139998198,-0.000426881189924,-0.689554989338,0.000167109668837,0.469758279949,-0.00605221436954,0.129656023224,0.00137948690747,0.934837199817,0.355035378362,-0.00523322567412
-0.137685850263,0.103738091886,0.122768133879,-2.49172115326,-0.0390024259686,2.58296012878,-0.708061277866,0.0242277160287,0.0011544439476,-0.47561019659,0.000610801333096,0.209452405572,2.70067776e-05,-0.830913722515,-0.000272010132903,0.470117640139,-0.00641048033861,0.133758076223,0.00160919228593,0.934856171846,0.354958604998,-0.00676290504643
-0.137675777078,0.0951391234994,0.12277918309,-2.48796319962,-0.0390056408942,2.56787323952,-0.708059191704,0.0242277160287,0.000368825509213,-0.532152056694,0.000217730223085,0.231734454632,5.93039021624e-06,-0.934495806694,-0.000279434461845,0.470355138072,-0.00672715133877,0.137575698455,0.00180199173543,0.934869839645,0.354890381144,-0.00824334910301
-0.137694597244,0.0836472883821,0.122765377164,-2.48272299767,-0.0390076227486,2.54779553413,-0.708060443401,0.0242277160287,-0.00103899405804,-0.615408182144,-0.00257672881708,0.28811314702,0.000253306818195,-1.06150877476,4.67420177301e-05,0.470753213635,-0.00722280344788,0.143389596487,0.00214052750948,0.934903925183,0.354744548965,-0.010313752253
-0.137699753046,0.0641704499722,0.122768513858,-2.47336983681,-0.0390185564756,2.51425552368,-0.70805978775,0.0242277160287,0.000727523874957,-0.71685141325,0.00033587787766,0.346754133701,-0.000209490535781,-1.22403264046,-0.000138001065352,0.471533238508,-0.00798208259548,0.153120484466,0.00285887702949,0.934960144144,0.354495512094,-0.0132017905994
-0.137706652284,0.0523607805371,0.122767388821,-2.46738553047,-0.0390212275088,2.49448060989,-0.708061695099,0.0242277160287,-7.81302442192e-05,-0.760312139988,9.70372202573e-05,0.416584163904,-0.000538182968739,-1.28643679619,-0.000207189164939,0.472253024557,-0.0084897340771,0.160069317273,0.00353526612874,0.935011137676,0.354296970724,-0.014674145178
-0.137695297599,0.0354644134641,0.122779965401,-2.45816135406,-0.0390326082706,2.46651053429,-0.708060860634,0.0242277160287,-0.00114814308472,-0.852528095245,0.000724799640011,0.463847488165,0.000448549573775,-1.37142491341,-0.000334946904331,0.473233531051,-0.00904049367248,0.168344569236,0.00444981623701,0.935074495952,0.354062173498,-0.0159957224939
-0.137700453401,0.022605555132,0.122778013349,-2.4506778717,-0.0390342772007,2.44535779953,-0.70806324482,0.0242277160287,0.00312214670703,-0.894977092743,-0.00254845479503,0.506485521793,-0.000197489804123,-1.44698107243,0.00109161448199,0.474154970099,-0.00950130266451,0.175522205501,0.00531755557986,0.935142877056,0.353831248836,-0.016821715943
-0.137723535299,-0.0237886700779,0.122767455876,-2.42072534561,-0.0390591658652,2.37028384209,-0.708062589169,0.0242283735424,-0.000407035462558,-0.96179574728,-0.00162906735204,0.673162937164,0.000627293949947,-1.56967711449,-0.000378025404643,0.477915840997,-0.0110408579933,0.203125564394,0.00916630674175,0.935460924651,0.352861152369,-0.0178281829019
-0.13772252202,-0.0385055877268,0.122766882181,-2.41000699997,-0.0390665642917,2.34678173065,-0.70806068182,0.0242283735424,0.00132487539668,-0.98814034462,0.000638509052806,0.738985657692,0.000115230926895,-1.57131659985,0.000396666640881,0.4792961742,-0.0114777709418,0.212546994902,0.0106485953487,0.935583510619,0.352514351667,-0.0174279554219
-0.137742489576,-0.0563699901104,0.122737258673,-2.39614224434,-0.0390949100256,2.31849646568,-0.708060920238,0.0242283735424,-0.00203747535124,-0.982485830784,-0.00385816372,0.773800432682,-0.00355377909727,-1.57424771786,0.000469691585749,0.481089121448,-0.011999294107,0.224457927308,0.012640501798,0.935751242059,0.352051051683,-0.0164282498822
-0.137726098299,-0.0774132683873,0.122639879584,-2.37885141373,-0.0393309891224,2.28572797775,-0.708063483238,0.0242283735424,-0.00271992129274,-1.00626671314,-0.00370599329472,0.86482077837,-0.00488038500771,-1.53116333485,2.02833143703e-05,0.483266657054,-0.0125906251355,0.239084746416,0.0153088413333,0.935940101045,0.351524707919,-0.0145652340018
-0.137775957584,-0.12445294857,0.122298464179,-2.33677148819,-0.039365503937,2.2149078846,-0.70806145668,0.0242283735424,-0.00206779199652,-0.996019899845,-0.00846256129444,0.943649172783,0.00114734843373,-1.45276761055,-0.000313480821205,0.488070785693,-0.0137185053629,0.274037940176,0.0220686338367,0.936471151193,0.349967867262,-0.0075663699009
-0.13779681921,-0.137385591865,0.122181117535,-2.32446074486,-0.0393789373338,2.19642591476,-0.708059847355,0.0242296867073,-0.00170190737117,-0.982004284859,-0.00896127428859,0.951736152172,-0.000341779727023,-1.39648580551,-0.00051351392176,0.489373572779,-0.0139767082904,0.284197603221,0.0242132040416,0.936610314642,0.349501877177,-0.00482460268235
-0.137865006924,-0.156921803951,0.121987365186,-2.30562376976,-0.039379645139,2.16886878014,-0.708061754704,0.0242296867073,-0.00266713439487,-0.976658761501,-0.00906172394753,0.951582729816,-0.00112420157529,-1.33185768127,7.64172509662e-05,0.491052585472,-0.0143345973544,0.299790261449,0.027534075151,0.936812406775,0.348746664034,-0.00039144469252
-0.138281822205,-0.20545822382,0.121584504843,-2.25770688057,-0.0393837206066,2.10427236557,-0.708063304424,0.0242296867073,-0.0139363510534,-0.901488125324,-0.0104856742546,0.867375552654,-0.00044681460713,-1.14925920963,0.000117080220662,0.493981105346,-0.0149958693229,0.339869416734,0.0365780721151,0.937176686969,0.346689032991,0.012985227455
-0.138455525041,-0.218058690429,0.12148655206,-2.24556946754,-0.0393844023347,2.08866429329,-0.708062410355,0.0242296867073,-0.0119850309566,-0.899329900742,-0.00853633880615,0.831219017506,-0.000551095930859,-1.07610630989,-0.000170111627085,0.494329183344,-0.0151394305004,0.351790501735,0.039400593727,0.937235694361,0.346025514758,0.0174123304835
-0.138695135713,-0.232752412558,0.121372640133,-2.2318482399,-0.0393876805902,2.07053661346,-0.708062410355,0.0242296867073,-0.0151263317093,-0.848981380463,-0.00883376784623,0.793581068516,0.00122802332044,-1.03399324417,0.000196981127374,0.494262515191,-0.0152575146368,0.362354588445,0.0418669356698,0.937280006601,0.345402147404,0.0212298181399
-0.139090001583,-0.250445365906,0.121227346361,-2.21597743034,-0.0393889024854,2.04993391037,-0.708062291145,0.0242296867073,-0.0229430031031,-0.8268045187,-0.00343540753238,0.70278441906,-0.0011116770329,-0.943381905556,0.000118209769425,0.493860628103,-0.0154233802428,0.37667003492,0.04533523532,0.937312497986,0.344491134225,0.0267554795025
-0.139877066016,-0.274166077375,0.121017970145,-2.19658041,-0.0393935590982,2.02331662178,-0.708065390587,0.0242296867073,-0.0305677875876,-0.759581029415,-0.00789581239223,0.58842176199,0.00506045110524,-0.829557180405,-5.35938670509e-05,0.492324879557,-0.0157082650489,0.395055673817,0.0498017579483,0.937358555988,0.343131360487,0.0337578370011
-0.140483558178,-0.289601773024,0.120687052608,-2.18547964096,-0.0393982641399,2.00676655769,-0.70806658268,0.0242296867073,-0.028811249882,-0.710028529167,-0.0163115654141,0.475741624832,0.00017526956799,-0.757829189301,0.000257786246948,0.490696795816,-0.0159977526031,0.406334830768,0.0525363732325,0.937420485015,0.342112038142,0.0379752130517
-0.140886560082,-0.298705786467,0.120379477739,-2.17970776558,-0.0394001677632,1.9974271059,-0.708067834377,0.0242309998721,-0.0309021994472,-0.691020667553,-0.026413872838,0.429329991341,0.000223215363803,-0.678393363953,-0.00119134131819,0.489498017302,-0.0162347234149,0.412635151803,0.0540655211655,0.937480570024,0.341442044875,0.0403042172318
-0.141539871693,-0.31036990881,0.119773074985,-2.17285704613,-0.0394066311419,1.98608887196,-0.708093822002,0.0242309998721,-0.0420237518847,-0.624705076218,-0.0406866334379,0.335234552622,0.000502818904351,-0.606285750866,-0.00504488591105,0.487826570637,-0.0166951108961,0.42048965696,0.0560111249094,0.937596366936,0.3404378868,0.0433341841036
-0.144246786833,-0.33690315485,0.117035724223,-2.16170406342,-0.0400668233633,1.96053993702,-0.709961056709,0.0242309998721,-0.0722946450114,-0.459693014622,-0.0762442350388,0.146599113941,-0.041426435113,-0.463326096535,-0.0775591135025,0.482524965881,-0.019084484798,0.436075600899,0.0598350156488,0.938032342028,0.337929410463,0.0481540179163
-0.145731851459,-0.344584524632,0.115389935672,-2.15963935852,-0.0410946980119,1.95267987251,-0.711646020412,0.0242309998721,-0.0865354239941,-0.393276244402,-0.102432943881,0.0812940448523,-0.0799859166145,-0.417595654726,-0.107765033841,0.480495616167,-0.0206669988052,0.439936271387,0.0609436033089,0.938218820359,0.337143839177,0.0486349023863
-0.147548988461,-0.350459367037,0.113586254418,-2.15854001045,-0.0428693071008,1.94595777988,-0.713910222054,0.0242309998721,-0.120336741209,-0.295220434666,-0.113324664533,0.0480482243001,-0.128311172128,-0.364663213491,-0.152410775423,0.478527561152,-0.0227703996759,0.442700799593,0.0620366338492,0.938388704098,0.336532532145,0.0482073705722
-0.150297030807,-0.355541467667,0.110992431641,-2.15796518326,-0.0460407882929,1.93920969963,-0.717203080654,0.0242309998721,-0.155832052231,-0.218280106783,-0.14057251811,0.00756167853251,-0.188664138317,-0.306621193886,-0.174920156598,0.47665515607,-0.025683115571,0.444587731758,0.0632691210904,0.938602218797,0.335879280842,0.0469893772441
-0.15545772016,-0.359397947788,0.106101371348,-2.15811181068,-0.0528559535742,1.93078124523,-0.723625719547,0.0242336262017,-0.187432572246,-0.0406427830458,-0.186076745391,-0.00312425964512,-0.259616822004,-0.262497842312,-0.253017455339,0.474107150998,-0.0316303747904,0.445544637055,0.0652292658883,0.938962685298,0.334985584696,0.0433460058352
-0.159307062626,-0.359344244003,0.102029725909,-2.15826225281,-0.0582010000944,1.92622292042,-0.729156315327,0.0242336262017,-0.219958662987,0.0299863815308,-0.242171108723,-0.0139645449817,-0.296944200993,-0.21470759809,-0.31631436944,0.4728109978,-0.0363481304067,0.445063087061,0.0663377952243,0.939170448202,0.334594517968,0.0400583871669
-0.162616029382,-0.358567655087,0.0984116345644,-2.15858745575,-0.0624368302524,1.92347753048,-0.734022974968,0.0242336262017,-0.249997019768,0.0859998390079,-0.272548407316,-0.027766412124,-0.306760847569,-0.170628115535,-0.376431643963,0.471940083994,-0.0404022709009,0.444336858231,0.0670967393884,0.939350219657,0.334243529968,0.0374226502931
-0.168020322919,-0.35559284687,0.0926224738359,-2.1591835022,-0.0689231529832,1.9208741188,-0.742128193378,0.0242336262017,-0.293381541967,0.199345543981,-0.311861485243,-0.03188861534,-0.344455093145,-0.0964937955141,-0.433206677437,0.471017620522,-0.0469081344024,0.442517646694,0.0680481660523,0.939590843436,0.33381483113,0.0332588669737
-0.184404119849,-0.341322034597,0.0741865709424,-2.16024422646,-0.0878359675407,1.91894865036,-0.76752114296,0.0242336262017,-0.386136263609,0.393910855055,-0.446560591459,-0.00706757651642,-0.445436030626,-0.00106886832509,-0.625415086746,0.469574933934,-0.066964488287,0.435533333982,0.0702018541785,0.940183669192,0.332666531703,0.021432363999
-0.208236396313,-0.31479036808,0.0453054234385,-2.15955710411,-0.112796790898,1.92014539242,-0.807404696941,0.0242336262017,-0.485986918211,0.570853292942,-0.608978807926,0.0296507272869,-0.459914684296,0.0519010312855,-0.834821045399,0.467644273349,-0.096695285351,0.423992897745,0.0710684224605,0.940783566856,0.331441832813,0.00467662391765
-0.22327080369,-0.296767085791,0.026029124856,-2.1579580307,-0.125974699855,1.92196238041,-0.833316266537,0.0242342837155,-0.539348065853,0.656596839428,-0.715638637543,0.0851082280278,-0.440885663033,0.0786450654268,-0.946098089218,0.465951670601,-0.115492335769,0.416607265878,0.0701585472971,0.941253215097,0.330294515858,-0.00506910170608
-0.232659429312,-0.284970909357,0.0135715808719,-2.15620589256,-0.133351787925,1.92369139194,-0.849964022636,0.0242342837155,-0.548740684986,0.724005639553,-0.737289071083,0.11878374964,-0.417201429605,0.117490373552,-1.01494586468,0.464803540008,-0.12730449253,0.412089162363,0.0692381336624,0.941547907081,0.329514647681,-0.0106637783733
-0.244115576148,-0.27009215951,-0.00207603839226,-2.15328836441,-0.14124506712,1.92640507221,-0.870845794678,0.0242342837155,-0.581593990326,0.771412372589,-0.804626226425,0.17742626369,-0.358799040318,0.150605142117,-1.06335997581,0.46329420805,-0.141777705876,0.406690465827,0.0677231125263,0.941926315037,0.328485649122,-0.0168989667697
-0.254134953022,-0.256660997868,-0.0163891837001,-2.14988017082,-0.1469925493,1.92940735817,-0.889124274254,0.0242342837155,-0.60212880373,0.792027890682,-0.882600188255,0.221061527729,-0.308577418327,0.202661141753,-1.09941828251,0.461896323194,-0.154596368207,0.402150133528,0.0660766635456,0.942413666323,0.327142119733,-0.0216423022227
-0.283538520336,-0.215718269348,-0.0595688484609,-2.1364364624,-0.159498199821,1.94182634354,-0.944120287895,0.0242342837155,-0.610661566257,0.868683338165,-0.928086161613,0.331805318594,-0.201393276453,0.295625209808,-1.1771633625,0.45739436091,-0.191643487708,0.389861011816,0.0609877060867,0.943973898945,0.322725436684,-0.0322811093709
-0.293204754591,-0.201576188207,-0.074568323791,-2.13095211983,-0.162537813187,1.94676458836,-0.962901771069,0.0242349393666,-0.618332803249,0.872653782368,-0.954410672188,0.355254352093,-0.193490311503,0.313156425953,-1.17393922806,0.455542308956,-0.204421903682,0.385840935509,0.0591967598258,0.94456078431,0.321033912159,-0.0351837363131
-0.304049044847,-0.185652405024,-0.0919043645263,-2.12390899658,-0.165778115392,1.95256280899,-0.98378354311,0.0242349393666,-0.600382328033,0.895507156849,-0.962223768234,0.416022568941,-0.166236817837,0.327791303396,-1.16368401051,0.453037525254,-0.21990792067,0.381433913531,0.0573979921927,0.945381213605,0.318590347003,-0.0382102334524
-0.315749824047,-0.16800364852,-0.111040025949,-2.11549210548,-0.168877840042,1.95887386799,-1.00691056252,0.0242349393666,-0.582110464573,0.869778633118,-0.958071947098,0.438229858875,-0.150188997388,0.313235104084,-1.14827656746,0.45007292476,-0.235984352286,0.377015412581,0.0556328003023,0.946210619519,0.31606201909,-0.04117347226
-0.332686305046,-0.142367109656,-0.139531686902,-2.10213327408,-0.172781512141,1.96762406826,-1.0410078764,0.0242349393666,-0.544627249241,0.816487133503,-0.932532727718,0.467700719833,-0.117874443531,0.274221420288,-1.10147249699,0.44476666827,-0.259638253549,0.370952672256,0.0532697100199,0.947463126906,0.312124408672,-0.0453245446481
-0.34224614501,-0.127615466714,-0.155722290277,-2.09348845482,-0.174783036113,1.97229409218,-1.06041777134,0.0242349393666,-0.518644571304,0.784617602825,-0.873702824116,0.472353488207,-0.119166836143,0.240489780903,-1.06514596939,0.441410143331,-0.273127554721,0.367829535296,0.052198572767,0.948165594211,0.309825504878,-0.0475969659885
-0.352923601866,-0.111382499337,-0.173944309354,-2.08364915848,-0.177164673805,1.97694694996,-1.08235657215,0.0242349393666,-0.504549741745,0.732009649277,-0.847774028778,0.449676394463,-0.0912503376603,0.195471987128,-1.03223752975,0.437035780867,-0.288229931641,0.364466150424,0.0510911994747,0.948905298852,0.307293235628,-0.0503913700335
-0.359348535538,-0.102186284959,-0.184769257903,-2.07797574997,-0.178233295679,1.97944104671,-1.09557902813,0.0242349393666,-0.479789495468,0.678635060787,-0.827584087849,0.430143892765,-0.0752396285534,0.193055406213,-1.01341497898,0.434078871246,-0.297108736029,0.362568388552,0.0503451972675,0.949354555571,0.305756835713,-0.0520004426206
-0.377909034491,-0.0767994746566,-0.214618891478,-2.06073498726,-0.181437954307,1.9856454134,-1.13393199444,0.0242349393666,-0.421965181828,0.53315871954,-0.664731025696,0.388285428286,-0.0907399728894,0.100798122585,-0.874158084393,0.424932372412,-0.322059711066,0.35799292573,0.048826199092,0.950384694636,0.301957531078,-0.0566267039249
-0.38792976737,-0.064580924809,-0.230029299855,-2.05171275139,-0.18372964859,1.98762643337,-1.15518295765,0.02423822321,-0.387342214584,0.43876773119,-0.564374446869,0.345063865185,-0.0744526833296,0.0725612789392,-0.821638047695,0.419214134927,-0.335006832401,0.356047558987,0.0481345635329,0.950702878563,0.300511407886,-0.0594978478964
-0.394819617271,-0.0569433160126,-0.239650830626,-2.04529213905,-0.184866189957,1.98896992207,-1.17042326927,0.02423822321,-0.345574885607,0.360967665911,-0.472435116768,0.323880851269,-0.0601053237915,0.0563024803996,-0.785544276237,0.415459872003,-0.343417845906,0.355204596531,0.0479074941574,0.950726706059,0.30016106517,-0.0610486448321
-0.401014745235,-0.0507883690298,-0.248026356101,-2.03958463669,-0.18596842885,1.98981487751,-1.18472421169,0.02423822321,-0.30098465085,0.284284055233,-0.397700846195,0.28214943409,-0.0583243966103,0.0270201060921,-0.727006793022,0.411933820873,-0.350787279709,0.354758935028,0.0477989402792,0.950619337741,0.300241060345,-0.0623974470086
-0.406853586435,-0.0456922389567,-0.255843102932,-2.03409004211,-0.187268093228,1.99015069008,-1.19906282425,0.02423822321,-0.252971947193,0.203615501523,-0.339316248894,0.240226358175,-0.0661274716258,0.00318699213676,-0.650039970875,0.408423603597,-0.357669838342,0.354728922586,0.0478499444221,0.950367312012,0.30076313369,-0.0636701828162
-0.416103899479,-0.0406384691596,-0.267426967621,-2.02452754974,-0.189772516489,1.99026858807,-1.22833752632,0.02423822321,-0.134567007422,0.0186122152954,-0.154359415174,0.169869571924,-0.029412439093,6.44669562462e-05,-0.563936233521,0.402942655035,-0.368327686155,0.356641794012,0.0490681749558,0.948873077788,0.305002231467,-0.0648524089386
-0.417860537767,-0.0405772663653,-0.269453853369,-2.02184605598,-0.190115496516,1.99028193951,-1.23708581924,0.02423822321,-0.0921408161521,-0.00987757742405,-0.107471741736,0.164723157883,-0.0152080152184,-1.49311472342e-05,-0.534744739532,0.402119603054,-0.370409731102,0.357880635991,0.0498287814237,0.948110524613,0.307304243162,-0.0645571644545
-0.418991535902,-0.0409127809107,-0.270831733942,-2.01883625984,-0.190296426415,1.99027693272,-1.24651455879,0.0242408495396,-0.043876491487,-0.0353995747864,-0.0595149882138,0.162809059024,-0.00509624369442,-0.000101500692836,-0.514930188656,0.40183357976,-0.372011229856,0.359482275526,0.0508452440765,0.94706400223,0.310469417172,-0.0639787271312
-0.419362545013,-0.0421330183744,-0.271372526884,-2.01583218575,-0.190456867218,1.99028515816,-1.25608563423,0.0242408495396,0.000414159731008,-0.0853763967752,-0.00400356762111,0.154018267989,-0.00847568549216,0.00113960134331,-0.485984116793,0.402146672821,-0.372985599141,0.361672449613,0.052307335134,0.945671299133,0.314645059448,-0.0629938325563
-0.418182194233,-0.0448167845607,-0.270532608032,-2.01103830338,-0.190566197038,1.99044537544,-1.27010822296,0.0242408495396,0.0708609297872,-0.108581885695,0.0529596358538,0.149626925588,-0.00296347495168,0.011636053212,-0.423340946436,0.403783386531,-0.373065171784,0.365137217394,0.0547933109541,0.943357463328,0.321446838542,-0.0612071820737
-0.416773498058,-0.0468264557421,-0.269452571869,-2.00876808167,-0.190572008491,1.99065458775,-1.27665865421,0.0242408495396,0.102079555392,-0.136427029967,0.078503318131,0.136118933558,0.000235737781622,0.0123912440613,-0.405446708202,0.405260683923,-0.372451449687,0.367431451788,0.056512924653,0.941852366366,0.325783399093,-0.0598797618671
-0.414551794529,-0.0493379421532,-0.267774581909,-2.0062315464,-0.190573260188,1.99108970165,-1.28405714035,0.0242408495396,0.126265823841,-0.133182302117,0.103143312037,0.13747484982,-0.000322476029396,0.0291311256588,-0.390282273293,0.407257501454,-0.371344208661,0.370019114265,0.0585449725824,0.940042343934,0.330897702047,-0.0583059882268
-0.412144869566,-0.0518432892859,-0.265681415796,-2.00407409668,-0.190576165915,1.99156951904,-1.29044282436,0.0242408495396,0.146990060806,-0.156931579113,0.136213108897,0.123300626874,0.000251205201494,0.0237274952233,-0.363863170147,0.409124655951,-0.370102217344,0.372146312558,0.0602599901744,0.938477695256,0.335234893812,-0.0569729299644
-0.403694033623,-0.0587271936238,-0.257877826691,-1.99835801125,-0.190573617816,1.99337899685,-1.30658936501,0.0242408495396,0.205375641584,-0.145582929254,0.181989118457,0.118890061975,5.31655423401e-05,0.0298920571804,-0.309040337801,0.416644212093,-0.364277398688,0.379073711042,0.0661711570275,0.932756882782,0.350480704792,-0.0524332990918
-0.399926096201,-0.0612393431365,-0.254584819078,-1.9962887764,-0.190572440624,1.99407863617,-1.31186842918,0.0242408495396,0.21068008244,-0.134513154626,0.188008338213,0.112131625414,7.14933339623e-05,0.0416616611183,-0.276090502739,0.41966738135,-0.361702827385,0.381510229253,0.0683141481,0.930584194834,0.356042184656,-0.0507956289916
-0.396502941847,-0.0633922293782,-0.251457154751,-1.99454712868,-0.190572604537,1.99488019943,-1.31627750397,0.0242415070534,0.214291483164,-0.136152461171,0.198720619082,0.103208824992,0.000137893570354,0.0508169978857,-0.275516331196,0.422448949066,-0.359276170384,0.38361205454,0.070243214065,0.928614523888,0.360981481068,-0.0493287635314
-0.392418652773,-0.0660333409905,-0.247614398599,-1.99267554283,-0.190569981933,1.9957998991,-1.32133686543,0.0242415070534,0.215330287814,-0.129505187273,0.199495434761,0.0943930596113,0.000174629487447,0.0447131209075,-0.262433558702,0.425726463592,-0.356260165579,0.386061886211,0.0724787981946,0.926241177111,0.366820848151,-0.0476085148089
-0.386704772711,-0.0693222507834,-0.241661593318,-1.9902561903,-0.190569221973,1.99697995186,-1.32869172096,0.0242415070534,0.202693417668,-0.114086784422,0.222686886787,0.0816406682134,0.00023569529003,0.0439185723662,-0.246551156044,0.430760296369,-0.351354540652,0.389397825122,0.075561243127,0.922426677199,0.375990369966,-0.0452853740668
-0.382823318243,-0.0713755264878,-0.237345799804,-1.98885965347,-0.190565913916,1.99791002274,-1.33321511745,0.0242415070534,0.198597639799,-0.0994625240564,0.228772118688,0.0696063414216,8.41664077598e-05,0.0554189123213,-0.223522812128,0.433653316792,-0.348415477982,0.391110843748,0.0772310519271,0.920251416341,0.381095933125,-0.0440293626803
-0.37972638011,-0.0727081671357,-0.234113171697,-1.98781836033,-0.190566450357,1.99874317646,-1.33657360077,0.0242415070534,0.213591188192,-0.0844765454531,0.205345764756,0.0672376900911,-1.65926521731e-05,0.0522484891117,-0.21874576807,0.436481395773,-0.345530602337,0.392630631485,0.0787928691746,0.91811828833,0.386021412222,-0.0428714519038
-0.375319331884,-0.0743832364678,-0.229875817895,-1.98652410507,-0.190565720201,1.99967765808,-1.34077727795,0.0242415070534,0.20845682919,-0.0658963546157,0.200963541865,0.0593321993947,6.34345487924e-05,0.0427701435983,-0.190409511328,0.439486011599,-0.34232535541,0.39414227273,0.0803273243398,0.915832545837,0.391225514099,-0.0417236833205
-0.369336426258,-0.0761524438858,-0.224310770631,-1.98503661156,-0.190566852689,2.00076127052,-1.34598708153,0.0242408495396,0.188010945916,-0.0598416402936,0.179189249873,0.0367547757924,0.000135489783133,0.043070204556,-0.159228697419,0.443829867842,-0.337495632596,0.39600701975,0.0822845571995,0.912472781539,0.398749054437,-0.0402723957917
-0.366861999035,-0.0768925324082,-0.221891090274,-1.98463058472,-0.190563395619,2.00134754181,-1.3482490778,0.0242408495396,0.166967540979,-0.0447414331138,0.172252252698,0.0247438773513,-4.15166468883e-05,0.039475183934,-0.164956137538,0.445875567195,-0.335122089883,0.396781753769,0.0831674988532,0.910810734534,0.402415339345,-0.0396089299522
-0.363720595837,-0.0776751935482,-0.21868430078,-1.98429632187,-0.190564781427,2.00208377838,-1.35135412216,0.0242408495396,0.151682168245,-0.0343604832888,0.154997780919,0.0117416949943,1.50088644659e-05,0.0275873504579,-0.151752769947,0.44791836131,-0.332659614987,0.39739793758,0.0839267998246,0.909069321373,0.40623165296,-0.0390525930221
-0.361185908318,-0.0782176032662,-0.215945035219,-1.98418068886,-0.190564587712,2.00251960754,-1.35411500931,0.0242408495396,0.132817432284,-0.023670706898,0.142823323607,0.00461284862831,-2.15140516957e-06,0.0218548905104,-0.157327920198,0.449743749315,-0.330326496971,0.397825276381,0.084463804281,0.907407176661,0.409856898644,-0.0386704515541
-0.355562269688,-0.078464306891,-0.209990561008,-1.98424780369,-0.190562829375,2.00293779373,-1.36081039906,0.0242408495396,0.0969592407346,0.00510200578719,0.0986352190375,-0.00149547506589,-0.000216624655877,-0.000170795698068,-0.138141870499,0.453594054047,-0.325097577732,0.398037959291,0.0849464927629,0.903592368546,0.418124019188,-0.0384347385584
-0.354095160961,-0.0782905369997,-0.208584085107,-1.98429775238,-0.190564006567,2.00293540955,-1.36301767826,0.0242408495396,0.0859497636557,0.0140230199322,0.0822060182691,-0.00133301422466,-0.000105115141196,-6.24535168754e-05,-0.125700205564,0.454526899778,-0.323784760328,0.397935367158,0.0849148945714,0.9025225471,0.420426735516,-0.0385210643171
-0.352568507195,-0.077932022512,-0.207190871239,-1.9843609333,-0.190563723445,2.00293850899,-1.3654718399,0.0242408495396,0.0686365291476,0.0185911431909,0.0553187988698,-0.0054659913294,2.69974079856e-05,-9.57126485446e-06,-0.10873413831,0.455480423917,-0.322450763528,0.397726871367,0.0848097608301,0.901384280623,0.422868096645,-0.0386814636489
-0.351036518812,-0.0773775726557,-0.205842494965,-1.98453629017,-0.190563067794,2.00293803215,-1.36852395535,0.0242408495396,0.0354857183993,0.0198006834835,0.0355316214263,-0.00792341679335,2.42569749389e-05,-0.000241120680585,-0.0981213077903,0.456404454488,-0.321120227131,0.397355699983,0.0845728217925,0.900120473293,0.425572728663,-0.0389669561034
-0.350533634424,-0.0770294517279,-0.205359622836,-1.98468887806,-0.190563753247,2.00293707848,-1.37014043331,0.0242408495396,0.0223735310137,0.0210798773915,0.0165161937475,-0.005587620195,4.57748901681e-05,-3.71826899936e-05,-0.0853354334831,0.456709262649,-0.320654606308,0.39709726005,0.0843860102713,0.899563536092,0.426767092362,-0.0391700696606
-0.350258648396,-0.0766504108906,-0.205160394311,-1.98487222195,-0.190563768148,2.00293254852,-1.37197756767,0.0242401938885,0.0101542826742,0.0150223318487,0.00584834488109,-0.00942648481578,0.000104389284388,-5.7046981965e-05,-0.103567130864,0.456844030552,-0.32041925446,0.396803260373,0.08415151948,0.899068185816,0.42783326965,-0.0394158861386
-0.35024523735,-0.0763802975416,-0.205184817314,-1.98503553867,-0.190563589334,2.00293302536,-1.37353849411,0.0242401938885,-0.00628457590938,0.0174823757261,-0.00479129329324,-0.0113966865465,-0.000123946345411,-0.000277958577499,-0.105121485889,0.456821725426,-0.320407083168,0.396576034146,0.0839556460646,0.898735639496,0.428551076021,-0.0396191205313
-0.350459694862,-0.0760587453842,-0.205343604088,-1.98528647423,-0.190566882491,2.00292682648,-1.37545716763,0.0242401938885,-0.0128261288628,0.014386523515,-0.0107570076361,-0.00973276142031,-3.36074263032e-05,0.000234108607401,-0.0722278878093,0.45666583583,-0.320549332146,0.396275370038,0.0836848617566,0.898403613506,0.429274176203,-0.0398932635145
-0.351102232933,-0.0755997374654,-0.205817729235,-1.98564600945,-0.190566107631,2.00292730331,-1.37711513042,0.0242401938885,-0.0275878515095,0.0119319446385,-0.0218001361936,-0.0103445490822,-2.79608357232e-05,-0.000410341453971,-0.0534291937947,0.456257372256,-0.32101918973,0.395843766335,0.0833027307461,0.898287380176,0.429558181538,-0.0402517827813
-0.352196633816,-0.0751005113125,-0.206739604473,-1.98607599735,-0.190567657351,2.00292158127,-1.37930452824,0.0242401938885,-0.0341292023659,0.01521976199,-0.0283325668424,-0.0145012885332,-3.90185596189e-05,-0.000223909781198,-0.0604955628514,0.455544233672,-0.321890283208,0.395350129057,0.0828333770481,0.898251147879,0.429683197223,-0.0406922189301
-0.352778583765,-0.0749118030071,-0.20730471611,-1.98628211021,-0.190567597747,2.00291776657,-1.38031804562,0.0242401938885,-0.0370077416301,0.0157642047852,-0.0356555506587,-0.0108665749431,-4.17514420405e-05,-0.00118194462266,-0.0626259818673,0.455140281919,-0.322388471747,0.395139365278,0.0826192285389,0.898280942726,0.429643558355,-0.0408879377238
