imanlab/tactile_prediction_flat_dataset/train/data_sample_2021-11-24-15-34-35/robot_state.csv
position_panda_joint1,position_panda_joint2,position_panda_joint3,position_panda_joint4,position_panda_joint5,position_panda_joint6,position_panda_joint7,position_panda_finger,velocity_panda_joint1,velocity_panda_joint2,velocity_panda_joint3,velocity_panda_joint4,velocity_panda_joint5,velocity_panda_joint6,velocity_panda_joint7,ee_state_position_x,ee_state_position_y,ee_state_position_z,ee_state_orientation_x,ee_state_orientation_y,ee_state_orientation_z,ee_state_orientation_w
0.312161564827,0.0697481706738,-0.322583884001,-2.51601886749,0.104980193079,2.57852387428,-0.753621578217,0.0671139582992,-0.000384955928894,-0.00368930073455,0.000487430777866,0.000332530034939,0.000105223036371,-6.32321389276e-05,-1.75504828803e-05,0.464296759239,-0.00426930722211,0.141922068207,-0.0161724572701,0.946710577675,0.321639573655,0.00505154346856
0.31216609478,0.0697423666716,-0.322580546141,-2.51602244377,0.104980401695,2.57852268219,-0.753622412682,0.0671139582992,-0.00045857366058,0.000719803210814,0.000708167324774,0.000243867572863,6.00619496254e-05,8.2992723037e-05,-8.00080306362e-05,0.464296199769,-0.00426534850521,0.141923588576,-0.0161732941625,0.946709207473,0.321643544115,0.00505284654662
0.312163293362,0.0697413235903,-0.322580575943,-2.51602649689,0.104981042445,2.57852339745,-0.753622233868,0.0671139582992,-0.000485743512399,0.000423988909461,-0.000860621221364,0.000272490753559,0.00555796315894,7.03629048076e-05,-3.54229669028e-05,0.464294505759,-0.00426660529691,0.14192264833,-0.016173957677,0.946709797944,0.321641788119,0.00505187031046
0.31216147542,0.0697495490313,-0.322580426931,-2.51602935791,0.104980297387,2.57852268219,-0.753624260426,0.0671133026481,-8.16736646811e-05,-0.000366731343092,-0.000768163823523,-0.000273694138741,7.71865052229e-06,0.000131689856062,4.77854773635e-05,0.46429141003,-0.00426788403226,0.141917926953,-0.0161744547535,0.946709696837,0.321642152287,0.00504603702881
0.31216275692,0.0697485804558,-0.322580605745,-2.51602959633,0.104979805648,2.57852292061,-0.753623604774,0.0671133026481,0.000256761908531,-0.000964142556768,-0.000369719346054,0.000356037868187,-8.37482730276e-05,-5.72366152483e-05,0.000126352431835,0.46429152209,-0.00426734465833,0.141918289455,-0.0161743151368,0.946709557667,0.321642562421,0.0050464521193
0.312163770199,0.0697445720434,-0.32258105278,-2.51602816582,0.104980416596,2.57852292061,-0.753624498844,0.0671133026481,-0.000177835609065,-5.90044619457e-05,3.24578759319e-05,1.87665445992e-05,-3.97605108446e-05,-0.000119163574709,-0.000219320834731,0.464292974404,-0.00426682139918,0.141920577209,-0.0161741812731,0.946709375293,0.321643062883,0.00504919587314
0.312161177397,0.0697423294187,-0.32258155942,-2.51602959633,0.104980073869,2.57852292061,-0.753624618053,0.0671133026481,0.000326306617353,-5.96435565967e-05,0.0002262845519,4.52330896223e-05,-4.49280341854e-05,-9.21462651604e-06,-6.96407660143e-05,0.464292653036,-0.00426815364181,0.141921053436,-0.0161742907494,0.946709807033,0.321641779755,0.00504963272357
0.312163203955,0.0697422102094,-0.322580367327,-2.51602983475,0.104980506003,2.57852387428,-0.753623008728,0.0671133026481,-8.75027308211e-06,-0.000763012852985,-0.000263397261733,-0.000267881143373,-8.20095956442e-05,4.91630771648e-06,-4.87642901135e-05,0.464292773847,-0.00426664436287,0.141921091318,-0.016174291817,0.946709609489,0.32164235506,0.00505002036404
0.312161773443,0.0697453096509,-0.322581410408,-2.51603150368,0.104980453849,2.57852387428,-0.753625154495,0.0671133026481,-0.000569956435356,0.000420812924858,3.86460451409e-05,-1.0513505913e-05,2.12957311305e-05,-0.000144166231621,-3.16291516356e-05,0.464291367703,-0.0042679941797,0.14191913396,-0.0161745307049,0.94670968058,0.321642169979,0.00504771556315
0.312159836292,0.0697431489825,-0.322582155466,-2.51602935791,0.104980997741,2.57852292061,-0.753625631332,0.0671139582992,-0.000127854757011,0.00037471295218,-0.000316942867357,-0.000168701022631,1.7894371922e-05,-2.33811369981e-05,-0.000149640094605,0.464292621474,-0.00426906824022,0.141920785866,-0.0161744558846,0.94671008012,0.321640970451,0.00504945457384
0.312158942223,0.0697438642383,-0.32258233428,-2.5160279274,0.104980558157,2.57852315903,-0.753624916077,0.0671139582992,0.000368730426999,-0.000230134377489,-0.00158112600911,-5.86833339185e-05,0.000122141573229,-0.000163401404279,-0.000156938171131,0.464293254295,-0.00426963036414,0.141921009151,-0.0161740607531,0.946710305509,0.321640320907,0.00504983734439
0.312164098024,0.0697472691536,-0.322579473257,-2.51602840424,0.104980193079,2.5785241127,-0.753625392914,0.0671139582992,0.000260836270172,-0.000157062779181,0.000147101876792,-0.000306749803713,-7.57497909945e-05,-7.9890312918e-05,4.56514972029e-05,0.46429262513,-0.00426611529861,0.141919390233,-0.0161739978322,0.946708914143,0.321644444319,0.00504824748671
0.31216648221,0.0697459504008,-0.32257848978,-2.51602935791,0.104979738593,2.57852363586,-0.753626465797,0.0671139582992,0.000507644959725,0.000184841264854,-0.000200724884053,1.40834854392e-05,1.21166767713e-05,0.000157329952344,0.000104985876533,0.464292291684,-0.0042644734676,0.14191957471,-0.0161741725292,0.94670813747,0.321646722677,0.00504817494922
0.312166124582,0.0697479248047,-0.322578281164,-2.51602864265,0.104980617762,2.57852315903,-0.753624796867,0.0671139582992,-0.000250243407208,-4.78795227536e-05,-0.000646252476145,-0.000305760884658,-8.26015966595e-05,-0.00013967511768,-0.000213876526686,0.464292189176,-0.00426460503325,0.141918920738,-0.0161743945879,0.946708549398,0.321645511441,0.00504738694972
0.312162786722,0.0697456076741,-0.322579920292,-2.51602745056,0.104979924858,2.57852363586,-0.753626286983,0.0671139582992,-0.000321760162478,-0.000141813157825,6.49565772619e-05,0.000323279877193,-4.99864327139e-05,-3.16495934385e-05,-0.000362382066669,0.464293294247,-0.00426683599836,0.141920429161,-0.0161738379552,0.946709002193,0.321644176614,0.00504930403223
0.312162578106,0.0697433128953,-0.322579920292,-2.51602697372,0.104979932308,2.57852268219,-0.753626585007,0.0671139582992,-0.00017569825286,-0.000719360716175,-0.000125304839457,-5.10784411745e-05,2.55832874245e-05,8.99316728464e-05,-0.00026230874937,0.464293684655,-0.00426667291145,0.141921282669,-0.0161739075958,0.946708921435,0.321644399025,0.0050500547757
0.312163561583,0.0697452425957,-0.322578310966,-2.51602864265,0.104980386794,2.57852363586,-0.753625154495,0.0671139582992,0.00043594482122,6.23207188255e-06,-0.000235729530687,5.38456661161e-05,1.51723106683e-05,-2.6571624403e-05,-0.000156843350851,0.464292768977,-0.00426567324403,0.141920143845,-0.0161742103721,0.946708867053,0.321644561291,0.00504894471988
0.312161237001,0.0697477534413,-0.322579830885,-2.51602816582,0.104980476201,2.57852387428,-0.753625571728,0.0671139582992,-9.05379856704e-05,0.000109543041617,-0.000231898957281,0.000154693741933,2.46141962634e-06,-1.54916579049e-05,0.00543062435463,0.464292593436,-0.00426762368797,0.141919246264,-0.0161740597723,0.946709440454,0.321642894939,0.00504806585108
0.312158256769,0.0697503164411,-0.322582691908,-2.51602983475,0.104979969561,2.57852315903,-0.753626704216,0.0671139582992,-0.00141462509055,0.00080312701175,-0.000205397649552,-2.93118537229e-05,1.14324348033e-05,4.72730471301e-06,0.000193312152987,0.464291717206,-0.00427031590745,0.141918106014,-0.016173956511,0.946710129437,0.321640895917,0.00504655468116
0.312158435583,0.0697477832437,-0.32258155942,-2.51602911949,0.104980044067,2.57852292061,-0.753626585007,0.0671139582992,0.000324703840306,0.000640367565211,-0.000168032100191,0.000346017652191,1.90659335431e-07,-3.73626244254e-05,-0.000272102101007,0.464291888317,-0.00426974646419,0.141918822893,-0.01617423459,0.946709951502,0.321641396066,0.00504716634025
0.312164545059,0.0697442516685,-0.322579950094,-2.51603221893,0.104980014265,2.57852292061,-0.753626406193,0.0671139582992,0.000173038555658,0.000787583121564,6.20491209702e-06,3.08291964757e-05,-2.14026749745e-06,-1.72619929799e-05,-0.000402737379773,0.464291004115,-0.00426594780963,0.141919243275,-0.016174788514,0.946708736166,0.321644941638,0.00504740427867
0.312162488699,0.0697424411774,-0.322578310966,-2.51603126526,0.104979716241,2.57852315903,-0.753627240658,0.0671139582992,0.000463812728412,4.2928950279e-05,-0.000315362703986,-0.00031941733323,7.57527232054e-06,-6.80338998791e-05,0.000139335897984,0.464291853306,-0.00426603181645,0.141920388736,-0.0161745485833,0.946708615914,0.321645284992,0.00504884765881
0.312164127827,0.0697514042258,-0.322579473257,-2.51602768898,0.104980520904,2.57852363586,-0.753627717495,0.0671139582992,-4.39553550677e-05,0.000499963702168,0.000192407460418,-0.000277161801932,4.65347111458e-05,-6.96781717124e-05,0.000232859209063,0.464292129022,-0.0042663163453,0.141917785737,-0.0161740844305,0.946708592904,0.321645415206,0.00504635312746
0.312162995338,0.0697531476617,-0.322579473257,-2.51602983475,0.104980349541,2.57852315903,-0.753629207611,0.0671139582992,-0.00291910488158,-0.00029721550527,-6.95790658938e-05,-0.000149572646478,3.24287248077e-05,-0.000115142662253,0.000245652190642,0.464290627579,-0.00426694672089,0.14191620129,-0.0161745024242,0.946708532404,0.321645605147,0.0050442563615
0.312159568071,0.0697483345866,-0.322580009699,-2.51602816582,0.104980222881,2.57852387428,-0.753628373146,0.0671139582992,0.000136837858008,0.000170151528437,0.00017808676057,0.000153318789671,-3.93955961044e-05,0.000106424136902,3.78513104806e-05,0.464292479544,-0.00426852845348,0.14191899171,-0.0161739841749,0.946709256519,0.321643444508,0.00504778664422
0.312157601118,0.0697463154793,-0.32258155942,-2.51602816582,0.10498060286,2.57852339745,-0.753626048565,0.0671139582992,-2.75979473372e-05,7.63169664424e-05,-0.000242735230131,-0.000376734649763,0.00240526325069,-5.05775533384e-05,-0.000413113884861,0.464292506111,-0.00427025143932,0.141919710447,-0.0161741985407,0.946710339192,0.321640236712,0.00504844373777
0.312161684036,0.0697443187237,-0.322583079338,-2.51602959633,0.104980587959,2.57852363586,-0.753628313541,0.0671139582992,9.20532547752e-05,0.000415129354224,-9.1401678219e-05,0.000185806246009,-4.94787163916e-05,-9.62996273302e-06,0.000112336536404,0.46429245128,-0.00426875420328,0.141920255581,-0.0161742194091,0.946709455998,0.321642825644,0.00504905435887
0.312164545059,0.0697444230318,-0.322577774525,-2.51602840424,0.104980804026,2.57852244377,-0.753628432751,0.0671139582992,0.000187563768122,0.00111627695151,0.00418170494959,-0.000462280906504,0.000374493858544,-0.000254640326602,8.67597336764e-05,0.464292587699,-0.00426461671753,0.141920098663,-0.0161745551688,0.946708103437,0.321646796607,0.00504862082748
0.312164932489,0.0697481259704,-0.32257860899,-2.51603102684,0.104980237782,2.57852387428,-0.753628432751,0.0671139582992,4.22781704401e-05,7.46071464164e-06,0.00140544469468,-0.000130157568492,-0.00014013821783,6.60636578687e-05,-9.031900845e-06,0.464291107471,-0.00426536736186,0.141918036456,-0.0161745248733,0.946708176927,0.321646615264,0.00504649009816
0.312166184187,0.0697466135025,-0.322579115629,-2.51603150368,0.104980498552,2.57852315903,-0.753628134727,0.0671139582992,-0.000368706561858,0.000414233887568,0.000186021759873,2.16510634345e-05,-1.86266079254e-05,5.44788636034e-05,6.97622817825e-05,0.464290994055,-0.00426491146069,0.141918473917,-0.016174788794,0.946708132311,0.321646729799,0.00504671397559
0.312158435583,0.0697453543544,-0.322582274675,-2.51602959633,0.104980453849,2.5785241127,-0.753630459309,0.0671139582992,-8.91110266821e-06,-0.000317193218507,0.000297339371173,0.00012434895325,-3.68815526599e-05,-0.000140778021887,-5.4781743529e-05,0.464292212799,-0.0042699560927,0.141919802793,-0.0161741941536,0.946709510711,0.321642672369,0.00504864060814
0.312161326408,0.069748274982,-0.32258015871,-2.51603293419,0.104979887605,2.57852268219,-0.753629207611,0.0671139582992,4.58894901385e-05,-0.000153166663949,-0.00020309969841,0.000355281837983,-3.70211346308e-05,-0.000207415796467,0.000228144592256,0.464289847912,-0.00426777931258,0.141917193824,-0.0161749328625,0.946708843189,0.321644657339,0.00504498453854
0.312162339687,0.0697485804558,-0.322580128908,-2.51602816582,0.104980438948,2.57852363586,-0.753630578518,0.0671139582992,0.00030269351555,-0.000190987469978,-0.000177880079718,0.000405398313887,2.29318975471e-05,-4.80879534734e-05,0.000138618546771,0.464292395569,-0.00426729778942,0.14191886417,-0.0161740852681,0.946708504117,0.32164565734,0.0050475738813
0.31216365099,0.0697474256158,-0.322578072548,-2.51602935791,0.104980237782,2.57852363586,-0.753631293774,0.0671139582992,0.000304222980049,0.000337023549946,-0.000672795169521,-0.000702463439666,-0.00016702854191,-4.24905701948e-05,-8.38080522954e-05,0.464292013504,-0.00426565492682,0.141918921263,-0.0161743024691,0.946707822269,0.321647653717,0.00504754797902
0.312164574862,0.0697455629706,-0.322577297688,-2.51602768898,0.104980453849,2.57852363586,-0.753630042076,0.0671139582992,0.000193670013687,7.6551012171e-05,0.000708005740307,-0.000299280713079,-2.48242395173e-05,0.000126876344439,-7.66494704294e-05,0.464293193218,-0.00426473361543,0.141920336735,-0.0161740996919,0.946707759698,0.321647821132,0.00504926485036
0.312162458897,0.0697526410222,-0.322578281164,-2.51603055,0.104980252683,2.57852363586,-0.753629982471,0.0671139582992,-0.000735376670491,0.000649478519335,0.000172350846697,-0.000417794653913,0.000129967826069,-0.000193298023078,-0.000287505012238,0.464290462871,-0.00426661683578,0.141916195449,-0.0161745357187,0.946708293035,0.32164630606,0.00504438105781
0.312158077955,0.0697492063046,-0.322580337524,-2.51603126526,0.10498033464,2.57852315903,-0.753629505634,0.0671139582992,-0.000243480913923,0.000298191764159,-2.53824837273e-05,0.000724619138055,9.47316002566e-05,8.95747507457e-05,0.000502581882756,0.464290606514,-0.00426941486822,0.141917430005,-0.0161746595495,0.946709401734,0.32164301745,0.0050455992139
0.31216225028,0.0697479471564,-0.322579503059,-2.51602935791,0.104980371892,2.57852339745,-0.753630936146,0.0671139582992,-8.13288643258e-05,-0.000303469947539,0.000135334659717,0.000126024038764,4.64999320684e-05,3.53866671503e-05,1.59034480021e-05,0.464291861033,-0.00426700504682,0.141918685563,-0.0161743325447,0.946708354602,0.321646090658,0.00504721182925
0.312163054943,0.0697482526302,-0.322580486536,-2.51602911949,0.10498020798,2.57852435112,-0.753631234169,0.0671139582992,-0.000148790859384,-0.00092934188433,0.000263057212578,0.000121654265968,4.88613732159e-05,2.58639265667e-05,0.000158337512403,0.464292135411,-0.00426714691661,0.14191872988,-0.0161740227744,0.94670831748,0.321646209528,0.00504759202944
0.312163233757,0.0697472244501,-0.322577893734,-2.51602840424,0.104980252683,2.57852363586,-0.75363022089,0.0671139582992,0.000149882616824,0.000633525720332,0.00173080351669,0.000448917096946,-0.000108341242594,0.000188824211364,2.78298684862e-05,0.464292526128,-0.0042657481412,0.141919352367,-0.0161741552661,0.946708028404,0.321647045845,0.00504809306702
0.312162905931,0.069748327136,-0.322579145432,-2.51602935791,0.104980364442,2.5785241127,-0.753631055355,0.0671139582992,0.000119320866361,0.00033201664337,-0.000423800054705,-0.000354944524588,-0.000151143030962,-2.84872783141e-07,-0.000315731420415,0.464291950694,-0.00426657061507,0.141918576752,-0.0161742005484,0.946708175954,0.321646621106,0.00504733968769
0.312161892653,0.0697479099035,-0.322579473257,-2.5160279274,0.104980118573,2.57852387428,-0.753631711006,0.0671139582992,0.000305783236399,-0.000667859741952,0.00202252692543,-0.000267043273197,4.90973288834e-05,9.75446673692e-05,-0.00567174842581,0.464292607388,-0.00426697668269,0.141919267864,-0.0161739943127,0.946708191158,0.321646574704,0.00504810567649
0.312161922455,0.0697457417846,-0.322580695152,-2.51602840424,0.104980245233,2.57852363586,-0.75363188982,0.0671139582992,-8.55970720295e-05,-0.000645106832962,-0.00264938292094,-2.65522539848e-05,1.10237933768e-05,0.000145831916598,-0.00023766385857,0.464292789651,-0.00426760329259,0.141920034167,-0.0161740298925,0.946708413451,0.321645906503,0.00504887863802
0.312162309885,0.0697468519211,-0.322578966618,-2.51602983475,0.104979999363,2.57852292061,-0.753632366657,0.0671139582992,0.000782384886406,1.39978556035e-05,0.00352581986226,4.75751876365e-05,7.64138167142e-05,-6.66871856083e-05,8.96765777725e-05,0.464291716162,-0.00426666337917,0.141918948401,-0.0161744267562,0.946707975236,0.32164720135,0.00504728592025
0.31216570735,0.0697504654527,-0.322576910257,-2.51603341103,0.104980446398,2.57852315903,-0.753634154797,0.0666785910726,0.000378223776352,-0.000672860245686,0.000279269384919,2.19638113776e-05,-4.41607244284e-06,2.3727552616e-05,0.000289238785626,0.464289336232,-0.00426431768358,0.141916065787,-0.0161751868528,0.946706909319,0.321650353242,0.00504391976042
0.312161892653,0.0697461515665,-0.322576999664,-2.51603198051,0.104980520904,2.57852482796,-0.75363278389,0.0666785910726,-0.00284233456478,-0.000418616109528,-0.000389936903957,0.000291294942144,-6.35345859337e-05,-9.03783729882e-05,0.00040294858627,0.464291300665,-0.00426615880061,0.141918816936,-0.0161745635796,0.946707874522,0.321647484805,0.00504767449929
0.312161058187,0.0697435215116,-0.322578787804,-2.5160279274,0.104980073869,2.57852339745,-0.75363188982,0.0666785910726,-0.000271487951977,-7.36519796192e-05,0.000225654133828,-9.07605644898e-05,6.17546684225e-05,9.60415763984e-06,-7.88180932432e-06,0.464293376198,-0.00426696658941,0.141921143951,-0.0161740103512,0.946708208329,0.321646492374,0.00505007966262
0.312160462141,0.0697482079268,-0.322579115629,-2.51602888107,0.104979932308,2.5785241127,-0.753630757332,0.0666785910726,0.000246902927756,-0.000279316038359,2.34623566939e-05,-0.000101408804767,4.50487168564e-05,0.000186439079698,0.000232966893236,0.464292199007,-0.00426770083944,0.141918800491,-0.0161740105812,0.946708551653,0.321645520824,0.00504759651535
0.312161654234,0.0697499215603,-0.322578638792,-2.51603102684,0.104980260134,2.57852363586,-0.753633201122,0.0666785910726,0.000146431731991,-0.000506070151459,-0.00264746905304,-0.000113193607831,2.55711802311e-05,-1.3676947674e-05,0.000133349487442,0.464290715073,-0.00426700218987,0.141917225009,-0.0161745719857,0.946707952916,0.321647286952,0.0050455516163
0.31216314435,0.0697515383363,-0.322577059269,-2.51603245735,0.104979969561,2.57852387428,-0.753632843494,0.0666785910726,-0.00022221969266,-0.000168002734426,-0.000901909777895,-0.000657069962472,9.50927733356e-06,3.76109928766e-05,0.000165060031577,0.464289761847,-0.00426567622928,0.141916000515,-0.0161747640365,0.946707495637,0.321648645651,0.00504412061096
0.312166303396,0.0697473213077,-0.32257810235,-2.51603150368,0.104980185628,2.57852363586,-0.75363266468,0.0666785910726,0.000267841562163,-0.000414130510762,-0.000497685396113,0.000358161749318,-5.96073550696e-05,0.000108863678179,-0.000448715785751,0.464290968665,-0.00426444041216,0.141918192798,-0.0161746457078,0.946707185498,0.321649525965,0.00504657289644
0.312163263559,0.069741807878,-0.322578966618,-2.51602673531,0.104980558157,2.57852482796,-0.753633201122,0.0666785910726,-0.000287347647827,-0.00358360609971,0.000201353730517,0.000144626290421,-2.96461930702e-05,-7.56547160563e-05,0.000149514933582,0.464294608244,-0.00426593806504,0.141922456274,-0.0161736188304,0.946707725183,0.321647900909,0.00505219372856
0.312160253525,0.0697459802032,-0.322577893734,-2.51602816582,0.104980297387,2.5785241127,-0.753636062145,0.0666785910726,0.000204391399166,0.000360634090612,5.99539998802e-05,0.000307325186441,-5.55594597245e-05,-0.000285653455649,-0.000685275241267,0.464292963249,-0.00426706788336,0.14192002815,-0.0161739964597,0.946707568433,0.321648391542,0.00504912046995
0.312163293362,0.0697492212057,-0.322578907013,-2.51603150368,0.104980446398,2.57852435112,-0.753635108471,0.0651387050748,0.000146509555634,0.000241758854827,0.0037594428286,0.000192060862901,0.000486121571157,6.28883499303e-05,-0.000211427090107,0.464290767226,-0.00426633884767,0.14191742666,-0.0161745325953,0.946707452373,0.321648754743,0.00504602594491
0.312163889408,0.0697473213077,-0.322577536106,-2.51602864265,0.104980587959,2.57852387428,-0.753635704517,0.0651387050748,-0.000418648414779,-0.000891562143806,0.000340146769304,-1.02896783574e-05,9.87998064375e-05,-1.29809623104e-05,-0.000231323414482,0.464292445318,-0.00426527166463,0.1419192412,-0.0161742295124,0.946707030527,0.321649978867,0.0050481118137
0.312162041664,0.0697434768081,-0.322580039501,-2.51602935791,0.104980565608,2.57852458954,-0.753634274006,0.0651387050748,-0.000101990306575,0.000388657150324,0.000398793781642,5.90455638303e-05,-5.8519312006e-05,-9.29465841182e-06,3.79879179491e-06,0.464292933665,-0.00426711587541,0.141920764459,-0.0161740703919,0.946707945784,0.3216472627,0.00505004185162
0.312161982059,0.0697442367673,-0.322578787804,-2.51602864265,0.104980193079,2.57852482796,-0.753635585308,0.0651387050748,0.000266562215984,0.000154461842612,0.000109334869194,0.000216276341234,9.75323109742e-06,3.97315743612e-05,0.000169745602761,0.464293204142,-0.00426661189505,0.141920695307,-0.0161738607009,0.946707494221,0.321648601877,0.0050500708496
0.31216186285,0.0697377696633,-0.322579026222,-2.51598834991,0.104979991913,2.57856678963,-0.753637671471,0.0651387050748,-0.00038610593765,-0.00296079926193,8.10872516013e-05,0.00314103858545,-6.54373725411e-05,0.00166955578607,-5.4755830206e-05,0.464323710279,-0.00426731279353,0.141941746077,-0.0161584156919,0.94670707045,0.321649973856,0.00509140152257
0.312157988548,0.0697287470102,-0.322581768036,-2.51597976685,0.104979880154,2.57890295982,-0.753636300564,0.0651387050748,-9.75524162641e-05,0.000426327635068,0.00197896803729,-0.00201505189762,-6.85909690219e-05,0.0284305773675,0.000203315474209,0.464402913112,-0.00427810940056,0.141978126912,-0.0160873246911,0.946709464394,0.321643892341,0.00525302000164
0.31215646863,0.0697324573994,-0.322581917048,-2.51601195335,0.104980282485,2.57921171188,-0.753636658192,0.0651387050748,-0.00236645946279,-0.00421536481008,-0.000254026585026,-0.00015361327678,-2.08619021578e-05,0.0112159494311,0.00022001141042,0.464453407811,-0.00428675944682,0.141991781196,-0.0160289602435,0.946711042311,0.32164011982,0.00537659849504
0.312157571316,0.0697543993592,-0.322584062815,-2.51601529121,0.104980140924,2.5795404911,-0.753636837006,0.0651387050748,0.000413196801674,-0.000213452047319,0.000142286196933,-0.000876764359418,-4.57824426121e-05,0.00573462201282,-5.11267353431e-05,0.464519403571,-0.00429663518191,0.142009604968,-0.0159616270869,0.94671244082,0.321637030611,0.00551371790794
0.312157273293,0.0697486847639,-0.322582960129,-2.51600956917,0.104979917407,2.579611063,-0.753636717796,0.0501056350768,0.000192477920791,9.79528158496e-06,-8.74205143191e-05,0.00145951157901,7.82922725193e-05,0.00299456669018,1.67246962519e-05,0.464538684904,-0.00429763565471,0.142020337891,-0.0159460402301,0.946712479109,0.321637043417,0.00555136826645
0.312154203653,0.0697397142649,-0.322583734989,-2.51599478722,0.104980237782,2.57967352867,-0.753635823727,0.0501056350768,6.09285816608e-05,-0.000491670623887,-0.000182711781235,-0.000110148845124,-9.52330155997e-05,0.00595520436764,0.00040593277663,0.464561318331,-0.00430037666731,0.142035092984,-0.0159306629383,0.946713358974,0.321634523672,0.00559131367663
0.312154084444,0.0697423815727,-0.322585463524,-2.51600813866,0.104979909956,2.57977938652,-0.753636658192,0.0501056350768,0.000512262107804,0.000616568548139,0.000114528833365,-0.000352151750121,-1.50756450239e-05,0.00398842617869,0.00034668596345,0.464577211313,-0.00430406305623,0.142038352669,-0.0159108671496,0.946713936339,0.321633096685,0.00563186056069
0.312149077654,0.069730296731,-0.322589665651,-2.51596164703,0.104980386794,2.58048176765,-0.753637194633,0.0501056350768,1.66290010384e-06,-0.00115412962623,-0.000471717270557,-0.00032079932862,-4.03227968491e-05,0.0308112576604,4.12582412537e-05,0.464737065238,-0.00432234971583,0.142113440655,-0.015775420062,0.946716948642,0.321625364763,0.00593967214713
0.312142640352,0.0697256550193,-0.322592228651,-2.51598167419,0.104980282485,2.58090019226,-0.753636240959,0.0501056350768,0.000249658391112,-0.000284040870611,-7.17790899216e-05,-0.00121301214676,4.22954399255e-05,0.0216192249209,-0.000104585014924,0.464837617072,-0.00433901314547,0.142153369062,-0.0156745510755,0.94672037006,0.321616021707,0.0061630861545
0.312147378922,0.0697249174118,-0.322589725256,-2.51599264145,0.104980312288,2.58106017113,-0.753638267517,0.0501056350768,8.82459353306e-05,0.00106113322545,-0.00144786096644,-0.000628755078651,2.37307158386e-05,0.00392076699063,4.67976315122e-05,0.464867122647,-0.00433953139764,0.142163715269,-0.0156434082895,0.946719447172,0.32161894463,0.00623107267436
0.312156200409,0.069754242897,-0.322583526373,-2.51599955559,0.104980364442,2.58108878136,-0.753638029099,0.0501056350768,-0.000519292545505,-0.000207288510865,-0.00036794017069,-0.000662251724862,-0.00571601418778,-0.000104454680695,-5.74690020585e-05,0.464864400621,-0.00433531028796,0.142150523991,-0.0156390191998,0.946717498519,0.321624988448,0.00622620038554
0.312147110701,0.0697555541992,-0.322587043047,-2.51600432396,0.104979768395,2.58111071587,-0.753637850285,0.0501056350768,-0.000650971021969,0.000177665497176,-0.0006905910559,-0.000448537030024,1.20203912957e-06,0.00420270906761,9.67365849647e-06,0.46486671391,-0.00434147269598,0.142150377733,-0.0156350980581,0.946719451141,0.321619296169,0.00623318212153
0.312145590782,0.0697453171015,-0.322590053082,-2.51600384712,0.104980051517,2.58113050461,-0.753638863564,0.0501056350768,0.000190285893041,-0.000729641236831,-0.000331146758981,-0.000515076215379,-2.43096019403e-05,0.000668594962917,-0.000522279704455,0.464873115389,-0.00434348527943,0.14215683033,-0.0156307984043,0.946720056925,0.321617442157,0.00624760322962
0.312152504921,0.0697311758995,-0.322588056326,-2.51599645615,0.104980036616,2.58115959167,-0.753637611866,0.0501056350768,0.000691275345162,-0.000348106521415,0.000513459031936,0.000550106808078,-2.814592699e-05,0.0021333496552,-0.000106183302705,0.464885749221,-0.00433918185177,0.142168268417,-0.0156235550326,0.946718787432,0.321621069447,0.00627131785144
0.31215018034,0.0697549879551,-0.322587400675,-2.51600527763,0.104980036616,2.58122706413,-0.753637909889,0.0501056350768,-9.10262751859e-05,-0.000297741993563,-5.85435445828e-05,-0.000585477217101,-0.000656182935927,-3.146497329e-05,-0.000129385647597,0.464891691524,-0.00434302802612,0.14216048089,-0.0156112688477,0.946719400529,0.321619574988,0.00628598604964
0.312151670456,0.0697500705719,-0.322586625814,-2.5160074234,0.104980275035,2.58123993874,-0.753639042377,0.0452646911144,0.000310798088321,-0.000423765537562,-0.000148907667608,0.000600864703301,2.98722770822e-05,1.48707977132e-05,2.76180016954e-05,0.464894321581,-0.00434199045537,0.142162994614,-0.0156090140808,0.946718912561,0.321620977588,0.00629330934243
0.312158495188,0.0697442963719,-0.322583198547,-2.51600217819,0.104979611933,2.58125042915,-0.75363856554,0.0452646911144,0.000247225805651,-0.000148426828673,0.00175085500814,0.000645891239401,-0.001935523469,0.00134969607461,-7.28048253222e-05,0.464900308696,-0.00433711481985,0.142168321685,-0.0156059259284,0.94671721887,0.321625917403,0.00630329390756
0.312153995037,0.0697376802564,-0.322584271431,-2.51599884033,0.104979328811,2.58126735687,-0.753639101982,0.0452646911144,-0.000232950114878,0.000870100397151,-0.000316166959237,0.00262860464863,4.3870517402e-05,0.000268740666797,-9.62980848271e-05,0.464906846806,-0.00433974678125,0.142173941295,-0.015601699452,0.946717985076,0.321623619812,0.00631589853113
0.312144726515,0.0697484016418,-0.32259106636,-2.51600670815,0.104979135096,2.58128023148,-0.753638386726,0.0452646911144,-0.00180084316526,0.000375628384063,-0.000114166818094,0.000292290962534,-7.8550496255e-05,0.00129690696485,0.000162773270858,0.464903721302,-0.00434826983528,0.142167564491,-0.0156000890174,0.946720807244,0.321615451697,0.00631278635045
0.312146961689,0.069753497839,-0.322589159012,-2.51600384712,0.104979790747,2.58128714561,-0.753638982773,0.0452646911144,0.000177803376573,-0.00052656797925,0.00287229008973,0.00038868439151,-1.98451998585e-05,0.000140432734042,0.000131918350235,0.464906019525,-0.00434667551134,0.142167184371,-0.0155983513917,0.946720281681,0.321617034842,0.00631524149616
0.312156409025,0.0697530582547,-0.322583764791,-2.5160036087,0.104979813099,2.58129429817,-0.753639400005,0.0450801663101,0.000431645137724,-8.08933327789e-05,-0.000271642144071,-6.81387100485e-05,-2.98789509543e-05,-3.28495370923e-05,5.67363385926e-05,0.464907546081,-0.00433993981199,0.14216779034,-0.015597182371,0.94671772784,0.321624549761,0.00631825726736
0.312158733606,0.0697440207005,-0.322580307722,-2.5160048008,0.104979619384,2.58130264282,-0.753640651703,0.0450801663101,-7.71324339439e-05,-0.00379002653062,-0.000247772113653,-0.000145491387229,-4.99040907016e-05,-3.12733609462e-05,0.00011981096759,0.464910417806,-0.00433689878758,0.142172041515,-0.0155956730121,0.946716555378,0.321627922762,0.00632595804451
0.312145203352,0.0697485804558,-0.322590976954,-2.51600551605,0.104980163276,2.58131933212,-0.753639817238,0.0450801663101,0.000590238953009,8.40953798615e-05,0.0015445681056,0.000190017788555,2.49531603913e-06,0.000154625289724,-0.000154568086145,0.464912806759,-0.0043489284876,0.142171344326,-0.0155920647787,0.94672073349,0.321615696533,0.00633117119395
0.3121496737,0.0697476044297,-0.322587668896,-2.51600289345,0.104980111122,2.58132767677,-0.753639817238,0.0450801663101,0.00055401813006,-0.000484647898702,0.00327119627036,0.000133794470457,4.1557901568e-05,-0.000177270747372,3.14251883538e-05,0.464916134315,-0.00434541547863,0.142173420785,-0.0155900264263,0.946719478117,0.321619383182,0.00633663004289
0.312160968781,0.0697498396039,-0.322580039501,-2.51600384712,0.104980036616,2.58133840561,-0.753640770912,0.0450801663101,1.60554300237e-05,6.6387685365e-05,0.000177306807018,-0.000111832967377,-7.84575095167e-05,-0.000192385225091,-0.000126372513478,0.4649177572,-0.00433671691314,0.142173033754,-0.0155882585923,0.94671623503,0.321628950429,0.00633991007625
0.312159329653,0.0697481930256,-0.32258105278,-2.51600551605,0.104979775846,2.58134388924,-0.753639936447,0.0450801663101,-0.000171843668795,-3.43462306773e-05,0.00162042398006,-0.000150794468937,2.76167156699e-05,0.000150771884364,9.19846133911e-05,0.464918286953,-0.00433822829067,0.142173565623,-0.01558731367,0.946716867163,0.321627087966,0.00634232264686
0.312151581049,0.0697465538979,-0.322583943605,-2.51600527763,0.104979760945,2.58134794235,-0.75364035368,0.0450801663101,-0.00406165933236,-0.00046253419714,-0.000829769356642,4.53967149951e-05,-3.12892880174e-05,0.00275913695805,0.00021152201225,0.4649195522,-0.00434321128158,0.142174759759,-0.0155862847061,0.946718511003,0.321622242703,0.00634518249343
0.312143474817,0.0697481110692,-0.322590470314,-2.51600456238,0.104980021715,2.58135271072,-0.753640770912,0.0450801663101,-0.000360923731932,-0.000210220430745,-0.000207402845263,-9.9487042462e-05,-4.58775393781e-05,-8.68450588314e-05,5.60452645004e-05,0.464920630082,-0.00435028476268,0.142174816711,-0.0155849817184,0.946720849904,0.321615384139,0.00634705257413
0.312148630619,0.0697503089905,-0.322589457035,-2.51600384712,0.104980200529,2.58135938644,-0.753640890121,0.0450801663101,4.48632526968e-05,-0.000542393419892,0.000415483082179,0.000148939026985,-3.08011003654e-05,0.000187276891666,0.000243872666033,0.464922066165,-0.00434768779701,0.142174680905,-0.0155835989901,0.946719889534,0.321618233712,0.0063493019049
0.312153637409,0.0697493478656,-0.322585880756,-2.51600527763,0.104979924858,2.58136200905,-0.753640949726,0.0450801663101,0.000327658170136,0.000660805264488,0.000463546195533,0.000299918378005,1.10823884825e-06,-2.71028529824e-05,1.84328218893e-05,0.464922117092,-0.00434368005779,0.142174780438,-0.0155833702851,0.946718475317,0.321622389767,0.00635020883927
0.312156289816,0.0697484463453,-0.32258272171,-2.51600837708,0.104979984462,2.58136534691,-0.753640711308,0.0450801663101,0.000457929359982,0.000237188098254,0.000333925476298,0.000137425493449,2.06066142709e-05,2.41463112616e-05,8.01529677119e-05,0.464921468368,-0.00434097803588,0.142174317569,-0.0155833296947,0.946717612599,0.321624921924,0.00635067834134
0.312159329653,0.0697443410754,-0.322581589222,-2.51600646973,0.104980066419,2.58136773109,-0.75364035368,0.0450801663101,-0.00191333203111,0.00025003607152,-0.00025007489603,0.000108320724394,5.97287798882e-05,-0.000129298554384,-0.00018310098676,0.464923701857,-0.00433883365444,0.142177015796,-0.0155825641448,0.946716982172,0.321626735487,0.00635468885597
0.312146365643,0.0697504207492,-0.322587609291,-2.5160074234,0.10498008132,2.58137822151,-0.753640174866,0.0450959280133,-6.91405221005e-05,-4.89792219014e-05,-0.000189441430848,-8.44859750941e-05,6.85531194904e-05,0.00297950813547,0.000283731438685,0.464924346914,-0.00434834510751,0.142174970313,-0.0155803347078,0.946720136988,0.321617528774,0.00635612029483
0.312145650387,0.0697521269321,-0.322590589523,-2.51600599289,0.104979813099,2.58138012886,-0.753639519215,0.0450959280133,0.000148827457451,0.000542687368579,-2.80345539068e-05,0.000463327451143,4.76412387798e-05,-1.76499779627e-05,0.000426066078944,0.464925163664,-0.00435025102551,0.142174932359,-0.0155795381117,0.946720806909,0.32161558184,0.00635680449871
0.312146931887,0.0697470381856,-0.322586476803,-2.51600265503,0.104980073869,2.58138561249,-0.753639638424,0.0450959280133,-0.00250429450534,-7.27993028704e-05,-0.00378953991458,-0.000275479542324,6.6032349423e-05,-0.000154752822709,-0.000252718018601,0.464928960785,-0.0043475106817,0.142178823244,-0.0155780379561,0.946719921223,0.321618131082,0.00636340631555
0.312165081501,0.0697456225753,-0.322574079037,-2.51600527763,0.104979828,2.58139300346,-0.753640532494,0.0450959280133,-0.00128431804478,0.000628101406619,-0.0044448110275,0.000671802321449,-5.03203500557e-06,8.30709177535e-05,-0.00422007171437,0.464929595022,-0.00433328215549,0.142179019916,-0.0155773992286,0.946714863887,0.321632997309,0.00636599242997
0.312145411968,0.069746941328,-0.322587668896,-2.51600670815,0.104980513453,2.58139657974,-0.753639996052,0.0450959280133,-0.00121275056154,-0.000487933692057,-0.000667403626721,-0.000635084114037,-2.18926124944e-05,0.00265736528672,-0.000471323699458,0.46492902253,-0.00434995052401,0.142178254581,-0.015576580721,0.946720688977,0.321615881767,0.00636643380829
0.312135905027,0.0697483122349,-0.322594732046,-2.51601529121,0.10498008877,2.58139705658,-0.753640472889,0.0450959280133,0.000234162711422,-0.00040218536742,-0.000194422580535,4.89076010126e-05,-3.90180503018e-05,0.000109272863483,-4.55757362943e-05,0.464924844681,-0.00435696483023,0.1421747792,-0.0155774234458,0.94672301565,0.321609076266,0.00636217482619
0.312147319317,0.0697504281998,-0.322590172291,-2.51600551605,0.104980185628,2.58140087128,-0.75364112854,0.0450946129858,0.00066595512908,-0.000800790381618,0.000643338484224,0.000595583231188,-8.03439519359e-08,7.23748962628e-05,9.64614737313e-05,0.464930236602,-0.00434966847475,0.14217766884,-0.0155752668535,0.946720311872,0.321617037205,0.00636735571886
0.312161833048,0.0697479620576,-0.322575628757,-2.51601052284,0.104980178177,2.58140540123,-0.753640830517,0.0450946129858,-0.000122349549201,-0.00035416558967,-0.00050207861932,-0.000475236534839,2.71407566288e-06,-4.42129457952e-05,0.000242272682954,0.464929230686,-0.00433597383867,0.142177194235,-0.0155757375368,0.946715718826,0.321630520191,0.00636806859921
0.312148958445,0.0697461739182,-0.32258489728,-2.51600456238,0.104980245233,2.58141088486,-0.753640890121,0.0450946129858,0.000458028778667,-0.000963116879575,0.000373288727133,0.000528625037987,-2.67075156444e-05,0.000100486424344,-0.00349026289769,0.464933675881,-0.00434638387451,0.142180714402,-0.0155732283137,0.946719246599,0.321620131266,0.00637444367595
0.312153190374,0.0697487518191,-0.322582215071,-2.51600670815,0.104980155826,2.58141160011,-0.753641188145,0.0450946129858,0.000978549011052,0.000734484696295,0.000498658744618,-0.00132511521224,-8.9856905106e-05,-8.66498157848e-05,2.30478963203e-05,0.464932307838,-0.00434331740559,0.142178836305,-0.0155735475669,0.946718105273,0.321623515693,0.00637240968796
0.312147498131,0.0697486922145,-0.322585850954,-2.51599693298,0.104980327189,2.58142256737,-0.753642559052,0.0450946129858,-0.000455429282738,-9.3257665867e-05,-0.000572266522795,-0.000302248430671,0.000100016906799,-0.00012571332627,1.08372751129e-05,0.464939576081,-0.00434792398038,0.142183396866,-0.0155695461347,0.946719375173,0.321619778442,0.00638213982639
0.312146544456,0.0697527527809,-0.322584211826,-2.51600861549,0.104980863631,2.58142399788,-0.753640174866,0.0450946129858,0.000805025163572,0.000375135103241,-0.000298614177154,-0.00061413331423,0.000127744860947,-4.81045390188e-05,0.000125632504933,0.464932945626,-0.00434766441335,0.142177235938,-0.0155715536424,0.946719780482,0.321618630587,0.00637495946856
0.312155395746,0.0697560459375,-0.322579741478,-2.51601314545,0.104979775846,2.5814242363,-0.753641247749,0.0450952686369,0.000262707588263,0.000488551042508,0.000995106063783,0.000356592528988,-9.51334441197e-05,8.35471655591e-05,-0.000415630376665,0.4649305204,-0.00434188681937,0.142174372575,-0.015572064099,0.946717413351,0.321625644096,0.00637140684998
0.31215724349,0.0697473660111,-0.322578728199,-2.51600456238,0.104979999363,2.58142852783,-0.753640532494,0.0450952686369,-7.49582832213e-05,-0.000302131840726,-0.000453545770142,5.36179868504e-05,-8.39558269945e-05,-1.95391367015e-05,0.000184858115972,0.464937337735,-0.00434010526143,0.142181671863,-0.0155697934168,0.946717006333,0.321626747195,0.00638174189599
0.312151610851,0.0697442516685,-0.322580486536,-2.5160074234,0.104980126023,2.58143115044,-0.753641545773,0.0450952686369,-0.000406306440709,-0.000353637122316,-0.000394313916331,0.00070141942706,-0.000172677580849,3.63337312592e-05,0.000237999629462,0.464937017554,-0.00434344738078,0.142182259118,-0.0155696433609,0.946718058814,0.321623627082,0.00638322110031
0.312152266502,0.0697492435575,-0.322581708431,-2.51600384712,0.104980356991,2.58143615723,-0.753641784191,0.0450952686369,0.00032889758586,-7.36335350666e-05,-0.000167531325133,-9.70234250417e-05,-0.000114284761366,6.47709530313e-05,-0.000139526833664,0.464938995339,-0.00434411921923,0.142181802229,-0.0155680672257,0.94671816037,0.321623374679,0.0063847205864
0.312151253223,0.0697547420859,-0.322579950094,-2.51601314545,0.10498008877,2.58143424988,-0.753641307354,0.0450946129858,7.45980141801e-05,-0.000117556708574,0.000489124504384,0.000359506026143,7.37252958061e-06,0.000331158575136,0.000249507371336,0.464932920933,-0.00434406832879,0.142175828241,-0.0155700399602,0.946718167825,0.321623416689,0.00637668348704
0.31215468049,0.0697484090924,-0.322580546141,-2.51600718498,0.104980021715,2.58143997192,-0.753642141819,0.0450946129858,-0.000128242871142,0.000538875465281,0.000188884339877,-0.000548691605218,-2.25917301577e-05,-0.000155654313858,0.000122157027363,0.464937781579,-0.00434262807787,0.142180706176,-0.0155679696119,0.946717516316,0.321625280376,0.00638446039507
0.312158197165,0.0697481557727,-0.322579562664,-2.51601171494,0.104979932308,2.58143949509,-0.753642857075,0.0450946129858,0.00175817904528,-0.000329729140503,0.000219110719627,0.000258780986769,5.94294178882e-05,-0.000154170207679,6.065578782e-05,0.464936005008,-0.0043403999086,0.142179706719,-0.0155686627443,0.94671668941,0.321627710288,0.0063829770341
0.312153637409,0.0697498470545,-0.322581917048,-2.51600646973,0.10498021543,2.58144307137,-0.753640890121,0.0450946129858,-0.000308484275592,0.000589228409808,0.0001703343587,6.08472873864e-05,6.52336311759e-05,4.51385858469e-05,8.02436115919e-05,0.464939083561,-0.00434380025712,0.142181195672,-0.0155670411653,0.946718140052,0.321623452811,0.00638629908986
0.312153458595,0.0697549954057,-0.322582930326,-2.51600956917,0.10498008877,2.5814447403,-0.753642082214,0.0450946129858,-0.000201500326511,0.000985805061646,-0.000111203335109,0.00295068509877,-0.000158876049682,0.00192794029135,0.00035083811963,0.464936958667,-0.00434472380875,0.142177960142,-0.0155671741539,0.946718177005,0.321623402518,0.00638302887624
0.312153309584,0.0697475001216,-0.322580546141,-2.51601004601,0.104980438948,2.58144545555,-0.753641009331,0.0450946129858,0.000399685202865,-0.000184632095625,-6.27829795121e-05,0.000145148806041,4.90393540531e-05,3.96922732762e-05,-0.000119645956147,0.464938238198,-0.00434322234458,0.142181132915,-0.0155672269288,0.94671800084,0.321623841905,0.00638688803019
0.312154233456,0.069746799767,-0.32257977128,-2.51600813866,0.104980021715,2.58145213127,-0.75364202261,0.0450946129858,0.000233791142819,-0.000351697060978,-0.000146343212691,0.000264345784672,7.15409696568e-05,0.000398561154725,2.67808991339e-05,0.464940776483,-0.0043425576245,0.142182708487,-0.0155654538756,0.946717513048,0.321625279323,0.00639112835394
0.312151730061,0.0697439983487,-0.32258233428,-2.51599597931,0.104979828,2.58146190643,-0.753642380238,0.0450946129858,-0.000107416235551,-0.000777703535277,-0.000336407218128,0.00034149325802,3.7069847167e-05,1.97885055968e-05,0.000145199679537,0.464949489285,-0.00434498820305,0.142189225034,-0.0155612485814,0.946718177709,0.321623295558,0.00640273233714
0.312149107456,0.0697438940406,-0.322584658861,-2.51599311829,0.104980148375,2.5814781189,-0.7536419034,0.0450946129858,0.000205609045224,0.000442159711383,-0.000432208908023,-0.000489598489366,-4.75812230434e-05,0.000142410193803,-0.000244210881647,0.46495446022,-0.00434768436995,0.142191751704,-0.0155574075724,0.946719121148,0.321620528031,0.00641158016667
0.312153756618,0.0697443559766,-0.322582423687,-2.51600193977,0.104979842901,2.58167982101,-0.753640949726,0.0450946129858,0.000127618506667,-0.000334186071996,-5.09304009029e-05,0.000655799405649,7.30767860659e-05,0.00188109802548,-0.000245619681664,0.46499389775,-0.00434947122646,0.142206025516,-0.0155172146709,0.94671878617,0.321621702823,0.00649891708102
0.312152862549,0.0697448477149,-0.32258194685,-2.51599526405,0.104979991913,2.58169865608,-0.753643035889,0.0450946129858,-0.000134575151606,6.33562303847e-05,0.00025793426903,-0.000279880361632,0.000663462386001,0.000147813319927,-0.000157672635396,0.465001283791,-0.00435004296745,0.142209950136,-0.015512161445,0.946718477482,0.321622617874,0.00651065294665
0.312150269747,0.0697470009327,-0.322582900524,-2.51600670815,0.104980185628,2.58171653748,-0.753643333912,0.0450946129858,-0.000154233508511,0.000150454288814,-0.000552235345822,-0.000231453188462,3.95901370212e-05,-0.000192779189092,0.000256441853708,0.464999010567,-0.00435237590121,0.1422063605,-0.0155104819386,0.946719239845,0.32162042459,0.00651214499555
0.312150001526,0.069745965302,-0.322584122419,-2.51600122452,0.104980565608,2.58172917366,-0.753641486168,0.0450946129858,0.00018633127911,-0.000221555528697,4.47779784736e-05,0.000639177393168,3.1221727113e-05,0.00083526520757,-0.000481780181872,0.465004695306,-0.00435329910612,0.14220992273,-0.0155070078137,0.946719821274,0.321618700469,0.0065210361143
0.312154233456,0.0697477683425,-0.322579950094,-2.51600170135,0.104979872704,2.58174848557,-0.753642857075,0.0450946129858,0.000126680912217,0.000217738357605,6.59969809931e-05,-0.000339479767717,-9.14817610465e-06,9.26586217247e-05,0.00014602371084,0.465008350541,-0.00434995246165,0.142210605572,-0.0155031083603,0.946718227202,0.321623427753,0.00652857739805
0.312155246735,0.0697493478656,-0.322579622269,-2.51600766182,0.104979984462,2.58175516129,-0.753642916679,0.0450946129858,-7.701877621e-05,-0.000224749863264,-0.00046589403064,-0.00016109860735,1.74715187313e-05,-3.74686278519e-05,0.000304777553538,0.46500653807,-0.00434959538476,0.142208335194,-0.0155027689722,0.946718085061,0.321623873864,0.0065280182147
0.312151640654,0.0697467699647,-0.322583079338,-2.5160009861,0.104980006814,2.58176445961,-0.753641784191,0.0450959280133,0.000113854657684,-0.000147807179019,0.000399609387387,0.000403028301662,8.59716092236e-05,0.000274535210337,-0.000145639787661,0.465012593059,-0.004352678313,0.142212885519,-0.0154994196973,0.946719194244,0.321620582834,0.00653724901893
0.312150448561,0.0697413384914,-0.322581470013,-2.51599740982,0.104979746044,2.58178472519,-0.753643631935,0.0450959280133,-5.47184645256e-05,-0.000544790585991,-0.000340868078638,-0.000120939279441,-4.24846621172e-05,0.00237971218303,0.000100362602097,0.465019539329,-0.00435294048225,0.142218190353,-0.0154947568248,0.94671898053,0.321621170142,0.00655034500869
0.312151193619,0.0697238817811,-0.322585254908,-2.51598572731,0.104979984462,2.58196282387,-0.75364792347,0.0450959280133,0.000842392095365,0.000790236110333,5.6438268075e-05,2.12310696952e-05,1.8953009203e-05,0.000989896943793,0.000126517086755,0.465067334558,-0.00435769589686,0.142245791744,-0.0154557888623,0.94671915006,0.321620589261,0.0066457319244
0.312155544758,0.0697246268392,-0.322581380606,-2.51598572731,0.104979880154,2.58198094368,-0.753648877144,0.0450959280133,-0.000239657601924,0.000541819841601,0.000373486225726,-1.5897099729e-05,3.22356504512e-06,-0.000145603335113,-0.001827101456,0.465071329885,-0.00435412996444,0.142246893286,-0.0154520189195,0.946717649815,0.321625022212,0.00665367681121
0.312159687281,0.069728448987,-0.322577416897,-2.51598739624,0.104979909956,2.58199834824,-0.753647267818,0.0450959280133,-8.8773209427e-05,0.000629938556813,-0.000471110310173,-0.000259861815721,-5.27206939296e-05,0.000380390498322,0.000333030533511,0.465073442399,-0.00435115722496,0.142246211487,-0.0154490695407,0.946716757236,0.321627687301,0.00665869870369
0.312160164118,0.0697296112776,-0.322577685118,-2.51598906517,0.104979678988,2.58201408386,-0.753650784492,0.0450959280133,3.34457740792e-06,-0.00330611970276,0.000115865303087,0.00020346706151,-3.87066938856e-05,8.91615272849e-05,-3.2426101825e-05,0.465075822613,-0.00435153202635,0.142246478962,-0.0154460256095,0.946716190414,0.32162938188,0.00666449552441
0.312158346176,0.0697260424495,-0.322579354048,-2.51598882675,0.104980200529,2.58203411102,-0.753650069237,0.0450959280133,-0.000110179942567,-0.000778010929935,-0.0006419144338,1.74673368747e-05,3.51206763298e-05,0.00157544913236,-0.000126877304865,0.465080943497,-0.0043534325365,0.142249916513,-0.0154418802415,0.946716970857,0.321627053757,0.00667558286623
0.312158375978,0.0697294771671,-0.322578161955,-2.51598906517,0.104980103672,2.58204030991,-0.753650665283,0.0426498427987,0.000217294684262,0.000242520050961,2.4713064704e-05,0.000231058642385,7.04637786839e-05,1.33190815177e-05,0.000572763558012,0.465081550152,-0.00435320849725,0.142248846644,-0.0154406848582,0.946716703996,0.32162787635,0.00667656121058
0.312155485153,0.069729141891,-0.32258027792,-2.51598763466,0.104979909956,2.58204698563,-0.753652095795,0.0426498427987,-0.000319413346006,-0.000917513505556,-0.000459728209535,0.000162422016729,-0.000849281903356,0.00225822697394,-0.000135091613629,0.465083766487,-0.00435570902068,0.14225011981,-0.0154389237374,0.946717261028,0.321626240074,0.00668047072006
0.312154948711,0.0697326883674,-0.322578758001,-2.51599264145,0.104980111122,2.58205294609,-0.753652453423,0.0426498427987,0.000119817232189,-0.000778183457442,-0.00167803710792,-0.000579812680371,-9.42463375395e-05,0.00183650408871,-4.92488252348e-05,0.465081912687,-0.00435559541885,0.142247251517,-0.0154386508664,0.946717142634,0.321626630817,0.00667906733897
0.312159478664,0.0697297081351,-0.32257694006,-2.51599788666,0.104979686439,2.58205509186,-0.753651916981,0.0426498427987,8.06205862318e-05,-0.00296420441009,0.00375567888841,-0.000296200421872,-6.80356060911e-06,0.000106822037196,4.12508925365e-05,0.465080313466,-0.00435253430041,0.142246838072,-0.0154390339722,0.946716177207,0.321629456302,0.00667896483792
0.31215813756,0.0697266831994,-0.322577774525,-2.51599502563,0.104979962111,2.58205986023,-0.753652393818,0.0426498427987,-0.00046171437134,-0.00024570315145,0.000119951997476,0.000285963469651,9.30882015382e-05,9.3105227279e-05,-4.60240953544e-05,0.465083327985,-0.00435347502118,0.142249635713,-0.0154375819679,0.946716464123,0.321628575927,0.00668404495487
0.312149882317,0.0697266459465,-0.322581738234,-2.51599240303,0.104980312288,2.58206415176,-0.753652513027,0.0426498427987,-0.00165632832795,0.000484405987663,4.83581025037e-05,-0.000494520703796,-4.84075644636e-05,-9.80146505754e-05,6.22191364528e-05,0.465085305153,-0.00435950198015,0.142250634296,-0.0154361321849,0.94671851952,0.321622532235,0.00668708214633
0.312159657478,0.0697389766574,-0.322578698397,-2.5160036087,0.104979798198,2.58206582069,-0.753655016422,0.0406956039369,0.000437193375546,-0.000317098922096,0.000812785583548,-0.000236997468164,-0.000194447420654,0.00017981993733,-0.000233929764363,0.46507810275,-0.00435410856558,0.142241638279,-0.0154377840516,0.946716068604,0.321629885808,0.00667656449261
0.312175631523,0.0697334557772,-0.322562813759,-2.51600146294,0.104978978634,2.58206534386,-0.75365293026,0.0406956039369,-0.000401027849875,-1.2427519323e-05,-9.9627628515e-05,0.000670172972605,-4.90265083499e-05,9.45615320234e-05,0.000266251445282,0.465080341241,-0.00433844204337,0.142244599747,-0.0154378362503,0.946710997427,0.32164474196,0.00667983686584
0.312159538269,0.0697268545628,-0.322569280863,-2.5159869194,0.104980103672,2.5820748806,-0.753655195236,0.0406956039369,0.000378021039069,-8.33385274746e-05,-6.43321545795e-05,-0.000121467492136,5.89609007875e-05,0.000945024308749,-0.000274402089417,0.465090740725,-0.00434927898322,0.142253784901,-0.0154334567278,0.946714477857,0.321634399441,0.00669467052188
0.312192052603,0.0697337388992,-0.322544246912,-2.51601481438,0.104979828,2.58208227158,-0.753655791283,0.0406956039369,0.00303931091912,-0.000749555882066,0.00243941624649,-0.000446647842182,-2.33117634707e-06,-4.87274519401e-05,0.000319621001836,0.465077174277,-0.00432275340595,0.142240987228,-0.0154376239005,0.946705289912,0.321661528756,0.00668090016806
0.312206923962,0.0697059035301,-0.322521001101,-2.51600646973,0.104979544878,2.58208084106,-0.753654539585,0.0406956039369,-0.000641030084807,0.000314564415021,0.00123106001411,0.000692493165843,1.54616482178e-05,0.000213220264413,-0.000117709336337,0.46508616138,-0.00430307734754,0.142255925455,-0.0154371987441,0.946699106516,0.321679396426,0.00669777731696
0.312193214893,0.0696264952421,-0.322511523962,-2.51599836349,0.10498008877,2.58207035065,-0.753657400608,0.0406956039369,-0.000633952906355,-0.00318415183574,-0.000286713941023,-0.000475552747957,-2.46620584221e-05,-0.000244183960604,2.11998903978e-05,0.465102293963,-0.00429997928249,0.142292883117,-0.0154378562823,0.946698871219,0.321679245955,0.00673663381531
0.31218957901,0.0684672519565,-0.32250508666,-2.51561760902,0.104979149997,2.5802116394,-0.75365537405,0.0406956039369,0.000547066156287,-0.0474134683609,0.000761204399168,0.0112066175789,3.55606316589e-05,-0.0937525629997,-3.91698449675e-05,0.46509827057,-0.00418407220118,0.142779065518,-0.0157500856556,0.946684188165,0.321709136352,0.0066493576437
0.312190800905,0.0673884898424,-0.322495371103,-2.5154607296,0.104979597032,2.57802391052,-0.753651380539,0.0406956039369,-0.000169752922375,-0.0817272365093,-3.32402632921e-05,0.00805697962642,0.000124347076053,-0.163889363408,-0.000139677693369,0.464895424712,-0.004061720814,0.143120086912,-0.0161683356669,0.94666933821,0.321739768877,0.00626656412281
0.312214434147,0.063916631043,-0.322397023439,-2.51489233971,0.104976058006,2.57062005997,-0.753652274609,0.0408275946975,3.98463816964e-05,-0.137085333467,0.0082920351997,0.0279046632349,-0.0002618827275,-0.309698492289,8.67522976478e-05,0.464313458158,-0.00369468156683,0.144032862405,-0.017334903934,0.946612443391,0.321866179168,0.00515223436981
0.312206983566,0.0606542006135,-0.322316378355,-2.51407432556,0.104975752532,2.56295776367,-0.753652393818,0.0408275946975,0.000727610953618,-0.19910556078,0.00202083704062,0.0556925535202,-0.000148480045027,-0.475925385952,0.000123439443996,0.463511080995,-0.00320423321907,0.145282489903,-0.0190033646654,0.946531713875,0.322032379964,0.00342530329163
0.312203496695,0.0558571331203,-0.322293996811,-2.51244473457,0.10497097671,2.55152201653,-0.753653883934,0.0408275946975,-0.000415889779106,-0.264164149761,-0.000210165337194,0.109102621675,0.000150157764438,-0.650630116463,-9.00395116332e-06,0.462674480776,-0.00263393637755,0.14700890056,-0.021055417806,0.946432571542,0.322211330393,0.00138389308663
0.31220009923,0.0514241270721,-0.322284221649,-2.51056003571,0.10496494174,2.54074120522,-0.753652393818,0.0408275946975,-0.000988928601146,-0.31513094902,-0.000794711639173,0.141461879015,0.00014957980602,-0.773343443871,-0.00013117765775,0.462029020711,-0.00210851377843,0.148734827631,-0.0229304146162,0.946330369971,0.322386179834,-0.000421539861018
0.312195926905,0.0449896790087,-0.322287321091,-2.50759243965,0.104963861406,2.52524662018,-0.753648340702,0.0408275946975,-0.000159482005984,-0.390385061502,0.00189975637477,0.181832060218,6.30162758171e-05,-0.931598961353,-0.000312102289172,0.461215457589,-0.00136119305244,0.151356592213,-0.0255801032173,0.946170733298,0.322642847143,-0.00286262918671
0.312214612961,0.0309321228415,-0.322269320488,-2.50044989586,0.104954369366,2.4924030304,-0.75363278389,0.0408275946975,0.00257575768046,-0.513274252415,0.0028884485364,0.272522419691,0.000138607094414,-1.19809556007,0.000607839087024,0.459876658108,0.000249500246221,0.157484268449,-0.0310360604026,0.94576518523,0.323279683211,-0.00743124977817
0.312231957912,0.0234325677156,-0.322233080864,-2.49641895294,0.104950852692,2.47534418106,-0.753611624241,0.0408275946975,0.0012627086835,-0.568310022354,0.00254873558879,0.332368850708,1.31330334625e-05,-1.30120813847,0.00161499751266,0.459310264979,0.00109951654709,0.160912585577,-0.0338067104619,0.945522553073,0.323655492819,-0.0095566528485
0.312246710062,0.0111390184611,-0.322108119726,-2.48891544342,0.104943305254,2.4477493763,-0.753539085388,0.0408275946975,0.000224681105465,-0.631734669209,0.00770508497953,0.403148710728,8.83640168468e-05,-1.42653119564,0.00784677732736,0.458799315803,0.00248239596031,0.166954287975,-0.0381081992399,0.94509295502,0.324333018593,-0.0124564947295
0.312263280153,0.000443773489678,-0.322031915188,-2.48188757896,0.104931980371,2.42435193062,-0.753245830536,0.0408275946975,0.00359245180152,-0.699359416962,0.00408545834944,0.485715329647,-0.000413467292674,-1.49978113174,0.0292729251087,0.458633990434,0.00377521584955,0.173263025283,-0.04205943748,0.94469531996,0.32490947191,-0.014683014508
0.312385201454,-0.0374732427299,-0.321868509054,-2.45233750343,0.104906857014,2.34497141838,-0.750823736191,0.0408275946975,0.00107432797085,-0.810798346996,0.00306149828248,0.71207344532,-0.00161417748313,-1.65964925289,0.0873741656542,0.460104309051,0.00732842874767,0.194680392508,-0.0524415703079,0.943632021589,0.326325210887,-0.0178982111811
0.312408357859,-0.0497361198068,-0.321841686964,-2.44130444527,0.104903869331,2.31974029541,-0.749208331108,0.0408525466919,0.00100781745277,-0.8625613451,0.00257021235302,0.781852841377,-0.000666225096211,-1.68089675903,0.121707811952,0.461030961549,0.00839591360548,0.20261695496,-0.0555524082077,0.943386891847,0.326505382708,-0.0181476440566
0.312442004681,-0.0656871423125,-0.321794778109,-2.42533779144,0.104865327477,2.28780508041,-0.746220767498,0.0408525466919,0.00522074848413,-0.805917322636,0.0020190954674,0.858586788177,-0.00924064964056,-1.68019986153,0.186370074749,0.462781405926,0.00960912301744,0.213173443908,-0.0589163520313,0.943221465887,0.326434357042,-0.0173994247969
0.312487453222,-0.0826907753944,-0.321689426899,-2.40704011917,0.104367531836,2.2542142868,-0.742260634899,0.0408525466919,0.000661736819893,-0.854978442192,0.00518890889362,0.964364826679,-0.0321512781084,-1.67568850517,0.213781028986,0.46512252005,0.0108893996104,0.226359776382,-0.0623559977929,0.943096774344,0.326236251573,-0.0158149172401
0.31264141202,-0.10827421397,-0.321457862854,-2.37685108185,0.102448947728,2.20555901527,-0.734910666943,0.0408525466919,0.00712750619277,-0.831924259663,0.00884839519858,1.05634820461,-0.113890752196,-1.55972766876,0.266116291285,0.469205229422,0.012336051377,0.246846235317,-0.0659056702617,0.943050574001,0.325847213136,-0.011646925927
0.312728852034,-0.121657058597,-0.321348667145,-2.35988736153,0.10023983568,2.18098640442,-0.730691552162,0.0408525466919,0.0060920836404,-0.825902879238,0.00526154693216,1.08002078533,-0.171561256051,-1.49379038811,0.261219650507,0.471568114844,0.0127717393336,0.258259736222,-0.0668877258219,0.9430144682,0.325843071789,-0.00871992858126
0.312803268433,-0.134354308248,-0.321243405342,-2.34355998039,0.0972878411412,2.15904355049,-0.726615965366,0.0408525466919,0.00475897919387,-0.834548354149,0.0124981254339,1.07717239857,-0.213274076581,-1.44114196301,0.280742108822,0.473598225861,0.0129276211776,0.267895417873,-0.0671363226091,0.942971994625,0.325979880954,-0.0058007274934
0.312905877829,-0.151800453663,-0.32111504674,-2.32065939903,0.0917821824551,2.13022589684,-0.7205991745,0.0408525466919,0.00599961541593,-0.811155736446,0.00448329513893,1.07538735867,-0.311374813318,-1.30725157261,0.297377288342,0.477079176524,0.0127651094909,0.285074115642,-0.0665065397383,0.942914351108,0.326327122801,-0.000123527877092
0.312932401896,-0.174282580614,-0.321073383093,-2.29062247276,0.0809514969587,2.09570264816,-0.712344288826,0.0408525466919,0.00136656942777,-0.776817977428,0.000621431099717,1.0298832655,-0.456798046827,-1.16630864143,0.285144418478,0.480796444651,0.011651864686,0.304450062731,-0.0637537877987,0.942837134715,0.327025395689,0.0069269189544
0.312900751829,-0.189376860857,-0.321070373058,-2.27122569084,0.0711699873209,2.0750849247,-0.706950366497,0.0408525466919,-0.000324407767039,-0.796753406525,-0.00139769841917,0.995854914188,-0.569521486759,-1.00586497784,0.28277361393,0.483448331161,0.0100558507951,0.319845246028,-0.0599063806959,0.942685103767,0.328004507374,0.0130024427587
0.312791138887,-0.203138485551,-0.321073442698,-2.25410699844,0.0597935840487,2.05787730217,-0.701840519905,0.0408525466919,-0.0108338417485,-0.760533630848,0.000701471639331,0.923184752464,-0.66994702816,-0.883807897568,0.285801589489,0.485405790483,0.00813129486173,0.332460275311,-0.0553535262318,0.942522494218,0.329025947569,0.0181455377595
0.312521010637,-0.215756848454,-0.321065872908,-2.23908853531,0.0475133694708,2.0438683033,-0.697304964066,0.0409438237548,-0.0203302390873,-0.729899287224,0.00112008559518,0.835062384605,-0.764018237591,-0.781147062778,0.253429561853,0.487060312014,0.00586137190125,0.343895822951,-0.0500971220125,0.942325815644,0.330119667707,0.0230941597845
0.310456097126,-0.248824030161,-0.321356356144,-2.2051448822,0.00620783865452,2.01374816895,-0.687981665134,0.0409438237548,-0.0690528303385,-0.636462152004,-0.0173390451819,0.5888864398,-0.958562612534,-0.503112852573,0.158487901092,0.48991533041,-0.00285037392303,0.372000499817,-0.0316743949815,0.941352650711,0.334074407321,0.0353016963102
0.308757483959,-0.260363489389,-0.321786433458,-2.19493818283,-0.0126375034451,2.00497603416,-0.68531703949,0.0409438237548,-0.104621514678,-0.573685646057,-0.0292057320476,0.488243252039,-1.03505730629,-0.425492554903,0.128736391664,0.490430203392,-0.0074007949267,0.381197056286,-0.023136435039,0.940938839641,0.335531159261,0.038956979875
0.306857019663,-0.269142895937,-0.322458177805,-2.18793535233,-0.0295501127839,1.99859321117,-0.683453440666,0.0409438237548,-0.135574817657,-0.512272655964,-0.0581976883113,0.396473675966,-1.07168722153,-0.373021841049,0.108120448887,0.490549694478,-0.0117898888037,0.387842536045,-0.0155518831603,0.940626859493,0.336582405701,0.0411282626591
0.298205733299,-0.290273964405,-0.327866792679,-2.17432904243,-0.0841223299503,1.98367786407,-0.680313289165,0.0409438237548,-0.224080070853,-0.321966588497,-0.185839891434,0.162633791566,-1.08704054356,-0.250281959772,0.00323010794818,0.489543866205,-0.0286039802438,0.402177024647,0.00823472557427,0.940182133367,0.337866711221,0.0428465929512
0.293650597334,-0.295258313417,-0.331927597523,-2.171895504,-0.105222165585,1.97937083244,-0.680327117443,0.0409438237548,-0.260440975428,-0.205751463771,-0.246901214123,0.10235542804,-1.10947108269,-0.211366698146,0.000343905936461,0.488698438439,-0.0365430161354,0.404988615019,0.0169789565116,0.940341610328,0.337304552219,0.0411704950226
0.28984490037,-0.297477722168,-0.335778415203,-2.17071008682,-0.120720930398,1.97669541836,-0.680350720882,0.0409438237548,-0.282867491245,-0.124146133661,-0.307687193155,0.0688585713506,-1.08933138847,-0.18103800714,-0.00213539577089,0.488021819035,-0.0429729676093,0.406130578985,0.0232350864581,0.940668253655,0.336264545183,0.0391091122716
0.284073978662,-0.298807919025,-0.342383295298,-2.16986942291,-0.141405656934,1.97348690033,-0.680552840233,0.0409438237548,-0.320454061031,-0.0224670469761,-0.384514719248,0.0319440439343,-1.07721793652,-0.158058807254,-0.0220244117081,0.486996123627,-0.0520065465206,0.406551722539,0.0308603433067,0.941358684191,0.334112414532,0.0355015640807
0.266147226095,-0.293204575777,-0.366480469704,-2.16969943047,-0.190371334553,1.96728992462,-0.684890091419,0.040967464447,-0.427895486355,0.271050691605,-0.644974768162,-0.00355811486952,-1.00127482414,-0.0960854366422,-0.199298396707,0.483346716615,-0.0810129014798,0.402542283039,0.048668457727,0.944356001133,0.324631606083,0.0209151707087
0.258570849895,-0.287774056196,-0.378101736307,-2.16969132423,-0.206991091371,1.96583080292,-0.689357578754,0.040967464447,-0.469710856676,0.36506575346,-0.724296450615,0.00493063032627,-0.957625150681,-0.0640499219298,-0.317819327116,0.481636552726,-0.0936805814081,0.399329556899,0.0543055685273,0.945604406157,0.320457724176,0.0137861883191
0.250070393085,-0.280640989542,-0.391288638115,-2.1695561409,-0.222813665867,1.96516251564,-0.695559322834,0.040967464447,-0.51870983839,0.467603057623,-0.822086930275,0.0118815815076,-0.905159056187,-0.00678725540638,-0.415861815214,0.479909943937,-0.105899725831,0.395840360574,0.0588042286176,0.946788036974,0.316363728944,0.00696178400083
0.232490599155,-0.262410640717,-0.42086943984,-2.16858863831,-0.249756932259,1.96542477608,-0.711545884609,0.040967464447,-0.574890613556,0.656865775585,-1.00407779217,0.0464170575142,-0.799584269524,0.0259137041867,-0.578806638718,0.47553931912,-0.132696276885,0.387097365396,0.0659076527472,0.949372546022,0.307051844222,-0.00819236336766
0.22173500061,-0.249719932675,-0.439826369286,-2.16741466522,-0.26338070631,1.96631348133,-0.722603261471,0.040967464447,-0.630545437336,0.74816763401,-1.10429227352,0.0823627486825,-0.716931462288,0.0673210024834,-0.652522563934,0.472397592692,-0.148968546346,0.381423284274,0.0689214618694,0.950924139921,0.30114810049,-0.0174049840291
0.210931167006,-0.236283332109,-0.459273427725,-2.16583037376,-0.274480640888,1.96790611744,-0.73425924778,0.040967464447,-0.630712926388,0.826433956623,-1.16177582741,0.0959174931049,-0.613058447838,0.115146875381,-0.719690382481,0.469125483122,-0.164096461742,0.376033820696,0.0707968279757,0.95244636076,0.295254408915,-0.025662671902
0.201044753194,-0.223318502307,-0.477389395237,-2.16416835785,-0.282664418221,1.97004342079,-0.745449066162,0.040967464447,-0.666536867619,0.88538724184,-1.23862421513,0.127524495125,-0.50189524889,0.163342222571,-0.768136739731,0.465160664338,-0.180514222903,0.369950715804,0.0719537383994,0.954141360671,0.288538641858,-0.0343856835294
0.165794953704,-0.1751768291,-0.544407308102,-2.15712785721,-0.302076220512,1.9829788208,-0.787288784981,0.040967464447,-0.717891573906,0.981984734535,-1.37188601494,0.146090433002,-0.252594172955,0.348290324211,-0.831624567509,0.450148078613,-0.230372815264,0.351588422195,0.0723288508878,0.959496754569,0.266006778772,-0.0580939638886
0.153080701828,-0.157762140036,-0.568914949894,-2.15455818176,-0.305869400501,1.98962640762,-0.802270054817,0.040967464447,-0.720361888409,0.964990675449,-1.37177598476,0.134559631348,-0.185757651925,0.390831202269,-0.818582713604,0.443573855815,-0.248148470962,0.345156037779,0.071681960923,0.961530433825,0.256980886735,-0.0654350429859
0.143822953105,-0.145513400435,-0.586590349674,-2.15282392502,-0.308030277491,1.99479186535,-0.812910556793,0.040967464447,-0.7054926157,0.936735570431,-1.35627841949,0.134310752153,-0.13328717649,0.410706520081,-0.815325438976,0.437972475841,-0.261774217073,0.340364175145,0.0710645642855,0.963113666757,0.249716271361,-0.0707366674283
0.128298059106,-0.125400349498,-0.615780770779,-2.15001130104,-0.309977740049,2.00400161743,-0.830640375614,0.040967464447,-0.690755546093,0.866889059544,-1.29651737213,0.108605578542,-0.0564423985779,0.417873114347,-0.798989653587,0.429062505034,-0.281389731032,0.333560485009,0.0698367620611,0.965430632404,0.238745245979,-0.0778924123198
0.0946066379547,-0.0892417579889,-0.672892510891,-2.14676499367,-0.311123847961,2.02253246307,-0.867275059223,0.0409786254168,-0.70813703537,0.613470733166,-1.06494617462,0.023202329874,-0.00560513092205,0.332845062017,-0.718225836754,0.406316919435,-0.321261079391,0.320511297618,0.0661505614994,0.970078776737,0.215003191315,-0.0913504108164
0.0829286724329,-0.0797763466835,-0.690252840519,-2.14657521248,-0.311376452446,2.02753996849,-0.879076123238,0.0409786254168,-0.653519630432,0.503067851067,-0.962781369686,-0.00267110369168,-0.0165456794202,0.261785537004,-0.666447758675,0.397286194739,-0.334044182055,0.316721284608,0.0645177753679,0.971545735053,0.206911412217,-0.095519676245
0.07201141119,-0.0722410678864,-0.705673992634,-2.14667630196,-0.311799556017,2.03110003471,-0.890107035637,0.0409786254168,-0.629562735558,0.399370998144,-0.869723260403,-9.99930271064e-05,-0.0380858778954,0.160615131259,-0.637729287148,0.389425763774,-0.344065637261,0.313943254022,0.0629502465532,0.972655193679,0.200491470706,-0.0989055637279
0.0576343536377,-0.0649395883083,-0.724683403969,-2.14677143097,-0.312980145216,2.03342819214,-0.904648780823,0.0409786254168,-0.570165991783,0.206416234374,-0.723137199879,-0.0134084215388,-0.0545953549445,0.0518626645207,-0.594147741795,0.377952708197,-0.357195630372,0.310984177649,0.0604861220335,0.974053837312,0.192019022068,-0.103388809439
0.0352374985814,-0.0620432235301,-0.7514950037,-2.14751958847,-0.315421104431,2.03396630287,-0.929489672184,0.0409786254168,-0.409429043531,-0.0580168701708,-0.459254533052,-0.0109359975904,-0.0476712659001,-0.000109224572952,-0.501527070999,0.359606868068,-0.375492660412,0.309100872651,0.0561870464444,0.975963335451,0.180975701073,-0.107640043588
0.0297761727124,-0.0635147616267,-0.757351458073,-2.14762425423,-0.316140800714,2.03392767906,-0.936365783215,0.0409786254168,-0.366345196962,-0.151589170098,-0.369026482105,-0.00628835614771,-0.0622146464884,-0.00857557728887,-0.482063233852,0.355281483725,-0.37958810275,0.309441528594,0.0552998058543,0.976381528197,0.178964043839,-0.107670393215
0.0235787220299,-0.0674324333668,-0.763143241405,-2.1475675106,-0.317549943924,2.03363895416,-0.944974005222,0.0409976691008,-0.293875724077,-0.230000674725,-0.261878252029,0.0083832051605,-0.0785607621074,-0.0106976563111,-0.434590101242,0.35063876885,-0.383967886642,0.31069145925,0.0546513008839,0.976772099387,0.177535258758,-0.106821031468
0.0146718872711,-0.0821629166603,-0.770290672779,-2.14689016342,-0.320663481951,2.03353762627,-0.963117957115,0.0409976691008,-0.0892078429461,-0.392181456089,-0.045542396605,0.0295154061168,-0.0351059325039,8.29478885862e-05,-0.360819637775,0.344597342972,-0.39007784619,0.315899627029,0.054934386953,0.977101719452,0.17884514914,-0.101335360554
0.0138307446614,-0.0888276174664,-0.770459473133,-2.14616465569,-0.320889383554,2.03348755836,-0.969023764133,0.0409976691008,-0.00904880929738,-0.393646419048,0.0129316681996,0.0532779656351,-0.00331818498671,-0.000679565244354,-0.342863827944,0.344442378401,-0.390626778898,0.318486688735,0.0554717877832,0.976992197647,0.18104591683,-0.0981402169906
0.0143537968397,-0.0967857688665,-0.769569277763,-2.14494967461,-0.320887446404,2.03343296051,-0.975573241711,0.0409976691008,0.0456448420882,-0.406254708767,0.0854583606124,0.0716672614217,-0.000169187856955,0.000155382338562,-0.317063421011,0.345353043837,-0.390434880467,0.321770618225,0.056400382364,0.976674277736,0.184605697419,-0.0940589615848
0.0156079065055,-0.103995315731,-0.76720303297,-2.14326763153,-0.320889502764,2.03343319893,-0.981003165245,0.0409976691008,0.0951794013381,-0.393617659807,0.165424615145,0.112127311528,-0.000104021775769,0.00181658111978,-0.301722884178,0.347195007715,-0.389601864084,0.325090046256,0.0577212902057,0.976193802349,0.188662240596,-0.0901136592405
0.0202465411276,-0.116054743528,-0.760727345943,-2.13919591904,-0.32088086009,2.0334777832,-0.989999353886,0.0409976691008,0.18502740562,-0.334660232067,0.244564384222,0.146847113967,0.000321489234921,0.000127736188006,-0.264354586601,0.352431329828,-0.386727736399,0.33138797252,0.060846862827,0.974841354044,0.197715260553,-0.0830100546244
0.0230513326824,-0.120673581958,-0.757096409798,-2.13701176643,-0.320877581835,2.03347635269,-0.993572592735,0.0409976691008,0.217733934522,-0.315213918686,0.280112296343,0.165348574519,0.000117213952763,0.00325669278391,-0.247876122594,0.355366447509,-0.384985362995,0.334166973548,0.0624485374926,0.974060668604,0.202226978795,-0.0800639918139
0.0267873220146,-0.125584676862,-0.752290785313,-2.13432431221,-0.320866197348,2.03353142738,-0.997307777405,0.0409976691008,0.25280469656,-0.289275228977,0.312441706657,0.173131793737,0.00056744372705,0.0105101792142,-0.220064938068,0.359443629178,-0.382429838108,0.337561840162,0.0645748120612,0.972961978729,0.208122301616,-0.0765518703804
0.0317741855979,-0.130768015981,-0.746067762375,-2.1309876442,-0.320858240128,2.03366565704,-1.00149679184,0.0409976691008,0.268543183804,-0.257687151432,0.348675757647,0.177551731467,0.000210634578252,0.0105692334473,-0.217035323381,0.364402323978,-0.379169718106,0.341257247458,0.0670617971502,0.97155631406,0.215114703274,-0.0728471557624
0.0468624122441,-0.140229001641,-0.726713597775,-2.12164711952,-0.320822924376,2.03433823586,-1.01208102703,0.0409976691008,0.341218352318,-0.133894249797,0.411744236946,0.178529247642,5.19530476595e-05,0.0188913457096,-0.205352574587,0.378907724771,-0.368785846284,0.349926133416,0.0737848422559,0.966969720718,0.235215497951,-0.064799887996
0.0526093132794,-0.142192304134,-0.719653844833,-2.11864280701,-0.320813000202,2.03477311134,-1.01539254189,0.041159208864,0.330733835697,-0.0963018164039,0.417590141296,0.174175411463,-0.000191664861632,0.0312373396009,-0.18091070652,0.384252524508,-0.364613210622,0.352490213956,0.0760720077983,0.965116318428,0.242599455561,-0.0625223590947
0.0583419464529,-0.143513128161,-0.712574422359,-2.11580467224,-0.320787638426,2.0353243351,-1.01823794842,0.041159208864,0.345092594624,-0.061243660748,0.434055268764,0.157821685076,0.00573389232159,0.037441637367,-0.164726987481,0.389545193141,-0.360328171811,0.354764923975,0.078275989004,0.963232471208,0.249784453372,-0.0605293523988
0.0758937671781,-0.144249275327,-0.69115114212,-2.10963845253,-0.320729851723,2.03831672668,-1.02601122856,0.041159208864,0.342481821775,0.00818959064782,0.414513021708,0.0839417204261,0.000730074767489,0.0622777529061,-0.136831045151,0.405124651879,-0.346397930591,0.359437923524,0.0841211549063,0.957093418763,0.271541295551,-0.0562240478754
0.0810194388032,-0.144004017115,-0.685010612011,-2.10854721069,-0.320699214935,2.03927302361,-1.02818202972,0.041159208864,0.347764402628,0.02893249318,0.403620094061,0.0600096471608,0.000478145113448,0.0647775828838,-0.145138368011,0.409695393052,-0.341815880833,0.360334945728,0.0855931319749,0.955081818864,0.278269938912,-0.0553025842299
0.0963378623128,-0.141441091895,-0.666976809502,-2.10753250122,-0.320666223764,2.04236650467,-1.03329432011,0.041159208864,0.305652081966,0.075435526669,0.359495252371,-0.00143347075209,-3.93264053855e-05,0.0379282124341,-0.108464077115,0.421909208548,-0.328121885393,0.361021415942,0.0887632424804,0.949234732987,0.296883018211,-0.054175471041
0.103441007435,-0.139347612858,-0.658617794514,-2.10764837265,-0.320660829544,2.042958498,-1.0358029604,0.041159208864,0.286401063204,0.101187519729,0.333374112844,-0.0065597272478,-0.000207066972507,0.0134769268334,-0.09397611022,0.426611412971,-0.322136934824,0.360649257453,0.0895307569455,0.946656261507,0.304713872179,-0.054549261221
0.107832804322,-0.137588724494,-0.653606534004,-2.10775661469,-0.320662111044,2.04310703278,-1.03740358353,0.0413128696382,0.269592732191,0.119396217167,0.295973628759,-0.00922182109207,0.000114264454169,0.00680083269253,-0.106396220624,0.429476367839,-0.318340595183,0.360206811155,0.0898872716208,0.944991373594,0.309643551487,-0.0550677123522
0.112939536572,-0.135094210505,-0.647858917713,-2.10795927048,-0.320654720068,2.04324150085,-1.03940713406,0.0413128696382,0.238856434822,0.127406567335,0.281008809805,-0.0139382099733,0.000478482164908,0.00109454209451,-0.100016929209,0.433275506176,-0.313152746824,0.35934302637,0.0902513625411,0.942656056494,0.316402582912,-0.0560683148398
0.122243851423,-0.129094704986,-0.636980712414,-2.10925412178,-0.320574015379,2.04332947731,-1.04292118549,0.0413128696382,0.166511058807,0.133518114686,0.189652621746,-0.0423870012164,0.0060458984226,-0.00033392480691,-0.0541185475886,0.439181046389,-0.304327975767,0.356899937954,0.0903070382427,0.938686937048,0.327515239368,-0.0586961730183
0.12495341152,-0.126778006554,-0.634029448032,-2.10996723175,-0.320546001196,2.04333353043,-1.04397821426,0.0413128696382,0.15176717937,0.136593297124,0.161530554295,-0.039418682456,0.000603267515544,-0.000147231330629,-0.0723236873746,0.440772433123,-0.301703525892,0.355765122926,0.0901106702257,0.937480287798,0.3307953645,-0.0598765698168
0.12753175199,-0.124253645539,-0.631214976311,-2.11077690125,-0.32053732872,2.04332017899,-1.04533576965,0.0413128696382,0.121480457485,0.132238686085,0.128719776869,-0.0406344085932,0.000439581199316,0.000287233735435,-0.0714147239923,0.442173582367,-0.299293929262,0.354556378414,0.0898471223102,0.936305060413,0.333946736208,-0.0611547669427
0.131597742438,-0.11821423471,-0.627067267895,-2.1129758358,-0.320501804352,2.04331564903,-1.04877054691,0.0413128696382,0.0485410094261,0.119541741908,0.0567735023797,-0.0492430068552,-7.2368849942e-05,-0.0010902392678,-0.0550994239748,0.444269930829,-0.295080853265,0.351118977796,0.0887319973742,0.933973889492,0.340033337516,-0.0647822155484
0.132312625647,-0.116117969155,-0.626236319542,-2.11397027969,-0.320499449968,2.04330396652,-1.0498445034,0.0413726270199,0.0282390750945,0.102098748088,0.0283982530236,-0.0555494464934,8.24401831778e-06,-0.0016100112116,-0.0599677748978,0.444487528984,-0.294275214508,0.349904261419,0.0882255733425,0.933459242194,0.341332885304,-0.066045079049
0.132563024759,-0.114367619157,-0.625962138176,-2.11492848396,-0.320499509573,2.0433049202,-1.05082976818,0.0413726270199,0.00512116355821,0.103041879833,0.0101424055174,-0.0575941391289,-8.49374919198e-05,-0.000542095571291,-0.0526456832886,0.44442844388,-0.293874809711,0.348755275702,0.0876850511075,0.933112987602,0.342186253313,-0.0672313313114
0.132419273257,-0.112510897219,-0.626014709473,-2.11598563194,-0.320503532887,2.04328370094,-1.05181956291,0.0413726270199,-0.0191474221647,0.0749044567347,-0.0125453686342,-0.0508602410555,-7.01053650118e-05,-0.0036265917588,-0.0459866933525,0.444126428547,-0.293776838391,0.347502501549,0.0870470004202,0.932882179259,0.342718780904,-0.0685382830268
0.131451353431,-0.110617443919,-0.626649200916,-2.11757850647,-0.320501506329,2.04322099686,-1.05317234993,0.0413726270199,-0.0487210713327,0.0606881715357,-0.0372949391603,-0.0493080802262,-6.8669745815e-05,-0.00553620047867,-0.0485199168324,0.44326393186,-0.294206726333,0.3459555753,0.086097785964,0.932818751447,0.342811154321,-0.070120327722
0.130647212267,-0.109714873135,-0.627275645733,-2.11831760406,-0.320503860712,2.04315590858,-1.05389511585,0.0413726270199,-0.058566827327,0.0516001731157,-0.0398692376912,-0.0396134145558,-0.0001009609623,-0.00323703559116,-0.0406722202897,0.442652529878,-0.294707630539,0.345213512537,0.0855977089955,0.932890294674,0.342579338492,-0.0709092859951
0.129527404904,-0.10912451148,-0.628124296665,-2.11908078194,-0.320505052805,2.04313802719,-1.0544770956,0.0413726270199,-0.065902389586,0.0229681618512,-0.0463743619621,-0.0369087979198,-0.0045023187995,-0.0041904556565,-0.0309033449739,0.441881273737,-0.295443585074,0.34458140841,0.0851106386657,0.933089486004,0.342024579904,-0.0715498198579
0.128347441554,-0.108852207661,-0.629135370255,-2.11972403526,-0.320506125689,2.04310774803,-1.05490374565,0.0413726270199,-0.072871118784,0.0107118431479,-0.066446557641,-0.0374137312174,-0.000236920197494,-0.000344059604686,-0.0260129347444,0.441066941047,-0.296296007888,0.344126679842,0.0846867176975,0.933368962759,0.341271576025,-0.0720017380789
0.126720175147,-0.108686901629,-0.630941331387,-2.12039923668,-0.320506006479,2.04302620888,-1.05541455746,0.0413726270199,-0.0766347870231,-0.00241407356225,-0.0830064192414,-0.0285304188728,0.000114138674689,-0.00538886757568,-0.0203449781984,0.439862540644,-0.297683040503,0.343665245316,0.0841553303771,0.933851834944,0.339979099094,-0.0724764969109
0.120578058064,-0.109147265553,-0.63660043478,-2.12080574036,-0.32050716877,2.04292082787,-1.05789768696,0.0414290986955,-0.097512498498,-0.0103803332895,-0.0866859704256,0.000716464710422,-2.47862641523e-09,0.000243782429607,-0.0319444872439,0.4361996399,-0.302766890516,0.343430427913,0.0832049415276,0.935454645232,0.33567744252,-0.0729534007989
0.118831656873,-0.109433948994,-0.638123571873,-2.12082362175,-0.3205075562,2.04292035103,-1.05844962597,0.0414290986955,-0.0954772233963,-0.0188119262457,-0.0799662992358,-0.00224317098036,-4.09051572205e-05,-0.000969916174654,-0.034629099071,0.435202749901,-0.30418638763,0.343476862256,0.0830103423487,0.935925880195,0.334408101,-0.0729606161991
0.117202267051,-0.109777569771,-0.639573514462,-2.12083506584,-0.320509284735,2.04291057587,-1.05894958973,0.0414290986955,-0.0972992256284,-0.020426210016,-0.0881147235632,0.000617154059,7.46588702896e-05,0.000293827295536,-0.0291893072426,0.434368474766,-0.305363072068,0.343539944626,0.0828534174484,0.93632214039,0.33334099246,-0.0729379398122
