imanlab/tactile_prediction_flat_dataset/test/data_sample_2021-11-25-13-15-31/robot_state.csv
position_panda_joint1,position_panda_joint2,position_panda_joint3,position_panda_joint4,position_panda_joint5,position_panda_joint6,position_panda_joint7,position_panda_finger,velocity_panda_joint1,velocity_panda_joint2,velocity_panda_joint3,velocity_panda_joint4,velocity_panda_joint5,velocity_panda_joint6,velocity_panda_joint7,ee_state_position_x,ee_state_position_y,ee_state_position_z,ee_state_orientation_x,ee_state_orientation_y,ee_state_orientation_z,ee_state_orientation_w
-0.107140496373,-0.0254581794143,0.105164334178,-2.58103990555,0.0461016856134,2.63353776932,-0.797440171242,0.0792452171445,-0.000238667489612,0.000476781249745,0.000828830467071,-0.000908556336071,8.22073125164e-05,2.20725341933e-05,1.43051402119e-05,0.460324009028,-7.11010635541e-06,0.165160669183,0.00533080631767,0.928624415396,0.368820990922,0.0399919238547
-0.10714264214,-0.0254563577473,0.105163559318,-2.58104109764,0.0461004562676,2.63355112076,-0.797407150269,0.0792452171445,0.000385264342185,-0.000960654520895,0.000418741634348,0.000233468570514,9.46257205214e-05,-0.000175758032128,8.5485240561e-05,0.460325945464,-8.60093188673e-06,0.165160772833,0.00533256074642,0.928630701794,0.368804628073,0.0399966183305
-0.107144713402,-0.0254574362189,0.105161473155,-2.58104372025,0.0461013838649,2.63355565071,-0.797387301922,0.0792452171445,-0.000771049177274,-0.000110383283754,0.000161955336807,6.76863492117e-05,0.00104158231989,-1.34199517561e-05,0.00180178915616,0.460325810361,-1.05470919615e-05,0.165160731813,0.00533268820486,0.928635232249,0.3687930586,0.0399980933861
-0.107145704329,-0.0254601202905,0.105161584914,-2.5810418129,0.0461015067995,2.63355970383,-0.797376513481,0.0792452171445,6.52573987736e-07,-0.000115940078103,0.000312645162921,0.000560381799005,-2.62712874246e-05,-5.09356505063e-05,0.00235208426602,0.460327913184,-1.10939334539e-05,0.165162994379,0.00533418674028,0.928637174808,0.368787730374,0.0400019202918
-0.107143230736,-0.0254570133984,0.105163745582,-2.58104252815,0.0461008660495,2.63357043266,-0.797357499599,0.0792452171445,-0.000221039721509,0.00112062052358,-0.000373018614482,-0.000387665262679,-2.15579602809e-05,0.00276726833545,0.000215926251258,0.460329440242,-8.99786425105e-06,0.165162542049,0.00533529582465,0.928639704354,0.368780985834,0.0400052282634
-0.107143238187,-0.0254533849657,0.105163238943,-2.58104348183,0.0461013540626,2.63357114792,-0.797352790833,0.0792452171445,0.000163147269632,-2.6125659133e-05,-0.000234034188907,-0.000762341893278,-9.64538339758e-05,8.05171439424e-05,-7.78339599492e-05,0.460328523346,-9.16058345038e-06,0.165160589193,0.00533421279545,0.928640824423,0.368778360645,0.0400035722525
-0.107141107321,-0.0254556946456,0.105164192617,-2.58104324341,0.04610151425,2.63357567787,-0.797344565392,0.0792452171445,0.000505001458805,-0.000330168550136,-0.000342607818311,0.000366662832676,4.42235577793e-05,0.00223113317043,-0.000312017044052,0.460329981407,-7.83111158938e-06,0.165162211302,0.00533546266921,0.928641673799,0.368775852311,0.0400068113998
-0.107141181827,-0.0254573170096,0.105164043605,-2.58103990555,0.0461016856134,2.63358163834,-0.797333598137,0.0792452171445,-0.000216066633584,0.000477775698528,5.94614430156e-05,-6.23581654509e-05,-4.40746807726e-05,0.000178649657755,5.02723705722e-05,0.460333179245,-7.9511230363e-06,0.165164653059,0.00533746470255,0.928643525201,0.368770612435,0.0400118689983
-0.107141554356,-0.0254567917436,0.105164200068,-2.58103942871,0.0461009852588,2.63358831406,-0.797328293324,0.0792452171445,0.000131677661557,0.00101923057809,0.000147456754348,-0.000100590004877,-9.62940248428e-05,-7.82554561738e-05,-3.26968875015e-05,0.460334686666,-8.20683805869e-06,0.165165507464,0.00533880529571,0.928644372096,0.368768140077,0.0400148207473
-0.107144027948,-0.0254544708878,0.105162151158,-2.58104085922,0.0461007617414,2.63359260559,-0.79731887579,0.0792452171445,-0.000253235368291,0.000782783783507,-0.000154057284817,-0.000174176660948,-5.88464317275e-08,4.95272106491e-05,1.87645764527e-05,0.460334511673,-1.02916678875e-05,0.16516434481,0.00533880500102,0.928646915626,0.368761705357,0.0400150922224
-0.107142694294,-0.0254492424428,0.105161726475,-2.58104085922,0.0461013652384,2.63359451294,-0.797312021255,0.0792452171445,-0.000300740764942,7.20397219993e-05,-8.5600753664e-05,0.000211831895285,2.56635976257e-05,6.26198452665e-05,0.000549478572793,0.460334814427,-1.00632243737e-05,0.165162461712,0.00533814371269,0.928648348578,0.368758159541,0.0400146018496
-0.10713969171,-0.0254572127014,0.105165809393,-2.58104348183,0.0461002700031,2.63360691071,-0.797294199467,0.0792452171445,0.000250007171417,-0.000548333046027,-0.000223857656238,0.000304353627143,-5.88965885981e-05,0.000144038858707,-1.85157568922e-05,0.460336715022,-6.84796163606e-06,0.16516608005,0.00534137277002,0.92864968649,0.368753980715,0.040021630516
-0.107146382332,-0.0254632309079,0.105162337422,-2.58104109764,0.046101834625,2.63361310959,-0.797286331654,0.0792452171445,-0.000372269918444,0.000137755647302,-0.000425510457717,0.00013774468971,-2.35440274992e-05,-5.28184900759e-05,0.000243366623181,0.460340218844,-1.1298013106e-05,0.165170487174,0.00534407468667,0.928652740138,0.368745524634,0.0400283255451
-0.107146427035,-0.0254611261189,0.105160944164,-2.58104252815,0.0461020246148,2.63362026215,-0.797277927399,0.0792452171445,-0.000300226092804,0.00108380580787,-5.17782245879e-05,-0.000702850869857,0.000727596867364,-0.000116903771413,0.000471870647743,0.460340656201,-1.23310137556e-05,0.165169643913,0.00534460838475,0.928654786516,0.368740169089,0.0400301139822
-0.107145242393,-0.0254528708756,0.105162262917,-2.58104228973,0.0461009256542,2.63364434242,-0.797243833542,0.0792452171445,3.82233374694e-05,-0.000375660340069,-0.000128370287712,-0.000231845362578,-0.00222043553367,0.000324274937157,0.000203426228836,0.460344605357,-1.1218385278e-05,0.165168593399,0.00534727371814,0.928660239935,0.368725557604,0.0400378356265
-0.107140652835,-0.0254555083811,0.105165757239,-2.58104038239,0.0461015403271,2.63366103172,-0.797221422195,0.0792452171445,-3.72702083951e-06,-0.000464799202746,0.000606909801718,0.000250130717177,-0.000154219364049,-5.94956054556e-06,-0.000314003322273,0.460349371415,-7.83766436064e-06,0.165172161636,0.00535081615248,0.928662598467,0.368718534687,0.0400473324579
-0.107139863074,-0.025455089286,0.10516603291,-2.58104228973,0.0461007617414,2.63368272781,-0.797204256058,0.0792452171445,-0.000353226088919,-0.000281444663415,-0.000276280392427,-0.000229300916544,0.000540833978448,0.00282423594035,0.00372064183466,0.460352957206,-7.60128383041e-06,0.165173504014,0.00535460212607,0.928665148558,0.368711101192,0.0400561310133
-0.107145123184,-0.0254533477128,0.105164624751,-2.58104324341,0.0461013205349,2.63375115395,-0.797175109386,0.0792452171445,-0.000408568972489,-0.000528335513081,-0.000128673724248,0.000312541378662,1.48534900291e-05,0.00435785343871,0.00012040148431,0.460367819493,-1.23973010694e-05,0.165180422738,0.00536854854469,0.928671429667,0.368691523125,0.0400888371763
-0.107146471739,-0.0254527237266,0.105162486434,-2.58104014397,0.0461007319391,2.63377952576,-0.797147333622,0.0792452171445,-0.000261216599029,8.83831307874e-05,0.000132270171889,8.45908434712e-05,0.000122390774777,9.14471820579e-05,0.00056833634153,0.460373928771,-1.31208574171e-05,0.165183381594,0.00537309565192,0.928675682057,0.368679518239,0.0401001236133
-0.107145749032,-0.0254550930113,0.105163432658,-2.58104205132,0.046101283282,2.63378715515,-0.797138035297,0.0792452171445,0.000293802149827,0.00198311544955,0.000513277656864,-7.35683570383e-05,-4.44391807832e-05,0.00126215524506,0.000438095303252,0.460375135389,-1.2623277757e-05,0.165184533784,0.0053745732437,0.928677333641,0.36867490185,0.0401041191611
-0.107142075896,-0.0254556983709,0.105165168643,-2.58104276657,0.0461011379957,2.63379812241,-0.797122359276,0.0792452171445,-0.000280684500467,-7.99458648544e-05,0.000100063669379,0.000496787659358,2.91583346552e-05,2.16798089241e-05,0.000462436117232,0.460377746515,-1.01994745479e-05,0.165186263162,0.00537674534232,0.928679234457,0.368669452777,0.0401099036499
-0.107143081725,-0.0254545882344,0.10516332835,-2.58103990555,0.0461019165814,2.63382434845,-0.797078847885,0.0792452171445,0.000174189714016,0.000756587774958,0.000276700389804,-0.000610657618381,5.36141342309e-05,2.88154060399e-05,3.0397926821e-05,0.460383951121,-1.18217633345e-05,0.165189025656,0.00538102522988,0.92868724272,0.368647890223,0.0401220948431
-0.107141412795,-0.0254555083811,0.105166010559,-2.58104157448,0.0461014807224,2.63383460045,-0.797061800957,0.0792452171445,0.000203996998607,0.000415557879023,0.000351928611053,2.6396526664e-05,0.000115549511975,2.56177536357e-05,2.297568426e-05,0.460385469242,-1.0652106609e-05,0.165189904977,0.00538285613669,0.928689427859,0.368641890424,0.0401263971895
-0.107141189277,-0.0254530608654,0.105164557695,-2.58103990555,0.0461013168097,2.63383674622,-0.79705876112,0.0792452171445,-0.000164532553754,-2.96975049423e-05,-0.00136520143133,7.83885989222e-05,5.36582920176e-05,0.00021133395785,-1.31137330754e-05,0.46038631391,-1.05158448875e-05,0.165189622733,0.0053828823111,0.928690110057,0.368640098002,0.0401270717714
-0.107141129673,-0.0254526920617,0.105164669454,-2.58104085922,0.046101693064,2.6338391304,-0.797052741051,0.0792452171445,-0.000100625533378,0.00076367816655,-0.00141302950215,-0.000493415747769,6.14367527305e-05,-0.000116251321742,0.000278072053334,0.460386293113,-1.04458313121e-05,0.165189335648,0.0053828915517,0.928691235466,0.368637204279,0.0401276083601
-0.107142269611,-0.0254530198872,0.105164542794,-2.58104228973,0.046101603657,2.63384366035,-0.797042191029,0.0792452171445,0.000152026623255,0.000704940583091,-5.34418068128e-05,-0.000102239260741,-4.72520659969e-05,-4.00142416765e-05,-0.000109789718408,0.460386447698,-1.11042865981e-05,0.165189076066,0.00538331317192,0.928693403434,0.36863159349,0.0401289212675
-0.10714007169,-0.0254573039711,0.105164855719,-2.58104085922,0.0461019799113,2.63385176659,-0.797030866146,0.0792452171445,-0.000180079310667,0.000624913314823,-0.000383102131309,-0.000283155706711,0.000118285235658,-0.000150594714796,0.00100595934782,0.46038973208,-1.00862874644e-05,0.165192769882,0.00538600467326,0.928694787636,0.368627350363,0.0401355032359
-0.107140928507,-0.0254579018801,0.105165794492,-2.5810418129,0.0461018271744,2.63385367393,-0.797028303146,0.0792452171445,4.50455045211e-05,-0.000178179034265,-6.37794291833e-05,0.000123358870042,4.25813268521e-05,0.000178917864105,5.82408210903e-06,0.460389770838,-1.00888362572e-05,0.165192873989,0.00538634920818,0.928695198383,0.36862623667,0.0401361815028
-0.107141420245,-0.0254526883364,0.105166494846,-2.58104133606,0.0461012460291,2.63386154175,-0.797012865543,0.0792452171445,0.000243590708124,0.00365843717009,0.000358412449714,-0.000641680380795,0.000567963288631,0.000166257872479,-1.53976761794e-05,0.460390793567,-1.00055003209e-05,0.165191494113,0.00538665603351,0.928697885438,0.368619300645,0.0401376680444
-0.107139237225,-0.0254543013871,0.10516564548,-2.58104133606,0.0461018905044,2.63386416435,-0.797009885311,0.0792452171445,-5.65479922443e-06,0.000821553461719,-0.00361506454647,0.000802933063824,0.000233206592384,0.000221957452595,-0.000135505499202,0.460391617852,-9.42634843644e-06,0.16519250862,0.00538731455388,0.928698214281,0.368618245668,0.0401396596597
-0.107142105699,-0.0254541151226,0.105167031288,-2.58104157448,0.0461015664041,2.63386750221,-0.797004044056,0.0792452171445,0.00389995006844,0.000872020376846,0.00213956017978,4.16856673837e-05,-8.82025487954e-05,4.88331425004e-05,0.0004240226408,0.460392174987,-1.01577955352e-05,0.165192678924,0.00538791141968,0.928699469397,0.368614933116,0.0401409606364
-0.107142947614,-0.0254555922002,0.105164401233,-2.58104085922,0.0461015105247,2.63386845589,-0.796997308731,0.0792452171445,0.00187801127322,-0.000457771442598,-0.000150524574565,0.000400922464905,-0.000494268722832,-9.36432697927e-05,-0.000447563419584,0.460392971439,-1.17832517291e-05,0.165193734214,0.00538850008086,0.928701282055,0.368610200945,0.0401423992699
-0.107141703367,-0.025453960523,0.105165816844,-2.58104038239,0.0461017303169,2.633872509,-0.796996712685,0.0792452171445,-0.000259372987784,-0.000144034987898,-0.00167979695834,-0.000676776864566,0.00562939187512,6.67020212859e-05,0.000144298348459,0.460393786645,-1.05734204055e-05,0.165193594136,0.00538893043486,0.928700894375,0.368611021951,0.0401437715776
-0.107141934335,-0.02545462735,0.105165220797,-2.58104109764,0.046101283282,2.63387346268,-0.796991467476,0.0792452171445,0.000428988278145,0.000437687558588,-0.000433928187704,-0.000205763848498,-9.31472168304e-05,-6.85788336341e-06,0.00226339465007,0.460393751613,-1.0987194271e-05,0.165193723663,0.00538915882886,0.928701930198,0.36860836878,0.0401441398291
-0.107143908739,-0.0254562739283,0.105163194239,-2.58104085922,0.0461020618677,2.63387441635,-0.796991169453,0.0792452171445,-0.00176297826692,-0.00191813637502,-0.00057817104971,-0.000429004488979,0.00398944364861,0.0012697763741,0.000245998729952,0.460394345411,-1.28372678002e-05,0.165194672335,0.00538964549926,0.92870278964,0.3686060488,0.040145494244
-0.107141755521,-0.0254564080387,0.105166189373,-2.58104014397,0.0461017601192,2.63387656212,-0.796987354755,0.0792452171445,0.00330312456936,0.000290063559078,0.00132926355582,0.00038954539923,-7.94380030129e-05,-6.94792652212e-06,5.87169306527e-05,0.460395166837,-1.05149103282e-05,0.165195230504,0.00539017151869,0.928702445547,0.36860676143,0.0401468404465
-0.107140809298,-0.0254523623735,0.105166554451,-2.58104228973,0.0461020767689,2.63387918472,-0.7969840765,0.0792452171445,-0.00423526251689,0.000315987126669,0.000526743358932,0.000598530110437,-4.27338090958e-05,1.65710043802e-05,9.63282654993e-05,0.460394003653,-9.85964549321e-06,0.165192824884,0.00538920133499,0.92870294136,0.368605694648,0.0401452957954
-0.107146508992,-0.0254530590028,0.105162538588,-2.58104038239,0.0461019575596,2.63388037682,-0.796977221966,0.0792452171445,-0.00036044899025,-0.000251842400758,-0.000123229168821,0.000307305686874,5.26268449903e-05,0.00140971865039,0.00173386454117,0.460395299838,-1.43439442355e-05,0.165194009634,0.005389999939,0.928705904222,0.368598028334,0.0401470367097
-0.107144802809,-0.025454858318,0.105164535344,-2.58104348183,0.0461017079651,2.63388061523,-0.79697817564,0.0792452171445,0.000476262939628,-0.000257941050222,-0.000377828604542,-0.000166358047863,-3.03090610032e-06,-8.18693370093e-05,-4.43595854449e-05,0.460394143563,-1.26903383298e-05,0.165193659451,0.00538992056164,0.928705030943,0.368600291167,0.0401464729867
-0.107137799263,-0.0254557598382,0.105167843401,-2.58104228973,0.0461015477777,2.63388204575,-0.796974897385,0.0792452171445,0.0027922752779,0.00360055733472,-0.000304044398945,3.48455796484e-05,9.3576945801e-06,-0.000166419893503,-0.000215739797568,0.460395173658,-7.99396025746e-06,0.165194677728,0.00539044492072,0.928703644413,0.368603602072,0.0401480781623
-0.107142947614,-0.0254529807717,0.10516346246,-2.58104300499,0.0461028032005,2.63388442993,-0.796967446804,0.0792452171445,0.000212337181438,-0.00286048627459,0.000154643581482,0.000326016976032,0.00202545896173,-2.45406681643e-05,-2.91767519229e-05,0.460394871863,-1.23324725095e-05,0.165193278915,0.00538984783246,0.928706971556,0.368595266216,0.0401477263435
-0.107146434486,-0.0254539810121,0.105162128806,-2.58103990555,0.0461021773517,2.63388609886,-0.796963691711,0.0792445614934,-7.33156193746e-05,0.000859945721459,-0.00019474120927,9.93452849798e-05,-9.64953869698e-05,-0.00010241245036,-0.00060335744638,0.460396894435,-1.4569119002e-05,0.165195215591,0.00539114429228,0.928708373862,0.36859142965,0.0401503369212
-0.107142157853,-0.0254521220922,0.105166487396,-2.58104300499,0.0461016558111,2.63388705254,-0.796963512897,0.0792445614934,0.00290397834033,-0.000267493072897,0.000215547755943,-0.000488143035909,4.51164742117e-05,0.00011277791782,0.000100242767076,0.460395279138,-1.0542639302e-05,0.165193266837,0.00539031350345,0.928706846314,0.368595494329,0.0401484666406
-0.107135370374,-0.0254551135004,0.10517064482,-2.58104157448,0.0461021065712,2.63388967514,-0.796953856945,0.0792445614934,0.000225902520469,0.000592176802456,-0.00316404970363,0.000418476789491,-0.000107180479972,-2.76454466075e-05,0.00444953236729,0.460397024279,-5.65353652776e-06,0.165195453722,0.00539134840747,0.928706521578,0.368595943367,0.0401517167569
-0.107137769461,-0.0254522562027,0.105170078576,-2.58104157448,0.0461017861962,2.63388991356,-0.796949565411,0.0792445614934,-5.19026325492e-05,0.000596377300099,-0.000123381163576,0.000280226144241,5.24451170349e-05,0.000110265049443,3.49443944287e-05,0.460396597778,-6.97707676914e-06,0.165194171233,0.0053907751346,0.92870786337,0.368592699475,0.0401505371879
-0.107144013047,-0.0254527237266,0.105165928602,-2.58104157448,0.0461018830538,2.63389110565,-0.796947956085,0.0792445614934,0.000139677198604,-0.000696674804203,-0.00014486409782,8.42873123474e-06,-0.000108901927888,-6.88037835062e-05,0.000122133627883,0.460396929502,-1.17625624748e-05,0.165194515348,0.00539123284234,0.92871006177,0.368587070696,0.0401512985586
-0.107142195106,-0.0254550464451,0.105166271329,-2.58104276657,0.0461022146046,2.63389348984,-0.796944141388,0.0792445614934,-0.000235900646658,4.421759877e-05,0.000507671386003,0.000313488126267,5.02129114466e-05,0.000104958322481,-0.000566029979382,0.460397241802,-1.08273295596e-05,0.165195368012,0.00539184231248,0.92871035744,0.368586141504,0.0401529076901
-0.107142239809,-0.0254538953304,0.105167321861,-2.58103990555,0.0461016893387,2.6338956356,-0.796940505505,0.0792445614934,0.000186783247045,0.00070512201637,0.00068250001641,-0.000150611565914,-0.00257565733045,0.000143160155858,-0.000156788009917,0.460398891758,-1.03870339682e-05,0.165196168248,0.0053925846577,0.928710690981,0.368585099473,0.0401546587427
-0.107142388821,-0.0254544522613,0.105168201029,-2.58103966713,0.0461017116904,2.63389515877,-0.796939134598,0.0792445614934,0.00126424257178,4.08892556152e-05,7.19672834748e-06,0.000124810918351,-0.000278584164334,5.39961656614e-05,0.000673591217492,0.460398999408,-1.00588406729e-05,0.165196464177,0.0053926239235,0.928710803998,0.368584798676,0.0401548006334
-0.107140518725,-0.025455089286,0.105168312788,-2.58104085922,0.0461019910872,2.63389706612,-0.796939373016,0.0792445614934,-9.71826375462e-05,0.00067380128894,0.000162852666108,9.9725475593e-05,2.74266876659e-05,-1.3606473658e-05,0.000231292229728,0.460398929777,-9.170991137e-06,0.165196495521,0.00539283869829,0.928710419309,0.368585696057,0.0401554317965
-0.107140175998,-0.0254547186196,0.105167843401,-2.58104372025,0.046100590378,2.63390016556,-0.796935319901,0.0792445614934,-0.00134960375726,-0.000348364555975,-0.000153776549269,-0.000151898013428,-1.11425924842e-05,0.000156329158926,0.000148081904626,0.460398131317,-9.29601912872e-06,0.165195545945,0.00539310397708,0.928710989407,0.368584278084,0.0401552265221
-0.107141911983,-0.0254566259682,0.105167537928,-2.58104109764,0.0461018458009,2.6339006424,-0.796934008598,0.0792445614934,-0.000562911445741,-0.0034244346898,0.000442836404545,0.000582414621022,2.29995875998e-05,7.53882413846e-05,0.000212641229155,0.460399825914,-1.02367737068e-05,0.165197482339,0.00539384142198,0.928711701646,0.368582210727,0.0401576308999
-0.107141360641,-0.0254559516907,0.105168357491,-2.58104252815,0.0461019538343,2.63390398026,-0.796933233738,0.0792445614934,7.46051009628e-05,-0.000230777295656,-0.000243451984716,0.000112504108984,-0.000432778819231,5.10082645633e-05,0.000361006939784,0.460399723316,-9.63050255471e-06,0.165196970219,0.00539403841096,0.928711598392,0.368582405547,0.0401582042212
-0.107141271234,-0.0254548657686,0.105167768896,-2.58104085922,0.0461020953953,2.633903265,-0.796930789948,0.0792445614934,0.000225495794439,0.000404309976147,0.000394827133277,-1.92027946468e-05,0.00046661219676,-6.16381148575e-05,0.000316099671181,0.460400202236,-9.82615911572e-06,0.165197043132,0.00539386956038,0.928712161737,0.368580989538,0.0401581952814
-0.107140280306,-0.0254524536431,0.105169825256,-2.58104109764,0.0461028255522,2.63390493393,-0.796930611134,0.0792445614934,0.000106684281491,1.15076245493e-05,-0.000300564221106,0.000454825465567,0.000128699932247,-2.56061102846e-05,-0.000172290601768,0.460400036462,-8.38564032918e-06,0.165196019639,0.00539338653206,0.928711773476,0.368582012464,0.0401578505456
-0.107139863074,-0.0254553966224,0.105167455971,-2.58104157448,0.0461022146046,2.63390493393,-0.796927571297,0.0792458802462,0.000174888511538,-0.000260463537415,-1.06646530185e-05,-8.0992022049e-06,-0.000105104249087,-3.58614779543e-05,-0.000381246558391,0.460400516228,-9.60999021483e-06,0.165196771861,0.0053941235984,0.928712413582,0.368580271113,0.0401589307623
-0.107141166925,-0.0254540797323,0.105168104172,-2.58104133606,0.0461013354361,2.63390851021,-0.796925783157,0.0792458802462,0.000452918320661,2.96146990877e-05,0.000205498072319,0.000136507456773,-8.06627213024e-06,6.00330167799e-05,0.000137150724186,0.460400946338,-9.69097522404e-06,0.165197047668,0.00539474096941,0.928712827668,0.36857910699,0.0401599560538
-0.107142627239,-0.025455892086,0.105166934431,-2.58104085922,0.0461020842195,2.63391113281,-0.796924650669,0.0792458802462,-0.00266117067076,0.00138035893906,-0.000168055164977,9.80265758699e-05,0.000154931636644,2.84827074211e-05,0.000528838194441,0.460402035724,-1.09357745622e-05,0.165198337946,0.00539562219092,0.928713548669,0.368577026999,0.0401622538298
-0.107141688466,-0.0254552476108,0.105168431997,-2.58104157448,0.0461032129824,2.63391256332,-0.796924352646,0.0792458802462,0.00418428005651,-0.000450803665444,-0.00064740673406,6.23126907158e-05,1.04680229924e-05,-0.000198727764655,3.20778890455e-05,0.460401879754,-9.54455328072e-06,0.165198017393,0.00539538446978,0.928713217299,0.368577830649,0.0401625731131
-0.107140302658,-0.0254518762231,0.105169124901,-2.58104300499,0.0461043678224,2.63391757011,-0.796915948391,0.0755081325769,0.000662832288072,-0.000715545553248,5.94382945565e-05,-0.00235923728906,-0.000804137554951,6.44611282041e-05,-8.99396691239e-05,0.460401684845,-8.79767717833e-06,0.165196344487,0.00539481092902,0.928714697064,0.36857409936,0.0401626746698
-0.107140466571,-0.0254518706352,0.105167895555,-2.58104109764,0.046105120331,2.63392090797,-0.796913206577,0.0755081325769,-0.000106040766696,-0.000877661688719,-0.00357723771594,2.7215699447e-05,-5.37003070349e-05,-5.6287204643e-05,0.000199503367185,0.460403316978,-9.44780468558e-06,0.165197429635,0.00539562034624,0.92871548324,0.368571834891,0.0401651675016
-0.107140086591,-0.0254530515522,0.105168558657,-2.58104014397,0.046104375273,2.63392114639,-0.796913325787,0.0755081325769,0.000138137169415,-0.000474611966638,0.000187070676475,0.000298412225675,-5.93764480072e-06,-9.54169900069e-06,0.000345472246408,0.460404026462,-9.01622768736e-06,0.165198361901,0.00539628769985,0.928715106255,0.368572666449,0.0401661639188
-0.107139132917,-0.025453556329,0.105168588459,-2.58104038239,0.0461043119431,2.63392281532,-0.796913027763,0.0755081325769,-4.59459079138e-05,-0.000644825166091,-0.000809972872958,0.00120959826745,1.26047825688e-05,1.73775169969e-05,0.000112803209049,0.460404316995,-8.82434768755e-06,0.165198705461,0.00539677675958,0.928715056625,0.368572680842,0.0401671136728
-0.10714212805,-0.02545549348,0.105167686939,-2.5810406208,0.0461041741073,2.63392543793,-0.796911299229,0.0755081325769,0.000274856109172,-3.96886207454e-05,0.000344452331774,-8.96893398021e-05,0.000101237885247,-0.000179245675099,0.000447273894679,0.46040510885,-1.04503543094e-05,0.165199746114,0.00539769675755,0.928715877186,0.368570398216,0.0401689628315
-0.107141509652,-0.025452716276,0.105167225003,-2.58104157448,0.046103540808,2.63392782211,-0.796907305717,0.0755081325769,0.00060308794491,0.00048036192311,-0.00018718688807,-0.000229194920394,1.76779485628e-05,8.87427358975e-06,0.000197433138965,0.460404685284,-1.03712825827e-05,0.165198356603,0.0053974211912,0.928716523947,0.368568841445,0.040168330716
-0.107140861452,-0.0254531651735,0.105170197785,-2.58104157448,0.0461045913398,2.63393068314,-0.796907067299,0.0755081325769,-0.000104716462374,0.000781383307185,0.0035765459761,-0.000421835109591,6.14434247836e-05,7.11214379407e-05,2.99390339933e-05,0.460405364436,-8.72555067905e-06,0.165198858713,0.00539781184692,0.92871600876,0.368569959166,0.0401699338525
-0.107139192522,-0.0254543013871,0.105171121657,-2.5810418129,0.0461042225361,2.63393139839,-0.79690694809,0.0755081325769,0.000124424434034,-0.000164253098774,0.000977878342383,-3.56003947672e-05,-4.7026820539e-05,-4.63309297629e-05,0.000292971933959,0.46040558842,-7.57498534704e-06,0.165199360324,0.00539822194343,0.928715466267,0.368571245735,0.0401706163513
-0.107140935957,-0.0254563428462,0.105169706047,-2.58104133606,0.0461045391858,2.63393115997,-0.796906173229,0.0755081325769,4.6885212214e-05,-0.000579725077841,-0.000534730614163,-5.93570985075e-05,5.35482613486e-05,-7.50061008148e-05,-0.000110449509521,0.460406111291,-9.04785215146e-06,0.165200455879,0.0053986933346,0.92871619287,0.368569293646,0.0401716650996
-0.107140421867,-0.025452926755,0.10517065227,-2.58104157448,0.0461043342948,2.63393521309,-0.796903073788,0.0696243941784,0.00170480331872,-0.000941169855651,0.000211536796996,6.95725520927e-06,-6.88759319019e-05,-2.07462767321e-06,-7.83742580097e-05,0.460406280999,-8.36876325609e-06,0.165199223257,0.00539864577389,0.928716472617,0.368568565993,0.0401718802075
-0.107140891254,-0.0254496708512,0.105168901384,-2.58104348183,0.0461042448878,2.63393497467,-0.796901583672,0.0696243941784,0.00013301637955,0.00183175515849,0.000365157960914,0.00022710817575,0.000139342926559,0.000172527594259,-3.36065677402e-05,0.460404761534,-9.32501197692e-06,0.16519697388,0.00539750225429,0.928717251472,0.368566885415,0.0401694466933
-0.107142239809,-0.0254537910223,0.105166941881,-2.58104109764,0.0461034625769,2.63393592834,-0.796901583672,0.0696243941784,0.000265850248979,0.000993230030872,0.00231175799854,6.72471651342e-05,-3.92141046177e-05,-7.53033891669e-05,-0.000184523727512,0.460406808514,-1.0946779153e-05,0.165199881887,0.00539932879388,0.928717591988,0.36856564247,0.0401727327434
-0.10714147985,-0.0254550110549,0.105168603361,-2.58104252815,0.0461030639708,2.63393688202,-0.796900987625,0.0696243941784,6.54231771477e-05,0.000544403505046,9.55117793637e-05,9.62623162195e-05,-1.60550098371e-05,-2.61686582235e-05,7.53844506107e-05,0.460406517372,-9.88340739233e-06,0.165199985832,0.00539959544941,0.928717183399,0.368566638847,0.0401730014078
-0.107136785984,-0.0254559610039,0.105171673,-2.5810418129,0.0461030974984,2.63393878937,-0.796898722649,0.0696243941784,-0.000175217879587,-0.0004497160553,-5.07452496095e-05,0.00250063231215,-4.72835563414e-05,6.85510822223e-05,5.44647446077e-05,0.460407424902,-6.35939912712e-06,0.165200892665,0.00540016197077,0.928716111015,0.368569154584,0.0401746358414
-0.107141971588,-0.0254524629563,0.105167984962,-2.58104276657,0.0461044758558,2.63393950462,-0.796898603439,0.0696243941784,-0.00010845586803,-0.000555089442059,0.00010457807366,-7.25552163203e-05,-1.05810886453e-05,-0.000228969292948,-0.00027602026239,0.460406532352,-1.03330840061e-05,0.16519900378,0.00539912053028,0.928718060772,0.368564423001,0.0401731113547
-0.107140704989,-0.0254500415176,0.105169683695,-2.58104300499,0.0461041070521,2.63393950462,-0.796896696091,0.0696243941784,0.000101595331216,0.000798351655249,-0.000401644443627,-2.24464347411e-05,-3.51448284164e-06,9.06295681489e-05,-0.00028622476384,0.460406011352,-8.9427456868e-06,0.165197800936,0.00539852200932,0.928717862692,0.368565063338,0.0401718962434
-0.107140697539,-0.0254548471421,0.105170227587,-2.5810406208,0.046103939414,2.63394093513,-0.796896219254,0.0696243941784,0.00029032342718,0.000399670156185,0.00057153927628,-7.39857932786e-05,0.000131248831167,-5.13101258548e-05,-0.000261875364231,0.460408273035,-8.79798247071e-06,0.165201069951,0.00540039903793,0.92871765372,0.368565141048,0.0401757619327
-0.107139661908,-0.0254533626139,0.105169445276,-2.58104109764,0.046104516834,2.63394594193,-0.796891629696,0.0696243941784,-0.000410913402447,0.000129785286845,-0.000122027631733,-0.00057933840435,-3.12923475576e-05,4.32565211668e-05,3.33081261488e-05,0.460408852333,-8.68900536118e-06,0.165200732102,0.00540073860387,0.92871850219,0.368562836349,0.0401772455368
-0.10714135319,-0.0254524387419,0.105170585215,-2.58104205132,0.0461039617658,2.63394570351,-0.796891450882,0.0696243941784,0.000117605944979,-9.11709284992e-05,2.6866542612e-05,-0.000892661744729,-0.00014601003204,-7.58705718908e-05,0.000183080366696,0.460408183368,-8.94511758728e-06,0.165199914356,0.0054004515961,0.928718592935,0.368562723472,0.0401762219613
-0.107140265405,-0.0254543218762,0.105170704424,-2.5810406208,0.0461047068238,2.63394904137,-0.796889364719,0.0696243941784,0.000363438302884,0.000133163281134,0.000186336488696,8.48379204399e-05,4.69480473839e-05,-0.000136031914735,0.000119657350297,0.460410005007,-8.2529151908e-06,0.165201971591,0.00540180103878,0.928718501554,0.36856256751,0.0401795835246
-0.107139222324,-0.0254539232701,0.105171382427,-2.58104133606,0.0461048260331,2.63394808769,-0.796888709068,0.0684220418334,0.000117989009595,-0.000407369952882,-9.7306787211e-05,0.00011605470354,-4.84592055727e-05,-4.6977907914e-05,-0.000185276890988,0.460409282796,-7.62765854715e-06,0.165201119257,0.00540110262931,0.928718609702,0.368562434682,0.0401783960515
-0.10714097321,-0.025451593101,0.10517013073,-2.5810406208,0.0461045689881,2.63394999504,-0.79688847065,0.0684220418334,-6.40463767922e-05,0.000265725539066,-5.58039100724e-05,0.000207594057429,8.63701716298e-05,4.4842114022e-08,-0.00101935758721,0.460409644617,-8.99116923221e-06,0.165200529775,0.00540118315879,0.928719169089,0.368561007979,0.0401785423808
-0.107141725719,-0.0254520196468,0.105170927942,-2.58104205132,0.0461034290493,2.63395094872,-0.796886444092,0.0684220418334,0.000182821371709,-0.000611097901128,-0.000320817664033,-1.6788198991e-05,-5.21488691447e-05,-1.10517376015e-05,0.000397231779061,0.460409220575,-9.02591301518e-06,0.165200271071,0.00540145176893,0.928719363255,0.368560531614,0.0401783878903
-0.10714058578,-0.0254552327096,0.105169817805,-2.58104109764,0.0461049191654,2.63395190239,-0.796886265278,0.0670312196016,-0.000372800714104,0.0005208698567,0.000300032523228,0.000157467904501,-4.78582551295e-05,4.45528130513e-05,-0.000279827829218,0.460410423638,-9.03134523056e-06,0.16520221225,0.00540219707516,0.928719521619,0.368559853912,0.0401808436735
-0.107140876353,-0.0254567544907,0.105170845985,-2.58104014397,0.0461039319634,2.63395404816,-0.796887755394,0.0670312196016,0.000332439085469,-0.000341986538842,-0.000298868690152,-0.000248915632255,4.08438645536e-05,5.75634339839e-06,-0.000112317720777,0.460411592399,-8.77612555828e-06,0.165203499719,0.00540342731201,0.9287188734,0.368561252741,0.0401828299896
-0.10713852942,-0.0254548434168,0.105171136558,-2.58104085922,0.0461030565202,2.63395452499,-0.796883642673,0.0670312196016,-8.96645287867e-05,0.000616901146714,-0.000253067730227,-3.04646437144e-05,0.00010251961794,-0.00015615655866,-0.00162072095554,0.460411025669,-7.55987743173e-06,0.165202397829,0.00540302399858,0.928719055432,0.368560912367,0.040181798972
-0.107139036059,-0.0254554133862,0.105170190334,-2.58104205132,0.0461044572294,2.63395547867,-0.796880841255,0.0670312196016,0.00013024022337,-0.000186117627891,-2.33422524616e-05,-2.10761263588e-05,-9.02780520846e-05,3.91039575334e-05,-0.000262717861915,0.460410745195,-8.20400270027e-06,0.16520230069,0.00540275682306,0.928720054199,0.368558368456,0.0401820839673
-0.107140213251,-0.0254554897547,0.105171479285,-2.58104109764,0.0461040921509,2.63395524025,-0.796880245209,0.0670312196016,1.91554136109e-06,0.000217975175474,0.000147238373756,0.00043858049321,-6.66321066092e-05,-1.25985843624e-05,3.54214716936e-05,0.460411169831,-8.16769961281e-06,0.165202676872,0.00540299040106,0.928720069551,0.368558290937,0.0401824087486
-0.107138425112,-0.0254551768303,0.105170026422,-2.58103942871,0.0461033880711,2.63395690918,-0.796878457069,0.0670312196016,-3.14598728437e-05,0.000256748055108,0.000602127227467,2.66595561698e-05,-9.97934403131e-05,0.00011278999591,-0.000267734663794,0.460412280704,-8.04027312971e-06,0.165203353866,0.00540367536857,0.928720173421,0.368557872972,0.0401837495418
-0.107141084969,-0.0254548899829,0.105170473456,-2.58104157448,0.0461049154401,2.63395857811,-0.796877980232,0.0670312196016,-2.52573545367e-06,0.00033224755316,0.00012667842384,5.64848123759e-05,-4.90747515869e-05,-0.000130458123749,8.19874403533e-05,0.460411544592,-9.02918200287e-06,0.165202569698,0.00540322482793,0.928720929121,0.368555998588,0.0401835359626
-0.107137151062,-0.0254532750696,0.105170309544,-2.5810418129,0.0461035296321,2.63396024704,-0.796876132488,0.0670312196016,0.00040149470442,-0.000872403965332,0.00084136769874,0.000193021420273,-6.92541434546e-05,1.28124274852e-05,0.00569840101525,0.460411510316,-7.32291373222e-06,0.16520191249,0.00540336094134,0.928720371096,0.368557423126,0.0401833491032
-0.107137531042,-0.0254512447864,0.105172045529,-2.58104085922,0.0461031980813,2.63396048546,-0.796877920628,0.0670312196016,7.11111279088e-05,0.00086305354489,0.000715653703082,0.000240217486862,-1.22216060845e-05,-6.26065666438e-05,1.65755718626e-05,0.460411684051,-6.68213176679e-06,0.16520137371,0.0054032207723,0.928719758094,0.368559012506,0.0401829580325
-0.107141338289,-0.0254542976618,0.105170920491,-2.58104133606,0.0461037866771,2.63396143913,-0.796876132488,0.0670312196016,-0.000336902652634,-0.000554118771106,-0.0028399436269,0.000441361829871,0.000137181719765,-1.66160352819e-05,0.000228941513342,0.460412164357,-8.99592780709e-06,0.165202688897,0.0054039469155,0.928721020404,0.368555644248,0.0401845790725
-0.107139006257,-0.0254528559744,0.105171963573,-2.58104133606,0.0461045540869,2.63396120071,-0.796877801418,0.0670312196016,0.000495873217005,0.000679153425153,-0.000350204965798,0.000218724351726,0.000166529367561,5.58847204957e-05,-0.00401170598343,0.460411873941,-7.39543757485e-06,0.165202003171,0.00540335645257,0.928720242898,0.368557685175,0.0401839091338
-0.107140861452,-0.0254554338753,0.105171851814,-2.58104228973,0.046104054898,2.63396430016,-0.796875238419,0.0670312196016,-0.000118457457575,-0.000283888133708,0.000193059226149,7.52384512452e-05,8.85084446054e-05,-0.000129787629703,3.26670924551e-05,0.460412494862,-8.39549794643e-06,0.16520313964,0.00540451659728,0.92872091818,0.368555741584,0.0401859722461
-0.107140824199,-0.0254518371075,0.1051723212,-2.58104133606,0.0461050421,2.63396477699,-0.796872437,0.0670384466648,0.000347384193446,-0.000116575036373,-0.000170313534909,4.26131846325e-05,0.000107809522888,-0.00012385181617,2.44544862653e-05,0.46041245976,-8.0757733678e-06,0.165201911213,0.00540365498989,0.928721539706,0.368554277834,0.0401851486582
-0.107139244676,-0.0254550203681,0.105172470212,-2.58104157448,0.0461036898196,2.63396453857,-0.796872437,0.0670384466648,-0.000138566072565,0.000191972969333,0.0039456775412,-6.94816044415e-05,1.01417044789e-05,1.11819908852e-05,6.40749494778e-05,0.460412822992,-7.37503685614e-06,0.165203250341,0.00540459436087,0.928720955821,0.368555620414,0.0401862031618
-0.107141219079,-0.0254546478391,0.105169162154,-2.58104109764,0.0461037829518,2.63396501541,-0.796872973442,0.0670384466648,-0.000251874735113,-0.000204555137316,4.5495959057e-05,-0.00390645116568,0.000124856902403,-4.93516054121e-05,0.00128671783023,0.460413094776,-9.78836302638e-06,0.165203317986,0.00540475022426,0.928721834798,0.368553371841,0.0401864906733
-0.107139065862,-0.0254542715847,0.105172090232,-2.58104085922,0.0461049601436,2.63396573067,-0.796871960163,0.0670384466648,0.000363292230759,-0.000829707249068,6.92528265063e-05,0.000160499985213,6.39100471744e-05,0.00312733254395,-0.000176557921804,0.460413299014,-7.42804081682e-06,0.1652033098,0.00540448084142,0.928721259012,0.368554784307,0.0401868796339
-0.107138164341,-0.0254532080144,0.10517052561,-2.58104085922,0.0461041592062,2.63396692276,-0.796869337559,0.0670384466648,-1.05650278783e-05,0.000624421518296,0.000119284566608,0.000222413684241,8.35052051116e-05,-4.92471699545e-05,-5.10595746164e-05,0.460413373124,-7.74406154692e-06,0.165202949203,0.00540461026761,0.928721742807,0.36855356248,0.0401868870865
-0.10713840276,-0.0254564583302,0.105171971023,-2.5810406208,0.0461034812033,2.6339662075,-0.796870291233,0.0670384466648,-0.000164680022863,7.47562080505e-05,-8.50319411256e-05,0.000324547087075,-2.33870541706e-05,1.76543453563e-05,0.000279955740552,0.460413878668,-7.26519930236e-06,0.165204451946,0.00540543941311,0.928721180282,0.368554843048,0.0401880314302
-0.10714147985,-0.0254550017416,0.105170935392,-2.58104276657,0.0461051054299,2.63396906853,-0.796867907047,0.0632521063089,-0.000483381765662,0.000301274703816,-0.00036822722177,0.000103615464468,-4.7665238526e-05,1.47472092067e-05,-9.62032718235e-05,0.460413355399,-9.19534526805e-06,0.16520346066,0.00540510778992,0.928722610179,0.368551243352,0.0401880437361
-0.107140563428,-0.0254503097385,0.105173029006,-2.58104038239,0.0461047515273,2.63396978378,-0.796867907047,0.0632521063089,0.000341038656188,-0.00041714910185,1.17101317301e-05,-0.000534355873242,-3.59511477654e-06,-0.000117096271424,0.000722131866496,0.460413725108,-7.66880543253e-06,0.165202103398,0.00540446079064,0.928722082314,0.368552676962,0.0401871822029
-0.107139386237,-0.0254533626139,0.105173125863,-2.58104157448,0.0461055412889,2.6339700222,-0.796864748001,0.0632521063089,-0.000206046999665,8.26072719065e-05,0.000326933019096,-7.23371849745e-05,5.43426540389e-05,0.000131812892505,-0.000118380274216,0.460413782454,-6.44897476768e-06,0.1652033889,0.00540537532611,0.928721720682,0.368553407038,0.040188720998
-0.107138827443,-0.0254529602826,0.105174317956,-2.58104133606,0.0461054630578,2.63397121429,-0.796865999699,0.0632521063089,-0.00111993739847,-0.000719823059626,6.98171716067e-05,-0.000228597928071,1.54164899868e-05,0.000169053804711,-2.13541170524e-05,0.460414006473,-6.3240019846e-06,0.165203097388,0.00540493734573,0.928721929758,0.368552895253,0.0401886417268
-0.107139542699,-0.0254556201398,0.105172216892,-2.58104252815,0.0461051948369,2.63397264481,-0.796861886978,0.0632521063089,0.00023218349088,-0.000210362792131,-7.33962224331e-05,-0.000203387651709,6.21140716248e-05,0.000118635878607,0.000682621786837,0.460414173908,-7.68279829529e-06,0.165204007214,0.00540564137303,0.928723112728,0.368549766078,0.0401899058774
-0.107137553394,-0.0254549216479,0.105175465345,-2.58104038239,0.0461034029722,2.63397479057,-0.796861827374,0.0632521063089,0.000381986756111,0.000255133258179,-4.25709913543e-05,-0.000190463048057,-5.30820871063e-05,3.73181501345e-05,-0.000156996247824,0.460415549394,-5.34923098707e-06,0.165204735064,0.0054066712987,0.928721816664,0.368552855573,0.0401913857658
-0.107139036059,-0.0254505164921,0.105173237622,-2.58104109764,0.0461039319634,2.63397574425,-0.796861886978,0.0632521063089,6.60609148326e-05,-0.000817921885755,-0.000191175597138,0.000207969569601,8.38382766233e-05,2.91850446956e-05,0.00016528951528,0.460414670069,-6.96357264277e-06,0.165202545482,0.0054056309441,0.928722660072,0.368550940404,0.0401895985931
-0.107139214873,-0.0254525989294,0.105170875788,-2.58104300499,0.0461036749184,2.63397526741,-0.796859204769,0.0632521063089,-8.57228405948e-06,0.00105076027103,0.000308661838062,-0.000129754349473,7.96028107288e-05,-1.51277736222e-05,-5.54308280698e-05,0.460413990971,-8.16279560561e-06,0.165202715497,0.00540569791592,0.928723587258,0.368548624104,0.0401894047783
-0.107138484716,-0.0254532955587,0.105172052979,-2.58104228973,0.0461046546698,2.63397479057,-0.796859145164,0.0632521063089,-0.000128523868625,-0.00022522949439,8.10682540759e-05,4.01316283387e-05,0.000153786822921,-4.01737706852e-05,2.67413106485e-05,0.460414354579,-7.26812059593e-06,0.165203259682,0.00540563481072,0.928723377423,0.368549097134,0.0401899244269
-0.107136026025,-0.0254554990679,0.105176046491,-2.5810444355,0.0461068153381,2.6339776516,-0.796858847141,0.0608756281435,-0.00147898704745,-0.000555804173928,-0.000147874015965,0.000730398925953,-2.05296382774e-05,0.000804836454336,-0.000501116504893,0.460414284932,-4.32215719332e-06,0.16520373638,0.00540572434882,0.928722532196,0.368551062475,0.0401914215697
-0.107139125466,-0.0254526175559,0.105175837874,-2.58103942871,0.0461061634123,2.63397693634,-0.796858012676,0.0608756281435,-0.000539878092241,0.00111734855454,0.000103652208054,-0.000331423070747,4.6195136747e-06,-0.00015425310994,0.000118341966299,0.460416084624,-5.80373152813e-06,0.165204274507,0.00540603833251,0.92872316125,0.368549401624,0.0401920732778
-0.107137359679,-0.025451971218,0.105174578726,-2.58104324341,0.046105530113,2.63397860527,-0.796857178211,0.0608756281435,0.000149102546857,-0.000177871042979,-0.000284543639282,0.000305847614072,1.05277613329e-05,4.09632521041e-05,0.000159279981744,0.460414476021,-5.59051196111e-06,0.165202682351,0.0054056313058,0.928723188449,0.368549485955,0.0401907262228
-0.107137814164,-0.0254548992962,0.105175502598,-2.58104205132,0.046104259789,2.63397812843,-0.796858489513,0.0608756281435,0.00250630965456,-0.000591313117184,0.000889063812792,-0.00020923424745,0.000104692822788,4.56562793261e-06,-0.000214162093471,0.46041553655,-5.42873652393e-06,0.165204354826,0.00540682508148,0.928722531514,0.368550960306,0.040192226149
-0.107137128711,-0.0254530776292,0.105175070465,-2.58104348183,0.0461068712175,2.63397860527,-0.796857833862,0.0608756281435,-2.37876975007e-05,0.000170027065906,5.93341537751e-05,-0.00145752960816,8.77108323039e-06,-0.000180781004019,-9.51274269028e-05,0.46041454617,-5.24020772825e-06,0.165203097113,0.00540552795311,0.928723124791,0.368549592118,0.0401912375862
-0.107138566673,-0.0254532750696,0.105173818767,-2.58104658127,0.0461050346494,2.63397979736,-0.796853601933,0.0556393675506,-0.000166717232787,-0.000365768210031,-4.52844033134e-05,-0.000874959514476,7.8363744251e-05,5.67166862311e-05,0.00302035873756,0.460413323616,-6.54404271384e-06,0.1652021165,0.00540563700511,0.928724156366,0.368547097991,0.040190256497
-0.107138641179,-0.0254529621452,0.105175152421,-2.58103966713,0.0461068339646,2.6339802742,-0.796853661537,0.0556393675506,2.1750040105e-05,0.000670153589454,5.50240365556e-05,-0.000356222764822,-8.23068112368e-05,4.97629698657e-05,-6.71897141729e-05,0.460416732435,-5.91624072303e-06,0.16520469116,0.00540650136167,0.928724048593,0.368546979037,0.0401937213384
-0.107137225568,-0.0254513453692,0.105173945427,-2.58104348183,0.0461043938994,2.63397955894,-0.7968531847,0.0556393675506,0.000727599137463,-0.000383556936868,0.000314542616252,1.72014333657e-05,-2.82753671854e-06,7.86368400441e-05,-0.00251039117575,0.460414456155,-5.85031470535e-06,0.165202403754,0.0054058299499,0.928723842585,0.368547840518,0.0401906724247
-0.10713917017,-0.0254510007799,0.105173319578,-2.58104228973,0.0461066439748,2.63398170471,-0.796851158142,0.0556393675506,-0.000240376713919,0.000298633647617,-0.000304005254293,-0.000302032305626,-4.64069235022e-05,2.46123545367e-05,-0.000103621401649,0.460415433952,-6.98182773578e-06,0.165202933132,0.00540587187084,0.928724986504,0.368544781692,0.0401922823858
-0.10713865608,-0.0254534762353,0.105174578726,-2.58104395866,0.0461062341928,2.63398122787,-0.796853065491,0.0556393675506,0.0002203725453,0.000784970994573,2.35587795032e-05,-0.000201142946025,1.40428019222e-05,-6.24502936262e-05,0.000489191617817,0.460414934437,-6.22233566942e-06,0.165203370436,0.00540615736768,0.928724236638,0.368546661382,0.040192335247
-0.107137054205,-0.0254526045173,0.105173133314,-2.58104276657,0.0461054891348,2.63398361206,-0.796849370003,0.0556393675506,0.000122923331219,0.00107055774424,-0.000612840580288,-0.000108605738205,7.74255750002e-05,0.000108328407805,0.000343439722201,0.460415871465,-6.17629454446e-06,0.165203682488,0.00540674445031,0.928724728277,0.368545283041,0.040193534714
-0.107139468193,-0.0254550073296,0.105176076293,-2.5810418129,0.0461056157947,2.63398337364,-0.796849548817,0.0556393675506,0.00032325880602,0.000126430139062,0.000347891618731,-0.00017040943203,5.57123603357e-05,-1.70294133568e-05,-0.000594947719947,0.460416684062,-5.98238328721e-06,0.165205121926,0.00540742786421,0.928724553074,0.368545562703,0.0401949267618
-0.107139229774,-0.0254549793899,0.105175226927,-2.58104467392,0.0461066998541,2.63398313522,-0.796848773956,0.0556393675506,-0.000319807935739,0.000503632647451,-8.37482803036e-05,6.84445840307e-05,-7.88816832937e-05,0.000132136992761,-0.000945185602177,0.460415373435,-6.28334976961e-06,0.165204005974,0.00540657604088,0.928725058246,0.368544431416,0.0401937417763
-0.107136018574,-0.0254542008042,0.105175219476,-2.58104705811,0.046105094254,2.63398504257,-0.796847641468,0.05550737679,-0.000212803555769,-0.000424423313234,0.000316062854836,0.000303647655528,5.62946806895e-05,0.00871150474995,0.00125493539963,0.460414505678,-4.8001766439e-06,0.165203095354,0.00540676740254,0.928724414374,0.368546126365,0.0401930521151
-0.107137203217,-0.0254525896162,0.105176046491,-2.58104252815,0.0461052134633,2.63398432732,-0.796845853329,0.05550737679,8.27902185847e-05,-0.000902403146029,3.40009246429e-05,0.000248520431342,4.70471459266e-05,0.000368150038412,6.10566639807e-05,0.46041630664,-4.81844132953e-06,0.165204084774,0.00540703402047,0.928724815023,0.368544969209,0.0401943689971
-0.107136562467,-0.0254544094205,0.105175688863,-2.58104276657,0.0461028181016,2.63398480415,-0.796845734119,0.05550737679,0.00051643291954,-5.54503421881e-05,-0.000168852420757,9.05383203644e-05,-2.88320916297e-05,-0.000307032023557,1.79845701496e-05,0.460416420041,-4.90876777242e-06,0.165204628591,0.00540794098135,0.928724367289,0.368546057985,0.0401946091566
-0.107136912644,-0.025452811271,0.105176225305,-2.58104872704,0.0461058653891,2.63399362564,-0.796843767166,0.05550737679,0.000281316955807,0.00082618824672,-0.00061555794673,0.000797713350039,-0.000120039228932,0.00312256463803,7.25597928977e-05,0.460415124613,-4.80356761324e-06,0.16520252199,0.00540749186714,0.92872518186,0.368543917568,0.0401954738422
-0.107136644423,-0.0254577323794,0.105176642537,-2.58102679253,0.046109803021,2.63400363922,-0.796843409538,0.0554568134248,0.000347093970049,0.00198908918537,0.000399876822485,-0.00167234253604,-0.000264630129095,0.00792548246682,-0.000184979566257,0.460428346219,-4.22692325635e-06,0.165213146103,0.00541381435806,0.928724866652,0.3685427121,0.0402129545997
-0.107134506106,-0.0254558436573,0.105175755918,-2.58104038239,0.0461087189615,2.63400959969,-0.796843111515,0.0554568134248,0.000292528362479,-0.000142657299875,0.000239765286096,-0.0017693041591,-5.35180734005e-05,0.000699151947629,-8.3032209659e-05,0.460422071415,-3.82882267013e-06,0.165208121819,0.00541200995482,0.928724800336,0.368543514116,0.0402073783712
-0.107137665153,-0.0254460945725,0.105178236961,-2.58105826378,0.0461089387536,2.63401842117,-0.796841025352,0.0554568134248,5.75047524762e-05,-0.00134691875428,-0.000299212930258,0.000454338267446,-0.000234309627558,0.00202031899244,7.73290885263e-05,0.460415735244,-4.3929530285e-06,0.165198848447,0.00540953028183,0.928725612631,0.368542137729,0.0402015649892
-0.107135154307,-0.0254488978535,0.105178542435,-2.5810418129,0.046108905226,2.63403558731,-0.796839177608,0.0554568134248,1.25681763166e-05,0.00109941361006,0.00585922878236,-0.000903095875401,2.57607480307e-05,0.00138307036832,-3.14074259222e-06,0.460426180573,-3.12372483632e-06,0.165207054952,0.00541517001182,0.928725088729,0.368541821296,0.0402158070927
-0.107133030891,-0.0254482533783,0.1051793769,-2.58105230331,0.0461094751954,2.63404083252,-0.796839118004,0.0554568134248,6.64200342726e-05,0.000862687593326,0.000109632273961,6.63922764943e-05,-0.000156816779054,0.000571047188714,3.989589095e-05,0.460422600809,-1.90719812285e-06,0.165203998491,0.00541430150782,0.928724713537,0.368543007142,0.040213721231
-0.107135571539,-0.0254497844726,0.105177789927,-2.58104300499,0.0461088828743,2.63405275345,-0.796836733818,0.0554568134248,0.000109237589641,-6.20295468252e-05,0.000762196665164,-7.56603549235e-05,4.37018388766e-05,0.000496458495036,-2.32083657465e-05,0.46042980568,-4.32843727272e-06,0.165209418152,0.0054188143152,0.928725578231,0.368539668136,0.0402237427991
-0.107133083045,-0.0254493691027,0.105177983642,-2.58104681969,0.0461085401475,2.63406705856,-0.7968339324,0.0554568134248,8.12351136119e-05,-0.000532332342118,0.000445315410616,0.000226821357501,-7.87955577835e-05,-8.64017056301e-05,0.000411608081777,0.460430989639,-2.90056768796e-06,0.165209374048,0.00542104093019,0.928725235371,0.36853996367,0.0402286510274
-0.107133738697,-0.0254494752735,0.105178147554,-2.58104705811,0.0461092442274,2.63407230377,-0.796832859516,0.0554568134248,-0.000585138448514,-0.000179193826625,0.000354553369107,0.000187636163901,0.000204478710657,6.81586898281e-05,-5.46437513549e-05,0.460432000157,-3.16620034263e-06,0.165209880381,0.0054219094135,0.928725551649,0.368538891684,0.0402310528544
-0.107132211328,-0.0254488196224,0.105181872845,-2.58104681969,0.0461089871824,2.63408041,-0.796833634377,0.0529549121857,-0.000272692734143,0.000503782124724,-0.000285758724203,0.000156068985234,-7.54591064833e-06,0.00154994009063,3.19633836625e-05,0.460433716738,-8.48502489667e-07,0.165210516611,0.00542346214072,0.928724279983,0.36854169308,0.0402345370855
-0.107133112848,-0.0254453327507,0.105181477964,-2.58104681969,0.0461092293262,2.63408327103,-0.796832978725,0.0529549121857,-0.000130763204652,0.000109097163659,2.0171784854e-05,0.000165814126376,-3.13719901897e-05,0.000133804176585,-1.57618560479e-05,0.460433739782,-1.40525150966e-06,0.165209220721,0.00542318225299,0.928724702173,0.368540656252,0.0402343266514
-0.107130043209,-0.0254511702806,0.105182170868,-2.58104300499,0.0461083874106,2.63409113884,-0.796831786633,0.0529549121857,-0.000466699711978,-0.00374692189507,-0.000475557608297,0.000131541979499,2.41928773903e-05,7.24734272808e-05,-2.19316225412e-05,0.460438227169,1.08795200929e-07,0.165214188241,0.00542695692362,0.928723775053,0.368542078321,0.0402421915425
-0.107130542397,-0.0254697930068,0.105183549225,-2.5810353756,0.0461086407304,2.63410186768,-0.79682892561,0.0529549121857,8.38225423649e-06,-0.000286896480247,-0.00293535809033,0.000343842955772,-0.00289491214789,0.0026953027118,-8.6270578322e-05,0.460447305559,6.41669341854e-08,0.165226780956,0.00543476662235,0.928723472427,0.368540902494,0.0402588865758
-0.107130765915,-0.0254759695381,0.10518117249,-2.58102941513,0.0461097471416,2.63411164284,-0.796830117702,0.0529549121857,-0.00309921824373,-0.000204868571018,-0.000563387235161,-0.000120470562251,-5.09006677021e-05,-0.000207979872357,-0.00178215419874,0.460453531438,-1.73021630143e-06,0.165233351605,0.00543943359597,0.928723606063,0.36853933698,0.0402695031695
-0.107128977776,-0.0254689492285,0.105182632804,-2.58103203773,0.0461088642478,2.63413262367,-0.7968288064,0.0529549121857,-8.20377390482e-05,8.62011584104e-05,-0.000114828122605,-0.000123630379676,-3.24620159518e-05,4.04697238992e-05,0.000128802537802,0.460455282712,5.24133632867e-08,0.165230906771,0.0054413610181,0.928722865194,0.368540670119,0.0402741282881
-0.107130087912,-0.0254731643945,0.105181768537,-2.58103299141,0.0461093299091,2.63413643837,-0.7968288064,0.0529549121857,0.000120577511552,-0.000146058329847,-1.17723247968e-05,0.000196106586372,-4.18537492806e-05,5.04708077642e-05,0.000338040437782,0.460456168233,-9.646944212e-07,0.165232654099,0.00544268443888,0.928723092664,0.368539767823,0.0402769606141
-0.107129506767,-0.0254709646106,0.105185262859,-2.58103203773,0.04610844329,2.63414359093,-0.796827852726,0.0508496388793,0.000328464666381,0.000319220824167,-2.3380642233e-05,8.0367361079e-05,-0.000108294698293,-0.000106401799712,-0.000401621509809,0.460457933502,8.39848075244e-07,0.165232975015,0.00544412866262,0.928722371982,0.368541233251,0.0402799742034
-0.107129752636,-0.0254695545882,0.105183124542,-2.58103346825,0.0461086034775,2.63414859772,-0.796825051308,0.0508496388793,-0.0001648748148,0.000138210045407,-0.000118958378152,0.000219628331251,0.000110156193841,0.000445502635557,0.000240171750193,0.46045806204,-2.73381335249e-07,0.165232304733,0.00544448244553,0.928723330199,0.368538700962,0.040281002134
-0.107129275799,-0.0254680793732,0.105184227228,-2.58103442192,0.0461087971926,2.63415074348,-0.796824216843,0.0508496388793,-8.84878390934e-05,-0.000331470946549,-0.000124445767142,-0.000553266785573,1.28924084493e-05,-4.06797371397e-05,-0.000434521440184,0.46045780563,4.5772438453e-07,0.165231484834,0.00544431599125,0.928723238247,0.368538945599,0.0402809064549
-0.107125915587,-0.0254703201354,0.105185456574,-2.58103370667,0.046108815819,2.6341574192,-0.796825110912,0.0508496388793,-0.000191555067431,0.000812835351098,0.000127605700982,3.02157714032e-05,2.59749740508e-05,0.000231176702073,0.000157680464326,0.460459936216,2.45305616773e-06,0.165233484749,0.00544626221183,0.92872206345,0.368541399296,0.0402852799216
-0.107124321163,-0.0254722312093,0.105187736452,-2.58103299141,0.0461092293262,2.63415980339,-0.796823561192,0.0508496388793,0.000183826196007,-0.000669204688165,4.79167829326e-05,-3.72126050934e-05,-1.9702249574e-06,-0.000109868466097,-3.12307529384e-05,0.460461105409,4.17889626627e-06,0.165234883003,0.00544714175172,0.928721607478,0.36854228308,0.0402875876144
-0.10712646693,-0.0254702530801,0.105186849833,-2.58103322983,0.0461089238524,2.63416337967,-0.796824216843,0.0508496388793,-0.00405226973817,0.000596604601014,-0.000174349959707,0.000204578522244,1.64590128406e-05,0.000179432434379,9.35185380513e-05,0.460461415,2.77387198854e-06,0.165234260993,0.00544750139168,0.928721985855,0.368541257419,0.0402881990406
-0.107126653194,-0.0254692789167,0.105186663568,-2.58103680611,0.0461078211665,2.63416385651,-0.796824395657,0.0508496388793,-0.000124434372992,0.000554215279408,-0.000217123728362,0.000328762369463,7.6014570368e-05,7.42069969419e-05,0.000189054597286,0.460459811762,2.73350056339e-06,0.1652324594,0.00544694786227,0.928722030207,0.368541357569,0.0402863353096
-0.107128441334,-0.0254756174982,0.105186969042,-2.58102488518,0.0461085289717,2.63417649269,-0.796822607517,0.0508496388793,0.000242664682446,0.000159895542311,0.00433495128527,0.000730648403987,0.00144321017433,-1.30026055558e-05,-0.000129878622829,0.460469132126,1.66851449704e-06,0.165241311613,0.00545306188664,0.928722071554,0.368539626882,0.0403003849469
-0.107125721872,-0.0254934988916,0.105189226568,-2.58101224899,0.0461090430617,2.63418984413,-0.796821057796,0.0508496388793,0.000531965109985,-0.000855014950503,0.000197884859517,0.000319539947668,-0.00488693965599,0.00125299056526,-0.000441268202849,0.460481071772,3.49979775505e-06,0.165255772684,0.0054620501013,0.9287206811,0.368540819323,0.0403203011332
-0.107123561203,-0.025511443615,0.105189390481,-2.58100199699,0.0461086407304,2.63420271873,-0.796822309494,0.0508496388793,0.000265650771325,-0.00162946037017,3.18865349982e-05,0.000727745296899,0.00560684828088,-0.000220977948629,-4.5320521167e-06,0.460491762618,4.09591515054e-06,0.165269294968,0.00547082039418,0.928719176258,0.368542454207,0.0403388262708
-0.107122547925,-0.0255261007696,0.10519143939,-2.5809969902,0.0461086817086,2.63421940804,-0.796819150448,0.0508496388793,-0.000229805038543,-0.00043479440501,4.52543317806e-05,-0.000801854534075,-0.00489157997072,0.00099252560176,0.00011868110596,0.460500162438,5.05339232308e-06,0.16527968535,0.00547844079222,0.928718530761,0.368542169277,0.04035525314
-0.107119992375,-0.0255294088274,0.105197809637,-2.58100008965,0.0461088083684,2.63427948952,-0.796819746494,0.0508594885468,0.000353408919182,-0.000516266503837,-0.0003488532966,0.000390750268707,0.00530814100057,0.00140494853258,-0.00235057994723,0.460511893947,8.42337311864e-06,0.165286293442,0.00549072393944,0.928715827326,0.368545793303,0.0403826936625
-0.107125379145,-0.0255278684199,0.105195462704,-2.58100152016,0.0461091659963,2.63430404663,-0.796817183495,0.0508594885468,-0.000623895670287,0.000461419578642,-0.000549328629859,0.000140405871207,0.000101867815829,0.00395569205284,8.02405484137e-05,0.460516129739,4.64194562239e-06,0.165287613417,0.00549508460446,0.928717446156,0.368540564197,0.0403925918365
-0.107130408287,-0.0255277566612,0.105190306902,-2.58100104332,0.0461089573801,2.63431811333,-0.796816647053,0.0508594885468,-0.003855913179,0.000394570990466,-0.00197147508152,0.000187917990843,-7.39149181754e-05,4.96911452501e-05,0.000301409396343,0.46051925623,1.30210331068e-08,0.165289291316,0.00549814363196,0.928719021902,0.368535838423,0.0403990625717
-0.107119239867,-0.0255253128707,0.105204187334,-2.58100104332,0.0461083203554,2.63434672356,-0.79681801796,0.0508594885468,0.00103848660365,8.7444735982e-05,-0.000225041629164,0.000292289681965,0.00011585381435,0.000143358338391,0.000459062255686,0.46052494236,1.10033302279e-05,0.165291090005,0.0055032704195,0.928713778408,0.368547659964,0.0404110607286
-0.107117339969,-0.0255300141871,0.105207130313,-2.58100128174,0.0461084470153,2.63435149193,-0.796817004681,0.0508594885468,0.000297359219985,-0.000116635143058,0.000400639692089,-0.000116124727356,5.71416021558e-05,0.000106198735011,0.000313238560921,0.460526616179,1.30879557653e-05,0.165293646938,0.00550517490293,0.928712924842,0.36854932684,0.0404152155807
-0.107115998864,-0.0255298409611,0.105211161077,-2.58100223541,0.046108469367,2.63435745239,-0.796816468239,0.0508594885468,-0.000321096653352,0.00053916516481,-0.000231902071391,0.000162620373885,4.30900290667e-05,5.01633840031e-05,0.000289326853817,0.460527392968,1.54838003029e-05,0.165293739207,0.00550608216497,0.928711989333,0.368551429021,0.0404174192595
-0.107122585177,-0.0255209244788,0.105207078159,-2.58100867271,0.0461090356112,2.63436746597,-0.79681456089,0.0481835715473,4.85855525767e-05,-0.000241239686147,0.000237024782109,3.19371501973e-05,1.91172075574e-05,0.00110986293294,-0.000119855627418,0.460524884747,1.06537643097e-05,0.165288306708,0.00550485327894,0.928714523827,0.368545313841,0.0404151104584
-0.107123963535,-0.0255179014057,0.105209641159,-2.58100652695,0.046108789742,2.63436794281,-0.796814262867,0.0481835715473,0.00030370609602,-0.00101135135628,0.000296443962725,0.000411186367273,0.000941292732023,0.000116039758723,5.99521044933e-05,0.460525522067,1.12299846888e-05,0.165287797511,0.00550470127799,0.92871433198,0.368545816986,0.0404149515127
-0.107118986547,-0.0255158785731,0.105215005577,-2.58100652695,0.0461083315313,2.63437104225,-0.796814441681,0.0481835715473,0.00411680573598,-0.000263496185653,0.00171147100627,-0.000341046921676,-0.000100527729956,8.96589335753e-05,-0.000278934545349,0.460525836131,1.5957773093e-05,0.165287189197,0.00550482509507,0.928712313958,0.36855084884,0.0404154216463
-0.107114300132,-0.0255287997425,0.10522416234,-2.58100533485,0.0461085475981,2.63437867165,-0.79681032896,0.0481835715473,-0.000272426754236,0.00015857174003,-0.000336655270075,-0.000265925860731,-0.000207943201531,3.41676095559e-05,5.45126858924e-05,0.460530176615,2.19840856362e-05,0.165294354411,0.00550929421715,0.928710143832,0.36855517981,0.0404251844835
-0.107117779553,-0.0255329273641,0.105222396553,-2.58100390434,0.0461081489921,2.63438153267,-0.796809911728,0.0481835715473,8.55643011164e-05,-0.000237186992308,0.000189772239537,0.000212011000258,8.04425690148e-06,-2.5789371648e-05,0.000115559370897,0.460532164262,1.94594512777e-05,0.165297098624,0.00551127481812,0.928710965567,0.36855266811,0.0404289351697
-0.107118174434,-0.0255284737796,0.105225890875,-2.58100199699,0.0461083687842,2.63439297676,-0.796809077263,0.0481835715473,-0.000406653329264,-0.000584140536375,-0.000440818665083,-0.000469306367449,-4.58155518572e-05,0.000186610326637,-0.0010787723586,0.460534763275,2.08329918898e-05,0.16529699144,0.00551282432963,0.92871044946,0.368553490034,0.0404330866873
-0.10711607337,-0.0255326721817,0.105229862034,-2.58100199699,0.0461083576083,2.63439464569,-0.796807825565,0.0481835715473,0.00042235237197,-7.20223106327e-05,-0.00174436660018,-0.000314371223794,-1.81431369128e-05,5.05278649143e-06,-8.62915912876e-05,0.460535813777,2.35181394855e-05,0.165299083852,0.0055140406706,0.928709447089,0.368555711038,0.040435699434
-0.1071177423,-0.0255276039243,0.10523571074,-2.58100247383,0.0461085624993,2.63439893723,-0.796806454659,0.0481835715473,0.00023380771745,7.42665861253e-07,-0.000212540995562,-0.000202579525649,-6.10753922956e-05,-0.000173692737008,0.000167421021615,0.460535640791,2.54672994712e-05,0.165297021797,0.00551354925209,0.928709005642,0.368556885809,0.0404351978034
-0.107117161155,-0.0255324915051,0.105237707496,-2.58100199699,0.0461081452668,2.63440394402,-0.796805262566,0.0481835715473,0.000407493062085,-0.000558974628802,-0.000135429159855,0.000286946509732,8.05439242413e-07,5.54379039386e-05,6.59259021631e-05,0.460537721069,2.64380631555e-05,0.165299906101,0.00551586704535,0.928708502382,0.368557621092,0.0404397382915
-0.107119835913,-0.0255320239812,0.105238698423,-2.58100128174,0.0461090803146,2.63440537453,-0.796804904938,0.0481835715473,-0.00038339724415,-0.00196144054644,0.00451425276697,-8.16753072286e-06,3.26224362652e-05,0.000181242809049,-8.71464653756e-05,0.460538315348,2.57317189913e-05,0.165300177538,0.00551596806206,0.928708988327,0.368556291339,0.0404406836654
-0.10711645335,-0.0255289524794,0.105239331722,-2.58100199699,0.0461084358394,2.63440823555,-0.796805024147,0.0476483888924,0.000398476317059,-0.000509738631081,0.000140527365147,0.00021522474708,0.000194866312086,-8.30796343507e-05,9.26622669795e-05,0.460538058803,2.7583188786e-05,0.165298793727,0.00551578454925,0.928708157857,0.368558435243,0.0404402416737
-0.107112318277,-0.0255255922675,0.10524699837,-2.58100247383,0.0461095310748,2.63440847397,-0.796801924706,0.0476483888924,-0.000331488845404,0.00112784549128,0.00210027187131,0.000476468267152,1.89739312191e-05,0.00215636799112,-0.000196105524083,0.460537314702,3.30743566001e-05,0.165297087099,0.00551448537001,0.928706798886,0.368562042687,0.040438750324
-0.107112415135,-0.0255254600197,0.105252377689,-2.58100032806,0.0461085364223,2.63440847397,-0.796801447868,0.0476483888924,-0.000145083060488,0.000626277935226,0.000160417795996,0.000346223037923,-0.00246986118145,0.000102476304164,2.74250869552e-05,0.460538331012,3.54567846948e-05,0.165297847554,0.00551503409808,0.928705717613,0.368564669042,0.0404395708346
-0.107111692429,-0.0255249533802,0.105255164206,-2.58100652695,0.0461090877652,2.63440895081,-0.796800792217,0.0476483888924,-0.000174018539838,-0.000140289805131,-0.000647706445307,-0.000746341131162,0.000111585206469,-8.52678931551e-06,-6.99532683939e-05,0.460535335719,3.70800145254e-05,0.165295269157,0.00551368087084,0.928705408418,0.368565779113,0.0404367388598
-0.10711298883,-0.0255247000605,0.105257250369,-2.58101534843,0.0461087077856,2.63440895081,-0.796802103519,0.0476483888924,0.000180575996637,0.000336466328008,-0.000272506149486,7.17097937013e-05,3.73688308173e-05,0.000139956639032,0.000143558863783,0.460531007478,3.7426864598e-05,0.165291744505,0.00551211400715,0.928705150343,0.368566919921,0.0404324813763
-0.107117719948,-0.0255226884037,0.105256207287,-2.58101868629,0.0461081452668,2.63440918922,-0.796800911427,0.0476483888924,3.71222522517e-05,0.00118421530351,-0.000399260839913,-0.0017317594029,-3.81265381293e-05,-7.8017335909e-05,0.00017681720783,0.460529101205,3.4788799231e-05,0.165289560665,0.00551129164049,0.928706453204,0.368563911735,0.0404300889363
-0.107118234038,-0.0255130771548,0.10526125133,-2.58101868629,0.0461089983582,2.63440942764,-0.796798169613,0.0476483888924,0.0022229263559,0.000655180134345,0.000352745933924,0.000389036838897,8.98456528375e-06,-0.000104895734694,-0.000191646890016,0.460527547405,3.70475850152e-05,0.165285179049,0.00550880766711,0.928706448299,0.368564406897,0.0404260260063
-0.10711748153,-0.0255106426775,0.105260528624,-2.58102107048,0.0461088269949,2.63440918922,-0.796800851822,0.0476483888924,0.000118154210213,-0.000722379016224,0.000112322893983,0.000157429167302,8.42663467893e-08,-7.31674572307e-06,-0.000178893722477,0.460525933213,3.7105428196e-05,0.165283119682,0.00550783743182,0.928706024788,0.368565742078,0.0404237145601
-0.107122845948,-0.0255125183612,0.10525829345,-2.58102107048,0.046108815819,2.63440942764,-0.796799361706,0.0476483888924,-0.000194516411284,-0.000949786801357,0.00023123936262,-0.00028943803045,4.28055718658e-05,0.000177517795237,-4.27695595135e-05,0.460526297618,3.35788959157e-05,0.165284006325,0.00550842363102,0.928707655939,0.368561520795,0.0404246477218
-0.10711555928,-0.0255153588951,0.105267450213,-2.58102822304,0.0461083874106,2.6344101429,-0.796798229218,0.0476483888924,-2.19891126108e-06,0.00016846662038,-0.000280103151454,0.000250052369665,-0.000567503855564,-6.81732562953e-05,-0.000159816045198,0.460523405624,4.10060077077e-05,0.165282619845,0.00550776898626,0.928704772121,0.368569002893,0.0404227721907
-0.107118427753,-0.0255133863539,0.105265080929,-2.58102726936,0.0461090095341,2.63440871239,-0.79679775238,0.0476483888924,-0.000189963466255,0.000492242281325,-0.000445437821327,-2.77194212686e-05,-8.06989191915e-06,6.30633076071e-05,-0.000405777129345,0.460523277203,3.87067196282e-05,0.165281927191,0.00550710413442,0.928706040036,0.368565919862,0.0404218431596
-0.10711517185,-0.0255102794617,0.105269946158,-2.58102202415,0.0461091026664,2.63440942764,-0.796798944473,0.0484587177634,-0.000377618474886,0.000461090152385,0.000128943604068,0.000684050784912,-2.93870689347e-05,8.91783474799e-06,0.000420080177719,0.460525455339,4.24765499467e-05,0.165282598537,0.00550738946043,0.928704281619,0.36857019432,0.0404232297918
-0.107116691768,-0.0255108866841,0.105269595981,-2.58102083206,0.0461082570255,2.63440799713,-0.796797096729,0.0484587177634,-6.16670513409e-05,0.000847217743285,-5.68991163163e-05,0.00244970922358,5.3649651818e-05,-2.8453023333e-06,0.000140624775668,0.460525832758,4.15968508637e-05,0.165283186685,0.00550765966116,0.928704821626,0.368568820253,0.0404233149795
-0.107120282948,-0.0255218967795,0.105266980827,-2.58099770546,0.0461091138422,2.6344063282,-0.796795785427,0.0484587177634,0.000612655596342,-0.00230527552776,0.000304146233248,0.00380367622711,-1.07868308987e-05,-0.000168426704477,0.000135918802698,0.460539421313,3.90354472703e-05,0.16529869612,0.00551478795808,0.928705476729,0.368565233458,0.0404399923028
-0.107111178339,-0.0255750752985,0.105280518532,-2.58096766472,0.0461088679731,2.63439702988,-0.796796679497,0.0484587177634,0.000305202585878,-0.00696713011712,0.000595431367401,0.00568024022505,6.10291644989e-05,-0.00079669378465,0.000321874569636,0.460560036627,4.81117368561e-05,0.165331942766,0.00552985599995,0.928699730032,0.368576041113,0.0404713940072
-0.107116922736,-0.0256924983114,0.105277791619,-2.58087229729,0.0461096502841,2.63437724113,-0.796790719032,0.0484587177634,-0.000270238640951,-0.00329364393838,-0.000689204433002,0.00986072327942,4.45831210527e-05,-7.7370161307e-05,0.000224912073463,0.460621743424,4.23691643777e-05,0.165420472551,0.00557066373703,0.92869845059,0.368569064138,0.0405586023074
-0.107118673623,-0.0258410926908,0.105277985334,-2.58074855804,0.046109341085,2.63436794281,-0.796792387962,0.0484587177634,0.000390963978134,-0.0118609787896,-0.00225204601884,0.0113482279703,1.43320694406e-05,0.000168621379999,-0.00208371714689,0.460704609219,3.90986907281e-05,0.165535353841,0.00562642328705,0.928692912327,0.368569078984,0.040677409649
-0.107126809657,-0.0267383102328,0.10527355969,-2.57982444763,0.0461087562144,2.63341569901,-0.796788573265,0.0484587177634,-1.87450004887e-05,-0.0320874489844,0.00273221265525,0.0310786422342,-3.74243136321e-05,-0.0568213760853,7.94349325588e-05,0.461110898994,2.80178058089e-05,0.166225035958,0.00581558313406,0.928673055868,0.368572338065,0.0410726867287
-0.107124149799,-0.0273441057652,0.105276741087,-2.57928562164,0.0461076311767,2.63244199753,-0.796787321568,0.0484587177634,0.000166771846125,-0.0516247823834,0.000915973505471,0.0373426787555,-0.000347763940226,-0.0731657370925,-0.000156973255798,0.461257130761,3.03603927771e-05,0.166587823038,0.00585624181119,0.928664596699,0.368585344409,0.0411414005689
-0.107133187354,-0.0286551825702,0.105272956192,-2.57824039459,0.0461079701781,2.63019061089,-0.796787023544,0.0488999970257,-0.000611512165051,-0.0743151009083,-0.000642285391223,0.0600696653128,-7.58739624871e-05,-0.129772350192,-9.58158634603e-05,0.461504619861,2.59255180974e-05,0.167357667437,0.00589766015908,0.928654863114,0.368605077031,0.0411783886341
-0.107139214873,-0.0299645904452,0.105270221829,-2.57712769508,0.0461071617901,2.62758636475,-0.796781122684,0.0488999970257,-4.09662470702e-06,-0.0890593081713,-0.000253243983025,0.0749378800392,9.41294492804e-05,-0.193096503615,0.000409056781791,0.461708295855,2.73281981076e-05,0.16811681243,0.00587962541694,0.928649653705,0.368628933487,0.0410847874379
-0.107130505145,-0.0323100350797,0.10527651757,-2.57520198822,0.0461076162755,2.62254214287,-0.796764910221,0.0488999970257,0.000584512541536,-0.129315033555,0.000526187592186,0.109215907753,-1.48602603076e-05,-0.289820969105,0.00517950858921,0.461956093513,4.84032547712e-05,0.169413101175,0.00575687566783,0.928643576105,0.368687445229,0.0407128279196
-0.10712890327,-0.0372317694128,0.105281792581,-2.57140278816,0.0461056083441,2.61175346375,-0.796486198902,0.0488999970257,-0.000330172566464,-0.197028979659,8.7973792688e-05,0.150606185198,0.000103935461084,-0.426877468824,0.018069639802,0.462298747194,8.4412125162e-05,0.172027973923,0.00541022055165,0.928687738919,0.368688993029,0.0397270587654
-0.107132844627,-0.0399902500212,0.105277426541,-2.5693602562,0.0461055338383,2.60576105118,-0.796256422997,0.0488999970257,-0.00174129940569,-0.22415715456,-0.00300583429635,0.169342711568,-5.66665630686e-06,-0.492116779089,0.0228022355586,0.462461780509,9.92775211309e-05,0.173588399424,0.00519300637366,0.92873272952,0.368644606586,0.0391114244435
-0.107157811522,-0.0445889420807,0.105262584984,-2.56601691246,0.0461054071784,2.5957467556,-0.795823037624,0.0488999970257,-0.00244046305306,-0.268505364656,-0.00122806872241,0.187647238374,0.000165744422702,-0.552311122417,0.0311804786325,0.462652241568,0.000112667193486,0.175858868245,0.0048599123077,0.928812552233,0.368546471973,0.0381722641007
-0.107135161757,-0.0688318386674,0.105297125876,-2.54848146439,0.0461013838649,2.54598593712,-0.79180586338,0.0493675433099,-0.00211960985325,-0.428832471371,-0.000879919505678,0.308354526758,-1.69839495356e-05,-0.836984336376,0.0844720304012,0.463985025533,0.000295586004044,0.188893975587,0.0036015992495,0.929468336689,0.367285675229,0.0343055685163
-0.107145935297,-0.0727428346872,0.105291813612,-2.54552078247,0.0461007878184,2.53839063644,-0.791095018387,0.0493675433099,-0.00146959850099,-0.442915380001,-0.000328238849761,0.362463891506,-0.00131880410481,-0.881545484066,0.0825038850307,0.464505709465,0.000319325540519,0.192417981542,0.00346828621613,0.929644075253,0.366893517565,0.0337492339347
-0.107169426978,-0.0835462808609,0.105279646814,-2.53662776947,0.0460985079408,2.51685166359,-0.788919150829,0.0493675433099,0.000669180764817,-0.47388318181,0.000435573776485,0.392034739256,0.000492135237437,-0.928948223591,0.107081443071,0.465300880238,0.000376659848046,0.19753925722,0.00328802656855,0.929921580982,0.366259288521,0.0330026568736
-0.107166267931,-0.0984512940049,0.10528677702,-2.52391552925,0.0460997857153,2.48787140846,-0.785262227058,0.0493675433099,-0.00114393618423,-0.514480173588,-0.000130909189465,0.44827735424,4.41271768068e-05,-1.00750088692,0.134664788842,0.466830320816,0.000500594431084,0.20674853298,0.00320617379605,0.930481428891,0.364902692666,0.0322498915962
-0.107165664434,-0.10775333643,0.105290167034,-2.51504397392,0.0460978671908,2.46962833405,-0.782887518406,0.0493675433099,0.00104842404835,-0.516189873219,0.000758054316975,0.518927454948,9.78146927082e-05,-1.02699029446,0.134162634611,0.468040819615,0.000590320310974,0.212928686738,0.0033011831795,0.930831245466,0.364018133854,0.0321417573144
-0.107162304223,-0.125433713198,0.10529679805,-2.49697184563,0.0460974983871,2.43479418755,-0.778337776661,0.0493675433099,-0.00463481200859,-0.55996543169,-0.00096107745776,0.579862713814,0.00040633129538,-1.06048130989,0.13667935133,0.470529281315,0.000789860108434,0.22530644551,0.00368138464955,0.931478889068,0.362329066776,0.0324218087462
-0.107146911323,-0.152860835195,0.105310037732,-2.46440863609,0.0460965335369,2.3800868988,-0.772024154663,0.0493800193071,-0.000764822179917,-0.553782463074,-0.00076850655023,0.709055304527,-0.000520606408827,-1.08560705185,0.12383633852,0.475262228705,0.00119622489051,0.246779191681,0.00500250110666,0.932256730742,0.360100217821,0.0346438418588
-0.107156679034,-0.161244750023,0.105310991406,-2.45341897011,0.0460953600705,2.36335778236,-0.770105242729,0.0493800193071,0.00261107902043,-0.527034163475,-0.000450229825219,0.711325526237,-0.00065539375646,-1.07964074612,0.133181601763,0.476880453265,0.00133521396266,0.253901543203,0.00559933078842,0.93247025836,0.359424854009,0.035799982885
-0.107134178281,-0.17126584053,0.105329737067,-2.43911600113,0.0460988432169,2.34227156639,-0.767475008965,0.0493800193071,0.0011119202245,-0.513849616051,0.000596044177655,0.773151278496,0.00168922706507,-1.06676805019,0.139422506094,0.478873715171,0.00155515741456,0.262893498295,0.00630659123117,0.932764752388,0.35850317846,0.037223840871
-0.107149839401,-0.180403918028,0.105324119329,-2.42524528503,0.0460934452713,2.32291793823,-0.765012919903,0.0493800193071,-0.000286005495582,-0.501787960529,-0.000684490718413,0.774288713932,-0.000520242378116,-1.07912492752,0.131638586521,0.480803971381,0.00174589957067,0.271525332729,0.00708072805943,0.933033187526,0.357616725507,0.0388485725397
-0.107136905193,-0.194609031081,0.105346299708,-2.40212774277,0.0460972487926,2.29165434837,-0.761215806007,0.0493800193071,0.000537116837222,-0.467740297318,0.00193562556524,0.827999472618,0.000222084505367,-1.07386648655,0.138140425086,0.483761784172,0.00212193436551,0.285672663742,0.00833893632504,0.933407037898,0.356307453248,0.0415543281663
-0.107141271234,-0.202803239226,0.105382986367,-2.38748979568,0.0460974760354,2.27227807045,-0.758287370205,0.0493800193071,-0.000145324200275,-0.460862308741,0.00428250385448,0.840059161186,-0.00472033489496,-1.05452990532,0.167011573911,0.485432132927,0.00238024331616,0.294376442017,0.00903035893085,0.933737347525,0.355239445109,0.0431039995729
-0.107144013047,-0.210834443569,0.105434544384,-2.37247276306,0.0460928380489,2.25346422195,-0.755249559879,0.0494181066751,0.000424020196078,-0.433833837509,0.00444836867973,0.799289643764,0.000293876451906,-1.05999445915,0.167240127921,0.487160578951,0.00265639121474,0.303300902527,0.00986326092575,0.934060932343,0.354127822983,0.0450152799563
-0.1071543172,-0.223789170384,0.10563904047,-2.34542369843,0.0460897758603,2.2196290493,-0.749566614628,0.0494181066751,-0.001018913812,-0.380044192076,0.00654759956524,0.832540690899,-0.000191393424757,-1.06495976448,0.190675646067,0.489768481671,0.00323565324236,0.318792116716,0.0110390424309,0.934681761552,0.352083770093,0.0478033752609
-0.107144065201,-0.231171414256,0.105844520032,-2.32836508751,0.0460929013789,2.19846796989,-0.745320856571,0.0494181066751,0.000896937563084,-0.354698687792,0.0113215977326,0.869358122349,-0.000346301676473,-1.03476190567,0.22076767683,0.491140106618,0.00366248478432,0.328280147849,0.011629004595,0.935180668893,0.350531380688,0.0492913138469
-0.107170157135,-0.246387794614,0.106839179993,-2.28668117523,0.0460950620472,2.14827394485,-0.733639895916,0.0494181066751,-0.00244855857454,-0.26600342989,0.0262573193759,0.861540198326,-0.00437848921865,-1.01284384727,0.256604492664,0.493910281642,0.00495233084586,0.350468756783,0.0127493856709,0.936563264193,0.346333416537,0.0523437637593
-0.107166953385,-0.250688105822,0.107373483479,-2.27327656746,0.046096060425,2.13244080544,-0.729566633701,0.0494181066751,-0.000807467207778,-0.249891489744,0.0407757461071,0.827600002289,-0.000773220031988,-0.978312551975,0.25590005517,0.494617586113,0.00548705064674,0.357401488822,0.0130498190459,0.937025297513,0.344940403944,0.0531922123613
-0.107190705836,-0.254851728678,0.108148410916,-2.25871825218,0.0460976622999,2.11478614807,-0.724739253521,0.0494181066751,2.47139378189e-05,-0.218513041735,0.0397536344826,0.825387060642,0.00356637011282,-0.969857037067,0.266845405102,0.495169727773,0.00615777086846,0.364654185253,0.0131907777023,0.937589724726,0.343324339848,0.0536647819906
-0.107174552977,-0.258586674929,0.109140411019,-2.24312710762,0.0460958220065,2.09663128853,-0.719349265099,0.0494181066751,-0.00200469838455,-0.17944060266,0.0645859912038,0.774693667889,0.00314195058309,-0.951976299286,0.293899476528,0.495795302616,0.00697605370418,0.372173311323,0.0133341211457,0.93819470814,0.341579733065,0.0541864971762
-0.107161030173,-0.263410329819,0.111114680767,-2.22078371048,0.0461013019085,2.06999111176,-0.710559785366,0.0494890250266,-0.00067222159123,-0.141216173768,0.072418756783,0.777801275253,0.000166582045495,-0.888431310654,0.318817138672,0.496309924449,0.00837430146357,0.382256975276,0.0133405642704,0.939137463007,0.338949566519,0.0543695315959
-0.107159689069,-0.265557527542,0.112575091422,-2.20749020576,0.0460994765162,2.05401802063,-0.704496562481,0.0494890250266,-1.39381909321e-05,-0.106046415865,0.0928781628609,0.711909532547,0.000816797430161,-0.849693596363,0.344148367643,0.496529614702,0.00943861316609,0.388531127607,0.013183461089,0.939873588294,0.336952258387,0.0541018450332
-0.107096731663,-0.267470508814,0.114323474467,-2.19411492348,0.0461031496525,2.03847670555,-0.697630345821,0.0494890250266,0.00435747765005,-0.0917288139462,0.0983055233955,0.677930355072,9.97760653263e-05,-0.792279481888,0.363214969635,0.496754831999,0.0106231266022,0.394392005766,0.0130732674428,0.940637456277,0.334843534807,0.0539450870094
-0.107001014054,-0.268832832575,0.11588652432,-2.18328642845,0.0461045578122,2.02527928352,-0.691334784031,0.0494890250266,0.0125679336488,-0.0751155018806,0.0907832309604,0.616381943226,0.000312933669193,-0.755503594875,0.37010884285,0.496751598065,0.0116828462621,0.398982051362,0.01283811572,0.941363770146,0.332886687684,0.0534405079688
-0.106730751693,-0.270129531622,0.11805742234,-2.17078065872,0.0461031496525,2.01045322418,-0.683385968208,0.0494890250266,0.0107645150274,-0.0430380031466,0.109637111425,0.557904183865,-0.000284576730337,-0.672349572182,0.388706535101,0.496773913839,0.0131684184503,0.404194648489,0.0126027442641,0.942221190331,0.330546413979,0.052909991698
-0.106192030013,-0.270924091339,0.121068321168,-2.15689063072,0.046104721725,1.99332880974,-0.672673106194,0.0494890250266,0.0232374332845,-0.0198094956577,0.12011423707,0.471783429384,9.27902947296e-05,-0.596491038799,0.402105897665,0.496608799797,0.0152388951935,0.409591210886,0.0121097075654,0.943373756805,0.327454864093,0.0516974044298
-0.105590589345,-0.271157711744,0.12320613116,-2.14876723289,0.0461050868034,1.98345518112,-0.665093481541,0.0494890250266,0.0406825691462,-0.00191632879432,0.118833139539,0.428441137075,-8.65734764375e-05,-0.513940274715,0.444515794516,0.496536212204,0.0159881698062,0.41115441801,0.0119456104492,0.943757723504,0.326418783516,0.051278057422
-0.104711815715,-0.271120369434,0.125245600939,-2.1421983242,0.0461056008935,1.97532224655,-0.65737837553,0.049498219043,0.0559412352741,-0.00404062960297,0.119391985238,0.365821629763,2.11642709473e-05,-0.456452846527,0.462508112192,0.496422582283,0.017980550885,0.4144627105,0.011554374401,0.944738187569,0.323731167433,0.0503426688002
-0.103490643203,-0.27099236846,0.127610877156,-2.13626170158,0.0461043231189,1.96743905544,-0.648450195789,0.049498219043,0.0716150403023,0.00841690879315,0.126294732094,0.274463772774,1.95695138245e-05,-0.386646687984,0.472463905811,0.496120817819,0.0202930998486,0.416984344838,0.0110679477194,0.945811171515,0.320790705743,0.0491126375636
-0.0977363884449,-0.269412666559,0.138093784451,-2.12512421608,0.046107750386,1.94610583782,-0.610587894917,0.049498219043,0.0932580828667,0.041207190603,0.182047903538,0.0650662109256,8.04891315056e-05,-0.237104684114,0.626184403896,0.49409535639,0.0285953587894,0.419256607311,0.00915131114093,0.949459260338,0.310760229487,0.0432602117585
-0.0960569679737,-0.268535256386,0.141527920961,-2.12438774109,0.0461043603718,1.94217860699,-0.599097669125,0.049498219043,0.0950104668736,0.0561686605215,0.198610603809,0.0212009120733,-5.85648995184e-05,-0.198519602418,0.664217710495,0.493378314915,0.0311320782713,0.418705630886,0.00858585872134,0.950539339907,0.307736792062,0.041222722132
-0.0945866182446,-0.267561048269,0.144495680928,-2.12424349785,0.046107493341,1.93938481808,-0.588906764984,0.049498219043,0.102099634707,0.0788903906941,0.202511698008,-0.00129367620684,-0.000191316881683,-0.171189531684,0.710850059986,0.49269397217,0.0336136672571,0.417821503615,0.0080208279521,0.951641045445,0.304600814969,0.039157759797
-0.0884956866503,-0.261403828859,0.155769780278,-2.12440276146,0.046104375273,1.93208992481,-0.54756218195,0.0495008453727,0.136625990272,0.166990205646,0.224614262581,-0.00319956731983,-6.57942437101e-05,-0.0887499824166,0.870962381363,0.491082460534,0.0417986126069,0.413870871668,0.0062428729157,0.955386295424,0.29348635273,0.0326161540533
-0.0865689367056,-0.258929222822,0.158949166536,-2.12445497513,0.0461036264896,1.93107688427,-0.535137355328,0.0495008453727,0.138621762395,0.189618617296,0.231233283877,-0.00472837919369,1.75456477791e-06,-0.0586651191115,0.898620843887,0.490842510004,0.0442883530254,0.412470724885,0.00575394930345,0.956524302267,0.289959136187,0.0308520708042
-0.0837736725807,-0.255216509104,0.163617864251,-2.12453579903,0.0461047701538,1.93047606945,-0.517806410789,0.0495008453727,0.156784921885,0.195809870958,0.260520666838,-0.00768454140052,0.0001035748719,-0.0104381768033,0.925575137138,0.490693182023,0.0469407184832,0.41099315152,0.00531247686736,0.957639287068,0.286437854397,0.0291912437637
-0.0806317180395,-0.250908881426,0.168790698051,-2.12456059456,0.0461046136916,1.93051493168,-0.498815983534,0.0495008453727,0.158903747797,0.238274484873,0.252623796463,0.00570913450792,2.0331610358e-05,0.00278134201653,0.978610038757,0.490586632145,0.0520037277688,0.408251736426,0.00463217465557,0.959619574389,0.280013970074,0.0264762471227
-0.0758992955089,-0.243400886655,0.176511391997,-2.12460970879,0.0461041256785,1.93092441559,-0.469909727573,0.0495008453727,0.170110851526,0.278529882431,0.280101925135,0.00103579764254,0.000235678162426,0.0316874422133,1.0163475275,0.490549120437,0.0580972218416,0.404452417343,0.00373100346835,0.962010165688,0.272026557187,0.0228926320701
-0.072914429009,-0.238621100783,0.181336313486,-2.12460255623,0.046105787158,1.93154144287,-0.452493727207,0.0495008453727,0.181206271052,0.281163662672,0.286641359329,-0.000500297057442,-0.000392916321289,0.0462418831885,1.01787483692,0.490565876248,0.0621553258959,0.401947361737,0.00321499308428,0.963447384429,0.267078832581,0.0206808640027
-0.0700920522213,-0.233856067061,0.185968250036,-2.12465262413,0.0461068078876,1.93262982368,-0.436134636402,0.0495008453727,0.177655771375,0.312362641096,0.299850523472,-0.000795353029389,-7.23093980923e-05,0.0827232226729,1.0296216011,0.490645236743,0.0655911877639,0.399752131573,0.00281414392842,0.964604314681,0.26300683124,0.0189209699985
-0.0665708556771,-0.227571442723,0.191943973303,-2.12473702431,0.0461062453687,1.93478238583,-0.416294813156,0.0495008453727,0.193678677082,0.33129543066,0.314119756222,-0.00339817604981,0.00021029272466,0.137127012014,1.05904591084,0.490866253863,0.0702773908094,0.396731155547,0.00234416365905,0.966010128517,0.257948005709,0.0167857839495
-0.0603844858706,-0.217389002442,0.201556459069,-2.12515830994,0.046106390655,1.9399895668,-0.383412718773,0.0495047867298,0.197190150619,0.348423659801,0.313776761293,-0.00876856409013,-0.000105422208435,0.200456351042,1.07079827785,0.491351670746,0.0781144935795,0.391854732401,0.00172049224357,0.968252060121,0.249575535987,0.0140370761991
-0.0567901059985,-0.211215153337,0.206968426704,-2.12536144257,0.0461064428091,1.94391083717,-0.365278214216,0.0495047867298,0.216787368059,0.364931046963,0.325826197863,-0.0156155359,-0.000233081067563,0.247239664197,1.06274783611,0.491784680474,0.0826205293644,0.388998704267,0.00138249934156,0.969414223478,0.245093142498,0.0127868373403
-0.0531021282077,-0.205067932606,0.212507233024,-2.12572741508,0.0461084246635,1.94855952263,-0.347028464079,0.0495047867298,0.218342542648,0.36438280344,0.328411847353,-0.0199531186372,0.000432479631854,0.302885591984,1.08440113068,0.492250993639,0.0872584424621,0.386137158442,0.00109053092128,0.970538496095,0.240653211545,0.0118266566291
-0.0490095280111,-0.198419108987,0.218363031745,-2.12604212761,0.0461117811501,1.95438981056,-0.327238827944,0.0495047867298,0.232956409454,0.377844631672,0.322874516249,-0.013334248215,-0.000176506582648,0.343994140625,1.09725034237,0.492881894985,0.0923049333999,0.383153197328,0.000792900717237,0.971734012177,0.235809673739,0.0112329137358
-0.0381495431066,-0.180346861482,0.234456181526,-2.12661194801,0.0462587438524,1.97291982174,-0.274900764227,0.0495047867298,0.230370283127,0.382906675339,0.346541970968,-0.0048215854913,0.0195820853114,0.432986795902,1.11593425274,0.494886660525,0.10621194964,0.375395111481,-8.59892452844e-05,0.974693915639,0.223267769286,0.0111025364278
-0.0336567275226,-0.172846704721,0.241029039025,-2.12665891647,0.0465326085687,1.98160517216,-0.253369420767,0.0495047867298,0.244398623705,0.399248301983,0.351570904255,0.000311628478812,0.00871901027858,0.477823197842,1.13954842091,0.495830877834,0.112058002923,0.372349936742,-0.000616995164199,0.975867606097,0.218051467627,0.0116443912839
-0.0291712991893,-0.165737837553,0.247339949012,-2.1266708374,0.046797607094,1.99020195007,-0.232794612646,0.0495047867298,0.245334282517,0.392930537462,0.340083748102,0.00277784559876,0.0211526118219,0.47172755003,1.14496433735,0.496689899147,0.117798008585,0.369506485573,-0.00117561868915,0.976936755308,0.213168261569,0.0123485223291
-0.0174603741616,-0.147314563394,0.263910114765,-2.12652373314,0.0483194813132,2.01341795921,-0.177380099893,0.0495074130595,0.237963780761,0.384117990732,0.350743830204,0.00481035932899,0.0586223341525,0.486162275076,1.15641462803,0.498682730508,0.133140046346,0.362290344846,-0.00332187195466,0.97979591579,0.19943338381,0.0146715263785
-0.014029298909,-0.142101228237,0.268886268139,-2.12643146515,0.0492178946733,2.02025198936,-0.161218062043,0.0495074130595,0.246646359563,0.364385992289,0.354219168425,0.00413836166263,0.071858920157,0.479729264975,1.15829098225,0.49913256889,0.137804787438,0.360289591586,-0.00422159679776,0.980593147883,0.19539838368,0.0154508186637
-0.00931054539979,-0.135232970119,0.275476098061,-2.1262383461,0.0503971688449,2.02909207344,-0.139303937554,0.0495074130595,0.241727769375,0.365851581097,0.334408342838,0.0187774654478,0.0544848330319,0.454168021679,1.14469492435,0.499594987662,0.144084158479,0.35767157213,-0.0054731768515,0.981654851039,0.189880827312,0.0164033192599
-0.00451575219631,-0.127985313535,0.28217741847,-2.12575221062,0.0515940077603,2.03775334358,-0.116825170815,0.0495074130595,0.237140238285,0.35576415062,0.341206014156,0.0301133673638,0.0617356486619,0.417785346508,1.12124860287,0.499998675079,0.15082386279,0.354852897479,-0.00692024560383,0.982773206674,0.183881368373,0.0172213967253
0.00644514849409,-0.112062424421,0.297471493483,-2.12364864349,0.0535459928215,2.05507969856,-0.0657707676291,0.0495074130595,0.227554813027,0.325969070196,0.308255672455,0.0599245205522,0.0222615990788,0.343804627657,1.03632152081,0.500303264948,0.165379574107,0.349296446738,-0.00984531100032,0.985025325674,0.171132340156,0.0184905240996
0.0102258045226,-0.106636583805,0.302649796009,-2.122600317,0.0539441294968,2.06077122688,-0.0485691539943,0.049509383738,0.218743622303,0.309568524361,0.298134446144,0.0598428994417,0.0249670818448,0.327970683575,0.993503272533,0.500351733013,0.170349508102,0.34754332808,-0.0108165062184,0.985724382558,0.166945869215,0.0189610461975
0.014198708348,-0.101050376892,0.308291405439,-2.12139749527,0.0544512011111,2.06644821167,-0.0300168953836,0.049509383738,0.212972000241,0.293544739485,0.285694241524,0.0709956139326,0.0249492116272,0.280297458172,0.966412782669,0.500270874025,0.175415724919,0.345864930554,-0.011839057613,0.986429047282,0.162613437741,0.0193504769302
0.0202560070902,-0.0924895405769,0.316009521484,-2.11887931824,0.0552433915436,2.07415723801,-0.0023010156583,0.049509383738,0.188829943538,0.254979938269,0.239120453596,0.0872705429792,0.0259165298194,0.230561971664,0.886202692986,0.50018610549,0.183180108393,0.343384737445,-0.013594495128,0.98754642461,0.155483823723,0.0197997272696
0.0235953126103,-0.0881571397185,0.320172786713,-2.1172721386,0.0558001920581,2.07805371284,0.0133890761063,0.049509383738,0.17568269372,0.237776279449,0.218674600124,0.0943839251995,0.0278266891837,0.211012005806,0.85232937336,0.500087634703,0.186989271286,0.342397895313,-0.0145104295689,0.988109722813,0.151739060022,0.0200967777594
0.0265666935593,-0.0840585157275,0.323493093252,-2.11553096771,0.0562417469919,2.08148121834,0.0271368864924,0.049509383738,0.170073404908,0.235199302435,0.179322242737,0.106309391558,0.0210247579962,0.191078275442,0.779700636864,0.50011281406,0.191081972141,0.341335317053,-0.0155945944273,0.988733491833,0.147461972252,0.0204415554727
0.0291327703744,-0.0806331634521,0.326149821281,-2.11391878128,0.0565796531737,2.08431148529,0.0393816977739,0.049509383738,0.152731791139,0.190529629588,0.154360383749,0.0911194160581,0.0183941200376,0.16328419745,0.758303761482,0.500164796562,0.194120796171,0.340614799957,-0.0164319997247,0.989240137766,0.143887926979,0.0207413448376
0.0330583751202,-0.07520904392,0.330318063498,-2.11100268364,0.0572576373816,2.08912348747,0.0624367669225,0.049509383738,0.0946547091007,0.169705331326,0.110895812511,0.0885841175914,0.0234613642097,0.139249011874,0.676189184189,0.500407172684,0.198940981398,0.33968140175,-0.0179621410765,0.99027343635,0.136287438323,0.0214852647525
0.0343411639333,-0.0728187561035,0.331926256418,-2.1096534729,0.0576355084777,2.09131193161,0.072824023664,0.049509383738,0.0713067948818,0.122171185911,0.0896070823073,0.0736582502723,0.0313856936991,0.136508330703,0.642284750938,0.500662679301,0.200754760669,0.33931114224,-0.0187035392636,0.990769656234,0.132467800894,0.0218620065123
0.0353276245296,-0.0711777880788,0.333105921745,-2.10855412483,0.0581422969699,2.09355044365,0.0833613872528,0.049509383738,0.0426741279662,0.0822486653924,0.0518331304193,0.0554844029248,0.0258702151477,0.129529371858,0.614807784557,0.50098475539,0.202198286779,0.339212943843,-0.0194589253701,0.991304278278,0.128183042984,0.0225007840151
0.0359665863216,-0.0696806684136,0.333616435528,-2.10753893852,0.0586251839995,2.0958442688,0.0942849069834,0.0495113544166,0.0254927780479,0.0711092874408,0.0087841488421,0.0486067458987,0.016300169751,0.110567711294,0.536769866943,0.501496244281,0.20312422749,0.339162192942,-0.020219834912,0.991904032114,0.123204430866,0.0231995100377
0.0350908488035,-0.0684200078249,0.331809163094,-2.10603165627,0.0591871291399,2.10036683083,0.118479624391,0.0495113544166,-0.0525511465967,-0.00112346000969,-0.0836052522063,0.0152795854956,0.0108711952344,0.0875859335065,0.475016981363,0.503371524879,0.202350086886,0.339722000202,-0.0215211303595,0.993411213973,0.109701922969,0.0252287275898
0.0340759418905,-0.0685004219413,0.330222129822,-2.10579419136,0.0592464953661,2.10165762901,0.12639631331,0.0495113544166,-0.0703023001552,-0.00723031163216,-0.107068307698,0.0151203721762,0.000286141992547,0.068337790668,0.451870173216,0.504222162722,0.201164953827,0.340027647679,-0.0218428733007,0.993950984988,0.104454956812,0.0259516863508
0.0327703095973,-0.0686838626862,0.328198432922,-2.10554671288,0.0592867843807,2.10267353058,0.133261919022,0.0495113544166,-0.0912015587091,-0.0147280348465,-0.137030139565,0.015500517562,-0.000232003178098,0.0610217340291,0.400669664145,0.505226025214,0.199476293428,0.340392453317,-0.0221349864431,0.994478198623,0.0990572061616,0.0266612911526
0.0309148672968,-0.0691209211946,0.325002580881,-2.10530614853,0.0593341812491,2.10376238823,0.140529215336,0.0495113544166,-0.102139003575,-0.0195724014193,-0.187820419669,0.0131632033736,0.000122529032524,0.0563175827265,0.363769710064,0.506447409266,0.197144097096,0.340859266011,-0.0224207589529,0.995012765336,0.0932357943083,0.027458928316
0.0242249965668,-0.0700218006968,0.313326627016,-2.10495519638,0.0594087131321,2.10632944107,0.157060712576,0.0495133250952,-0.178064107895,-0.0222825855017,-0.285518079996,0.00010900599591,0.000448127568234,0.0590518563986,0.323265850544,0.510591259204,0.188026230561,0.341898708543,-0.0231482021278,0.996418913874,0.075838111781,0.0293613574822
0.0214010346681,-0.0703469514847,0.308877527714,-2.10493612289,0.0594191923738,2.10708975792,0.161688938737,0.0495133250952,-0.196799129248,-0.0154751176015,-0.309995025396,0.00321838469245,0.0024363656994,0.0410410612822,0.300896048546,0.512100401493,0.184359815446,0.342208107498,-0.0233510967213,0.996830942654,0.069902819781,0.0299398319076
0.0175218638033,-0.0705850720406,0.303040593863,-2.10486149788,0.0594391562045,2.10768318176,0.16655343771,0.0495133250952,-0.226245120168,-0.0100884130225,-0.337459236383,0.00704903481528,0.00146921549458,0.0288535766304,0.242027461529,0.514004882154,0.179424449806,0.342498967351,-0.0235633813238,0.997294022032,0.06262860471,0.0304476312844
0.0125795928761,-0.0707706734538,0.295720100403,-2.10477852821,0.0594455488026,2.10813832283,0.170701146126,0.0495133250952,-0.266392737627,-0.00717097148299,-0.39156472683,0.0031139634084,0.00171678408515,0.0185206290334,0.180383428931,0.516278843841,0.173147245506,0.342769256818,-0.0237576305972,0.997755608732,0.054442608144,0.0309082893553
0.00370466243476,-0.0708370283246,0.28340151906,-2.10473442078,0.0594667568803,2.10886788368,0.175709590316,0.0495133250952,-0.320828795433,-0.000180388917215,-0.427869200706,-0.000323588843457,-0.000206890428672,0.0269067101181,0.153916627169,0.519989020188,0.162219397238,0.343043016911,-0.0240336710066,0.998357619853,0.0413584232221,0.0315265930222
-0.00219004414976,-0.0708103328943,0.275306850672,-2.10473036766,0.0594787597656,2.10935974121,0.178249284625,0.0495133250952,-0.339888364077,0.00168796267826,-0.466296106577,8.72504751896e-05,0.00103278388269,0.0255035702139,0.122071459889,0.522306880798,0.154959999172,0.343172658904,-0.024196769679,0.998649670455,0.0330996437389,0.031902434421
-0.00724469171837,-0.0707804709673,0.268467605114,-2.1047296524,0.0594872608781,2.10968327522,0.179854884744,0.0495133250952,-0.374981164932,0.00519475433975,-0.510546326637,-0.000124992409837,0.000360349164112,0.0193358510733,0.100946441293,0.524177601178,0.148756981314,0.343265633006,-0.0243115174648,0.998838823852,0.0263538430736,0.0321780785493
-0.0157694816589,-0.0707260295749,0.256864994764,-2.10473179817,0.0595005340874,2.11010742188,0.182004198432,0.0495133250952,-0.413221895695,0.00239543244243,-0.55660867691,-0.000379702250939,0.000489458965603,0.0190308131278,0.0965958684683,0.527148827651,0.138203293493,0.343402779201,-0.0244792389664,0.99905309813,0.0152206847336,0.0325884094686
-0.0286167990416,-0.0705718845129,0.239902630448,-2.10467910767,0.0595287196338,2.1106607914,0.184446781874,0.0495139807463,-0.455863237381,0.00274143693969,-0.594752132893,0.00254794443026,0.000364195089787,0.0175646729767,0.0550554469228,0.531160600696,0.122467172388,0.343574906221,-0.0247004237176,0.999144390433,-0.000902353291055,0.0331596380186
-0.0369945801795,-0.0704530850053,0.228777617216,-2.10460472107,0.0595443248749,2.11101174355,0.185352578759,0.0495139807463,-0.473544955254,0.00881100911647,-0.631354928017,0.00511146429926,-0.000783098337706,0.0193805731833,0.0517881251872,0.533411033959,0.112698989745,0.343683093129,-0.0248219892016,0.999074122037,-0.0105271426738,0.0335253112505
-0.0438006557524,-0.0703343227506,0.219747111201,-2.10451769829,0.0595456436276,2.11130285263,0.186009734869,0.0495139807463,-0.500972151756,0.00825922098011,-0.657068908215,0.00665391050279,-0.000285183021333,0.0242214053869,0.0470917336643,0.535336085532,0.10366526935,0.343782075653,-0.0249263807345,0.998928020576,-0.0193446784936,0.0338713502169
-0.0534485913813,-0.0701275989413,0.207085952163,-2.10435175896,0.0595689415932,2.11176967621,0.186849236488,0.0495139807463,-0.514443397522,0.0127519164234,-0.676521718502,0.0101260934025,0.00125218264293,0.0301484540105,0.045875672251,0.537662683938,0.0917275524215,0.343911323946,-0.0250700001041,0.998616784652,-0.0309137107675,0.034356290439
-0.0802847296,-0.0695112347603,0.171866551042,-2.1035130024,0.0595999658108,2.11316490173,0.18898409605,0.0495139807463,-0.564823567867,0.0119497682899,-0.735433220863,0.025712069124,0.000317433441523,0.0246759522706,0.0434547998011,0.542868363936,0.0582725755031,0.344407397133,-0.0254338975173,0.997045087789,-0.0629546940003,0.0359293191567
-0.102008499205,-0.0688107088208,0.143209442496,-2.10224485397,0.059624619782,2.11407971382,0.19054210186,0.0495139807463,-0.590362012386,0.0205105934292,-0.78187084198,0.0482704602182,0.00259383907542,0.020761558786,0.0323267392814,0.545702267175,0.0308983164335,0.344928230045,-0.0256882430458,0.995017163158,-0.088825026742,0.0372970979165
-0.111712664366,-0.0684520825744,0.130522847176,-2.10153460503,0.0596247650683,2.11449885368,0.191122725606,0.0495146363974,-0.608225345612,0.0217401329428,-0.807484567165,0.0469755157828,0.00154701946303,0.0332032181323,0.0414318144321,0.546422299332,0.0209960659145,0.345144190375,-0.0257622105929,0.994125549545,-0.0980785097545,0.0378326032685
-0.142110541463,-0.0671640709043,0.0905935540795,-2.09882879257,0.0596569180489,2.11640882492,0.193363055587,0.0495146363974,-0.622443139553,0.0260018631816,-0.841515183449,0.0651049464941,0.00229448964819,0.0324514396489,0.0441548712552,0.547776107785,-0.0198260109222,0.346200089126,-0.0260242557626,0.989506250825,-0.136232552254,0.0405069018126
-0.152206212282,-0.0667007043958,0.0771935731173,-2.09777164459,0.0596618577838,2.11694025993,0.194078356028,0.0495146363974,-0.62375587225,0.0280453115702,-0.832700490952,0.0691043958068,0.00271428073756,0.027737621218,0.048192717135,0.547599807773,-0.0327210136649,0.346567190766,-0.0260648290551,0.987748519815,-0.148197294664,0.0413648140553
-0.164013296366,-0.0661956742406,0.0615626350045,-2.09648799896,0.0596931762993,2.11747264862,0.195150509477,0.0495146363974,-0.62921255827,0.0183208286762,-0.834966719151,0.0658267214894,0.00110808666795,0.0282052475959,0.0600959993899,0.547048645028,-0.0469788368506,0.346996189636,-0.0260988879102,0.985617801107,-0.161513107971,0.0423073733772
-0.193146035075,-0.0652310401201,0.0214609913528,-2.09338855743,0.0597207322717,2.11888098717,0.197298884392,0.0495146363974,-0.596853911877,0.0147660812363,-0.835671901703,0.0707927793264,0.0101892268285,0.0216927155852,0.022526262328,0.543628179784,-0.0857192576552,0.348237868085,-0.0260408635806,0.978961067811,-0.197312347773,0.0449993138508
-0.202629059553,-0.0649931058288,0.00828342046589,-2.09226584435,0.0597355887294,2.11924147606,0.197771325707,0.0495146363974,-0.599813580513,0.0151919992641,-0.826263666153,0.0707652419806,0.000563315174077,0.023402871564,0.0359393954277,0.541960153725,-0.0980959497029,0.348708662301,-0.0259819111828,0.976574048604,-0.208616124684,0.0459062098427
