imanlab/tactile_prediction_flat_dataset/train/data_sample_2021-11-24-15-55-09/robot_state.csv
position_panda_joint1,position_panda_joint2,position_panda_joint3,position_panda_joint4,position_panda_joint5,position_panda_joint6,position_panda_joint7,position_panda_finger,velocity_panda_joint1,velocity_panda_joint2,velocity_panda_joint3,velocity_panda_joint4,velocity_panda_joint5,velocity_panda_joint6,velocity_panda_joint7,ee_state_position_x,ee_state_position_y,ee_state_position_z,ee_state_orientation_x,ee_state_orientation_y,ee_state_orientation_z,ee_state_orientation_w
0.53066855669,-0.0551795177162,-0.580672204494,-2.51801943779,-0.0970064923167,2.50261497498,-0.700854539871,0.0615040548146,-4.78486908833e-05,-0.000317721831379,-0.000176880173967,-5.25984114574e-06,6.76215640851e-05,2.05944797926e-05,-0.000248966796789,0.465166358497,-0.0243319298464,0.186504193119,0.0192329327983,0.93425563568,0.355956818876,0.00955218706675
0.53066945076,-0.0551813095808,-0.580669939518,-2.51802062988,-0.0970067977905,2.50261616707,-0.700855135918,0.0615040548146,0.000132933448185,0.000293444114504,0.000284110952634,0.000129211490275,-7.66175799072e-05,-0.00010058699263,-8.3021557657e-05,0.465166375,-0.024330311222,0.186504561151,0.0192328782272,0.934254911634,0.355958697936,0.00955309019425
0.530672967434,-0.0551777333021,-0.580668628216,-2.51801991463,-0.0970052778721,2.50261521339,-0.700854897499,0.0615040548146,0.00346519239247,2.49739568972e-05,0.000272737408523,4.82082941744e-05,0.00270188809372,-1.8958343162e-06,8.56189653859e-05,0.465166125697,-0.0243284422668,0.186503406577,0.0192326991261,0.93425437867,0.355960152763,0.00955136382283
0.530671834946,-0.0551797971129,-0.580669283867,-2.51801562309,-0.0970056429505,2.50261545181,-0.700856566429,0.0615040548146,-0.000572729099076,0.000787042838056,-0.00033849675674,0.000272444973234,-7.52740743337e-05,-7.98206820036e-05,9.7670359537e-05,0.465168430784,-0.0243291264841,0.186505904107,0.0192335717967,0.934254290349,0.35596025492,0.00955443786223
0.530676603317,-0.0551782660186,-0.580667853355,-2.51802182198,-0.0970062687993,2.5026140213,-0.700853824615,0.0615040548146,-0.000519725144841,0.00093277846463,-0.000179269482032,0.000156889407663,3.57184944733e-05,5.47573326912e-05,-0.00021141799516,0.46516520529,-0.0243262004567,0.186502728838,0.0192323921587,0.934253595656,0.355962255682,0.00955019951092
0.530677080154,-0.0551793090999,-0.580669522285,-2.51802039146,-0.0970053747296,2.50261712074,-0.700853168964,0.0615040548146,-0.000148072096636,7.80958725954e-05,-0.000432211672887,0.000473921420053,-0.0010254959343,3.94019334635e-05,-0.000291885779006,0.465166634238,-0.0243266345783,0.186503971655,0.0192328071996,0.934254025514,0.355961032262,0.00955291239284
0.530675172806,-0.0551809966564,-0.580667257309,-2.51801753044,-0.0970061570406,2.50261712074,-0.700853645802,0.0615040548146,-4.13807829318e-05,9.78483149083e-05,4.47895690741e-05,-5.56817140023e-05,5.01150861965e-06,-3.54323346983e-05,-5.08445846208e-05,0.465168196095,-0.0243265074424,0.186505799418,0.0192335271426,0.934253764181,0.355961623797,0.00955497866737
0.530680000782,-0.0551769286394,-0.580669224262,-2.51802301407,-0.0970065146685,2.50261449814,-0.70085388422,0.0615040548146,-3.8062218664e-05,0.000713011715561,4.75340993944e-06,-0.000377059273887,3.39125617757e-05,5.32525700692e-05,-0.000408747320762,0.4651646295,-0.0243253153337,0.186501760759,0.0192323658665,0.934253183173,0.355963366335,0.00954920661892
0.530680000782,-0.0551793426275,-0.580669403076,-2.51801919937,-0.0970063507557,2.50261521339,-0.700855493546,0.0615040548146,-0.000159939954756,0.000378808996174,0.00010338449647,0.000442873657448,0.00015628397523,5.25951145391e-05,-3.76822281396e-05,0.465166856373,-0.0243253356001,0.186504281798,0.0192330069144,0.934252947769,0.355963861762,0.00955247789697
0.530680000782,-0.0551811791956,-0.58066868782,-2.51801681519,-0.0970065072179,2.50261545181,-0.700854241848,0.0615040548146,-0.000549348827917,0.000385458290111,-7.10324311513e-05,0.000604012049735,-0.000245736591751,6.81986202835e-05,-7.74392628955e-06,0.465168268395,-0.024324962923,0.186505977356,0.0192334275203,0.934253019629,0.355963593707,0.00955459155114
0.530681431293,-0.0551800839603,-0.580670237541,-2.5180208683,-0.0970067679882,2.50261497498,-0.700855016708,0.061504714191,-0.000192613195395,0.00052077381406,-0.000337655626936,-4.27082559327e-05,-0.000176338435267,-7.42672127672e-05,-0.000277793791611,0.46516613477,-0.024324965646,0.186503872596,0.019232662055,0.934252868812,0.355964102331,0.00955192986007
0.530680239201,-0.0551794655621,-0.580671131611,-2.51802182198,-0.0970053002238,2.50261616707,-0.700855195522,0.061504714191,2.03426880034e-05,-0.00123391509987,-0.00019308066112,9.09374066396e-05,-3.35795516548e-06,4.09582353313e-05,5.16321924806e-05,0.46516581428,-0.0243258434628,0.186503350308,0.0192322866397,0.934253409661,0.355962704415,0.0095518814196
0.530681014061,-0.0551805756986,-0.580669641495,-2.5180208683,-0.0970056429505,2.50261473656,-0.700854003429,0.061504714191,5.54590260435e-05,-0.000381131190807,-1.60869531101e-05,-0.000107189669507,-3.38666859534e-06,-6.86350176693e-05,0.000301632971969,0.465166150354,-0.0243247852269,0.186504047661,0.0192322715458,0.934253183453,0.355963290556,0.00955219349121
0.530683755875,-0.0551803670824,-0.580670893192,-2.51801967621,-0.0970061272383,2.50261616707,-0.700853705406,0.061504714191,0.000171494699316,-0.000184205695405,-1.95675947907e-05,0.000221950511332,-7.03961777617e-05,3.34753094648e-05,-0.000368677283404,0.465167018952,-0.0243241563181,0.186504559299,0.0192328601241,0.934252887182,0.355964007432,0.00955327073013
0.530686020851,-0.0551814362407,-0.580669164658,-2.51801943779,-0.0970054268837,2.50261664391,-0.700853586197,0.061504714191,-0.000285768153844,-0.000256822502706,0.000818459142465,0.000347908731783,3.8772109292e-06,-0.000242870737566,0.00017192393716,0.46516747086,-0.0243221949275,0.186505138228,0.0192327257466,0.934252295048,0.355965542407,0.0095542536155
0.530688524246,-0.0551792420447,-0.580669999123,-2.51801919937,-0.0970056280494,2.50261569023,-0.700854361057,0.061504714191,0.000573857396375,0.000347030552803,0.00246002804488,0.000268191943178,3.28794922098e-05,0.000136749978992,1.79742892215e-05,0.465167118104,-0.024321370861,0.186504183264,0.0192328379553,0.934251800595,0.355966875631,0.00955270473299
0.530689120293,-0.0551801808178,-0.580669164658,-2.51801872253,-0.0970055162907,2.50261688232,-0.700854361057,0.061504714191,-0.000629249494523,-0.000188603953575,0.0027672231663,-0.000152120075654,3.51774106093e-05,-0.000118256466521,0.000565471127629,0.465167771653,-0.0243208745692,0.186504957267,0.0192330272765,0.934251589301,0.355967382852,0.00955408716323
0.530688166618,-0.0551798678935,-0.580670893192,-2.51801919937,-0.0970057696104,2.50261664391,-0.700854659081,0.061504714191,-0.000294001802104,-0.000166997706401,0.00240558316,0.000120804848848,-0.000347388180671,-0.000121021192172,-0.000369494518964,0.465167387191,-0.0243221327358,0.186504599344,0.0192329575488,0.93425197941,0.355966377473,0.0095535389136
0.530689120293,-0.0551800169051,-0.580670297146,-2.51802015305,-0.0970052480698,2.50261616707,-0.700852632523,0.061504714191,0.000139006355312,-0.00042939936975,-0.000333365693223,0.000188940903172,2.8963027944e-05,0.000111107663542,0.000131590320962,0.465166899104,-0.0243213448888,0.186504240293,0.0192325252711,0.934252144601,0.355965980564,0.00955304381207
0.530693471432,-0.0551800429821,-0.58066958189,-2.51801896095,-0.0970063507557,2.50261640549,-0.700855255127,0.061504714191,0.000256719096797,0.000210925980355,-0.000140195988934,0.000285553047433,4.67016361654e-05,3.36062257702e-05,-0.00017042637046,0.465167635751,-0.0243190974338,0.186504759293,0.0192331241721,0.934250613347,0.355969951472,0.00955362389395
0.530690133572,-0.0551815070212,-0.580670237541,-2.51801943779,-0.0970062464476,2.50261688232,-0.700853943825,0.061504714191,-6.33656018181e-05,0.00203672866337,1.79793314601e-05,5.7904253481e-05,-5.31414334546e-05,9.25950953388e-05,0.000102118603536,0.46516760221,-0.0243208144621,0.186505174621,0.0192329510152,0.934251569227,0.35596743301,0.00955433482192
0.53069204092,-0.0551804862916,-0.580669343472,-2.51801943779,-0.0970055907965,2.50261569023,-0.700855672359,0.061504714191,-0.000171182764461,-0.00013291410869,0.000351267197402,-0.000305031106109,1.6675074221e-05,6.72840405969e-06,-5.78496837988e-05,0.465167286411,-0.0243195648721,0.186504676314,0.0192326709144,0.934250869005,0.355969312245,0.00955335326959
0.53069794178,-0.0551792308688,-0.58066701889,-2.51801872253,-0.0970066562295,2.50261950493,-0.700854301453,0.061504714191,0.000876587291714,-0.000231380137848,0.000983231351711,-0.00021683597879,0.00427817925811,3.07910049742e-05,-0.000239139219048,0.465168463889,-0.0243159793341,0.186504779951,0.0192338981415,0.934249490706,0.3559728262,0.00955473545206
0.530697584152,-0.0551798045635,-0.58066868782,-2.51801800728,-0.0970064848661,2.50261855125,-0.700854718685,0.061504714191,0.000411606655689,-0.00409218668938,0.00284565566108,0.000318931823131,-0.00534529332072,-1.27624161905e-05,-1.18265472793e-06,0.465168637956,-0.0243168158579,0.186505261918,0.019233726038,0.934249776718,0.355972077815,0.00955499797249
0.530702292919,-0.0551808439195,-0.580668509007,-2.51802206039,-0.0970055609941,2.50261902809,-0.700855731964,0.061504714191,-0.000136312766699,-0.000487563200295,0.00162646558601,-0.000134397356305,-8.85730769369e-05,3.07532864099e-05,0.00014391055447,0.4651671069,-0.024314265414,0.186504099834,0.0192326275048,0.934248856235,0.355974579271,0.00955401807382
0.5307046175,-0.0551812760532,-0.580667972565,-2.5180182457,-0.0970055237412,2.50261807442,-0.700855016708,0.061504714191,0.00208154274151,-0.000101868026832,-0.000212679457036,1.76096436917e-05,-2.79722244159e-05,9.01304974832e-06,-0.000260262342636,0.465168899373,-0.0243131490487,0.186505754467,0.0192332603606,0.934248453394,0.355975554582,0.00955579681403
0.530701816082,-0.0551818199456,-0.580669283867,-2.51801633835,-0.0970055758953,2.50261950493,-0.700855672359,0.061504714191,-0.000139044379466,0.000420031195972,-0.00321529223584,-0.000464488839498,2.66368169832e-05,-2.43116810452e-05,-0.000132729634061,0.465169958698,-0.0243149662218,0.18650678974,0.0192337633675,0.934249084554,0.355973829931,0.00955732424852
0.530704677105,-0.0551813915372,-0.580670416355,-2.5180208683,-0.0970053821802,2.50262093544,-0.700855493546,0.061504714191,-7.20548268873e-05,0.000175602632225,-0.000354064599378,0.000148990628077,-9.71480621956e-05,-5.46289884369e-05,-5.55528895347e-05,0.465168145687,-0.0243140028791,0.186504940225,0.0192330303103,0.934248822199,0.355974600342,0.0095557502237
0.530706167221,-0.0551794730127,-0.58067035675,-2.51801753044,-0.0970058813691,2.50262284279,-0.700856029987,0.061504714191,9.82195415418e-05,0.000150295731146,8.22911024443e-05,-0.000362576334737,-1.99198184418e-05,0.000604367232881,5.13276900165e-05,0.465169905165,-0.0243135548842,0.186505704179,0.0192343139877,0.934248358523,0.355975709298,0.00955718771186
0.530707001686,-0.0551797002554,-0.580669879913,-2.51801943779,-0.0970065891743,2.50262236595,-0.700855612755,0.0609583668411,-0.000100896890217,-0.00123684771825,-0.000380005774787,0.000236904365011,-0.000101417026599,-0.000888824637514,-1.61582338478e-05,0.465168979472,-0.0243129115461,0.186504996715,0.0192340398949,0.934248100908,0.355976428175,0.00955614614726
0.530705690384,-0.0551789812744,-0.580669820309,-2.51801776886,-0.0970062240958,2.50262212753,-0.700856506824,0.0609583668411,-0.00381963979453,0.000405077647883,0.00262756366283,-0.00235222233459,7.55142900744e-05,-8.62843880896e-05,0.000488308141939,0.465169581896,-0.024313586105,0.186505358615,0.0192343030513,0.93424821968,0.355976093793,0.00955646084375
0.530710577965,-0.0551806055009,-0.580671191216,-2.51802062988,-0.0970058813691,2.50262236595,-0.700857400894,0.0609583668411,0.000196280598175,3.58053803211e-05,0.000415547867306,-0.00029612146318,3.9081369323e-05,4.90781385452e-05,8.01308415248e-05,0.465168310715,-0.0243116005505,0.186504614854,0.0192333390507,0.934247441206,0.3559782077,0.00955576254049
0.530712127686,-0.0551807060838,-0.580670058727,-2.51802277565,-0.0970053076744,2.50262093544,-0.700857102871,0.0609583668411,-0.000310421513859,-7.08144070813e-05,0.00209055677988,-0.000306536909193,7.47551166569e-05,0.000213266699575,0.000321782601532,0.465167363905,-0.0243103531645,0.186503919877,0.0192326629645,0.934247155923,0.355979023892,0.0095546092655
0.530709922314,-0.05517982319,-0.580671072006,-2.51801538467,-0.0970056355,2.50262212753,-0.700856208801,0.0609583668411,-0.00250453664921,0.00122264004312,2.12534741877e-05,0.00271828798577,-6.9915484346e-05,6.92670291755e-05,-0.000108112777525,0.465170862631,-0.0243121758558,0.186506615657,0.0192344944727,0.934247829236,0.35597706537,0.00955805449577
0.530713200569,-0.0551799684763,-0.580669045448,-2.51801419258,-0.0970053225756,2.50262284279,-0.70085477829,0.0609583668411,-0.000302875385387,0.00187805201858,0.00124630960636,-0.000399823533371,-4.20181568188e-05,0.000167459802469,-0.000239012602833,0.465171726144,-0.0243097297533,0.186507242153,0.0192347736639,0.934247177737,0.355978731611,0.00955911596714
0.530715584755,-0.055178951472,-0.580668509007,-2.51802015305,-0.0970061123371,2.50262236595,-0.700856208801,0.0609583668411,0.000277372950222,0.000773645238951,0.000141938959132,-0.000914332107641,-2.57406981063e-07,0.00015642568178,-0.000237917760387,0.465168799267,-0.0243082937307,0.18650443954,0.0192338149212,0.934246291358,0.355981204141,0.00955559685094
0.530720412731,-0.0551802031696,-0.580670058727,-2.5180182457,-0.0970061570406,2.50262641907,-0.700858175755,0.0609583668411,0.00170366733801,0.000143147044582,0.000185028809938,-0.000179728856892,-5.062843411e-05,1.5423149307e-05,-0.000205753240152,0.465170792847,-0.0243066984668,0.186506046818,0.0192347280716,0.934245313016,0.355983631035,0.00955899915458
0.530721068382,-0.0551819093525,-0.580669283867,-2.51801586151,-0.0970077738166,2.502628088,-0.700859427452,0.0609583668411,-5.29175886186e-05,0.00036418295349,0.00297659751959,2.98873219435e-05,-5.97328580625e-05,2.28336011787e-05,1.17540423616e-06,0.465172517386,-0.0243060782939,0.186507830556,0.0192358224155,0.934244585398,0.35598541292,0.00956155139037
0.530723750591,-0.0551809333265,-0.580667793751,-2.51801395416,-0.0970051065087,2.50262784958,-0.700857996941,0.0558219216764,-0.000247670861427,0.000132513800054,-0.0017709992826,-0.0003713601036,7.63309508329e-05,-6.12152871327e-05,3.39429279848e-05,0.465173332068,-0.0243041301711,0.186508203431,0.0192355000292,0.934244486672,0.35598567271,0.00956217403308
0.530726313591,-0.0551783367991,-0.580667197704,-2.51801919937,-0.0970062017441,2.5026268959,-0.700856983662,0.0558219216764,0.00158009701408,0.000267295516096,-0.000423348741606,-0.00057908607414,-3.09852548526e-05,-4.59839102405e-05,-9.46240033954e-05,0.465169992023,-0.0243029523064,0.186504543289,0.0192347997066,0.934243969506,0.355987199849,0.00955725646112
0.530725717545,-0.0551780425012,-0.580669522285,-2.51802229881,-0.0970055311918,2.50262618065,-0.70085889101,0.0558219216764,-0.000323860440403,0.000210296057048,0.000138923249324,-2.78429106402e-05,4.90080456075e-05,-5.66888161302e-07,-0.000134596019052,0.46516872802,-0.0243039684863,0.1865035782,0.0192338655,0.934244237011,0.355986579704,0.00955608632021
0.53072822094,-0.0551800988615,-0.580669105053,-2.51802325249,-0.097006842494,2.50262117386,-0.70085978508,0.0558219216764,0.00103455490898,-0.000896923942491,2.61698442046e-05,-9.79447213467e-05,-0.000134420421091,0.000114136862976,-3.92724996345e-06,0.465167537787,-0.0243025490699,0.186503532876,0.0192330519908,0.934243417923,0.355988824312,0.00955418379023
0.530728578568,-0.0551815181971,-0.580669522285,-2.51802515984,-0.0970053523779,2.50262284279,-0.700857818127,0.0558219216764,-0.000197659246624,-0.000180422954145,-0.000763612275477,0.000660608697217,3.40052174579e-05,-7.82937859185e-05,0.000162319294759,0.465167185784,-0.0243022979841,0.186503475497,0.0192323815021,0.934243979815,0.355987364734,0.00955497338973
0.530727684498,-0.0551841855049,-0.580670833588,-2.51800274849,-0.0970038101077,2.50262546539,-0.700859129429,0.0558219216764,-0.000194817403099,-0.000850153737701,-0.000185429409612,0.00382854812779,0.0016574873589,-0.00436003040522,-0.00268085743301,0.465178442398,-0.0243037844303,0.186513654691,0.0192366355639,0.934244342922,0.355985834803,0.00956789821924
0.530720710754,-0.0551918782294,-0.580673217773,-2.51798868179,-0.0969997644424,2.50263905525,-0.70085644722,0.0558219216764,0.000825854251161,-0.000504430383444,-0.000153707180289,0.00026250310475,6.43830062472e-05,-0.000128057625261,9.47251974139e-05,0.465188643054,-0.0243076810626,0.186523487509,0.0192398808248,0.934246948557,0.355978364058,0.00958488941159
0.530734181404,-0.0552071034908,-0.580664396286,-2.51799082756,-0.0969995707273,2.50264787674,-0.700859487057,0.0482564643025,0.00140257726889,-0.00029476796044,0.000442478165496,0.000213293737033,-2.82992859866e-05,-0.000383749604225,0.000191860483028,0.465192052176,-0.0242960871796,0.186529514517,0.0192397369538,0.934242388852,0.355990043805,0.00959582155432
0.530739307404,-0.0552059933543,-0.580660820007,-2.51798868179,-0.0970005914569,2.5026576519,-0.700860023499,0.0482564643025,0.000150358449901,-0.000452748237876,0.000128703715745,0.00259508215822,-1.08105109575e-06,0.00212773052044,0.000233686441788,0.465195248287,-0.0242922004829,0.186530914252,0.0192422239648,0.934240497766,0.355994736536,0.00960085391052
0.530738651752,-0.0551959462464,-0.580669164658,-2.51800322533,-0.0969999656081,2.50336575508,-0.70085811615,0.0482564643025,0.00014928629389,-0.000811410020106,-0.000617189856712,0.00276281964034,0.000104317034129,0.00745569868013,0.000431335269241,0.465339915077,-0.024290409597,0.186588189665,0.019356738753,0.934235477635,0.355992860789,0.00992329305538
0.530748963356,-0.0552016757429,-0.580664396286,-2.51801490784,-0.0970010608435,2.5034840107,-0.700860321522,0.0482564643025,0.000119858450489,0.000186446675798,0.000300807558233,-2.75276988759e-06,-4.78312904306e-06,-2.72490779025e-05,1.06933457573e-05,0.465361136127,-0.0242816399657,0.186597053123,0.0193738298868,0.934231056086,0.356002044566,0.00997659809537
0.530750095844,-0.055197391659,-0.580666184425,-2.51799416542,-0.0970011875033,2.50351858139,-0.700858294964,0.0482564643025,-0.000110033230158,-0.000300296640489,0.000203784904443,0.000527207739651,-0.000133953974,0.004345016554,0.000250666053034,0.465377674786,-0.0242826827369,0.186606895542,0.0193840420153,0.934231163598,0.356000542261,0.0100002736371
0.530749082565,-0.0551962964237,-0.580666363239,-2.51801896095,-0.097000233829,2.50357341766,-0.700860440731,0.0482564643025,-0.00163231941406,0.000849460077006,-9.166962991e-05,6.9237255957e-05,-7.5328703133e-06,0.000216605199967,0.000419933960075,0.465377799162,-0.0242819460139,0.186601577265,0.0193879578624,0.93423065084,0.356001283921,0.0100141726125
0.530750095844,-0.0551975443959,-0.580668330193,-2.51801276207,-0.0969981774688,2.50357937813,-0.700858831406,0.0482564643025,0.000154293767991,-0.000411779357819,0.000376286916435,0.000193167099496,1.63659569807e-05,0.000662589503918,0.000139841431519,0.465381557426,-0.024282313969,0.186604728185,0.0193892015686,0.934231315849,0.355999315208,0.0100197108899
0.530750870705,-0.0552032068372,-0.580664753914,-2.51799654961,-0.0970005393028,2.50360846519,-0.70085901022,0.047634601593,0.000131071254145,-0.000359612138709,0.000500044261571,0.000430425570812,-2.61757013504e-05,0.00112211459782,0.000269389041932,0.465396769307,-0.0242803380158,0.186616754989,0.0193977752428,0.934229834933,0.356002034545,0.0100445468654
0.530752122402,-0.0551996454597,-0.580668568611,-2.51800680161,-0.0970007926226,2.50366401672,-0.70085901022,0.047634601593,0.000267939874902,-0.000528350938112,-4.00812459702e-05,-0.00118466280401,-7.4295901868e-05,0.00343673909083,-0.000173832871951,0.465403475032,-0.0242809423848,0.186616505942,0.0194051693934,0.934229693664,0.356001446026,0.0100642431331
0.530752599239,-0.0551959238946,-0.580665767193,-2.51801490784,-0.0970011353493,2.50368833542,-0.700859487057,0.047634601593,-0.00316308857873,0.00036728545092,-0.000331462215399,0.000381814374123,-1.97562294488e-05,3.00239662465e-05,0.000141076059663,0.465404581835,-0.0242792409845,0.186614179195,0.0194080269842,0.934228727546,0.356003657706,0.0100701787914
0.530754029751,-0.0551983825862,-0.580663979053,-2.51800441742,-0.0970002859831,2.50370359421,-0.700859546661,0.047634601593,0.000194319029106,-0.000372155453078,0.000422273384174,0.000609692186117,-7.7266835433e-05,0.000354481453542,1.40101064972e-05,0.465413144836,-0.024277758649,0.18662078301,0.0194122410062,0.934228112862,0.35600466349,0.0100835160291
0.530757427216,-0.0552009344101,-0.580665230751,-2.51800203323,-0.0969998687506,2.50372695923,-0.700859963894,0.047634601593,0.000299828214338,-0.000546335533727,-0.000169159320649,-0.000139152747579,-1.97612644115e-05,0.00103279622272,0.000442016054876,0.465419666164,-0.0242764178499,0.18662492368,0.019416206043,0.934227482534,0.356005720803,0.0100969431788
0.530757665634,-0.0551995411515,-0.580665171146,-2.51800727844,-0.096999168396,2.50374770164,-0.700860142708,0.0474796257913,0.000289439340122,0.000358144752681,-3.26755980495e-05,-0.000207968580071,-0.00011737098248,-0.000182240342838,-0.000458827213151,0.465421538654,-0.0242759785255,0.186624261798,0.0194184959658,0.93422728951,0.356005910177,0.0101037198243
0.530755698681,-0.0551985390484,-0.580666899681,-2.51800823212,-0.0969996973872,2.50377058983,-0.70085889101,0.0474796257913,0.000446024321718,-8.50509750308e-05,0.00025322343572,-0.00064695806941,4.84825650346e-05,0.000279803934973,-1.11297476906e-05,0.465425815355,-0.0242775599586,0.186625640927,0.0194222844182,0.934227861569,0.356003924595,0.0101135005779
0.530756056309,-0.0551994889975,-0.580667555332,-2.51800727844,-0.097000874579,2.50378251076,-0.700859308243,0.0474796257913,0.000453302898677,0.000480358896311,-0.000334369164193,7.45350234865e-06,-3.82283142244e-05,9.3410948466e-05,-0.00105599954259,0.465428944332,-0.0242776238143,0.186627514377,0.019424687589,0.934227548952,0.356004432158,0.0101198943333
0.530756890774,-0.0552000515163,-0.580665528774,-2.51800608635,-0.0969992652535,2.50379085541,-0.70085889101,0.0474796257913,0.000145211291965,-8.11537465779e-05,-0.000253453414189,-2.6945848731e-05,-4.13437919633e-05,7.77073291829e-05,-1.16557857837e-05,0.465431446047,-0.0242761396462,0.186629025565,0.0194258386449,0.934227263004,0.356004978382,0.0101248656831
0.530758559704,-0.0552001297474,-0.58066624403,-2.51800489426,-0.0969997271895,2.50380086899,-0.700858652592,0.0474796257913,-0.00203249789774,-0.0012286498677,-0.000218402623432,-0.000151330517838,8.94979384611e-05,-0.000110503337055,-5.87635186093e-05,0.465434083607,-0.0242755714479,0.18663052919,0.019427711845,0.934226928637,0.35600560907,0.0101299465445
0.530761122704,-0.0551990494132,-0.580667853355,-2.51801156998,-0.0970004945993,2.50382399559,-0.700859189034,0.0474796257913,-3.76187563234e-05,-0.000463413540274,0.000292878161417,-0.000157617061632,-3.69619738194e-05,-9.73825171968e-06,-0.000137073991937,0.465435966482,-0.0242749036552,0.186629567622,0.0194305736815,0.934226356714,0.356006742295,0.0101373741244
0.53075915575,-0.0551992841065,-0.580666363239,-2.51800775528,-0.0969995483756,2.50382995605,-0.700858771801,0.0474796257913,0.000301046326058,0.000333617528668,-8.41244982439e-05,0.000361962127499,2.85156493192e-05,-2.40845747612e-05,-8.26711766422e-05,0.465439048246,-0.0242751450125,0.186631762564,0.0194320760596,0.934226592137,0.356005906384,0.0101421530395
0.530763208866,-0.0551988855004,-0.580667853355,-2.51800608635,-0.0970001071692,2.50383806229,-0.700858354568,0.0474796257913,0.000227229145821,0.000308475951897,-0.0004760226293,-2.01172788366e-05,7.81430062489e-05,8.36623439682e-06,0.000327655754518,0.465441580625,-0.0242739917931,0.186633021145,0.0194338868874,0.934226046691,0.356007114822,0.0101465070827
0.530762076378,-0.0551978498697,-0.580665111542,-2.5180106163,-0.0970002487302,2.5038459301,-0.700857937336,0.0474796257913,-0.000163325516041,0.00100193545222,0.00016387879441,-0.000595404184423,4.37859707745e-05,-3.70382767869e-05,0.000125716353068,0.465441094592,-0.0242731226664,0.186631600848,0.0194344673239,0.934225733317,0.356007872788,0.0101476542682
0.530766010284,-0.0551966652274,-0.580664694309,-2.51800513268,-0.0970006734133,2.50386381149,-0.700860321522,0.0474796257913,-0.000264664005954,0.000703726604115,0.000151029584231,-0.000159070666996,-8.42199879116e-05,4.95194326504e-05,-0.000330118724378,0.465447461462,-0.0242712508332,0.186635026744,0.0194387428929,0.934224289519,0.356011133346,0.0101579902648
0.530769646168,-0.0551965758204,-0.580664873123,-2.51800727844,-0.0969998165965,2.50387024879,-0.700859189034,0.0474796257913,-5.28568707523e-05,-0.000327608897351,-0.000342111947248,-0.000325494504068,-8.13981605461e-05,8.86787674972e-05,0.000196180626517,0.465447925031,-0.0242694652891,0.186634744805,0.0194391103581,0.934223935409,0.356011981263,0.0101601368185
0.530770421028,-0.0551996901631,-0.580664634705,-2.5180079937,-0.0969990715384,2.50387787819,-0.70085889101,0.0474796257913,-0.000529663870111,-0.000332498748321,-0.000744314515032,-0.000385506107705,-1.05581102616e-05,0.000154755878611,-3.51845592377e-05,0.465449768378,-0.02426924464,0.18663652752,0.0194398053017,0.934224248397,0.356010961981,0.0101657420343
0.530769824982,-0.0551984794438,-0.580667734146,-2.5180079937,-0.0970000177622,2.50390744209,-0.70085978508,0.047363396734,-8.37076149764e-05,-0.000468408718007,5.44486101717e-05,0.000701284501702,0.000137406284921,-0.000138194591273,0.000104771075712,0.465455787177,-0.0242702162713,0.186638691516,0.0194449486311,0.934223901887,0.356011233589,0.0101782296482
0.530772686005,-0.0551987364888,-0.580665290356,-2.51800894737,-0.0969983562827,2.50391530991,-0.700858414173,0.047363396734,4.54534783785e-05,0.000795635103714,0.000138012212119,0.000314530741889,-8.96483179531e-05,7.53814965719e-05,1.11263016151e-05,0.465457211302,-0.024267546427,0.186639190464,0.0194455944358,0.934223362911,0.356012508148,0.0101818847024
0.530773639679,-0.0551994778216,-0.580664873123,-2.51800990105,-0.097000181675,2.50392413139,-0.700858831406,0.047363396734,0.000523126684129,0.000138980831252,0.00049773871433,0.000467511737952,6.74024413456e-05,2.65669405053e-05,-0.000495340209454,0.465458804355,-0.0242668558626,0.186639945971,0.0194473252338,0.934222689802,0.356014068119,0.0101857934291
0.530773341656,-0.0551998242736,-0.580669105053,-2.51800775528,-0.0969996452332,2.50395083427,-0.700859665871,0.047363396734,0.000147008802742,-0.000174915548996,0.00167913315818,0.00246756663546,0.00014532826026,-0.000124378449982,0.000631813425571,0.465465482369,-0.0242687184201,0.186643409345,0.0194518975467,0.934223155415,0.356012203238,0.0101995293343
0.530779004097,-0.0551981627941,-0.580665171146,-2.51801133156,-0.0969992801547,2.50396466255,-0.700859725475,0.047363396734,-0.000382172991522,0.000523377791978,0.000625406333711,-0.000250626937486,-8.4033839812e-05,0.00048025129945,-8.35099781398e-05,0.465466845077,-0.0242641386641,0.186642707102,0.0194535556343,0.934221347527,0.35601673584,0.0102037485446
0.530780136585,-0.0551974885166,-0.580665171146,-2.51801204681,-0.0970002934337,2.50397324562,-0.70085889101,0.047363396734,-3.76076350221e-05,0.000117586925626,7.19950621715e-05,-9.59621502261e-07,-6.92226167303e-05,8.63305904204e-05,-0.00217622914352,0.465468309919,-0.0242636226875,0.186642976735,0.0194551643561,0.934221059512,0.35601730907,0.0102070501539
0.53077852726,-0.0551971867681,-0.580667853355,-2.51800584793,-0.0970008298755,2.50398778915,-0.700859367847,0.047363396734,-0.000112773494038,-6.60250880173e-05,-0.000280585780274,-0.000121239565487,-8.39526110212e-05,0.00193563266657,-2.270634468e-05,0.465474177469,-0.0242657448606,0.186646670938,0.0194589407749,0.934221512085,0.356015644542,0.0102164821689
0.530775427818,-0.0551983527839,-0.580668270588,-2.51801109314,-0.096999630332,2.5040140152,-0.700859665871,0.047363396734,0.000427881866926,3.78732365789e-05,-0.000498052686453,0.000128234678414,1.52209013322e-05,0.00319255841896,-0.000139576091897,0.46547746124,-0.0242668107177,0.18664751886,0.0194617890358,0.934221994312,0.356013918,0.010227120129
0.530788779259,-0.0551981367171,-0.580662310123,-2.51800227165,-0.0969984382391,2.50404906273,-0.700858950615,0.047363396734,-2.69199445029e-05,-0.000269247480901,0.00379016948864,-0.00043293874478,-6.66133491904e-05,-9.65272465692e-06,0.000174093482201,0.465489589554,-0.0242578171874,0.186654357066,0.0194690875117,0.934218496428,0.356022099238,0.0102479316591
0.530789732933,-0.0551992692053,-0.580663919449,-2.51801300049,-0.0970008000731,2.50407528877,-0.700858056545,0.0473410710692,-0.000255583348917,0.000133338326123,-0.000180287359399,-0.000593026110437,-5.94697448832e-05,0.00167908205185,-0.000434907444287,0.465490475256,-0.0242575229943,0.18665318828,0.0194716540261,0.934218218944,0.356022468372,0.0102555244853
0.530788481236,-0.0551999509335,-0.580666005611,-2.51801323891,-0.0969988405704,2.50408911705,-0.700859963894,0.0473410710692,-0.000199779940885,-0.000104639315396,4.56698835478e-05,0.000395036826376,6.30611757515e-05,0.00130263599567,8.70620206115e-05,0.465492923429,-0.0242584984186,0.186654129025,0.0194731864714,0.934218470008,0.356021537106,0.0102620712389
0.530785262585,-0.0552000552416,-0.580669045448,-2.51800894737,-0.0969992130995,2.50410223007,-0.700857996941,0.0473410710692,-0.000350661866833,-0.00419765571132,-3.24392967741e-05,-0.000545575399883,-1.90123118955e-05,-0.000216137632378,7.88427641965e-05,0.465497934262,-0.0242617488226,0.186657401486,0.0194764549819,0.934219840776,0.356017512342,0.0102707055519
0.530784130096,-0.0551968850195,-0.580672264099,-2.51801204681,-0.0970012173057,2.50410914421,-0.700859487057,0.0473410710692,0.000165026271134,0.000291616393952,6.41601509415e-05,0.000213528226595,0.00011060097313,0.000112611887744,-0.000267778756097,0.465497471616,-0.0242639357661,0.186655548512,0.0194777510343,0.934219988048,0.356017055049,0.0102707032597
0.530784010887,-0.0551967285573,-0.580669522285,-2.51800394058,-0.097000002861,2.50411653519,-0.70085978508,0.0473410710692,0.000105732440716,-2.73471459877e-06,-0.000192436491488,0.000529817596544,8.2503160229e-05,0.00118487351574,-8.70463409228e-05,0.465502886057,-0.0242628945225,0.18665945349,0.0194803293712,0.934219566639,0.356017809673,0.0102779841177
0.530789256096,-0.0551980100572,-0.580666720867,-2.51800680161,-0.0969996452332,2.50412654877,-0.700857520103,0.0473410710692,0.000606898684055,-0.00132574071176,0.000200422990019,-0.000844428082928,6.43800012767e-05,-4.61929303128e-05,-0.000218625122216,0.465504086535,-0.0242588675003,0.186659803305,0.0194812238396,0.934218487585,0.356020470997,0.0102821831026
0.530794620514,-0.0552002489567,-0.580666363239,-2.51800656319,-0.0969996005297,2.50413799286,-0.700860142708,0.0473410710692,8.58408166096e-05,5.26583389728e-05,0.000151432672283,-0.000239326138399,4.70635204692e-05,5.04765148435e-06,0.000112914880447,0.465506988086,-0.0242559044571,0.186661647267,0.0194829565945,0.934216881899,0.356024402315,0.0102886645457
0.530789852142,-0.0551989935338,-0.580671429634,-2.51801347733,-0.096998848021,2.50414276123,-0.700859725475,0.0473410710692,-8.54461904964e-05,-0.000613607815467,-0.0037837207783,-0.000254669110291,-1.36141425173e-05,0.00255840900354,8.88120848686e-05,0.465504489444,-0.0242602521021,0.186659000144,0.019482156789,0.934218781124,0.35601950285,0.0102872658123
0.530790448189,-0.055198635906,-0.580670535564,-2.51801633835,-0.0969997346401,2.50414466858,-0.700857698917,0.0473410710692,-0.00117242208216,-0.000300385436276,-0.000197480272618,0.00057033111807,1.73402349901e-05,0.000230916251894,-0.0004435122828,0.465503269614,-0.0242595499282,0.18665763095,0.0194820353633,0.934218863675,0.356019323181,0.0102862169297
0.530793190002,-0.0551976747811,-0.580667972565,-2.51800990105,-0.0970000848174,2.50414919853,-0.700858771801,0.0465845912695,9.45442807279e-05,0.000585850095376,0.000501431815792,0.000328903697664,0.000102962032543,-5.52202836843e-05,0.000230729798204,0.465507554918,-0.0242573561761,0.18666057332,0.0194844542219,0.934217492976,0.356022642196,0.0102912482363
0.53080290556,-0.0551983527839,-0.580665051937,-2.51801204681,-0.0970006659627,2.50415730476,-0.700859844685,0.0465845912695,-0.000478700443637,-0.000613749143668,-0.0005526029272,0.00040186435217,1.43442439366e-05,5.43847818335e-06,-6.75651390338e-05,0.465508712952,-0.0242513356538,0.186660795271,0.0194854915293,0.934214885051,0.356029334928,0.0102944900506
0.530800521374,-0.0552004761994,-0.580667257309,-2.51800775528,-0.0969992503524,2.50416111946,-0.700859248638,0.0465845912695,-0.000369372399291,-0.000204006544664,-0.000247892632615,0.000504196970724,0.000151266183821,1.50959276652e-05,3.55874217348e-05,0.465511675581,-0.0242533304871,0.186663658852,0.0194863645364,0.934215975967,0.356026282574,0.0102994003134
0.53079777956,-0.0551990307868,-0.580670177937,-2.51801490784,-0.096999488771,2.50416302681,-0.700859963894,0.0465845912695,-0.000259180524154,0.000893104472198,0.000252289697528,-0.000479229056509,9.52852351475e-05,7.42472984712e-05,0.000547627452761,0.465508433462,-0.0242557989411,0.186660388954,0.019485384402,0.934216804371,0.356024254572,0.0102962161351
0.530805170536,-0.0551976040006,-0.580666959286,-2.5180118084,-0.0969989821315,2.50416994095,-0.70085889101,0.0465950965881,0.000393759604776,-0.000370364723494,-0.00021218956681,-0.000254893006058,-5.17369553563e-05,4.10490320064e-05,-0.000206485157833,0.465511455447,-0.0242510087148,0.186661769084,0.0194871502526,0.934215107274,0.356028490835,0.0103003745189
0.530807375908,-0.0551995411515,-0.580663859844,-2.51801133156,-0.0970000475645,2.50417137146,-0.700859248638,0.0465950965881,-0.000127285544295,-0.00041925595724,0.00329643022269,-0.000100982899312,-1.87754667422e-05,6.97662471794e-05,-2.97836850223e-05,0.465512373157,-0.0242484872723,0.186662894492,0.0194876840155,0.934213929416,0.356031500292,0.0103021716764
0.530803263187,-0.0551990233362,-0.580668210983,-2.51800537109,-0.0970010533929,2.5041718483,-0.700858175755,0.0465950965881,-6.29157948424e-05,-0.000198159978027,-0.00050637696404,-0.000301191990729,4.00451381211e-06,0.00120561581571,3.83742335544e-05,0.465514958382,-0.0242526962556,0.186665051519,0.0194892089813,0.934215475676,0.356027287204,0.0103046684429
0.530796229839,-0.0551968738437,-0.580671668053,-2.51800966263,-0.0969980806112,2.50417160988,-0.700859665871,0.0465950965881,-0.000713368935976,-0.00017024987028,-0.000131148291985,-0.00074251514161,6.39433201286e-05,-3.29568174493e-05,6.50205329293e-05,0.465512368834,-0.0242573874851,0.186662429486,0.0194876067257,0.934217513967,0.356022111808,0.0103017168835
0.530797243118,-0.0551974885166,-0.580673515797,-2.51801562309,-0.0970008224249,2.50417327881,-0.700859069824,0.0465950965881,0.000355194584699,0.000613758631516,-0.000166921672644,0.000416334107285,2.51784767897e-05,3.01689997286e-05,0.000244049937464,0.46551001446,-0.0242576568916,0.186660432949,0.0194873665759,0.934217354906,0.356022598379,0.0102997798951
0.530800819397,-0.055198263377,-0.580669343472,-2.51800966263,-0.0970015898347,2.50417423248,-0.70085889101,0.0465950965881,-0.00012465036707,-0.000111480025225,-0.000171078980202,2.33223872783e-05,-1.34653582791e-05,-2.87152906822e-05,-0.000243864618824,0.465513293117,-0.0242542701013,0.186663258567,0.0194889481359,0.934215883562,0.35602626928,0.0103033522931
0.530806064606,-0.0552002415061,-0.580665946007,-2.51801395416,-0.0970003083348,2.50417375565,-0.700857937336,0.0465950965881,2.87428720185e-05,6.95063208696e-05,0.00109825225081,-0.000326482229866,3.2461459341e-05,3.04544773826e-05,-6.71591624268e-05,0.465511667518,-0.0242499042544,0.186662320334,0.019487521349,0.934214706992,0.356029462686,0.0103023849697
0.530805766582,-0.0551984868944,-0.580666303635,-2.51801609993,-0.0970010012388,2.50417470932,-0.700859487057,0.0465950965881,-0.000344835105352,-0.000910686620045,0.000677945325151,0.00034974142909,-0.000172974250745,1.31301139845e-05,0.000326238106936,0.46551063892,-0.0242502947839,0.186660869948,0.0194875925442,0.93421443702,0.356030210387,0.0103008920861
0.530795454979,-0.055199585855,-0.580676674843,-2.51801395416,-0.0969993025064,2.50417518616,-0.700857937336,0.0465950965881,0.000386248197174,-3.68144319509e-05,-0.000342172483215,-0.00032280589221,9.42315746215e-05,-1.89159472939e-05,-8.40173815959e-05,0.465511330977,-0.0242597315302,0.186662047386,0.019487343477,0.934218640524,0.356019144901,0.0103025865778
0.53080445528,-0.055199444294,-0.580669701099,-2.5180079937,-0.0969998314977,2.50417733192,-0.700857639313,0.0465950965881,0.000181778494152,0.00180552224629,0.000296248967061,0.000200697264518,4.34425346612e-05,0.0018201644998,-0.000132586297696,0.465514961809,-0.0242525805509,0.186664668836,0.0194891632275,0.934215747293,0.356026527182,0.0103063890517
0.530805110931,-0.0551986768842,-0.580668866634,-2.51800751686,-0.0970017760992,2.50417780876,-0.700859248638,0.0465950965881,-0.000240211840719,0.000999240204692,8.50188516779e-05,-0.00093654851662,-3.83326114388e-05,0.000218048124225,-0.000281002139673,0.465515232047,-0.0242520784858,0.186664620601,0.0194899787684,0.934214906941,0.356028691641,0.0103062500506
0.530805110931,-0.0551991723478,-0.580669522285,-2.51800823212,-0.0970009788871,2.50417947769,-0.700858712196,0.0465950965881,0.000202099996386,-0.000472090992844,1.10875225801e-05,-0.000413285277318,2.13005951082e-05,-8.49814969115e-05,0.000187892554095,0.465515302772,-0.0242522550627,0.186664676494,0.0194898253319,0.934215218726,0.356027859195,0.0103070350682
0.530807733536,-0.0551976002753,-0.58066791296,-2.51801156998,-0.0969994291663,2.50417923927,-0.700859487057,0.0465950965881,-0.000265262642642,0.00174409500323,0.000384647602914,-0.000301979482174,-3.69132285414e-05,1.98162142624e-05,0.000584853813052,0.465513608988,-0.0242502070195,0.186662733124,0.0194888304621,0.934214554863,0.356029719545,0.0103048267565
0.530798017979,-0.0552085377276,-0.58067625761,-2.5180003643,-0.0970007553697,2.50418114662,-0.70085978508,0.0457828007638,0.000570121803321,-0.00049070030218,-6.08273039688e-05,0.000413376052165,-4.24815516453e-05,5.07382646902e-05,-7.8786879385e-06,0.465520136813,-0.0242581940291,0.186671516616,0.0194907341124,0.93421750976,0.35602154141,0.0103158847754
0.530799806118,-0.0552170686424,-0.580672621727,-2.5179901123,-0.096999950707,2.50418233871,-0.700859248638,0.0457828007638,-0.000143666911754,0.000495657674037,-5.49171636521e-05,0.000494692532811,4.07196193919e-06,0.000168288577697,-0.000186183053302,0.465526378086,-0.0242553649355,0.186679081832,0.019492121166,0.93421674503,0.3560231934,0.0103255007104
0.530798435211,-0.0552165433764,-0.580672621727,-2.51798987389,-0.0969998091459,2.50418281555,-0.700858354568,0.0457828007638,-6.14675445831e-05,0.000470231345389,0.000124661906739,-7.29484672775e-05,6.10280176261e-06,-0.000102035184682,-0.00043283359264,0.465526492018,-0.0242560378097,0.186679017377,0.0194922535015,0.93421716363,0.356022085253,0.0103255861559
0.530798912048,-0.0552156455815,-0.580674350262,-2.51799798012,-0.0970010086894,2.50418281555,-0.700858652592,0.0457828007638,4.49127946922e-05,0.000515656021889,-6.64424733259e-05,-9.66264633462e-06,-3.69245317415e-05,6.16769466433e-05,-0.000466267287266,0.465522577686,-0.0242564619892,0.186675418157,0.0194910028048,0.934217160967,0.356022285394,0.0103212864027
0.530799925327,-0.0552175007761,-0.58067381382,-2.51799583435,-0.0970003455877,2.50418448448,-0.700858771801,0.0457828007638,1.13151381811e-05,-0.00176663266029,0.000108986489067,0.000316735327942,5.48878560949e-05,0.0001646996825,0.00017517208471,0.465524207565,-0.0242556282918,0.18667715947,0.0194913737896,0.934216943488,0.356022755445,0.01032405632
0.53080034256,-0.0552157275379,-0.580673694611,-2.51799273491,-0.0969997867942,2.50418353081,-0.700858831406,0.0457828007638,0.0043952674605,0.002679790603,-0.000272841629339,4.47569073003e-05,-9.87231906038e-05,0.00054890406318,-3.12951415253e-05,0.465525230307,-0.0242555940732,0.186677613466,0.019491827348,0.934216926803,0.356022769819,0.0103242140956
0.530794799328,-0.0552158132195,-0.580675363541,-2.51798677444,-0.0970007628202,2.50418615341,-0.700859129429,0.0457828007638,-0.000470137660159,-0.000282579654595,-0.00014100172848,0.000117978052003,4.75303313578e-05,0.000198598470888,0.000111258901597,0.465528395952,-0.0242591760701,0.186680247233,0.0194937218741,0.93421798789,0.356019770926,0.0103280349316
0.530788183212,-0.0552159994841,-0.580680251122,-2.51799821854,-0.0970002189279,2.50418591499,-0.70085901022,0.0457828007638,0.00112517713569,0.000110657878395,0.000389064516639,-0.000499670102727,3.38700701832e-05,5.22254194948e-05,0.00013767828932,0.465522752099,-0.0242640498253,0.186675670449,0.0194911395984,0.934220142971,0.35601441176,0.0103227054933
0.530794978142,-0.055215395987,-0.580678761005,-2.51799726486,-0.0970001071692,2.50418376923,-0.700859308243,0.0457828007638,-1.00551524156e-05,0.000393855152652,0.000145738988067,0.000112728892418,5.89725596001e-06,6.61590747768e-05,-0.000222544273129,0.465522862593,-0.0242602943023,0.186675632327,0.0194909942277,0.934218652302,0.356018353906,0.010321928229
0.530796051025,-0.0552229396999,-0.580675244331,-2.51799297333,-0.0969988927245,2.50418543816,-0.700858473778,0.0457828007638,-0.00014209440269,6.4562168518e-06,0.000449289334938,0.000381784397177,1.50862388182e-05,0.000113277805212,0.000170490253367,0.465526543775,-0.0242576040313,0.186681007676,0.0194912611641,0.934218063899,0.356019671891,0.0103292175254
0.530792117119,-0.0553105436265,-0.580677270889,-2.51800894737,-0.097001105547,2.50418448448,-0.700859904289,0.0438219942153,0.000888983660843,-0.00570998713374,-0.000333059433615,0.00263143028133,-5.73046854697e-05,0.000151360480231,-0.00403944868594,0.465529570088,-0.0242535419206,0.186708102471,0.0194812096334,0.934218684972,0.356017589961,0.0103637080438
0.53080201149,-0.0554083436728,-0.580673158169,-2.51800441742,-0.0969983115792,2.50418329239,-0.700859606266,0.0438219942153,0.000196945926291,-0.00862714648247,-4.84922247779e-06,-6.30593349342e-05,-0.00016752317606,8.4957544459e-05,-0.000453534943517,0.465544105744,-0.0242398133306,0.186747910832,0.0194730522833,0.934216704801,0.356021768223,0.0104138821528
0.530805408955,-0.0555246807635,-0.580670416355,-2.51801013947,-0.0970004871488,2.50417518616,-0.700857818127,0.0438219942153,0.00348305515945,-0.0123786451295,-0.000107348096208,-0.00190022063907,-5.18358465342e-05,-0.00205470435321,0.000402743811719,0.465555207558,-0.0242274040141,0.186793518791,0.0194603951138,0.934215781034,0.356023279402,0.0104686053376
0.530809104443,-0.0557681247592,-0.580666959286,-2.51803517342,-0.0969998762012,2.50415277481,-0.700859725475,0.0438219942153,0.000183765761903,-0.0138417845592,0.000438133225543,-0.00114759325515,6.48693594485e-06,-0.00133427197579,-0.000213956329389,0.465568943535,-0.0242063273768,0.186872890332,0.0194325395991,0.934214554699,0.356025237733,0.0105627635965
0.530811011791,-0.0563126690686,-0.580666899681,-2.51804590225,-0.0970020219684,2.50406694412,-0.700859546661,0.0438219942153,-7.3390920079e-06,-0.0266965031624,-0.000592373078689,-0.000245754345087,-3.52024035237e-05,-0.00883643794805,-0.000374937022571,0.465614065639,-0.0241656478348,0.187072435857,0.0193716411849,0.934214982877,0.356020752304,0.0107855876019
0.530805826187,-0.05718222633,-0.580671906471,-2.51789784431,-0.0969992801547,2.50357866287,-0.700858235359,0.0438219942153,-0.00024784123525,-0.0420666337013,-3.8781123294e-05,0.0121845379472,2.23548777285e-05,-0.0351360365748,-9.66494189925e-05,0.465686432588,-0.0241154361878,0.187423456379,0.0192477100043,0.934222607167,0.35599930401,0.011051748637
0.530823111534,-0.0580886676908,-0.580659329891,-2.51749587059,-0.0970007404685,2.50267481804,-0.700859129429,0.0438219942153,0.000533730140887,-0.0459684096277,0.000580886786338,0.0213859844953,-3.90319000871e-05,-0.0458563454449,-2.80740150629e-05,0.465792216863,-0.0240569585501,0.187850911846,0.0191045250253,0.934226231624,0.355991101293,0.0112561429877
0.530842781067,-0.0591038279235,-0.580653846264,-2.51691508293,-0.0970008149743,2.50142025948,-0.700858712196,0.0438219942153,6.37161210761e-05,-0.0746323689818,-0.000274019897915,0.0553210265934,6.90567030688e-05,-0.103840842843,4.71321618534e-05,0.465918099554,-0.0240021396283,0.188358791137,0.0189296690985,0.93423463062,0.355972843893,0.0114305150335
0.530856013298,-0.0609850846231,-0.58066213131,-2.51541757584,-0.0970035716891,2.49832177162,-0.700859069824,0.0438219942153,-0.000175034074346,-0.10115300864,-0.000630524184089,0.0870949327946,3.46822162101e-06,-0.177647963166,-0.000179615512025,0.466176262478,-0.0239424309816,0.189395259108,0.0185626645389,0.934264723377,0.355908337711,0.0115805428467
0.530886173248,-0.0643302127719,-0.580653429031,-2.51210403442,-0.0970020368695,2.49130320549,-0.700860142708,0.0438219942153,0.00277432240546,-0.155129179358,0.00165685056709,0.154744014144,-1.23625359265e-05,-0.344118207693,-0.000332116323989,0.466602396659,-0.0238612358812,0.191359918925,0.0177891911619,0.934328376222,0.355785454413,0.0114341670916
0.530973255634,-0.0669562965631,-0.580627679825,-2.5093858242,-0.0970063582063,2.48525619507,-0.700859248638,0.0438219942153,0.00546697014943,-0.187955886126,0.00175580673385,0.216153398156,-0.000102875099401,-0.479729413986,-0.000600106897764,0.46692562844,-0.0237502616288,0.193248520455,0.0169648908481,0.934375556901,0.355714671113,0.0110264946506
0.531146466732,-0.0711858347058,-0.580560743809,-2.504550457,-0.0970122665167,2.47449707985,-0.70085978508,0.0438219942153,0.00763683812693,-0.236231923103,0.00570419523865,0.276691049337,-0.000246514362516,-0.619827866554,-0.000420673663029,0.467290267653,-0.0236223161545,0.195634181426,0.0158910128535,0.934431948156,0.355638110476,0.0102929120586
0.531742751598,-0.0863367319107,-0.579978346825,-2.4858212471,-0.0970222130418,2.43456721306,-0.700860440731,0.0440938547254,0.0204272381961,-0.363408088684,0.0199571084231,0.484837263823,-8.12924045022e-05,-0.967505216599,-0.000474228203529,0.468849384913,-0.0230978270463,0.205312508401,0.0118465679725,0.93458163447,0.355471190381,0.0075537959431
0.531965613365,-0.0924989804626,-0.579615950584,-2.47742819786,-0.0970245674253,2.41814661026,-0.700860798359,0.0440938547254,0.0121395336464,-0.408917725086,0.0269737653434,0.554280281067,-9.24654086703e-05,-1.08153223991,-0.000340701983077,0.469704395863,-0.0228934153864,0.209669331054,0.0102971793836,0.934619998287,0.35543584347,0.006692365882
0.532176077366,-0.100058332086,-0.579075455666,-2.46685504913,-0.0970268845558,2.39757728577,-0.70085978508,0.0440938547254,0.0116934673861,-0.44749340415,0.0351554490626,0.649501383305,-0.000829196185805,-1.17083179951,4.02020341426e-05,0.470698422217,-0.0226665764513,0.215139925891,0.00838046047,0.934658972477,0.355403176613,0.00556370293375
0.532385468483,-0.108011476696,-0.578423798084,-2.45498323441,-0.0970282629132,2.37687897682,-0.700859606266,0.0440938547254,0.010781369172,-0.48481836915,0.0424995310605,0.727613627911,-0.00149292836431,-1.26124835014,-0.000480228249216,0.472256330885,-0.022437925853,0.221735574378,0.00656229943518,0.934682323702,0.355386332391,0.00514241392645
0.533025324345,-0.133743286133,-0.575567185879,-2.41414141655,-0.0970293581486,2.31106996536,-0.700855195522,0.0440938547254,0.0122441733256,-0.585928618908,0.0751700624824,0.951774597168,-0.00162509887014,-1.41013479233,0.000832293007988,0.477391499233,-0.0217616427259,0.243038067825,0.00179128413478,0.934621127708,0.355596957034,0.00556262326928
0.533170580864,-0.140632405877,-0.574638605118,-2.40232396126,-0.0970347076654,2.29413080215,-0.700845658779,0.0440938547254,0.017014240846,-0.572657644749,0.0849123820662,1.00261318684,-0.000683040067088,-1.43811368942,-0.000358289049473,0.479627197852,-0.0215649713488,0.251574829896,0.000438129025795,0.934567028205,0.35572397231,0.00668827658319
0.533527851105,-0.153655052185,-0.572686672211,-2.37941646576,-0.0970292165875,2.26249647141,-0.700771093369,0.0440938547254,0.0153782889247,-0.603749394417,0.0987926200032,1.10969996452,-0.00017749457038,-1.43407332897,0.0254486557096,0.482251983368,-0.021315584572,0.261854207151,-0.000981414507632,0.934476231769,0.355924234382,0.00843493626567
0.533900678158,-0.165837332606,-0.570674419403,-2.35694742203,-0.097036190331,2.23371076584,-0.700120389462,0.0440938547254,0.018433758989,-0.61845433712,0.108564823866,1.16154611111,0.00174866197631,-1.43908691406,0.0247396379709,0.48543341696,-0.021077353233,0.274200970684,-0.00228989251709,0.934442010043,0.355931662165,0.011204365807
0.534561634064,-0.184293672442,-0.567374885082,-2.32075572014,-0.0970355346799,2.19133162498,-0.699453651905,0.0440938547254,0.0246575400233,-0.620457947254,0.11558380723,1.23909902573,3.45565567841e-05,-1.37525808811,0.0237340927124,0.490556632291,-0.0208524613989,0.294292147932,-0.00367824308931,0.93427749421,0.356122729571,0.0169892762652
0.534854471684,-0.193476170301,-0.565593421459,-2.30185174942,-0.09702796489,2.1707406044,-0.699048817158,0.0440938547254,0.0162488464266,-0.619941711426,0.118803858757,1.27612090111,0.000866027723532,-1.37076199055,0.0335108563304,0.493156364813,-0.0208307314663,0.304884312919,-0.00412876256065,0.934187987217,0.356166435529,0.0205238336494
0.535181701183,-0.203743562102,-0.563552200794,-2.28003048897,-0.0970136895776,2.14809203148,-0.698371648788,0.0440938547254,0.0130419228226,-0.605439245701,0.125026553869,1.29841077328,-0.000788362231106,-1.29827821255,0.0435605272651,0.496056364152,-0.0208969087591,0.317187686701,-0.00446107948832,0.934112349805,0.356076437583,0.0249757280989
0.535509347916,-0.215573459864,-0.561110794544,-2.25404572487,-0.0970275700092,2.12276053429,-0.697378754616,0.0441023893654,0.0165548231453,-0.589235603809,0.122831366956,1.31102240086,-0.00827489979565,-1.22740471363,0.054198294878,0.499552297959,-0.0211253540743,0.332716815918,-0.00457062081174,0.93402964344,0.355803658881,0.0311687441601
0.535982131958,-0.232186421752,-0.557541787624,-2.21674370766,-0.0970149412751,2.08877873421,-0.696156084538,0.0441023893654,0.0177558306605,-0.561679959297,0.117663927376,1.26161944866,-0.00399342505261,-1.09729254246,0.0364309288561,0.503800959235,-0.0215811519103,0.35352461311,-0.00437023167503,0.933809615786,0.355469382764,0.040274311205
0.53639113903,-0.242715924978,-0.555383324623,-2.19308567047,-0.0969988852739,2.06832575798,-0.695426702499,0.0441023893654,0.0140270907432,-0.540310919285,0.111046366394,1.21911513805,-4.95584536111e-05,-1.02748918533,0.0433796718717,0.506160496403,-0.021975748373,0.366703574364,-0.00413146553785,0.93361810337,0.355225593756,0.0464213881492
0.536682963371,-0.250703603029,-0.55370759964,-2.17515492439,-0.0969718173146,2.05329370499,-0.694732189178,0.0441023893654,0.0152379609644,-0.533100366592,0.113700278103,1.16925954819,-0.000916662451345,-0.964756250381,0.048255354166,0.508085246269,-0.022399971697,0.378797503331,-0.00385438232624,0.933435580149,0.354894201472,0.0522806550736
0.53692471981,-0.259968668222,-0.55184584856,-2.15487122536,-0.0968578532338,2.03660559654,-0.693895339966,0.0441023893654,0.0106969922781,-0.512214541435,0.0952593311667,1.09922814369,0.00471848249435,-0.879341423512,0.0415711067617,0.509730960481,-0.0229573234578,0.3909808124,-0.0036090214799,0.933252177348,0.354428539997,0.0583760067202
0.537189185619,-0.28304490447,-0.54806303978,-2.10750222206,-0.0968230515718,1.99894917011,-0.692348897457,0.0441023893654,0.000700281991158,-0.436220914125,0.0542273446918,0.819627702236,-0.00239484827034,-0.652151942253,0.0365105085075,0.512421749756,-0.0250694953971,0.419791376506,-0.0029845367629,0.932704204943,0.353037507157,0.0736103039514
0.537145376205,-0.290309846401,-0.547202646732,-2.09445261955,-0.0968221575022,1.98854708672,-0.691593110561,0.0441089570522,-0.00270398962311,-0.416426330805,0.0413856767118,0.718544483185,-9.44307248574e-05,-0.5745023489,0.0454725697637,0.512772815844,-0.0259503411992,0.428314937778,-0.00293794244755,0.932595488084,0.352308763115,0.0783298105278
0.537090182304,-0.297078222036,-0.546572208405,-2.08329057693,-0.0968314260244,1.97946941853,-0.690784394741,0.0441089570522,-0.00220685848035,-0.379027426243,0.0323337987065,0.589887917042,-0.000164681187016,-0.496070981026,0.0403915010393,0.512863018876,-0.0268361105625,0.435818190637,-0.00299730714236,0.932522791738,0.351536328439,0.0825497941354
0.536962866783,-0.304694056511,-0.546175062656,-2.07233738899,-0.0968632847071,1.96976423264,-0.690001964569,0.0441089570522,-0.0125546567142,-0.353329092264,0.0126191778108,0.472429633141,-0.00403589988127,-0.429165571928,0.0357155837119,0.512577173566,-0.0279540937466,0.443482196671,-0.00328862260668,0.932473835165,0.350642664961,0.0867839437267
0.535601019859,-0.317270189524,-0.546057581902,-2.05734467506,-0.0985061600804,1.95253705978,-0.688118577003,0.0441089570522,-0.0580098778009,-0.212743729353,0.000956463394687,0.209085956216,-0.0769149959087,-0.350280791521,0.0543580129743,0.510933582496,-0.0307842253204,0.454332723835,-0.00383310616087,0.93279296172,0.348576121308,0.0915275106217
0.534544110298,-0.320224881172,-0.546067476273,-2.05442643166,-0.100302994251,1.94673621655,-0.68727093935,0.0441089570522,-0.0655576065183,-0.137244716287,-0.00322131905705,0.1402605474,-0.141130238771,-0.320213764906,0.0409694723785,0.510019091118,-0.0320481228528,0.456331045077,-0.00369820051545,0.933091373601,0.347831234496,0.091324935361
0.533125162125,-0.322044342756,-0.546213269234,-2.05255699158,-0.104129552841,1.94078803062,-0.686643958092,0.0441089570522,-0.0874593853951,-0.0657263025641,-0.0130435274914,0.0640615522861,-0.272573202848,-0.303863465786,0.0286248717457,0.508914608639,-0.0338656483822,0.457277638165,-0.00265273904813,0.933454643877,0.347319712571,0.0895790586271
0.530277013779,-0.322463959455,-0.546476840973,-2.05210447311,-0.115382805467,1.93161582947,-0.685395181179,0.0441089570522,-0.0880454927683,0.0380546450615,-0.0110594080761,-0.0167461466044,-0.466884195805,-0.302977561951,0.0601652264595,0.507122138036,-0.037344023119,0.456407226684,0.000995891882471,0.934070592017,0.34704349914,0.08409486737
0.528692364693,-0.321043729782,-0.546802818775,-2.05265474319,-0.125005424023,1.92601168156,-0.684193789959,0.0441089570522,-0.0812105685472,0.117894485593,-0.025704851374,-0.0388900414109,-0.612968623638,-0.308748155832,0.0736670792103,0.506010814404,-0.0398571869517,0.454748402852,0.00448462479948,0.934485066504,0.347089360838,0.0790349536549
0.527397036552,-0.318561166525,-0.547343730927,-2.0534760952,-0.135951340199,1.92114341259,-0.683040440083,0.0441135540605,-0.0842120498419,0.182293042541,-0.0338051132858,-0.0645523294806,-0.758231043816,-0.28986671567,0.0718826055527,0.505107996866,-0.04249382167,0.452600158342,0.008704496025,0.934806795894,0.347367233256,0.0734608129875
0.523620069027,-0.306276917458,-0.549045085907,-2.05777740479,-0.182281136513,1.90850484371,-0.679153680801,0.0441135540605,-0.0825865119696,0.333578050137,-0.0392026752234,-0.107792854309,-1.20587205887,-0.239335790277,0.0641722530127,0.502895374945,-0.0524539671728,0.443716137549,0.0278694007548,0.934940115765,0.349816463604,0.0523327613535
0.521912753582,-0.299360066652,-0.549785077572,-2.05994081497,-0.207820117474,1.90396785736,-0.677907049656,0.0441135540605,-0.0938369706273,0.398969113827,-0.0385858565569,-0.121441282332,-1.44174683094,-0.237599775195,0.0691671967506,0.502197583916,-0.0577281794428,0.439397715826,0.0388771302244,0.934361949539,0.351719819282,0.0418268383708
0.520919024944,-0.295186966658,-0.550089240074,-2.06115937233,-0.222769230604,1.90172791481,-0.677242457867,0.0441135540605,-0.101682856679,0.434355974197,-0.031617090106,-0.117491684854,-1.53410542011,-0.215094432235,0.0687460526824,0.50188809028,-0.0607591443898,0.436976080587,0.0454075279852,0.933870010167,0.352903893158,0.0358301882665
