imanlab/tactile_prediction_flat_dataset/train/data_sample_2021-11-24-16-31-42/robot_state.csv
position_panda_joint1,position_panda_joint2,position_panda_joint3,position_panda_joint4,position_panda_joint5,position_panda_joint6,position_panda_joint7,position_panda_finger,velocity_panda_joint1,velocity_panda_joint2,velocity_panda_joint3,velocity_panda_joint4,velocity_panda_joint5,velocity_panda_joint6,velocity_panda_joint7,ee_state_position_x,ee_state_position_y,ee_state_position_z,ee_state_orientation_x,ee_state_orientation_y,ee_state_orientation_z,ee_state_orientation_w
0.0344039909542,0.0853755101562,-0.0353066436946,-2.55328297615,0.0425782166421,2.68656253815,-0.765443086624,0.0653225705028,-0.000144504825585,1.35186974148e-05,-2.05577657653e-06,0.000563035486266,1.77907513716e-05,6.1014379753e-05,0.000293439574307,0.464927416122,-0.000239870511658,0.129624937163,0.00126609077665,0.934366724809,0.355406604103,0.0253646610138
0.0344115421176,0.0853762701154,-0.0353041142225,-2.55328583717,0.0425779856741,2.68656516075,-0.765444159508,0.0653225705028,-0.000212355851545,-0.000989565742202,-0.00015087184147,-0.0032079431694,-2.17305441765e-05,7.87196549936e-05,0.000122727680719,0.464926361965,-0.000235181354779,0.129623820406,0.00126580472133,0.934364730921,0.355411880479,0.0253641922566
0.0344042442739,0.0853748470545,-0.0353050492704,-2.55328249931,0.0425768643618,2.68656539917,-0.765442311764,0.0653225705028,-0.000772261584643,5.7722281781e-05,8.96835081221e-06,7.79741822043e-05,4.55924455309e-05,0.000160549316206,0.000742472358979,0.464928406478,-0.000239033083409,0.129625693622,0.00126703354555,0.934366282315,0.355407638517,0.0253664200716
0.0344008207321,0.0853765234351,-0.0353111587465,-2.55328083038,0.042577598244,2.68656492233,-0.765442728996,0.0653225705028,-0.00028763548471,-0.000417043542257,-0.000372324109776,0.000116787523439,-5.34368591616e-05,-0.000234381048358,0.000327945977915,0.464928738453,-0.00024308930214,0.129625286146,0.00126698464544,0.934367890623,0.355403438789,0.0253660226588
0.0343994647264,0.0853779539466,-0.0353105142713,-2.55328083038,0.0425784252584,2.68656539917,-0.765443980694,0.0653225705028,0.000629393034615,-0.000143815152114,0.00015685831022,-0.000492361548822,-0.00011252497643,8.58245039126e-05,-0.000479940877995,0.464928629949,-0.000243875313478,0.129624851855,0.00126686675115,0.934368062881,0.355403003503,0.0253657821453
0.0344100557268,0.0853796377778,-0.0353032909334,-2.55328583717,0.0425764881074,2.68656635284,-0.765441060066,0.0653225705028,-0.000186706573004,0.00040951182018,0.00246838969178,-7.81388298492e-05,7.21337564755e-05,0.000139598894748,-0.000183287396794,0.464925931345,-0.000235537860524,0.129622371267,0.00126574961068,0.934365197775,0.355410736206,0.0253630309716
0.0344052650034,0.0853763893247,-0.0353067517281,-2.55328607559,0.0425773970783,2.68656682968,-0.765441656113,0.0653225705028,9.8828895716e-05,0.000303773442283,-0.000326088018483,-0.000204771553399,5.77888295084e-06,-0.000124345518998,0.000135218884679,0.464926572642,-0.000239394858986,0.129623847758,0.00126638265376,0.934366654875,0.355406784074,0.0253647009189
0.0344051346183,0.0853769481182,-0.0353060737252,-2.55328607559,0.0425781682134,2.68656826019,-0.765440225601,0.0653225705028,-0.000321009400068,0.000220794725465,-0.000484523479827,-0.00030659235199,-1.12945135697e-05,4.68760554213e-05,0.00048367420095,0.464926765903,-0.000239134456708,0.129623728066,0.00126635505043,0.934366925896,0.355406038038,0.0253651719322
0.0344035625458,0.085379190743,-0.0353070981801,-2.55328798294,0.0425779484212,2.68656659126,-0.765438139439,0.0653225705028,0.000290928321192,0.000321009370964,0.000389141612686,-7.99931240181e-06,-8.15883540781e-05,-0.000103612284875,-8.80685183802e-05,0.46492497718,-0.000240361920679,0.12962184468,0.00126542157133,0.934367792565,0.355403959326,0.0253624191569
0.0344030559063,0.0853803083301,-0.0353041253984,-2.55328845978,0.042578022927,2.68656587601,-0.765439331532,0.0653225705028,0.000217308828724,2.97414608212e-05,-0.000204842042876,-0.000320734572597,1.6507188775e-05,8.00766210887e-05,0.00285625853576,0.464924351823,-0.000239168643741,0.129621081329,0.00126486444746,0.934367183598,0.355405635954,0.0253613869884
0.0344055630267,0.0853833034635,-0.0353060662746,-2.55328774452,0.0425777882338,2.6865670681,-0.765439450741,0.0653225705028,0.00019916666497,-0.000432439090218,-8.59209321789e-05,7.24834681023e-05,-0.000119479154819,-8.24113812996e-05,0.00010057304462,0.464924365322,-0.000238972029935,0.129620063975,0.00126486375241,0.934367040772,0.355406052914,0.0253608058977
0.0344096422195,0.0853796005249,-0.035303413868,-2.55328893661,0.0425766967237,2.68656802177,-0.76543879509,0.0653225705028,0.00043224147521,0.000327036541421,0.000667268002871,7.73283099988e-05,-5.3469575505e-06,0.000123928679386,0.00143450626638,0.464924608237,-0.000235376460022,0.129621311999,0.00126537941284,0.934365621693,0.35540967316,0.0253623288111
0.0344042927027,0.0853796973825,-0.0353050269186,-2.55329108238,0.0425783358514,2.68656754494,-0.765439808369,0.0653225705028,-5.27661395608e-05,-0.000130590153276,-0.000223644805374,0.000268010451691,8.74087436387e-06,7.46461882954e-05,0.000562734145205,0.464923493868,-0.000239035490747,0.129620597534,0.00126479390006,0.934367098361,0.355405871257,0.0253612333719
0.0344014391303,0.085381038487,-0.0353112667799,-2.55329370499,0.0425783991814,2.68656873703,-0.765439271927,0.0653225705028,-7.44179924368e-05,-8.38255800772e-05,-0.000523001828697,-0.0005108587211,-3.83542210329e-05,6.22216903139e-05,0.00068859156454,0.464922137688,-0.000243382676131,0.129619167172,0.00126468989522,0.93436885508,0.355401352822,0.0253598366176
0.03439771384,0.0853817611933,-0.0353105179965,-2.55329370499,0.0425775647163,2.68656802177,-0.765437662601,0.0653225705028,0.000315573968692,-0.000457005255157,0.000258502986981,0.000214382482227,-3.8024802052e-05,6.83884063619e-05,0.000307392940158,0.464921835764,-0.000244767130118,0.129618759762,0.00126459865335,0.93436955639,0.355399561707,0.0253591030053
0.0344025678933,0.0853829011321,-0.0353091657162,-2.55329370499,0.0425778590143,2.68656802177,-0.765439093113,0.0653225705028,0.000201397240744,-0.000360997219104,-1.48130920934e-05,0.000602777174208,-6.47334672976e-05,0.0030091793742,0.000671020185109,0.464921448052,-0.000242172018829,0.129618063971,0.00126421529356,0.934368284923,0.355402955716,0.0253584038035
0.0344081744552,0.0853795856237,-0.0353066213429,-2.55329966545,0.0425767041743,2.6865696907,-0.765435099602,0.0653225705028,-0.000762174138799,0.000408187421272,-0.000552487443201,0.000232818449149,3.93784466723e-05,-0.000161373973242,-0.000109743210487,0.464919589268,-0.000238051286533,0.129617808387,0.00126402754639,0.934367364456,0.355405397573,0.025358105904
0.0344067364931,0.0853792577982,-0.0353048555553,-2.55330204964,0.0425774641335,2.68656945229,-0.765435695648,0.0653225705028,-0.000709788815584,-0.000231513695326,4.33618442912e-05,-0.000104127808299,-1.07132254925e-05,-0.000386853178497,0.000251009361818,0.464918385522,-0.000237855161225,0.129617086787,0.00126337940103,0.934367349752,0.355405508332,0.0253571276661
0.0344070084393,0.0853801891208,-0.0353064499795,-2.55330610275,0.0425768233836,2.68656897545,-0.76543533802,0.0653225705028,0.00194568361621,0.00129517668393,-0.000465700082714,0.000243371046963,-0.000158224487677,0.00296395784244,-0.000547734671272,0.464916022269,-0.000238510497968,0.129615167155,0.00126262747765,0.934367617104,0.355404995824,0.0253544967956
0.0344060100615,0.0853798240423,-0.0353033468127,-2.55331110954,0.0425765141845,2.68656849861,-0.765434384346,0.0653225705028,0.000293737713946,-0.000198758963961,0.000305555789964,0.000312006828608,1.70292441908e-05,-1.14845454391e-06,-0.000146543025039,0.464913433224,-0.000237484852316,0.129613504183,0.00126160410387,0.934367432715,0.355405653083,0.0253521296551
0.034402705729,0.085379563272,-0.0353069789708,-2.55331707001,0.0425770431757,2.68656897545,-0.765435636044,0.0653225705028,-0.000130361237098,9.55050709308e-05,9.17881479836e-05,-0.00197435193695,-0.000128499901621,7.84134535934e-05,-0.000799110741355,0.464910542265,-0.000240764347789,0.129611556798,0.00126081553396,0.934368593614,0.355402778643,0.0253496791117
0.0344034470618,0.0853804498911,-0.0353072173893,-2.55332040787,0.0425779782236,2.68656873703,-0.765434324741,0.0653225705028,0.000380961515475,0.000252961035585,-0.000162271986483,0.000187493409612,4.45506848337e-05,1.62004926096e-05,-0.000421891221777,0.464908605475,-0.000240524293881,0.129609934487,0.00125981841331,0.934368940506,0.355402013489,0.0253476698648
0.0344058051705,0.0853799134493,-0.035306904465,-2.5533208847,0.0425771400332,2.68656897545,-0.765434503555,0.0653225705028,0.000229684315855,7.36361180316e-05,-3.81556601496e-05,-0.000148665742017,-3.93403061025e-05,-1.28459159896e-05,-0.0003430339857,0.464908521762,-0.000239290945104,0.129610036839,0.00126000159547,0.934368300823,0.35540368931,0.0253477439495
0.0344052389264,0.0853818356991,-0.0353065617383,-2.55332159996,0.0425782464445,2.68656897545,-0.76543456316,0.0653225705028,0.000450478721177,0.000697608222254,0.000301815511193,3.43840038113e-05,1.11727567855e-05,-0.000290660129394,-0.00452645961195,0.464907765846,-0.00023938441743,0.129608889102,0.00125931727928,0.934368536515,0.355403153617,0.0253466008829
0.0344094149768,0.0853826701641,-0.0353044867516,-2.55333209038,0.0425766929984,2.68656945229,-0.765434443951,0.0653225705028,0.000292265292956,-1.42500766742e-05,-0.000273360055871,-0.000124339916511,1.23103709484e-05,0.000891877396498,-0.000246550771408,0.464902463012,-0.000236389332058,0.129604911119,0.00125747816425,0.93436740907,0.355406480355,0.0253416065829
0.0344059430063,0.0853803232312,-0.0353079065681,-2.55333471298,0.0425756089389,2.68656921387,-0.765433013439,0.0653225705028,-0.000697263632901,0.000248317432124,0.000394807459088,-0.000301788619254,0.000149562139995,3.83895057894e-05,-0.000212152808672,0.464901419785,-0.0002397493038,0.129604951086,0.00125787966686,0.934368665206,0.355403215817,0.0253410554804
0.0344023741782,0.0853820294142,-0.035308778286,-2.55333685875,0.0425785407424,2.68656873703,-0.765432536602,0.0653225705028,-0.000282471097307,0.000143948593177,0.000204603347811,-5.13254344696e-05,-3.31068076775e-05,7.19153977116e-05,-0.000552559678908,0.464899875178,-0.000241785634573,0.129603350178,0.00125658810837,0.9343700501,0.355399707014,0.0253392660258
0.0344107225537,0.085386864841,-0.0353042185307,-2.5533516407,0.0425783134997,2.68656921387,-0.765432357788,0.0653225705028,0.000257421081187,0.000404424441513,0.000310785166221,-0.000446721358458,3.73932234652e-05,0.00397061416879,0.000132571949507,0.464891437837,-0.000235765831176,0.129595885217,0.00125296780704,0.934368007718,0.355405725195,0.0253303455984
0.0344085134566,0.0853842943907,-0.0353035144508,-2.55335378647,0.0425771921873,2.68656873703,-0.76543211937,0.0653225705028,-0.000697839015629,-0.000210824364331,5.34267492185e-05,-5.14718740305e-05,-3.34912947437e-05,0.000243076472543,-0.00484205083922,0.464890471553,-0.000236554702724,0.129596284021,0.0012530446785,0.934368180892,0.355405285985,0.0253301163754
0.0344075597823,0.0853824093938,-0.0353061519563,-2.553358078,0.0425786972046,2.68656826019,-0.765430688858,0.0653225705028,-0.000285978545435,-0.00338729145005,-0.000336822151439,-0.00173205987085,-8.90733372216e-06,-0.00446897605434,0.000292973621981,0.46488884845,-0.000238122412978,0.129595574173,0.0012523943762,0.934369306111,0.355402408724,0.0253290123202
0.0344051085413,0.0853845104575,-0.0353058427572,-2.5533618927,0.0425777025521,2.68656897545,-0.765429913998,0.0653232336044,0.00154859235045,-4.46796620963e-05,0.000423121877247,-0.000742934120353,-2.08288329304e-05,-0.000117249022878,-0.00119794090278,0.464886623133,-0.000239154835001,0.129593310501,0.00125173302066,0.934369739603,0.355401451618,0.0253264832071
0.0344087518752,0.0853847935796,-0.0353053249419,-2.55337333679,0.0425785370171,2.68656873703,-0.765430450439,0.0653232336044,6.53254464851e-05,-0.000206363823963,-0.000667619809974,-0.00344779901206,-4.25791658927e-05,1.90239752555e-05,-0.000128884319565,0.464880665172,-0.000237205316927,0.129589083822,0.00124935841814,0.93436919225,0.355403291381,0.0253209762591
0.0344062112272,0.0853846818209,-0.0353054478765,-2.55337619781,0.0425780601799,2.68656802177,-0.765429854393,0.0653232336044,0.00314665702172,8.6287225713e-05,-0.000159569957759,0.0002347741829,0.000124753671116,-0.000113911170047,-9.38013454288e-06,0.464879071068,-0.000238447764416,0.12958804766,0.00124886022699,0.93436974021,0.355401970543,0.0253193196402
0.0344000309706,0.0853836014867,-0.0353101827204,-2.55338311195,0.0425788350403,2.68656992912,-0.765428841114,0.0653232336044,-9.51254551183e-05,-8.22141519166e-05,-0.000378967175493,5.54914877284e-05,-6.70341396471e-05,-6.49547973808e-06,0.00288073858246,0.464876165505,-0.000243598668685,0.129586284197,0.00124832750924,0.934372036582,0.355396066531,0.025317474445
0.0343993008137,0.0853832960129,-0.0353097468615,-2.55338597298,0.0425787977874,2.68656849861,-0.765429258347,0.0653232336044,0.000359702069545,0.00219713151455,1.16110550152e-05,0.000326489302097,-0.000117056588351,-6.06237263128e-05,0.00305391079746,0.464874457978,-0.000243714936409,0.129585267094,0.00124758717818,0.934372056813,0.355396147542,0.0253156270127
0.0344081223011,0.0853861793876,-0.035304069519,-2.55339813232,0.0425775796175,2.68656921387,-0.765428900719,0.0653225705028,0.00042653499986,-0.000269695126917,-0.000329041853547,-0.000198647700017,3.12989614031e-05,-9.61806799751e-05,0.00607337197289,0.464868221998,-0.00023714763317,0.129579935026,0.00124501309024,0.934369661242,0.355402900024,0.0253093744067
0.0344101563096,0.0853856429458,-0.0353019721806,-2.55340385437,0.0425775125623,2.68656826019,-0.765430212021,0.0653225705028,-0.00101160712074,0.000138851755764,-0.000535957573447,-0.00092973158462,-2.84776524495e-05,-5.78670988034e-05,-0.000133676207042,0.464864787092,-0.00023498094458,0.129577781098,0.00124371563808,0.934368649821,0.355405799448,0.0253060626458
0.0344082266092,0.0853831097484,-0.0353049039841,-2.553409338,0.0425785928965,2.68656873703,-0.765428364277,0.0653225705028,-0.000176615925739,-8.82427048055e-05,-0.0018481753068,0.000211700185901,5.98098586124e-06,-6.72238747939e-05,0.000237172585912,0.464862734795,-0.000237477826809,0.12957716785,0.00124317214226,0.934370207469,0.355401772895,0.0253051264843
0.0344026573002,0.0853838324547,-0.0353075414896,-2.55341434479,0.0425767675042,2.68656873703,-0.765429377556,0.0653225705028,-0.00149044743739,-0.000444518547738,-0.000228265256737,0.000227946642553,0.000119017291581,2.02759274543e-05,0.000221184687689,0.464859893968,-0.00024115499703,0.129574944826,0.00124277207885,0.934371110986,0.355399615073,0.0253020901089
0.0344043262303,0.0853852853179,-0.0353072434664,-2.55342388153,0.0425776429474,2.68656897545,-0.765427231789,0.0653225705028,-0.000131938199047,0.000753223954234,0.000244867842412,-0.0022110985592,-5.93847107666e-05,0.000120380937005,0.000324627093505,0.464854774949,-0.000240239892884,0.129570900702,0.00124063530615,0.934371421321,0.355399158967,0.0252971408172
0.034406222403,0.0853846222162,-0.0353059619665,-2.55344128609,0.0425784178078,2.68656945229,-0.76542621851,0.0653225705028,0.000559079810046,0.000638687401079,0.000231628146139,-0.00135889905505,-3.30614943778e-06,-0.000244132170337,0.000396229530452,0.464846114394,-0.000238741220918,0.129565062992,0.00123746717912,0.934371375012,0.355399826133,0.0252896323306
0.0344086326659,0.0853836610913,-0.0353045165539,-2.5534517765,0.0425780043006,2.68656921387,-0.765427529812,0.0653225705028,-0.00180801609531,0.00020598914125,4.32467168139e-05,-3.89399501728e-05,3.74593073502e-05,0.000111256711534,-0.000309354771161,0.464840895205,-0.000236931450424,0.129561752386,0.00123570616703,0.934370521814,0.355402400449,0.0252850634722
0.0344059430063,0.085385106504,-0.0353066287935,-2.55345797539,0.0425772815943,2.68656897545,-0.765425622463,0.0653225705028,9.98443501885e-05,-0.000117342198791,7.68695826991e-05,0.000463643926196,-3.26342851622e-05,-0.000634513271507,0.000301008694805,0.464837380637,-0.000239220984971,0.129558855205,0.00123459855515,0.934371701965,0.355399570658,0.0252812815198
0.0344058535993,0.0853832364082,-0.0353037454188,-2.55346727371,0.0425784438848,2.68657040596,-0.765426874161,0.0653225705028,-0.000286543392576,-0.000681603676639,-0.000162494747201,-0.00195107678883,1.45451922435e-05,-0.000188192439964,-0.000354371033609,0.464833313339,-0.000237864512846,0.129556553487,0.00123314121382,0.934371251727,0.355400948557,0.0252786225797
0.0344036668539,0.0853843912482,-0.0353075563908,-2.5534825325,0.0425789058208,2.68657660484,-0.765426635742,0.0653225705028,2.47434927587e-05,0.000580110005103,-0.000142721066368,-3.31257106154e-05,-0.000234295788687,-8.20919558464e-06,-0.000160713214427,0.464826607152,-0.000240783818345,0.129551204171,0.00123157819329,0.934372585559,0.355397791274,0.025273785128
0.0344049148262,0.0853860601783,-0.0353054441512,-2.55348539352,0.0425756424665,2.68658185005,-0.765428066254,0.0653225705028,7.51580082579e-05,0.000737617257982,9.07670619199e-05,0.000572991208173,-3.22867635987e-05,-0.000201540256967,-0.000135979629704,0.464825926801,-0.00023931041194,0.129549922844,0.00123241225868,0.934371235523,0.355401335229,0.0252738202709
0.0344066470861,0.0853844434023,-0.0353072211146,-2.55349636078,0.0425793416798,2.68656754494,-0.765427410603,0.0653225705028,0.000160178387887,-0.000139408439281,-0.000153327957378,-0.00199139886536,-0.000366231659427,0.000730512430891,0.000275851343758,0.464817585405,-0.000239150062003,0.12954537064,0.00122719769017,0.934372196097,0.355399584486,0.0252631783077
0.0344074852765,0.085387006402,-0.0353062972426,-2.55354881287,0.0425769016147,2.68658518791,-0.765429019928,0.0653225705028,0.00323928846046,-0.000388446002034,-0.00066193297971,-0.00267908186652,0.000745827157516,0.000342593382811,-3.86751380574e-05,0.464794026625,-0.000238586409464,0.129527256158,0.00122137798769,0.93437177167,0.355401984689,0.0252453858281
0.0344067662954,0.0853900909424,-0.0353052169085,-2.55358409882,0.0425771735609,2.68658995628,-0.765427529812,0.0653238892555,0.000346210872522,0.000606167828664,0.000133349181851,-1.51515396283e-05,5.9761267039e-05,-4.51037385574e-06,-0.000347761349985,0.464776685398,-0.000238548446442,0.129514052426,0.0012155224868,0.934372518568,0.355401129899,0.0252300535445
0.0344065837562,0.0853875949979,-0.035306815058,-2.55358290672,0.0425786264241,2.6865901947,-0.765426278114,0.0653238892555,0.000219071545871,-0.00369559065439,-6.04364613537e-05,0.000362547580153,-8.09401171864e-05,0.000301700172713,0.000146467253217,0.464777549216,-0.000239301260724,0.129515350458,0.00121582849816,0.934373187977,0.355399257018,0.0252316298834
0.0344079621136,0.0853861123323,-0.0353063717484,-2.5535826683,0.042577534914,2.68660497665,-0.765427708626,0.0653238892555,0.000272551347734,-0.00353978108615,0.000380753161153,0.000482409697725,0.000365675019566,0.000340655009495,-0.000452856882475,0.464781140788,-0.00023860203911,0.129517575551,0.0012192112684,0.934372277617,0.355401104564,0.0252391542222
0.0344123877585,0.0853745937347,-0.0353013463318,-2.55356907845,0.042575340718,2.6866300106,-0.76542943716,0.0653238892555,0.00401131808758,-0.00137428636663,-7.68111931393e-05,0.000723254226614,-0.000314207951305,0.00366308377124,0.000183439886314,0.464795795634,-0.000234325995197,0.129530211846,0.0012285548873,0.93436938997,0.355407016127,0.0252623497221
0.0344056598842,0.0853461250663,-0.0353080183268,-2.55355572701,0.0425750389695,2.68681621552,-0.765429973602,0.0653238892555,-0.000271743512712,-0.00121149863116,-0.000304692890495,0.000713249202818,-0.000190955732251,0.0228897091001,-0.00028420027229,0.464848323187,-0.000242296901004,0.129566499167,0.00127245196257,0.934369308,0.355399581792,0.0253675793186
0.0343935675919,0.0852738022804,-0.0353158935905,-2.55351567268,0.0425773561001,2.68707871437,-0.765430390835,0.0653238892555,-0.00023422203958,-0.00331279146485,-0.00298549234867,0.00241523305885,2.74520079984e-05,0.00819669570774,0.000577552593313,0.464939760235,-0.000253726937472,0.129640184494,0.00134267886364,0.934369160165,0.355387267941,0.0255413237237
0.0343960300088,0.0852111205459,-0.0353152602911,-2.55349898338,0.0425760932267,2.68715929985,-0.765429019928,0.0653238892555,-0.00120479252655,-0.00214005145244,-0.00240833614953,0.000282024557237,0.000101667152194,0.00717354239896,0.000585639267229,0.464981110362,-0.00025209300599,0.129686984012,0.0013739291672,0.934366535957,0.355388259537,0.0256217382684
0.0344097577035,0.0850790292025,-0.0353063642979,-2.55350208282,0.0425771586597,2.68727755547,-0.765429496765,0.0653238892555,0.000254701677477,-0.00721139227971,0.000657741096802,-0.00040465706843,-0.000149612649693,0.0111544448882,0.000756640161853,0.465028888658,-0.000242218318134,0.129755095283,0.00141476009514,0.934360120202,0.355397044131,0.0257313998356
0.0344055742025,0.0850350707769,-0.0353090278804,-2.55350470543,0.0425771288574,2.68741297722,-0.765428900719,0.0585832037032,-0.000554307713173,0.000697501702234,-0.000146111371578,-0.000807852658909,4.13367124565e-05,0.00371650746092,0.000361560872989,0.465065490393,-0.00024647827916,0.12978793634,0.00144806884609,0.934359580869,0.355392394714,0.0258132175505
0.0344071052969,0.0850421562791,-0.0353061370552,-2.55351376534,0.0425748042762,2.68750357628,-0.76543033123,0.0585832037032,0.000504674622789,0.00196630577557,0.000254096463323,-0.000223225055379,-3.90676141251e-05,0.0028697475791,1.08284630187e-05,0.465078828623,-0.00024536786739,0.12979034029,0.00146336954159,0.934357504134,0.355395325685,0.0258471504384
0.0344067215919,0.085047878325,-0.0353062413633,-2.55350852013,0.0425766445696,2.68753933907,-0.765431165695,0.0585832037032,0.000364895124221,-0.000104391168861,-0.000315153272822,-1.14094418677e-05,8.94149052328e-05,0.00184901175089,-4.5175471314e-05,0.465088009794,-0.000245955388829,0.129793073439,0.00147000102224,0.934357381198,0.355394432017,0.0258635008233
0.0344041436911,0.0850463584065,-0.0353085771203,-2.5535068512,0.0425768941641,2.68759775162,-0.765430748463,0.0585832037032,-0.000309100490995,0.000214075844269,-0.000260305940174,-9.53517374001e-05,4.93822590215e-05,0.00347219919786,-0.00010105183901,0.465101685196,-0.000248838815755,0.129800134722,0.00148206484566,0.934357748722,0.355391351091,0.0258918547257
0.0344054326415,0.0850475430489,-0.035309523344,-2.55351734161,0.0425770357251,2.68768453598,-0.765429973602,0.0585832037032,-0.000304831453832,-0.000667481217533,-9.63561105891e-05,-0.00227840198204,0.00013337508426,0.00346570811234,0.000657653028611,0.465114675066,-0.000249565433605,0.129804404926,0.00149697000466,0.93435714823,0.355390355112,0.0259263150358
0.034406196326,0.0850490704179,-0.0353073142469,-2.55351305008,0.0425770021975,2.68773293495,-0.765430092812,0.0585832037032,0.000233374303207,0.000360089034075,-0.000422139943112,-0.000175825480255,9.04817061382e-05,0.00522787682712,-0.00022701366106,0.465126925164,-0.000248635388224,0.129809991734,0.00150683316548,0.934356079223,0.355391403373,0.0259498895203
0.0344080924988,0.0850541815162,-0.0353059582412,-2.55351996422,0.0425779297948,2.68787932396,-0.76543033123,0.0530534125865,-0.000456801673863,-0.00357288611121,0.000228176009841,0.000176487214048,-0.000144040750456,0.00235825870186,-0.00055285129929,0.465153711545,-0.000248574046344,0.129819587465,0.00153311158598,0.934354316075,0.355391409183,0.0260116813041
0.0344054065645,0.0850562378764,-0.0353064164519,-2.55352044106,0.0425766780972,2.68790960312,-0.765429139137,0.0530534125865,0.000401439610869,0.000317899190122,-8.26414034236e-05,0.000177760201041,-8.52453013067e-05,0.00322723342106,0.000530693330802,0.465159534651,-0.000250378972698,0.129821448327,0.00153892639476,0.934354623975,0.355389650885,0.0260242980962
0.034404668957,0.085057862103,-0.0353093594313,-2.55352497101,0.0425777696073,2.68796896935,-0.765428781509,0.0530534125865,0.000288144859951,7.98084511189e-05,0.00381068186834,-0.000403826648835,-0.000134351925226,0.00107276334893,-0.000200747628696,0.465169360825,-0.000253000803793,0.12982484345,0.00154919609536,0.934355106017,0.355386584991,0.026048238807
0.0344089604914,0.0850714221597,-0.035307250917,-2.55352926254,0.0425777547061,2.68798708916,-0.76542788744,0.0530534125865,0.000283777655568,0.00107087404467,-0.000112826797704,-0.0007616027724,-7.25149657228e-05,3.86352439818e-05,3.53684299625e-05,0.465168541998,-0.00024998721626,0.12981889227,0.00154980795937,0.934354078364,0.355389248637,0.0260487231529
0.0344046391547,0.085090264678,-0.0353085137904,-2.55353307724,0.0425768904388,2.68799757957,-0.7654312253,0.0530534125865,-0.000279652653262,0.000443258701125,0.000286774768028,-0.000501358357724,2.58565196418e-05,-0.000154787514475,3.1392013625e-05,0.465165012014,-0.00025285705721,0.129809810462,0.00154848808592,0.934354534055,0.355388493701,0.0260427553532
0.0344045944512,0.0850954279304,-0.0353081002831,-2.5535428524,0.0425768718123,2.68801474571,-0.765428245068,0.0530534125865,-8.2785707491e-05,-0.000299631705275,-2.14579740714e-05,0.000527290976606,0.000128097293782,2.73936402664e-05,0.000224383242312,0.465162644631,-0.000252891814407,0.129805621723,0.00154921458077,0.934355024659,0.355387135078,0.026043650576
0.0344018936157,0.085077881813,-0.0353098064661,-2.55353450775,0.0425772666931,2.68804049492,-0.765428602695,0.0530534125865,0.000280619249679,0.000120058153698,-0.000150676700287,-0.000214651328861,8.98645230336e-05,0.000144095902215,0.000227248732699,0.465175987415,-0.000255088207476,0.12981929293,0.0015586157188,0.934355207637,0.355384849769,0.0260676987429
0.0344036258757,0.0850733369589,-0.0353111959994,-2.5535364151,0.0425777994096,2.68805575371,-0.765428841114,0.0535196475685,0.000522751593962,-4.58611393697e-05,6.50846704957e-05,0.000429038394941,-5.67557508475e-05,3.48350586137e-05,-0.000455043133115,0.465179205018,-0.000255061896541,0.129822233921,0.0015619349392,0.934355001559,0.355384767741,0.0260760036099
0.0344047062099,0.0850794017315,-0.0353094451129,-2.55353403091,0.0425774939358,2.68807816505,-0.765430033207,0.0535196475685,-4.08330743085e-05,0.000807397009339,-0.000165026518516,-0.00305147143081,-4.35538131569e-05,0.000215039472096,9.34421113925e-05,0.465183991504,-0.000253985206466,0.129822472057,0.00156573582529,0.934354063931,0.355386588515,0.0260845562804
0.0344056338072,0.085086978972,-0.0353083051741,-2.55352950096,0.0425766520202,2.68809866905,-0.76542788744,0.0535196475685,-0.000102575861092,0.000189861020772,0.000197144021513,0.0003379638365,6.69826040394e-05,5.55803853786e-06,0.000289576972136,0.465189158688,-0.000253272543618,0.129822583818,0.00156940673645,0.934353780403,0.355386737136,0.0260924656411
0.0344087518752,0.0850821211934,-0.0353049449623,-2.55353760719,0.0425770096481,2.68813276291,-0.765429079533,0.0535196475685,0.00476516503841,0.00142349489033,0.000376655720174,8.40734628582e-06,-0.000153133354615,0.000234395512962,0.000422442943091,0.465193304602,-0.000250509247566,0.129825314562,0.00157513517425,0.934352183225,0.355389862529,0.0261067414569
0.0344066657126,0.0850822106004,-0.0353075712919,-2.55353856087,0.0425787828863,2.68814539909,-0.765430092812,0.0535196475685,-0.000456496491097,-0.000415414222516,0.000124094454804,-1.99926744244e-05,1.91542421817e-05,6.5279804403e-05,-4.39813011326e-05,0.465195506975,-0.000252838788958,0.129826184309,0.00157722401969,0.934353003527,0.355387297134,0.0261121788712
0.0344045832753,0.0850838944316,-0.0353081151843,-2.55353736877,0.0425781346858,2.68815922737,-0.765429794788,0.0535196475685,5.47639065189e-05,-0.000324312859448,0.00186049984768,0.000266705726972,4.83084513689e-05,0.000879501050804,0.000640799407847,0.465198735166,-0.000254227655531,0.129827191084,0.00158005884325,0.934353289586,0.355386087453,0.026118234707
0.0344016961753,0.0850875899196,-0.0353102721274,-2.5535390377,0.0425768308342,2.68817305565,-0.765429973602,0.0535196475685,-2.08251094591e-05,0.000127569539472,0.000540588225704,-0.00017408261192,8.96349083632e-05,6.75651535857e-05,-0.000661854981445,0.465200092733,-0.000256793373458,0.129826245699,0.00158230183036,0.934353882077,0.35538424875,0.0261219217341
0.0344051271677,0.0850860103965,-0.0353089496493,-2.5535364151,0.0425762757659,2.68819832802,-0.765430271626,0.0535196475685,6.11884825048e-05,0.000754725944716,-0.000372323411284,9.05168490135e-05,-9.05041306396e-05,0.000207861055969,0.000131148728542,0.465207166368,-0.000254807947508,0.129830405995,0.00158797289722,0.93435259065,0.355386621031,0.0261354924428
0.0344019196928,0.085087813437,-0.0353082567453,-2.55353713036,0.0425773710012,2.68820667267,-0.765429854393,0.0535196475685,0.000484505086206,0.000457169051515,-0.000319563521771,0.000122266137623,-1.93073374248e-05,0.000222803733777,0.000258424843196,0.465208221572,-0.000256044169308,0.129830135812,0.00158895219639,0.934353233015,0.355384725257,0.0261382464039
0.0344081670046,0.0850875973701,-0.0353059284389,-2.55354094505,0.0425772704184,2.68821454048,-0.765430092812,0.0535196475685,0.000444702425739,0.000356724660378,0.000234849590925,-0.000158554859809,-8.81785963429e-05,-7.15135365681e-06,-0.000163006741786,0.46520800183,-0.000252099024452,0.129829650785,0.00158966556781,0.934351623464,0.355388808896,0.0261402159847
0.0344138555229,0.0850863605738,-0.0353040508926,-2.55354118347,0.0425758548081,2.68822169304,-0.765430033207,0.0533167384565,-0.000343958003214,-0.0001816542499,0.000165139746969,0.000132162109367,3.01224954455e-05,8.94958284334e-05,-0.000555534847081,0.465209662851,-0.000248636008647,0.12983084373,0.00159134834084,0.934349985895,0.355392836456,0.0261438893208
0.0344008132815,0.0850866809487,-0.0353089272976,-2.55354714394,0.042577560991,2.68822956085,-0.7654286623,0.0533167384565,2.80541444226e-05,-9.14302800084e-05,0.000336800847435,0.000700841774233,-0.00012819308904,0.000135301263072,-2.79293599306e-05,0.465208437489,-0.000257008818788,0.129829435171,0.00159194416136,0.934353626662,0.355383186387,0.0261449149198
0.0344102047384,0.0850894227624,-0.0353045836091,-2.55354785919,0.0425769500434,2.68823122978,-0.765430152416,0.0533167384565,0.000285170419374,0.00613968307152,0.0044729844667,-0.000429410167271,-2.87147086055e-05,-1.09302936835e-05,0.000334860524163,0.465207672082,-0.000250692339131,0.129827984581,0.00159137436841,0.93435091419,0.355390402821,0.0261437936925
0.0344086401165,0.0850954130292,-0.0353046730161,-2.55355429649,0.0425763092935,2.68823122978,-0.765428543091,0.0533167384565,-0.000551060191356,0.000747289275751,0.000228970049648,-0.000320218910929,4.25094476668e-05,9.3910828582e-05,-0.000391403387766,0.46520316534,-0.000251520179414,0.129822906792,0.00158940170395,0.934351559687,0.355389148301,0.02613789715
0.0344042629004,0.0850942209363,-0.0353084355593,-2.55357241631,0.0425772294402,2.68823242188,-0.765430688858,0.0533167384565,-0.000132405853947,-7.30461906642e-05,0.00053856568411,-0.00038672570372,1.33209578053e-05,0.000245509552769,-0.000289197574602,0.465194403716,-0.000255365600791,0.129817130669,0.00158669106661,0.934352984555,0.355385953369,0.0261305663726
0.0343988798559,0.085114069283,-0.0353113561869,-2.55359101295,0.042577303946,2.68822979927,-0.765428721905,0.0533167384565,8.96969322639e-06,5.79394763918e-05,-0.00044769764645,-0.00111554411706,0.000171943567693,0.000122725861729,0.000418426876422,0.465180307426,-0.000259397837229,0.129801025363,0.00157984600045,0.934355356478,0.35538116769,0.0261112474717
0.034400831908,0.0851165056229,-0.0353088974953,-2.55359864235,0.0425762757659,2.68822669983,-0.765430510044,0.0533167384565,-0.000259703578195,-0.000170643834281,-0.000130486238049,-0.000136469621793,6.15425160504e-05,1.80427687155e-05,0.000546915340237,0.465175248852,-0.000257316489266,0.129796866166,0.00157757444924,0.934354262662,0.355384508652,0.026105053158
0.0343989431858,0.0851158052683,-0.0353092253208,-2.55359363556,0.0425768308342,2.68821883202,-0.765428960323,0.0533167384565,8.61499429448e-05,-0.000652721268125,-0.000661478494294,6.49400244583e-05,6.33872186881e-05,-4.06110884796e-05,-0.000161565534654,0.465176264679,-0.000258257286229,0.129798199107,0.00157694382584,0.934355019467,0.355382588289,0.0261041466113
0.0343998223543,0.085041038692,-0.0353078395128,-2.55362606049,0.0425771661103,2.68817400932,-0.765429973602,0.0533167384565,-0.00023061306274,-0.00424674293026,-0.000280917302007,0.000417989620473,0.000232943872106,-0.000566174683627,0.000154650217155,0.46516527711,-0.000256232286261,0.129816985172,0.00157433927107,0.934354403877,0.355384243809,0.0261037994991
0.0343942157924,0.0849161073565,-0.0353106930852,-2.55361223221,0.0425789281726,2.6880466938,-0.765427350998,0.0533167384565,0.000175986948307,-0.00624685129151,0.00218337727711,5.89482406212e-05,-0.000145397410961,-0.00760028837249,0.000520112051163,0.465170442066,-0.000258040802841,0.129867431163,0.00157189785411,0.934356099394,0.355379275444,0.0261108968304
0.0343969017267,0.0847065523267,-0.035310279578,-2.5536506176,0.0425771810114,2.68781280518,-0.765428245068,0.0533167384565,0.000203540621442,-0.018076505512,0.000525485200342,-0.00342178344727,-0.000123230085592,-0.0225083194673,0.000145830097608,0.4651432691,-0.000252869777126,0.129928097423,0.00155350188336,0.934355238986,0.355383567087,0.0260843620012
0.0344010554254,0.0842503905296,-0.0353062488139,-2.55368065834,0.0425769202411,2.68717432022,-0.76542943716,0.0533167384565,4.21620025008e-05,-0.0356945134699,-0.0008487161831,0.000434271962149,0.000138344301376,-0.0542474500835,0.000202811235795,0.465079825776,-0.000238888602796,0.130077079264,0.00149223761818,0.934354592414,0.355392815724,0.0259849009821
0.0344022959471,0.0827874243259,-0.035307392478,-2.55369377136,0.042576212436,2.68532133102,-0.765428900719,0.0545722842216,0.000179129317985,-0.065945699811,-0.000121571923955,-0.00261941691861,-0.000205600867048,-0.071224950254,-0.000283493689494,0.464976407801,-0.0002109796951,0.130559043647,0.00136860077408,0.934353818119,0.355406940017,0.0258258818047
0.0344028398395,0.0814164429903,-0.0353079736233,-2.55372238159,0.0425757877529,2.68383359909,-0.765428781509,0.0545722842216,-4.33926616097e-05,-0.0940727293491,-0.00021233894222,-0.000459170376416,-0.000115687282232,-0.112227723002,0.000406118604587,0.464920108107,-0.000186766523744,0.131039331754,0.00129416635238,0.934351044274,0.355418087699,0.0257766137882
0.0343981534243,0.0795530006289,-0.0353070236742,-2.55371904373,0.0425746291876,2.68168663979,-0.765429019928,0.0545722842216,-0.00102697114926,-0.124373622239,0.000296215934213,0.000429483334301,9.40579775488e-05,-0.153732135892,-0.000693657260854,0.464837284789,-0.00015431698951,0.131694882894,0.00117624096175,0.934348358681,0.355433135701,0.0256719071913
0.0343821011484,0.0767775699496,-0.035319454968,-2.5536608696,0.0425759069622,2.67829370499,-0.765429139137,0.0545722842216,-0.00110524985939,-0.163201600313,0.00336501491256,0.000158541413839,0.000322307867464,-0.196319058537,-0.000296577432891,0.464696796686,-0.000114862522285,0.132671110728,0.00097210452173,0.934349950389,0.355445451291,0.0254510522787
0.0343876034021,0.0705254152417,-0.0353175960481,-2.55370378494,0.0425737760961,2.67061948776,-0.765428304672,0.0545722842216,-0.000557033286896,-0.242712005973,0.00253625470214,0.0024006171152,-0.000451111118309,-0.305161178112,-0.000496006105095,0.464274605166,7.57980176397e-06,0.134804801185,0.000474519128307,0.934342032601,0.355509248801,0.0248578890544
0.0343892425299,0.0657063499093,-0.0353137440979,-2.55359888077,0.0425722934306,2.66447424889,-0.765429198742,0.0545722842216,-0.000432230270235,-0.290770053864,0.000120592812891,0.00326329050586,-0.000381792197004,-0.379480361938,3.56629720955e-06,0.463959878424,0.000104027226028,0.13647654133,7.07796399541e-05,0.934335201002,0.355562027905,0.0243592109007
0.0343786925077,0.0548143610358,-0.035323344171,-2.55308747292,0.0425721481442,2.64997982979,-0.765430390835,0.0545722842216,0.000250153563684,-0.364843994379,0.000641016114969,0.0232244040817,-0.000924470776226,-0.490810722113,0.000545313814655,0.463223869569,0.000312156385988,0.140296777148,-0.000909977462634,0.934324956182,0.355673008552,0.0230815698902
0.0343749970198,0.0343881361187,-0.0353273898363,-2.55113339424,0.042568013072,2.62297105789,-0.765429496765,0.056027457118,-0.000968959298916,-0.472903192043,-0.000518678280059,0.0662527605891,0.000244436523644,-0.642832815647,-0.000308445101837,0.462248979593,0.000711713963909,0.147851860147,-0.00253400344791,0.934276555025,0.355907664104,0.0212280916232
0.0343636758626,0.024933423847,-0.0353339873254,-2.54957437515,0.0425683669746,2.61010146141,-0.76543033123,0.056027457118,0.000278096296825,-0.509539067745,-0.00109906797297,0.0978439301252,6.73001850373e-05,-0.70038074255,0.000184925986105,0.461982573307,0.000892103823464,0.151562621474,-0.00323921728016,0.934247991054,0.356019249013,0.0205059186833
0.0343631133437,0.0155934048817,-0.0353270359337,-2.54762673378,0.0425631552935,2.597022295,-0.765428960323,0.056027457118,0.000660319812596,-0.530408620834,0.000587455520872,0.123041786253,0.000296467333101,-0.740955114365,0.000108250489575,0.461794786676,0.00109462657232,0.155573907548,-0.00396980024241,0.934208420923,0.356156769836,0.0197793313238
0.0343457013369,0.0062158247456,-0.0353305786848,-2.54524278641,0.0425642207265,2.5840408802,-0.765428841114,0.056027457118,-0.00185451400466,-0.56172990799,-0.000176941481186,0.154442638159,-0.00200356030837,-0.784355700016,-0.000240322784521,0.461815140369,0.00126057855446,0.159342630117,-0.00452176146181,0.934171185281,0.356269387422,0.0193874582167
0.034161478281,-0.0216051563621,-0.0353275686502,-2.53548622131,0.0425591096282,2.54366350174,-0.765427350998,0.056027457118,-0.00929871108383,-0.601279079914,2.3550403057e-05,0.253822058439,-0.00113089045044,-0.878309845924,0.00222389306873,0.462467876548,0.00173801245558,0.17210076469,-0.00614164790993,0.934046342013,0.356618754959,0.0185141683337
0.0340096652508,-0.0318790450692,-0.0353162400424,-2.53096604347,0.0425579436123,2.52866172791,-0.765428781509,0.056027457118,-0.0073369028978,-0.599364340305,0.00391165399924,0.278577148914,-0.00232870178297,-0.889768242836,-0.000641324382741,0.463005627867,0.00187624499636,0.177194844963,-0.00658842910569,0.934000743653,0.356726945574,0.0185765832494
0.0338335856795,-0.0425477437675,-0.0353143550456,-2.52570700645,0.0425517074764,2.51264882088,-0.765427649021,0.056027457118,-0.0162009876221,-0.595179855824,-0.00039143738104,0.302902668715,0.000211782986298,-0.888933539391,-0.000515519466717,0.463620526753,0.00200139801543,0.182380047478,-0.00700856890521,0.933955064138,0.356832489442,0.0186920383129
0.0329304672778,-0.0718154981732,-0.035315528512,-2.50794744492,0.0425403937697,2.4682123661,-0.76542788744,0.056100346148,-0.0269813276827,-0.589565694332,-0.00110734801274,0.416402816772,0.000444914214313,-0.903204023838,0.000600327795837,0.466427176572,0.00215162533718,0.199214685907,-0.00772864136403,0.933855458977,0.356986456425,0.0203695717938
0.0325147807598,-0.0808816254139,-0.0353207588196,-2.50141096115,0.0425361655653,2.45404338837,-0.765426695347,0.056100346148,-0.0338375531137,-0.583539903164,-0.000333535543177,0.421976566315,0.000601961452048,-0.931261241436,-0.000145742160385,0.467514182135,0.00212630036758,0.204773269725,-0.00782993301154,0.933838211678,0.356982145464,0.0211809835391
0.0321419835091,-0.089314840734,-0.0353174768388,-2.49522805214,0.0425379984081,2.44065260887,-0.765424966812,0.056100346148,-0.0231220461428,-0.585961580276,-0.000146014353959,0.445596933365,-0.00093862763606,-0.91075605154,0.000653285998851,0.468527474045,0.00211130716676,0.210362853445,-0.00794618638102,0.933814769839,0.35699441777,0.0219503785615
0.0315281078219,-0.102159760892,-0.0353486463428,-2.48421406746,0.0425321310759,2.41994094849,-0.765426695347,0.056100346148,-0.0305021610111,-0.544057369232,0.000487456884002,0.49328199029,0.00169021706097,-0.90996748209,0.000108704050945,0.470372908866,0.00204437842334,0.218637575136,-0.00788771759484,0.93377816803,0.356989049024,0.0235570665621
0.0301838871092,-0.127557143569,-0.0353538990021,-2.45940971375,0.0425142906606,2.37721133232,-0.765425443649,0.056100346148,-0.0316671393812,-0.489148020744,0.000983705511317,0.552830696106,-0.000902649248019,-0.874049007893,-0.000307498092297,0.474489180656,0.0018566268479,0.237080315823,-0.0075434123534,0.933671040198,0.356999059477,0.0274437031632
0.0297787450254,-0.134342998266,-0.035351768136,-2.45170092583,0.0425091311336,2.36508464813,-0.765425860882,0.0561049431562,-0.0280433669686,-0.478662967682,0.000171702165972,0.544808506966,-3.98576485168e-05,-0.852059543133,-9.81806369964e-05,0.475738052886,0.00178309722191,0.242466044047,-0.00738679435673,0.933636063183,0.356998471611,0.0286570714788
0.0292635243386,-0.144453272223,-0.0353704951704,-2.44029736519,0.0424984544516,2.34730386734,-0.76542532444,0.0561049431562,-0.0261576734483,-0.484647929668,-0.00187863281462,0.560932576656,-0.00221050647087,-0.829533994198,-0.000359632773325,0.477490432478,0.00169696369922,0.250534869032,-0.00710816702627,0.933566073502,0.357029628211,0.0305565808332
0.0285251736641,-0.15815871954,-0.0354037284851,-2.42287945747,0.0424756966531,2.32194876671,-0.765425205231,0.0561049431562,-0.0186777058989,-0.42017558217,0.000258111947915,0.553022563457,-0.00365413911641,-0.811583817005,0.000765634002164,0.480113583231,0.00155034258464,0.262319496045,-0.00660445645705,0.933451121587,0.35707927796,0.0334630198832
0.0282011386007,-0.165727838874,-0.035464014858,-2.41297316551,0.0424581244588,2.30757856369,-0.765423774719,0.0561049431562,-0.0165004990995,-0.414802700281,-0.00437507871538,0.563837885857,-0.00228025345132,-0.781893074512,0.000578129081987,0.481525557005,0.00148305349576,0.269349059427,-0.00632298846364,0.933368772741,0.357139790069,0.0351272532895
0.0279411375523,-0.172054350376,-0.0355200581253,-2.40404415131,0.0424386113882,2.29518795013,-0.765423178673,0.0561049431562,-0.0132642257959,-0.378517091274,-0.00363461486995,0.549474418163,-3.8107020373e-05,-0.767077445984,0.000682529760525,0.482646146044,0.0014330135515,0.274821079155,-0.00607352921031,0.933297383101,0.357196441609,0.0364665425614
0.0276820678264,-0.17852434516,-0.0355747081339,-2.39446592331,0.0424021854997,2.2815785408,-0.765424907207,0.0561049431562,-0.012505450286,-0.349216520786,-0.00553272431716,0.514480471611,0.00167747132946,-0.740078091621,0.000255386868957,0.483754262422,0.00138579736111,0.28093972102,-0.00589083404437,0.933215579981,0.357284378401,0.0377074527218
0.0274487417191,-0.185260519385,-0.0356180928648,-2.38454270363,0.0423573590815,2.26782274246,-0.765424251556,0.0561049431562,-0.0135282054543,-0.349049776793,-0.000290450028842,0.511681616306,-0.00195133942179,-0.710710883141,0.000353508046828,0.484878074733,0.00135209533881,0.287361845044,-0.00562246365281,0.933114516672,0.357395978093,0.0391637741608
0.0271512176841,-0.194860607386,-0.0357011556625,-2.3693883419,0.0423259921372,2.24648070335,-0.765423119068,0.0561049431562,-0.00515679223463,-0.284752726555,-0.000324845081195,0.458274006844,-0.000144759527757,-0.660140872002,0.000689674809109,0.486302440519,0.00132213475121,0.296860505599,-0.00539993343677,0.932968977685,0.357583370052,0.0409128408177
0.0269919876009,-0.199741736054,-0.0357047952712,-2.36182570457,0.0423143878579,2.23568987846,-0.765423536301,0.0561049431562,-0.00976094231009,-0.280438601971,0.000273461308097,0.443485438824,-0.000288774550427,-0.601966261864,-4.70518280054e-05,0.486902118087,0.00131925519504,0.301654708862,-0.00529633682014,0.932889824222,0.357693285004,0.0417616837225
0.0268533695489,-0.203826487064,-0.0357100181282,-2.35487055779,0.0423115082085,2.22635173798,-0.765422224998,0.0561121664941,-0.0111548006535,-0.230481207371,-0.00201531429775,0.414016634226,-0.000121314813441,-0.570113778114,0.000208290017326,0.487516186323,0.00131221598243,0.30594132145,-0.00515573737729,0.932816537054,0.35778498157,0.042621980474
0.0266807228327,-0.207856446505,-0.0357121936977,-2.34771060944,0.04230838269,2.21674823761,-0.765424072742,0.0561121664941,-0.00732152489945,-0.218906924129,0.00075186957838,0.381436794996,-2.62468856818e-05,-0.506114125252,2.98495124298e-05,0.488099147624,0.00129031856528,0.310282727299,-0.00503536011212,0.932747738521,0.357869029831,0.0434287762376
0.0260984711349,-0.216574132442,-0.0357038006186,-2.33193349838,0.0423000715673,2.1964328289,-0.765220999718,0.0561121664941,-0.0189665537328,-0.12657366693,0.000936072319746,0.281880259514,0.000137882379931,-0.344893246889,0.0250363275409,0.489395577056,0.00113537587185,0.319901873368,-0.00462479301758,0.932654218497,0.357858908521,0.0455161651143
0.0257529933006,-0.218785777688,-0.035690523684,-2.3272819519,0.0422980859876,2.19053578377,-0.76470720768,0.0561121664941,-0.0160767808557,-0.113287769258,0.000674502109177,0.243016064167,3.15886354656e-05,-0.314038127661,0.0295733753592,0.48975077235,0.00100739490855,0.322583025077,-0.00454961067144,0.932742751466,0.3575666678,0.0460036780533
0.0253529697657,-0.220381692052,-0.035683285445,-2.32339143753,0.0422976873815,2.18553614616,-0.764053881168,0.0561121664941,-0.0271796993911,-0.0720863863826,0.000699133204762,0.209684640169,-0.000393602676922,-0.277786999941,0.0468954369426,0.490018046119,0.000844480630951,0.324697510679,-0.00454504844477,0.932883905545,0.35716509311,0.0462607529022
0.0247012525797,-0.221536144614,-0.0356662496924,-2.31959629059,0.0422952957451,2.18054890633,-0.762933552265,0.0561121664941,-0.0402543693781,-0.0509148240089,0.00116832717322,0.1660797894,0.000116550938401,-0.232605323195,0.0684064924717,0.490242221099,0.000562613203744,0.326554195982,-0.00463214376667,0.933163130236,0.356432607547,0.0462699856885
0.0233462732285,-0.222407519817,-0.0356592945755,-2.3157043457,0.0422868169844,2.1743478775,-0.760973095894,0.0561252981424,-0.0510039106011,-0.00222646538168,0.000526637886651,0.0983714461327,-0.00257366872393,-0.185350343585,0.0679635554552,0.490231854792,-5.6965442541e-05,0.3281931651,-0.00498462061359,0.933739707282,0.354997374044,0.0456308745207
0.022389171645,-0.222395554185,-0.0356575362384,-2.31438779831,0.0422768071294,2.17157959938,-0.759633660316,0.0561252981424,-0.0691932588816,0.00429446669295,0.000929169589654,0.0639212578535,-0.000342326617101,-0.162405356765,0.08091121912,0.490083094127,-0.00050446839523,0.32852749547,-0.00528563657228,0.934158454356,0.353975518531,0.0449597171721
0.0210634227842,-0.222246155143,-0.0356326252222,-2.31354308128,0.0422468930483,2.16890239716,-0.75843834877,0.0561252981424,-0.0839434191585,0.0182169191539,0.00049047259381,0.0357811674476,-0.00352222425863,-0.155398368835,0.0567055568099,0.489795254788,-0.00112110834187,0.328578640058,-0.00565685558467,0.93462103268,0.352862127978,0.0440436554093
0.0196196008474,-0.221890956163,-0.0356337763369,-2.31325101852,0.0421100072563,2.16647911072,-0.757678151131,0.0561252981424,-0.0993177816272,0.0301745180041,7.29022649466e-05,0.00439686607569,-0.0137244099751,-0.153449088335,0.0390028394759,0.489375184706,-0.00181966269415,0.328291257494,-0.00606268470234,0.9350331028,0.35190616467,0.042876467605
0.0133697818965,-0.218588665128,-0.0364519581199,-2.31363940239,0.0390867553651,2.15831279755,-0.755146980286,0.0561252981424,-0.142941087484,0.0865346267819,-0.0328181274235,-0.0136014474556,-0.0910856127739,-0.138105973601,0.0378287360072,0.48745226603,-0.00555436731517,0.325635563773,-0.00707430062194,0.936628063211,0.348299988539,0.0369451369863
0.011159309186,-0.217119470239,-0.0370476581156,-2.31388998032,0.0377075597644,2.15663909912,-0.754544198513,0.0561252981424,-0.15593008697,0.0999059155583,-0.0448904633522,-0.0189269240946,-0.0961034670472,-0.0971183627844,0.0470223091543,0.486975189031,-0.00707268019714,0.324622552525,-0.00717151341735,0.937150842962,0.347072781324,0.0351760014928
0.0083358483389,-0.215152949095,-0.0379760302603,-2.31429409981,0.0356418825686,2.15535902977,-0.753801167011,0.0561252981424,-0.179966121912,0.126561939716,-0.060615580529,-0.0256241708994,-0.148894831538,-0.049860842526,0.0405406504869,0.486506309548,-0.00914022788997,0.323332043248,-0.00705807012462,0.937804546349,0.345501692619,0.0331872953991
0.00458126654848,-0.212460905313,-0.0394148863852,-2.3147816658,0.0317156948149,2.15471887589,-0.75322252512,0.0561515651643,-0.197728052735,0.142786204815,-0.0814258083701,-0.0253080856055,-0.231022670865,-0.0179856009781,0.0202359333634,0.486096885945,-0.0121564870268,0.321705030955,-0.00625908508647,0.938519436961,0.343789539715,0.0308357320193
-0.00168962369207,-0.207684963942,-0.0427106134593,-2.31537914276,0.0231693293899,2.15457510948,-0.753052294254,0.0561515651643,-0.224101915956,0.178943738341,-0.135775700212,-0.00918326992542,-0.320641696453,-0.000540696782991,9.22610997804e-05,0.485600521727,-0.0178931922424,0.319041291086,-0.00405737212957,0.939528119478,0.341381321176,0.0270045122051
-0.00583215290681,-0.204440712929,-0.0453492216766,-2.31544113159,0.0173690412194,2.15458774567,-0.753052413464,0.0561515651643,-0.259265065193,0.191174730659,-0.17105537653,0.000558909960091,-0.359541475773,0.00339856580831,0.000426669459557,0.485341221843,-0.0221815923413,0.317312146455,-0.00243252830781,0.940263490578,0.339558172356,0.0244724000855
-0.0101146511734,-0.201357871294,-0.0483161248267,-2.31541419029,0.0113751851022,2.1546587944,-0.753056764603,0.0561515651643,-0.277475714684,0.198856770992,-0.199103832245,0.00533013790846,-0.384694904089,0.00876530911773,1.76630146598e-05,0.485107675314,-0.0262084158804,0.315901338763,-0.000903595000918,0.940954098224,0.337795330472,0.0223356878022
-0.0162911619991,-0.196984305978,-0.0529606826603,-2.31525468826,0.00255507533439,2.15515089035,-0.75306892395,0.0561515651643,-0.311145305634,0.2202809304,-0.246834903955,0.0128075871617,-0.445502638817,0.0382960066199,-0.00212355190888,0.484809226792,-0.0322597829547,0.313962808664,0.00144128426734,0.941975741883,0.335115231811,0.019426927169
-0.0324581079185,-0.185755997896,-0.0668491646647,-2.3139154911,-0.0214263927191,2.15745663643,-0.753561556339,0.0561515651643,-0.383656620979,0.253618955612,-0.345667362213,0.0519462488592,-0.555320382118,0.0612530112267,-0.0285593792796,0.48402951789,-0.0502481595176,0.309164634232,0.00856682620888,0.944828017714,0.327234301308,0.0120140820396
-0.0391849577427,-0.181325703859,-0.0733209326863,-2.31288075447,-0.0310520287603,2.15877938271,-0.754283070564,0.0562027879059,-0.407212823629,0.271099627018,-0.410084336996,0.0738120377064,-0.578067779541,0.100246362388,-0.055216666311,0.483742282996,-0.0578981450418,0.307586210457,0.0114667256763,0.945989927121,0.323854053569,0.00949334840031
-0.0464344508946,-0.176398769021,-0.0805536136031,-2.31130385399,-0.0408092997968,2.16055464745,-0.755416870117,0.0562027879059,-0.430912643671,0.292541116476,-0.431383669376,0.106881283224,-0.572914004326,0.120684444904,-0.0893790274858,0.483526982299,-0.0662117043544,0.306056394809,0.0144620345749,0.947245070096,0.320104259171,0.00713370064998
-0.0553989857435,-0.170497372746,-0.089552976191,-2.30871081352,-0.0522505454719,2.16309213638,-0.757359623909,0.0562027879059,-0.461347192526,0.29760569334,-0.475737929344,0.152207434177,-0.573883712292,0.142937898636,-0.112498991191,0.483379897651,-0.0764849460622,0.304584439292,0.0181553708247,0.948727804832,0.315536191899,0.00477976348277
-0.0693725124002,-0.160917267203,-0.104931488633,-2.30325746536,-0.0688599422574,2.16832900047,-0.761608123779,0.0562027879059,-0.493530243635,0.353990584612,-0.570923447609,0.223362207413,-0.546812832355,0.213357537985,-0.181243792176,0.483389412262,-0.0931255723676,0.302853415352,0.0238610452091,0.951069099589,0.308047703681,0.0021977884092
-0.0768625363708,-0.155648171902,-0.113582007587,-2.29970765114,-0.077089227736,2.17194366455,-0.764808297157,0.0562027879059,-0.503693819046,0.343340069056,-0.577399492264,0.251965343952,-0.541610717773,0.262385904789,-0.25328296423,0.483527455407,-0.102241794057,0.302212858815,0.0269462959959,0.952255175657,0.304108501942,0.00141290549775
-0.0873127952218,-0.14855453372,-0.125695422292,-2.29440808296,-0.0875730141997,2.1774623394,-0.770319461823,0.0562027879059,-0.538545429707,0.366381704807,-0.641692996025,0.287788122892,-0.514397025108,0.290066957474,-0.291808694601,0.483688956694,-0.1149369041,0.301638540809,0.0311488905022,0.953797559389,0.298829778596,0.000851726961671
-0.097731359303,-0.141464918852,-0.138147085905,-2.288636446,-0.0970390513539,2.18310427666,-0.77629339695,0.0562027879059,-0.555225670338,0.372109472752,-0.66330832243,0.320904105902,-0.476578712463,0.310472339392,-0.334989190102,0.483701030074,-0.127744620782,0.301280225756,0.0351525795307,0.955356634857,0.293355821236,0.000598518326011
-0.111132115126,-0.132557958364,-0.154239714146,-2.28003835678,-0.107211746275,2.19076156616,-0.784998714924,0.0562027879059,-0.57134360075,0.366400510073,-0.699754059315,0.380370736122,-0.369936287403,0.326239675283,-0.387717723846,0.483761802276,-0.144216250152,0.301484199577,0.0401099328627,0.957326470424,0.286209277024,0.00121315609461
-0.120208546519,-0.126566469669,-0.165743842721,-2.27377533913,-0.112791031599,2.1960208416,-0.791377067566,0.0562073849142,-0.564124405384,0.385790288448,-0.727643370628,0.415424704552,-0.327159911394,0.332886010408,-0.42410209775,0.483596990941,-0.155609476444,0.301834339188,0.0431906703629,0.958748491848,0.280948294394,0.00198769720961
-0.131306573749,-0.118975952268,-0.180165588856,-2.26528358459,-0.118677131832,2.20268893242,-0.799875497818,0.0562073849142,-0.560132086277,0.382297039032,-0.732403337955,0.431529700756,-0.26829212904,0.329342186451,-0.438719928265,0.483320219525,-0.169772495727,0.302530133459,0.0469572483144,0.960460678643,0.2744074961,0.00329049947759
-0.14659756422,-0.109177045524,-0.200558841228,-2.25285959244,-0.125081315637,2.211840868,-0.81247907877,0.0562073849142,-0.568170189857,0.353540539742,-0.761866629124,0.473653823137,-0.210540503263,0.336585074663,-0.485364705324,0.482463428332,-0.189561186272,0.304142148915,0.0520991970236,0.962806644184,0.265059006622,0.00572383489634
-0.158177167177,-0.101982787251,-0.216464474797,-2.24284434319,-0.129248246551,2.21892380714,-0.822782218456,0.0562073849142,-0.541853129864,0.337366133928,-0.753022193909,0.481518596411,-0.18954873085,0.327200144529,-0.497275054455,0.481375546757,-0.205596988529,0.30586348561,0.0564111572475,0.964577394956,0.257574493516,0.00797561665668
-0.166208341718,-0.0970282256603,-0.227667465806,-2.23577094078,-0.132053211331,2.22359275818,-0.830345094204,0.0562073849142,-0.537071168423,0.310754030943,-0.74939852953,0.466897159815,-0.169163972139,0.305940210819,-0.512481451035,0.480384297857,-0.215627015585,0.306979184358,0.0591224221797,0.965611211126,0.25301109094,0.00921497131499
-0.191455632448,-0.0837224647403,-0.264330863953,-2.21208739281,-0.137791574001,2.23637390137,-0.856012642384,0.0562073849142,-0.467299580574,0.231327921152,-0.707843184471,0.443985253572,-0.0740119665861,0.210946932435,-0.513207495213,0.475387473946,-0.250053493064,0.312420614374,0.0682126787689,0.969050252306,0.236826691202,0.0142041187428
-0.199193269014,-0.0802964642644,-0.276120632887,-2.20470809937,-0.138703882694,2.23990511894,-0.86451792717,0.0562073849142,-0.453063696623,0.167624473572,-0.682635962963,0.429091662169,-0.0352304317057,0.198553055525,-0.481069654226,0.473214560024,-0.260806606798,0.314453042632,0.0709687871212,0.970081898708,0.231629336102,0.0158868311871
-0.206797420979,-0.0776719450951,-0.287209719419,-2.1976416111,-0.139158323407,2.24316120148,-0.872524917126,0.0562073849142,-0.432011693716,0.143646433949,-0.610459983349,0.394086420536,-0.0240126140416,0.181011900306,-0.462838083506,0.47090570727,-0.271055552864,0.316737451241,0.0736691204893,0.971072314959,0.22644188348,0.0177621199953
-0.22651873529,-0.0735091790557,-0.3137601614,-2.18137812614,-0.139737382531,2.25105905533,-0.893124163151,0.0562126375735,-0.369465619326,0.0123403146863,-0.48975238204,0.276443272829,-0.000275283644442,0.152319148183,-0.389468640089,0.463870403189,-0.296128628356,0.323060628359,0.0806157779485,0.973289906007,0.213761673452,0.0226671980584
-0.231995224953,-0.0734908655286,-0.320759624243,-2.17737364769,-0.139738291502,2.25325751305,-0.899123251438,0.0562126375735,-0.327110409737,-0.00595743954182,-0.400776922703,0.232734024525,-0.000615672499407,0.134351700544,-0.360343903303,0.461656922872,-0.302795284643,0.32517748252,0.0826631607269,0.973792729975,0.210484368568,0.0243074307361
-0.237441852689,-0.0737891793251,-0.327173680067,-2.17356467247,-0.139733672142,2.25526976585,-0.905522048473,0.0562126375735,-0.278417259455,-0.0327968038619,-0.328545928001,0.19322925806,-0.000528052798472,0.0940959081054,-0.341594696045,0.459444336753,-0.309115403635,0.327355796841,0.0847020851159,0.974176245488,0.207689092369,0.0259121614022
-0.242571800947,-0.0749872252345,-0.33323353529,-2.1702811718,-0.139716431499,2.25677108765,-0.912149369717,0.0562126375735,-0.230436816812,-0.0883339270949,-0.277696162462,0.139858558774,0.00177256402094,0.059992518276,-0.324812650681,0.457118680602,-0.314972475161,0.329691905113,0.0866217117176,0.974468875199,0.205303757429,0.0275219404871
-0.247794866562,-0.0777144134045,-0.339196711779,-2.16731262207,-0.13958029449,2.25803351402,-0.920515775681,0.0562126375735,-0.140833452344,-0.107947945595,-0.158258304,0.0728772655129,0.00874813273549,0.0261158496141,-0.280124217272,0.454591721127,-0.320719056803,0.332641421925,0.0887060359192,0.974562897789,0.203680559334,0.0295402587911
-0.249540477991,-0.0796978622675,-0.341319233179,-2.16646146774,-0.139236927032,2.25822210312,-0.925141334534,0.0562126375735,-0.0743579640985,-0.134535610676,-0.101957134902,0.0211849585176,0.0293471626937,0.000813238148112,-0.270906865597,0.453623027245,-0.32261632187,0.334080602242,0.0894538172931,0.974429390562,0.203843429774,0.0305488659834
-0.250369429588,-0.082467213273,-0.342510640621,-2.16638660431,-0.138372927904,2.25818538666,-0.929970741272,0.0562159195542,-0.0215146541595,-0.162157595158,-0.034569542855,-0.0142941689119,0.0591803975403,-0.00347428466193,-0.259878098965,0.453042370224,-0.323445407732,0.335448159543,0.0898671922514,0.974158907201,0.204778429619,0.0316876274874
-0.250000268221,-0.085340090096,-0.342203110456,-2.16664528847,-0.137196242809,2.25797510147,-0.935062944889,0.0562159195542,0.049710303545,-0.135846585035,0.0472776219249,-0.0191531181335,0.0484461113811,-0.0226874686778,-0.253556519747,0.453199927449,-0.322964037098,0.336851739938,0.090084722755,0.973573956465,0.20724263199,0.0329997757477
-0.247625082731,-0.0890313908458,-0.339501708746,-2.1674053669,-0.13589900732,2.25723481178,-0.940953969955,0.0562159195542,0.128786504269,-0.147342979908,0.145345672965,-0.0433066114783,0.0648149847984,-0.0360614322126,-0.2122040838,0.454484158402,-0.320467928827,0.33827823622,0.0901272011327,0.972523875439,0.211886144197,0.034331631326
-0.244281724095,-0.0919441506267,-0.335543841124,-2.16847133636,-0.134062945843,2.25627350807,-0.944964289665,0.0562159195542,0.197375029325,-0.142037123442,0.238121688366,-0.0624929107726,0.121761113405,-0.0566586442292,-0.183408275247,0.456520595097,-0.316532284158,0.33924385173,0.089619363446,0.971393986153,0.217022020024,0.0355462498668
-0.240402832627,-0.0941943600774,-0.330920547247,-2.16963648796,-0.131571143866,2.25510835648,-0.94808703661,0.0562159195542,0.259205341339,-0.135891616344,0.307049870491,-0.0682790651917,0.164704948664,-0.0835357010365,-0.184187412262,0.458652843087,-0.312373785137,0.339720346466,0.0887367488739,0.970399573643,0.221626164523,0.0365006817012
-0.235868036747,-0.0962969362736,-0.325589627028,-2.17087197304,-0.128995865583,2.25348424911,-0.950943470001,0.0562159195542,0.308894366026,-0.127262815833,0.368137478828,-0.0795416682959,0.150719642639,-0.110278345644,-0.161723330617,0.461875155534,-0.305877954478,0.340148278918,0.0872629193321,0.968910447145,0.228452718571,0.0375111102652
-0.216234192252,-0.101377055049,-0.301985681057,-2.17529916763,-0.119250670075,2.24712514877,-0.957925975323,0.0562159195542,0.472665816545,-0.0726662054658,0.563934266567,-0.0975480824709,0.246480301023,-0.143299713731,-0.122215554118,0.472274103205,-0.284464776828,0.340084053775,0.08237254157,0.96419376504,0.248979946541,0.0394225032913
-0.207779496908,-0.102443024516,-0.291880846024,-2.17694568634,-0.115080758929,2.24442672729,-0.959915339947,0.0562172345817,0.520562708378,-0.0550213754177,0.619950890541,-0.0964994430542,0.239960640669,-0.170616954565,-0.112323015928,0.476442882527,-0.275351846365,0.339663327176,0.0801582126727,0.962193183981,0.257236401874,0.0398543709619
-0.197701767087,-0.103191576898,-0.279869884253,-2.17871570587,-0.110662765801,2.24136710167,-0.961700320244,0.0562172345817,0.6020835042,-0.0267566051334,0.714116871357,-0.0987894237041,0.25040307641,-0.165592178702,-0.0896323919296,0.481794380544,-0.263200981563,0.338938698218,0.0773699170454,0.95943939438,0.268105122469,0.0401196640687
-0.152002334595,-0.10252815485,-0.225180193782,-2.18594026566,-0.0932171046734,2.2310154438,-0.963471591473,0.0562172345817,0.763037383556,0.0476134940982,0.918244242668,-0.116675503552,0.235290467739,-0.128158956766,-0.000964514678344,0.502223942323,-0.210240699319,0.334464558942,0.0665804809506,0.94674515766,0.312479490091,0.039965159398
-0.140195250511,-0.101706847548,-0.210988014936,-2.18771576881,-0.0897323787212,2.22937583923,-0.96346449852,0.0562172345817,0.808353424072,0.0614276081324,0.958933115005,-0.116872161627,0.219068929553,-0.107231847942,-0.000624091888312,0.506478563008,-0.197386150728,0.33321465087,0.0644710701732,0.94331178502,0.323157268034,0.0396955558958
-0.123880952597,-0.100174754858,-0.191646263003,-2.18986845016,-0.0856758877635,2.22740650177,-0.963406562805,0.0562172345817,0.852635681629,0.0936866030097,1.00437533855,-0.0979027822614,0.197533965111,-0.0906707942486,0.0105435624719,0.512522296875,-0.177514318041,0.331224434912,0.0615540190989,0.93769045866,0.339739498344,0.0390484240576
-0.0986983627081,-0.0966689437628,-0.161394402385,-2.19229578972,-0.0803350657225,2.22506785393,-0.962434232235,0.0562178902328,0.87707144022,0.142315626144,1.05253732204,-0.0690633803606,0.166574597359,-0.0646621286869,0.0643418878317,0.520443153383,-0.147993187617,0.328176290123,0.0578033885959,0.928850250546,0.363953667117,0.0378643394819
-0.0826380029321,-0.0939030721784,-0.141907453537,-2.19339227676,-0.077302582562,2.22412919998,-0.961030364037,0.0562178902328,0.887498617172,0.160973250866,1.08961176872,-0.0530986823142,0.157979160547,-0.0400344356894,0.0887049436569,0.524872081059,-0.128983908639,0.326207359302,0.0556930666907,0.922934579565,0.379092274334,0.0371361197436
-0.0710900872946,-0.0916958525777,-0.127760499716,-2.19399523735,-0.0753950402141,2.22369837761,-0.95951372385,0.0562178902328,0.90946239233,0.179494902492,1.10611224174,-0.0409048721194,0.14132244885,-0.0289177279919,0.151690036058,0.527742472987,-0.115216345107,0.324780029129,0.0543272999018,0.918560665568,0.389813241146,0.0366126325846
-0.0518491268158,-0.0876996591687,-0.104299962521,-2.19460439682,-0.0725469067693,2.2232439518,-0.955408513546,0.0562178902328,0.897695958614,0.209633216262,1.09648740292,-0.0114131802693,0.135794788599,-0.0210404880345,0.251407057047,0.531880375057,-0.0922679866324,0.322424670224,0.0522265846779,0.91128999988,0.406868433456,0.035791025534
-0.0228193551302,-0.0809446200728,-0.0688705220819,-2.19474411011,-0.069215580821,2.22278738022,-0.944031059742,0.0562178902328,0.892241597176,0.205969855189,1.09271073341,-0.00106042914558,0.0845155194402,-0.0149371549487,0.458589315414,0.536508839717,-0.0575115047563,0.318822250896,0.0493631682717,0.900699273605,0.430250094336,0.0344811853878
-0.00848775170743,-0.0775647759438,-0.0512753240764,-2.19472932816,-0.067847378552,2.2226293087,-0.935780286789,0.0562178902328,0.89101588726,0.217528223991,1.09677290916,0.00263708946295,0.0870785787702,-0.00425548525527,0.570736765862,0.537994091685,-0.040242429395,0.317041031046,0.0480121684293,0.895767800707,0.440623463057,0.0338502936288
0.00725199980661,-0.0735445097089,-0.0318221077323,-2.19471764565,-0.0660923048854,2.22259712219,-0.924604773521,0.0562178902328,0.866585195065,0.223357453942,1.068557024,-0.00437445333228,0.102342098951,-0.000586205685977,0.670408844948,0.539002750344,-0.0211326862774,0.314911037701,0.0463506478834,0.890698197435,0.451009349369,0.0331497357721
0.0218969304115,-0.0700319483876,-0.0136876069009,-2.19480681419,-0.0644390359521,2.2225382328,-0.912398159504,0.0562178902328,0.83461779356,0.194714531302,1.05004131794,-0.00648313201964,0.0778645500541,-0.0105316760018,0.768068015575,0.539288411784,-0.00331023787693,0.312984072503,0.0447754676268,0.88628326563,0.459823257854,0.0325530608768
0.0485899224877,-0.0639102384448,0.0196820739657,-2.19489598274,-0.0628522485495,2.22203159332,-0.883883178234,0.0562178902328,0.77672457695,0.17013566196,0.984674632549,-0.0040152608417,0.0386899150908,-0.0152245303616,0.956163704395,0.538231971035,0.0291446557569,0.309590053389,0.0423214661207,0.879223510916,0.47349624116,0.0312445296939
0.061378531158,-0.0611049123108,0.0357911512256,-2.19506216049,-0.0621326304972,2.22173810005,-0.866914927959,0.056222487241,0.74988079071,0.157848060131,0.935437381268,-0.0106985094026,0.0488797053695,-0.0197458099574,1.02875888348,0.536971154537,0.0447087474806,0.307955758305,0.0411077555828,0.876524351649,0.478620421519,0.0306219720443
0.0729307606816,-0.0588821023703,0.0504657030106,-2.19530487061,-0.0614723935723,2.22145533562,-0.849789321423,0.056222487241,0.691599011421,0.116430163383,0.874201118946,-0.0207646414638,0.033021479845,-0.0193444173783,1.09356582165,0.53540608408,0.0587907144097,0.306595285432,0.04003274827,0.874463304314,0.482494996324,0.0301643276944
0.0836528465152,-0.0572313405573,0.0640089064837,-2.19572591782,-0.0609429851174,2.22106862068,-0.8317232728,0.056222487241,0.653550565243,0.0933189019561,0.813747107983,-0.0224621836096,0.034853823483,-0.0210400838405,1.13552606106,0.533545367526,0.0717505170246,0.305444831177,0.0390709902256,0.873068340927,0.485116449569,0.0297852282103
0.0967339649796,-0.0554395653307,0.0807253718376,-2.19627857208,-0.0603391714394,2.22056341171,-0.806686878204,0.056222487241,0.587430238724,0.0732755661011,0.759095549583,-0.0327959544957,0.0292560681701,-0.0217970591038,1.23109090328,0.530952944274,0.086867445901,0.304189522769,0.0379738418102,0.872054059815,0.487045994298,0.0294262332818
0.11283390969,-0.054298363626,0.101474776864,-2.19734358788,-0.0593732967973,2.21957039833,-0.769207000732,0.056222487241,0.4925763309,0.0203378461301,0.631637454033,-0.03976771608,0.0343393757939,-0.0371077209711,1.25175595284,0.526752145381,0.106408319917,0.302893677069,0.0364964580233,0.872325373701,0.486687604675,0.0291826330711
0.120319396257,-0.0542216300964,0.111106343567,-2.19794774055,-0.0590303838253,2.21898293495,-0.74908798933,0.056222487241,0.44095531106,-0.00117691082414,0.571769952774,-0.0384988896549,0.0172538887709,-0.0361951701343,1.26757001877,0.524367385538,0.115926379375,0.302446217607,0.0358432244853,0.873158907251,0.485239366156,0.0291812122494
0.127748310566,-0.0543829426169,0.120372332633,-2.19852042198,-0.0589236915112,2.21840429306,-0.726277351379,0.056222487241,0.38080945611,-0.0194101780653,0.468491822481,-0.025163942948,0.00439577642828,-0.0310170017183,1.24696075916,0.52205285125,0.124566696085,0.302174207868,0.0353448613995,0.87466575329,0.482546333461,0.0293188766381
0.133817449212,-0.0548423342407,0.127665624022,-2.19892406464,-0.0588571876287,2.21805715561,-0.704843819141,0.0562270842493,0.329731404781,-0.0384833440185,0.381911426783,-0.0223029665649,0.00911718979478,-0.00873265508562,1.26532006264,0.52015021866,0.131462074035,0.30216913471,0.0349874800774,0.876617502233,0.478993461972,0.0297135335406
0.141907632351,-0.0562503822148,0.137262105942,-2.19935369492,-0.0587182864547,2.21789240837,-0.66910225153,0.0562270842493,0.220262721181,-0.0475668013096,0.285776644945,-0.00356472865678,0.00418676109985,-7.75962689659e-05,1.20358729362,0.517608367093,0.140584809256,0.302664820391,0.0345539743105,0.880910112466,0.471006096257,0.03092981691
0.145883247256,-0.0573618933558,0.142141744494,-2.19937372208,-0.0586624629796,2.21789050102,-0.644443631172,0.0562270842493,0.153968110681,-0.0652412176132,0.170467182994,0.00100712710992,0.000811071018688,0.000193686399143,1.15104973316,0.516369370555,0.145159665848,0.303227629459,0.0343194860526,0.884594449093,0.463996045898,0.0319765941588
0.147832036018,-0.0585338622332,0.144332662225,-2.19934368134,-0.0586171299219,2.21790623665,-0.626451790333,0.0562270842493,0.0931107774377,-0.0800849869847,0.112527906895,0.00190196326002,0.000472488929518,0.00111514120363,1.10658860207,0.515810672706,0.14730506908,0.303857766849,0.0341973599365,0.887774987719,0.457823966238,0.0329139387675
0.148837402463,-0.0598469600081,0.145560055971,-2.19928002357,-0.0585478283465,2.21794724464,-0.608037292957,0.0562270842493,0.0364726558328,-0.0763290598989,0.0425600856543,0.00659462064505,0.00240681692958,0.00217582215555,1.05579555035,0.515545134374,0.148476511968,0.304584948073,0.0340759311324,0.891438531123,0.450582668798,0.0339327924015
0.148824140429,-0.0611904598773,0.145608648658,-2.19919323921,-0.0584053508937,2.21803927422,-0.589716970921,0.0562270842493,-0.027786847204,-0.0755200237036,-0.026158971712,0.0103932209313,0.00773649383336,0.00578289944679,0.994367957115,0.515618724949,0.148532449636,0.305349019117,0.0339244655167,0.895517146375,0.442351197811,0.0349798321662
0.146654978395,-0.0636903941631,0.143151462078,-2.19880986214,-0.0583055317402,2.21826124191,-0.560360193253,0.0562270842493,-0.114418819547,-0.0785164237022,-0.132130607963,0.019743103534,0.00390497990884,0.0112347984686,0.888608336449,0.516532996778,0.146228896275,0.30689431587,0.0337821401697,0.902869360781,0.426992661619,0.0369181658345
0.144165471196,-0.0649129152298,0.140228882432,-2.19828796387,-0.058301050216,2.21844625473,-0.544794797897,0.0562270842493,-0.162617444992,-0.0574520751834,-0.189978331327,0.0368574410677,-5.80043488299e-05,0.0151306483895,0.844960689545,0.517555765367,0.143510123454,0.30782547618,0.0337247573303,0.907268852438,0.41746614387,0.0380511305815
0.140977755189,-0.0658705681562,0.136565506458,-2.19755411148,-0.058292966336,2.21865749359,-0.530868649483,0.0562270842493,-0.215469926596,-0.0546622648835,-0.234561055899,0.0442101582885,-0.00017024288536,0.0190527010709,0.7830504179,0.518833060897,0.140062279542,0.308723084531,0.0336685004974,0.911527745313,0.407985747223,0.0391309511856
0.136403337121,-0.0670092478395,0.131945997477,-2.196600914,-0.0582811050117,2.21901273727,-0.516675055027,0.0562270842493,-0.263117164373,-0.0567671470344,-0.264753013849,0.0605587847531,0.000637117424048,0.027896489948,0.730201244354,0.520295126254,0.136013008839,0.309704126344,0.0336575697649,0.915640816915,0.398554810577,0.0402880260537
0.121900707483,-0.0687484741211,0.116212934256,-2.19273805618,-0.0582555159926,2.22151851654,-0.484175026417,0.0562277399004,-0.349243819714,-0.026873325929,-0.391619682312,0.0964523479342,9.68426465988e-05,0.091084331274,0.63242650032,0.526180089184,0.120152021025,0.312951261795,0.0337144603175,0.928051123023,0.36822978936,0.0446236499367
0.11561717093,-0.0689981207252,0.108951166272,-2.19088411331,-0.0582508146763,2.22323203087,-0.473808526993,0.0562277399004,-0.389463454485,-0.00160657940432,-0.447012662888,0.120266512036,0.000463833101094,0.120229378343,0.599528133869,0.528877455272,0.112854914824,0.314260371773,0.0338002937236,0.932555395843,0.356402482715,0.0466395092953
0.109295122325,-0.0689756944776,0.101664632559,-2.18889212608,-0.0582294389606,2.22542500496,-0.464274823666,0.0562277399004,-0.404391080141,0.00228798529133,-0.465733468533,0.125332653522,-0.000492594554089,0.155535191298,0.587173998356,0.531308615037,0.106367833574,0.315398039107,0.0338971254523,0.936278313898,0.346228610641,0.0485762562338
0.0862916260958,-0.0687501132488,0.0754889473319,-2.18216347694,-0.0578036122024,2.23569369316,-0.436326473951,0.0562277399004,-0.491861790419,0.00862645916641,-0.560148000717,0.143121510744,0.0176836568862,0.262589216232,0.514346957207,0.540187467686,0.0810839459437,0.3197480234,0.0344673920472,0.948522195145,0.309672279715,0.0567514146809
0.077946305275,-0.0686394497752,0.0659610629082,-2.17972803116,-0.0574408434331,2.24043393135,-0.427524358034,0.0562277399004,-0.494313389063,0.00585609441623,-0.567064523697,0.14865501225,0.0325267389417,0.28983771801,0.515842318535,0.543117447744,0.0723488079015,0.321328447761,0.0347173014449,0.952165646072,0.297621942584,0.0599705794855
0.0698102936149,-0.0686085298657,0.0564607568085,-2.17730712891,-0.0568555817008,2.24540877342,-0.419232189655,0.0562290549278,-0.512206315994,0.00678664539009,-0.612176537514,0.157878726721,0.0505111739039,0.320958197117,0.504166483879,0.546270518587,0.0625871017874,0.323188352776,0.0349725435736,0.955974495305,0.284295073693,0.0637651651515
0.0588840506971,-0.0683835819364,0.0431841798127,-2.17401146889,-0.0553870983422,2.25295114517,-0.409073382616,0.0562290549278,-0.520315110683,0.0175903812051,-0.631266593933,0.15439003706,0.0864507183433,0.38673979044,0.463757485151,0.550201955652,0.0499036515224,0.325579220187,0.0351488018973,0.960478729951,0.267378930103,0.0689469249822
0.0320119932294,-0.0675746873021,0.0102164587006,-2.16562271118,-0.0488140098751,2.2733874321,-0.386692941189,0.0562290549278,-0.539051413536,0.0191707853228,-0.679641366005,0.176052600145,0.153846010566,0.42515784502,0.43969860673,0.558983974326,0.0182198246621,0.331755915486,0.034978703882,0.970042171326,0.225713142377,0.0827541731606
0.025493144989,-0.0673420503736,0.00204558554105,-2.16351938248,-0.0467795357108,2.27858877182,-0.381573855877,0.0562290549278,-0.535634458065,0.0193442944437,-0.674653947353,0.173866018653,0.195484295487,0.442607760429,0.408430874348,0.561350815114,0.00838082097703,0.333708312087,0.0348392184946,0.972548653173,0.212935884185,0.0871415801241
0.01466096472,-0.0670245587826,-0.0118256956339,-2.1600883007,-0.0423760153353,2.28746271133,-0.3739336133,0.0562290549278,-0.543385028839,0.0130312722176,-0.701983273029,0.169085115194,0.248490869999,0.452268183231,0.356685072184,0.563682051392,-0.00226695825102,0.335828454163,0.0344928037237,0.975013366061,0.199261433942,0.0919459794224
0.00373081560247,-0.0667445361614,-0.0260615870357,-2.15677213669,-0.0366929545999,2.29685282707,-0.367070794106,0.0562290549278,-0.535270214081,0.0178113281727,-0.700021445751,0.165759459138,0.307954132557,0.479426622391,0.336459875107,0.566472878324,-0.0164942662006,0.338660102767,0.033738456431,0.977941578151,0.181055478668,0.0985438969252
-0.0123601499945,-0.0664591193199,-0.0471744164824,-2.15178632736,-0.0260326601565,2.31124424934,-0.357452690601,0.0562290549278,-0.538128197193,0.00417531374842,-0.720994889736,0.166360124946,0.408496767282,0.47144946456,0.310229182243,0.569883286016,-0.0366067735571,0.342879552703,0.0321043924418,0.981443575118,0.154887542498,0.108386649184
-0.0207498092204,-0.0663567855954,-0.0586725622416,-2.14916658401,-0.0192305315286,2.31887817383,-0.352340430021,0.0562290549278,-0.508317708969,0.00260132714175,-0.707080364227,0.15829820931,0.455199271441,0.484351158142,0.320684880018,0.571371783304,-0.0473905571024,0.345159581976,0.0309096029962,0.983036266944,0.140535317924,0.113728265737
-0.028720125556,-0.0663213506341,-0.0698014572263,-2.14673137665,-0.0115711949766,2.32669258118,-0.347363442183,0.0562290549278,-0.501936435699,-0.000353681738488,-0.697938084602,0.147505670786,0.512984573841,0.492306351662,0.306264042854,0.57267048437,-0.0577332640658,0.347429493068,0.0294451754468,0.984358221177,0.126349720297,0.119195729461
-0.0385762639344,-0.0662994533777,-0.0837665870786,-2.14390277863,-0.000641150923911,2.33675312996,-0.341447770596,0.0562290549278,-0.486496418715,-0.00196389830671,-0.689681053162,0.134998381138,0.594353675842,0.505384743214,0.280136227608,0.574015788399,-0.0706313232751,0.350241005795,0.0272340896964,0.985692416195,0.108342217413,0.126216990291
-0.0525392182171,-0.066335760057,-0.103969842196,-2.14016294479,0.0191949661821,2.35138034821,-0.334203481674,0.0562290549278,-0.437677055597,-0.00121634581592,-0.643312215805,0.113189585507,0.712977409363,0.477328598499,0.230023741722,0.57539198961,-0.0889905190065,0.354246811991,0.0227750679732,0.986969358768,0.0817872431916,0.136688067071
-0.060333583504,-0.0663670673966,-0.115414515138,-2.13828992844,0.0325243622065,2.35992908478,-0.330136179924,0.0562290549278,-0.418096542358,-0.00320854317397,-0.617860555649,0.0954143181443,0.765359163284,0.473875433207,0.223511919379,0.575907944017,-0.0992698215195,0.356475833915,0.0195899174975,0.987334788597,0.066134307863,0.14287233245
-0.0673372447491,-0.0664276331663,-0.125799074769,-2.13675355911,0.0462737977505,2.36774420738,-0.326395004988,0.0562290549278,-0.408149182796,-0.00414604879916,-0.606090605259,0.0805394575,0.840926766396,0.454903662205,0.213421493769,0.576201744234,-0.108494594545,0.358472810208,0.0161449189415,0.987422389374,0.0514035402282,0.148640648227
-0.0740185379982,-0.0665405541658,-0.135598614812,-2.13551187515,0.0611055754125,2.37526106834,-0.322831183672,0.0562290549278,-0.379271030426,-0.00957753043622,-0.545488655567,0.0651337057352,0.892456412315,0.429123073816,0.206340670586,0.576322340958,-0.117156981088,0.3603356825,0.0122743285102,0.987261501858,0.0368510425163,0.154292152009
-0.0812602564692,-0.0667034834623,-0.145752057433,-2.13441872597,0.0793071985245,2.38332009315,-0.318716019392,0.0562323369086,-0.349172830582,-0.00710860174149,-0.488314241171,0.0423723347485,0.935495257378,0.376803338528,0.205408096313,0.576307754984,-0.126170419998,0.362277897912,0.00729156301262,0.986791714087,0.0205001426842,0.160526290572
-0.0910736843944,-0.0668645873666,-0.159296020865,-2.1334540844,0.108492486179,2.39357042313,-0.312650680542,0.0562323369086,-0.29803314805,-0.00300132203847,-0.405961483717,0.022414656356,0.998646914959,0.306622564793,0.19790828228,0.575921510221,-0.137975881792,0.364592113169,-0.00121607497914,0.985625840663,-0.00323023183642,0.168907633572
-0.0961459577084,-0.0669892132282,-0.166258737445,-2.13325953484,0.126970931888,2.3988866806,-0.30915299058,0.0562323369086,-0.258617371321,-0.00610952591524,-0.349741309881,0.00685995677486,1.05471336842,0.278724402189,0.188033565879,0.575628560309,-0.143842692839,0.365715103057,-0.00688094738876,0.984667002926,-0.0167329654141,0.173503756376
-0.100538387895,-0.0670258179307,-0.171788588166,-2.13322877884,0.146177470684,2.40358543396,-0.305810838938,0.0562323369086,-0.230210289359,-0.000172579719219,-0.274229496717,-0.000917095050681,1.07478761673,0.242880061269,0.173823624849,0.575456809882,-0.148659869053,0.366692368325,-0.0133560218302,0.98348244539,-0.0300171215765,0.177996821317
-0.104130767286,-0.0670052915812,-0.176110327244,-2.1332924366,0.164780944586,2.40741968155,-0.303060770035,0.0562323369086,-0.188343808055,0.00204652035609,-0.229076489806,-0.00346429250203,1.11785829067,0.21991994977,0.156900241971,0.575388551921,-0.152064172178,0.3674258771,-0.0194628815704,0.98229981558,-0.0411063595313,0.181710031244
-0.109972827137,-0.0665297284722,-0.183428809047,-2.13333058357,0.219714954495,2.41572356224,-0.296592533588,0.0562323369086,-0.0512426830828,0.0190985053778,-0.0778120905161,-0.00024139994639,1.15529203415,0.152529478073,0.126963481307,0.57626347807,-0.156197520355,0.369100046745,-0.0379906892124,0.978563236116,-0.0674568952998,0.190840947983
-0.110276170075,-0.0661544129252,-0.184365212917,-2.13332915306,0.239562422037,2.41823625565,-0.294341892004,0.0562323369086,0.00306824012659,0.025478662923,-0.0274972394109,0.000639065401629,1.19375479221,0.140431582928,0.12730486691,0.577067732056,-0.155753768461,0.36958829347,-0.0451272205656,0.977094845541,-0.0754352871142,0.193800706746
-0.109945856035,-0.0657575577497,-0.184348255396,-2.13333678246,0.258444488049,2.42047572136,-0.292432367802,0.0562323369086,0.0392718762159,0.0285677276552,0.0240608602762,-0.000207076693187,1.17213261127,0.140472665429,0.113675259054,0.578050139478,-0.154462696406,0.370027676224,-0.0520262588197,0.975677359851,-0.0821658491019,0.196457961923
-0.108340516686,-0.0650697872043,-0.18336763978,-2.13330793381,0.283241927624,2.42312574387,-0.290048360825,0.0562329925597,0.109652705491,0.0336464010179,0.0710486769676,0.000936950498726,1.16085350513,0.123151823878,0.107391759753,0.579641259062,-0.151544468,0.370518188069,-0.0612873004814,0.973811185086,-0.089905057872,0.199631467621
-0.100274421275,-0.0627976506948,-0.17712713778,-2.13315582275,0.337949544191,2.42902994156,-0.285344004631,0.0562329925597,0.224963918328,0.0613842271268,0.1996101439,0.0151404645294,1.14678895473,0.137322485447,0.083359234035,0.584418073345,-0.140232382054,0.371340371523,-0.0823411253301,0.969729716028,-0.102617232685,0.205703476346
-0.0965913757682,-0.0616931393743,-0.173737108707,-2.13285398483,0.354751467705,2.43111824989,-0.284105718136,0.0562329925597,0.263088524342,0.0816004350781,0.247821807861,0.0251826904714,1.09914946556,0.141843065619,0.0769008472562,0.58606998097,-0.135962664479,0.371536550636,-0.0880584278947,0.968672811415,-0.104864467212,0.207176593542
-0.0912474915385,-0.0598971880972,-0.168638348579,-2.13210344315,0.375419408083,2.43384408951,-0.282468289137,0.0562329925597,0.298086762428,0.101522937417,0.286848127842,0.0492662414908,1.05499196053,0.144018098712,0.096380777657,0.589006400274,-0.128183963041,0.371820017359,-0.0971497618768,0.967046157899,-0.107551818127,0.209323334511
-0.0768368840218,-0.0547542572021,-0.154710173607,-2.12902975082,0.416451066732,2.44028615952,-0.278826862574,0.0562329925597,0.381989240646,0.133486792445,0.371379464865,0.0888755843043,0.889499366283,0.175190925598,0.0880789682269,0.595548563141,-0.1098304285,0.372435468005,-0.113899179199,0.964296542611,-0.108953726473,0.21281033825
-0.0663669258356,-0.0509938001633,-0.144078344107,-2.12629437447,0.437872201204,2.44501447678,-0.27659586072,0.0562349632382,0.413931578398,0.158169746399,0.441541820765,0.114680863917,0.756322205067,0.196151807904,0.0940509140491,0.599728690115,-0.097200510485,0.37291316696,-0.122636506102,0.963045906173,-0.107081384718,0.214561055909
-0.0595919564366,-0.0483242087066,-0.136897772551,-2.12430691719,0.449188768864,2.44830679893,-0.275047659874,0.0562349632382,0.43689712882,0.176438942552,0.456871390343,0.127150684595,0.65697824955,0.214157655835,0.0950404182076,0.602611197089,-0.0881280579371,0.373188900617,-0.127893626145,0.962380917412,-0.104840978668,0.21557958873
-0.0488605611026,-0.0443807579577,-0.125594690442,-2.12130403519,0.463388293982,2.45364618301,-0.27332302928,0.0562349632382,0.465012431145,0.15906406939,0.483933568001,0.123038955033,0.533207178116,0.233462274075,0.0565711334348,0.606513620619,-0.0747923032831,0.373593642583,-0.13428020861,0.961728729491,-0.100036656948,0.216885553705
-0.0407831780612,-0.0415703468025,-0.117177657783,-2.1192240715,0.471883624792,2.45758509636,-0.272373795509,0.0562349632382,0.478429287672,0.169902473688,0.508663833141,0.121490202844,0.476161599159,0.230167075992,0.0507112592459,0.608971038708,-0.0654546051213,0.373805812285,-0.138066667429,0.961453319717,-0.0959082290598,0.217593016065
-0.0162499863654,-0.0341303870082,-0.0922336876392,-2.11451411247,0.489740878344,2.46917533875,-0.269387960434,0.0562349632382,0.497741907835,0.131740257144,0.505093932152,0.0595653243363,0.2524779737,0.226984813809,0.0733852535486,0.615265139805,-0.0351345856208,0.373973605635,-0.147833711446,0.961176611629,-0.0802117360589,0.218748239096
-0.00653737876564,-0.0317877009511,-0.0821052566171,-2.11369681358,0.493833601475,2.47383379936,-0.268126875162,0.0562349632382,0.479497373104,0.10254560411,0.498580217361,0.0222790557891,0.162270516157,0.231808528304,0.0513531640172,0.61692661607,-0.0232592424861,0.373752014361,-0.150631942388,0.961306672732,-0.0731520163234,0.218742499511
-0.00088722887449,-0.0307059027255,-0.0761991068721,-2.1135725975,0.495649516582,2.47662067413,-0.267646849155,0.0562349632382,0.461813956499,0.084836512804,0.48122048378,0.00424218224362,0.137613192201,0.225390762091,0.035602286458,0.617677032679,-0.0163554337979,0.37359840153,-0.15203818936,0.96141565335,-0.0687553413583,0.21871678764
0.00836891960353,-0.0291190892458,-0.0667345300317,-2.11370444298,0.497817069292,2.4812002182,-0.267077535391,0.0562349632382,0.457782715559,0.0796448588371,0.462798535824,-0.0100937746465,0.0677688196301,0.211526423693,0.0268892478198,0.618621482754,-0.0051924581888,0.373256128478,-0.15402462277,0.961632114603,-0.0613095530873,0.218589181197
0.0212740153074,-0.0271129868925,-0.0535921230912,-2.11428046227,0.498192131519,2.48728227615,-0.266179829836,0.0562362782657,0.413027822971,0.0473358742893,0.400385707617,-0.0327355153859,0.000430570624303,0.199411943555,0.027354516089,0.619388278738,0.0102701582096,0.372575870412,-0.155917309798,0.962094445215,-0.0501278521185,0.218062534897
0.0283713787794,-0.0263773072511,-0.046723857522,-2.11509895325,0.498133331537,2.49088764191,-0.265711724758,0.0562362782657,0.381097018719,0.034353107214,0.364191055298,-0.0551200062037,-0.0105348685756,0.19600006938,0.0202535632998,0.619530650771,0.018524609545,0.37218588983,-0.156807199741,0.962295138235,-0.0440919965141,0.217842751942
0.0342262424529,-0.0259747635573,-0.041186362505,-2.11615014076,0.49781703949,2.49402952194,-0.265485286713,0.0562362782657,0.349437952042,0.0167362559587,0.339051038027,-0.0791209936142,-0.0263176131994,0.191130489111,0.00787061732262,0.619475865983,0.0252261626535,0.371803273003,-0.157397658093,0.962456153467,-0.0390403662705,0.217669426822
0.0402458719909,-0.0258346870542,-0.0351907871664,-2.11781311035,0.496660500765,2.49746704102,-0.265306353569,0.0562362782657,0.286649465561,-0.00108105957042,0.290031939745,-0.0958122983575,-0.0796881765127,0.170760765672,0.0116497566923,0.619199735908,0.0318985701927,0.37130102223,-0.157696304336,0.962665963433,-0.0337210653624,0.217414369096
0.0510150045156,-0.0261608343571,-0.0251571685076,-2.12294650078,0.48829934001,2.50485730171,-0.265157401562,0.0562362782657,0.165828570724,-0.0160149727017,0.13544626534,-0.122869923711,-0.259864896536,0.144422084093,0.000563716690522,0.617963611659,0.043865666296,0.369530721143,-0.155688815982,0.96349971912,-0.0217971147696,0.216689107509
0.0536225065589,-0.0264377184212,-0.023212922737,-2.12555336952,0.48212569952,2.50749921799,-0.265155225992,0.0562362782657,0.101569645107,-0.0109392981976,0.0677653551102,-0.138996943831,-0.341563463211,0.114791668952,2.093533476e-05,0.617381087116,0.0459944131132,0.368575174189,-0.153641388194,0.963980788146,-0.0181315958764,0.216348350681
0.0540346354246,-0.0272410325706,-0.023503491655,-2.13306808472,0.460894852877,2.51288580894,-0.265160650015,0.056238245219,-0.0686792358756,-0.0265376828611,-0.0789430215955,-0.179484441876,-0.526441276073,0.0964659675956,0.000205921707675,0.615773519364,0.0444294454375,0.365230317408,-0.145013491902,0.965676187234,-0.01170866909,0.215182469865
0.0524467863142,-0.0276708509773,-0.0254236292094,-2.13616847992,0.451404631138,2.51438474655,-0.265167027712,0.056238245219,-0.112001851201,-0.0207585748285,-0.144747376442,-0.186548024416,-0.580654621124,0.0731487125158,-0.000517820357345,0.615149716436,0.0416068075529,0.363827495034,-0.141000822495,0.966401976802,-0.0104981744034,0.214652685322
0.0498889572918,-0.0279492847621,-0.0285762753338,-2.13959717751,0.440396845341,2.51567101479,-0.265177637339,0.056238245219,-0.170541331172,-0.0127576747909,-0.206053674221,-0.197643667459,-0.626146197319,0.0633370727301,-0.00222064019181,0.614456022231,0.0373784597522,0.362098770322,-0.136254207389,0.967258324724,-0.00983412014346,0.213891126501
0.0388128384948,-0.0281001664698,-0.0416649468243,-2.14851236343,0.40977948904,2.51812577248,-0.26530110836,0.056238245219,-0.302768617868,0.0105897597969,-0.371338695288,-0.193278253078,-0.70045620203,0.0547054819763,-0.00277060293593,0.612584600743,0.0207130021776,0.357128020783,-0.122456505206,0.969584648509,-0.0117982479334,0.211591149975
0.0323549471796,-0.0278910510242,-0.0493448488414,-2.15216588974,0.39612492919,2.51896262169,-0.265569955111,0.056238245219,-0.362545192242,0.0142661472782,-0.421942234039,-0.18969425559,-0.730236172676,0.0272916574031,-0.0142015563324,0.61170409681,0.0112864867399,0.354899595068,-0.116032091852,0.970567445732,-0.0141575551672,0.210558662305
0.0262913350016,-0.0276333522052,-0.0564005710185,-2.15517282486,0.384300112724,2.51938843727,-0.265908867121,0.056238245219,-0.403863966465,0.0137560367584,-0.467987477779,-0.182706519961,-0.751169741154,0.0242875944823,-0.0165795683861,0.61082679174,0.00263851721049,0.352972902072,-0.110437929837,0.971401817709,-0.0165380527085,0.209543467355
0.0172514729202,-0.0271998550743,-0.066907979548,-2.15890240669,0.368148028851,2.51987957954,-0.266433775425,0.056238245219,-0.456831216812,0.0257277861238,-0.532248914242,-0.169877544045,-0.786625444889,0.0134570943192,-0.0361210554838,0.609580707448,-0.00948315813453,0.350610823991,-0.103062396446,0.972410270621,-0.0203124888779,0.208287806941
0.00315452739596,-0.0261862520128,-0.0830442681909,-2.1633272171,0.345983743668,2.52049875259,-0.267563670874,0.0562395602465,-0.523430109024,0.0438901111484,-0.593829154968,-0.147607818246,-0.791645348072,0.0162540245801,-0.0484003685415,0.607384816569,-0.0296314656735,0.347227298041,-0.0917420536183,0.97375975068,-0.0274130402254,0.206455487876
-0.00612469669431,-0.025216512382,-0.0934597998857,-2.16566205025,0.332354009151,2.52088022232,-0.26860705018,0.0562395602465,-0.568584382534,0.0598722957075,-0.641353487968,-0.129823818803,-0.811030268669,0.021714668721,-0.0729591175914,0.605840801355,-0.0422506393532,0.345227997469,-0.0849033210922,0.974486012257,-0.0320094407381,0.205289632911
-0.0161242540926,-0.0239962339401,-0.105011440814,-2.16766262054,0.318363785744,2.52133607864,-0.269985109568,0.0562395602465,-0.595490992069,0.0899486541748,-0.700889587402,-0.104095570743,-0.826482415199,0.0255955439061,-0.0955533534288,0.60404200735,-0.0559801361917,0.343270898973,-0.0777378746108,0.975141369445,-0.0372183319186,0.204134582841
-0.0276198517531,-0.0220324490219,-0.118466004729,-2.16923117638,0.302310943604,2.52196907997,-0.27229604125,0.0562395602465,-0.616705238819,0.112262904644,-0.713094711304,-0.0669965222478,-0.858981609344,0.0383821763098,-0.157123878598,0.601823775951,-0.0718390623208,0.341101723755,-0.0694117114608,0.975815137977,-0.0429323654765,0.202789650864
-0.0592815801501,-0.0155266970396,-0.155342653394,-2.17043328285,0.259623676538,2.52400875092,-0.282499372959,0.0562395602465,-0.676760852337,0.157617196441,-0.777516365051,0.003497016849,-0.917036890984,0.0637570917606,-0.275129586458,0.594634057707,-0.115146169405,0.336263083667,-0.0466056963837,0.977152826805,-0.0570836663505,0.199353246431
-0.0695753023028,-0.0130878435448,-0.167585015297,-2.17032051086,0.245838552713,2.52520656586,-0.28701788187,0.0562395602465,-0.684603393078,0.162694677711,-0.805270373821,0.0137939527631,-0.933625519276,0.092699944973,-0.327438622713,0.591835330915,-0.129327600077,0.334870671645,-0.0390073068837,0.977455294002,-0.0612443897074,0.198264224362
-0.0826840847731,-0.00978311151266,-0.183324739337,-2.17007994652,0.227899312973,2.52694368362,-0.293897539377,0.056241530925,-0.693822324276,0.187325254083,-0.830320239067,0.0220803190023,-0.965429723263,0.0882813706994,-0.401248037815,0.587594900593,-0.148375762404,0.332978727975,-0.0285303501241,0.977843650957,-0.0661433778843,0.196552452699
-0.118425369263,0.000580394000281,-0.226149514318,-2.16803359985,0.175694584846,2.5320930481,-0.318816930056,0.056241530925,-0.704212963581,0.219699040055,-0.858288347721,0.052531786263,-1.0554009676,0.106359153986,-0.558099448681,0.574547790512,-0.196319320666,0.32829280445,-0.000303365995122,0.978865547186,-0.0742745392612,0.190539867257
-0.128905385733,0.00390235567465,-0.238742575049,-2.16722345352,0.159515276551,2.53358197212,-0.32750788331,0.056241530925,-0.685459911823,0.220343396068,-0.826625347137,0.0557969622314,-1.10162389278,0.0941603630781,-0.605599462986,0.569929194862,-0.210519233645,0.326867757859,0.0084757675893,0.979190296175,-0.0757000033765,0.188106444403
-0.139796108007,0.00737869273871,-0.251675993204,-2.16631793976,0.141941204667,2.53495550156,-0.337736070156,0.056241530925,-0.689751148224,0.205255389214,-0.827191650867,0.0491152629256,-1.10043811798,0.0845240354538,-0.681277632713,0.564777270935,-0.225094480701,0.325399152849,0.0178579988456,0.979585460905,-0.0762179420011,0.185160043406
-0.172248572111,0.0170378796756,-0.290135532618,-2.16357445717,0.087406642735,2.53872704506,-0.375061392784,0.056241530925,-0.633792221546,0.191144347191,-0.756022155285,0.0621191710234,-1.09009194374,0.0716410428286,-0.851213216782,0.546857598291,-0.268571473906,0.321497170678,0.0471406936756,0.980837053116,-0.0732888180335,0.174256073298
-0.181568920612,0.0198348462582,-0.301332443953,-2.16269683838,0.0707204192877,2.53964781761,-0.388508200645,0.056241530925,-0.592276394367,0.172438204288,-0.711602926254,0.0543358996511,-1.09109890461,0.0467306450009,-0.90410143137,0.541548140344,-0.279873504037,0.320521704119,0.0551876005083,0.98122215446,-0.0709300752352,0.170664397195
-0.193025037646,0.023007536307,-0.315235972404,-2.16161727905,0.0491171106696,2.54038524628,-0.406605660915,0.056241530925,-0.551660358906,0.146499350667,-0.691069245338,0.0489523671567,-1.08479273319,0.0323086977005,-0.923015475273,0.534082129707,-0.294698680225,0.319361793831,0.0660489934402,0.981756011811,-0.0667569989538,0.165336525079
-0.203571483493,0.0258139148355,-0.328598558903,-2.16072416306,0.0280332583934,2.54091286659,-0.425552010536,0.056241530925,-0.514008462429,0.130008816719,-0.636708855629,0.0379286594689,-1.02276027203,0.0179753098637,-0.968793511391,0.526608735438,-0.308490906599,0.318320919227,0.0764332604443,0.982269839511,-0.0616180403265,0.159709535992
-0.218064934015,0.0288648139685,-0.346262574196,-2.15994286537,-0.00095942284679,2.54131484032,-0.455580472946,0.0562448129058,-0.454114794731,0.0773134157062,-0.546396374702,0.0141518935561,-0.906373739243,0.00722302449867,-1.03308475018,0.515848605078,-0.326675242763,0.317127189297,0.0904918373589,0.982957671387,-0.0522274871324,0.151253869099
-0.226540997624,0.0301657561213,-0.356614649296,-2.15978765488,-0.0186346787959,2.54132652283,-0.476492643356,0.0562448129058,-0.432050466537,0.0697045698762,-0.5285333395,0.0101874386892,-0.887976288795,0.00219320785254,-1.03731107712,0.508813330039,-0.337603463684,0.31652176374,0.0992823257956,0.98337455926,-0.044457167462,0.14539964217
-0.231585383415,0.0306324698031,-0.362702906132,-2.15980958939,-0.0295081809163,2.54131817818,-0.49002841115,0.0562448129058,-0.362394750118,0.0230548325926,-0.436648845673,-0.00228747073561,-0.806264877319,-0.00599526613951,-1.04030632973,0.504736517568,-0.34365669903,0.316312191392,0.104327999906,0.98357594278,-0.039344499708,0.141936757959
-0.238017559052,0.0308584179729,-0.370199918747,-2.15987539291,-0.0440056025982,2.54129433632,-0.50981515646,0.0562448129058,-0.319694817066,0.00668035214767,-0.375199526548,-0.00120180228259,-0.707355737686,-5.88905531913e-05,-1.04168915749,0.499771185488,-0.350822810486,0.316237095209,0.11067896382,0.983786815936,-0.0316716580008,0.137515721044
-0.249569326639,0.0303316619247,-0.384166240692,-2.15976476669,-0.0730876475573,2.54125618935,-0.559904575348,0.0562448129058,-0.170698955655,-0.030939495191,-0.215769514441,0.00178779591806,-0.50279122591,0.000182911942829,-1.01995944977,0.489853028137,-0.364708513006,0.316771872212,0.124435533263,0.983941955922,-0.00919414511359,0.127630297464
-0.251953542233,0.0297333300114,-0.387119501829,-2.1597802639,-0.0806171298027,2.5411567688,-0.576020658016,0.0562507249415,-0.129483282566,-0.0389627292752,-0.154852852225,-6.54674568068e-06,-0.441062480211,-0.00932733528316,-1.00096714497,0.48767468346,-0.367627249796,0.317134952905,0.128023722631,0.983864429892,-0.00122762750548,0.124976808508
-0.253773182631,0.0290944166481,-0.389061778784,-2.15974831581,-0.08780798316,2.54088997841,-0.592767179012,0.0562507249415,-0.083564825356,-0.0377387329936,-0.0737544298172,0.00111994531471,-0.413806915283,-0.0174408983439,-0.977397680283,0.48598944396,-0.369840737976,0.31753344233,0.131559017339,0.983711183312,0.00823769551324,0.122215681702
-0.254863351583,0.0282421298325,-0.389790862799,-2.15977096558,-0.0952423140407,2.54041004181,-0.611126840115,0.0562507249415,-0.0263156015426,-0.0498493276536,-0.00693505629897,-0.00258467975073,-0.368452042341,-0.0343281924725,-0.962738871574,0.48510875031,-0.370905195057,0.31794246833,0.134668116287,0.983466214858,0.0184241657671,0.119663079102
-0.25399261713,0.0264447256923,-0.388796001673,-2.15975570679,-0.105621099472,2.53872990608,-0.641218066216,0.0562507249415,0.0705145597458,-0.0577949695289,0.0755195915699,0.00354943005368,-0.287693917751,-0.0517247729003,-0.910266458988,0.48527657828,-0.370310542143,0.318740576316,0.138995588983,0.98278891495,0.0376925668583,0.115695483901
-0.25233310461,0.0255312174559,-0.387011796236,-2.15972495079,-0.110126838088,2.53789496422,-0.65638422966,0.0562507249415,0.123755730689,-0.0552225187421,0.127270624042,-0.00104818795808,-0.256446301937,-0.0455379411578,-0.88598382473,0.486313094474,-0.368771504389,0.319151386029,0.14080143303,0.982261419164,0.0483622725598,0.114011188779
-0.24986384809,0.0246021505445,-0.384394854307,-2.15975022316,-0.114140033722,2.53694462776,-0.671059787273,0.0562507249415,0.161935523152,-0.0519964434206,0.174927502871,-0.000202326758881,-0.221868172288,-0.0729378908873,-0.848127067089,0.487927441854,-0.366388800865,0.319517805967,0.142282765638,0.981614768285,0.0594101288306,0.112509988783
-0.246401205659,0.0235839914531,-0.380518347025,-2.15971493721,-0.118033848703,2.53495001793,-0.686927676201,0.0562507249415,0.201613694429,-0.0599975846708,0.23690918088,0.00140317692421,-0.186886593699,-0.123342514038,-0.819290220737,0.490204153137,-0.362820684049,0.319796397555,0.143388677317,0.980806533639,0.0720652117577,0.110746718861
-0.234582185745,0.0210765618831,-0.365773946047,-2.16005468369,-0.125576987863,2.52751994133,-0.724057853222,0.0562507249415,0.290251553059,-0.0576329231262,0.367742568254,-0.0235530734062,-0.144421011209,-0.182901412249,-0.718155741692,0.498212196192,-0.349408427289,0.319843481432,0.144065934224,0.978144635537,0.105604420548,0.106422669688
-0.229597091675,0.020138124004,-0.359452098608,-2.1604282856,-0.127789139748,2.52436423302,-0.735238671303,0.0562520362437,0.334737896919,-0.0567137114704,0.420325815678,-0.0269262343645,-0.132551312447,-0.205408886075,-0.685459196568,0.501468990901,-0.343564591725,0.31967469211,0.143747208155,0.97701865481,0.117255504616,0.10498778326
-0.223355457187,0.0191448647529,-0.351363420486,-2.16097712517,-0.130299791694,2.52039122581,-0.747241914272,0.0562520362437,0.357269078493,-0.0551890134811,0.46666803956,-0.0376002937555,-0.148017942905,-0.236287623644,-0.65323060751,0.505258878438,-0.33652488657,0.319345197831,0.143152912672,0.975651266972,0.130094044942,0.10337982402
-0.215692192316,0.0179740469903,-0.341591626406,-2.16187119484,-0.132578909397,2.5155146122,-0.759972989559,0.0562520362437,0.400643020868,-0.0624405927956,0.510337710381,-0.0534623898566,-0.0846971943974,-0.251920640469,-0.627507328987,0.51040463945,-0.326376464796,0.318712379475,0.141882433844,0.973656869923,0.146978445552,0.10128677533
-0.202655926347,0.0162392277271,-0.325335264206,-2.16368746758,-0.134875535965,2.50756931305,-0.777821838856,0.0562520362437,0.456452488899,-0.0558470003307,0.573417961597,-0.0662435591221,-0.0734247863293,-0.278459370136,-0.571309864521,0.517625008578,-0.311114065691,0.317536680831,0.139391518644,0.97058636203,0.169723633067,0.0986205173581
