imanlab/tactile_prediction_flat_dataset/test/data_sample_2021-11-25-13-11-37/robot_state.csv
position_panda_joint1,position_panda_joint2,position_panda_joint3,position_panda_joint4,position_panda_joint5,position_panda_joint6,position_panda_joint7,position_panda_finger,velocity_panda_joint1,velocity_panda_joint2,velocity_panda_joint3,velocity_panda_joint4,velocity_panda_joint5,velocity_panda_joint6,velocity_panda_joint7,ee_state_position_x,ee_state_position_y,ee_state_position_z,ee_state_orientation_x,ee_state_orientation_y,ee_state_orientation_z,ee_state_orientation_w
-0.118777535856,-0.0113977594301,0.10743034631,-2.57193732262,0.00675617903471,2.63544011116,-0.836200118065,0.0767157375813,0.000616658653598,3.88044327337e-06,-0.000466280442197,-0.0172081254423,3.40236438205e-05,-5.32431113243e-05,-4.73807194794e-05,0.462733426544,-0.00526531437213,0.162393476571,0.0143473470164,0.916656338038,0.397920017148,0.0345683554998
-0.118777215481,-0.0113922050223,0.107430644333,-2.57228064537,0.00675610685721,2.63544368744,-0.836202383041,0.0767157375813,-0.000231906073168,0.000265685259365,-0.000241496454692,-0.0160061195493,6.81647870806e-05,-9.96381932055e-05,-5.85829475312e-05,0.4625658548,-0.00526319281332,0.162259538434,0.0142766516942,0.916661823066,0.397923563766,0.0344109928605
-0.118777468801,-0.0113804340363,0.107430934906,-2.57261633873,0.0067565725185,2.63544440269,-0.836202144623,0.0767157375813,-0.00023588417389,-0.000229974742979,0.000142655087984,-0.0164519250393,3.65145606338e-05,0.000350673304638,4.93978113809e-05,0.462400294298,-0.00526122546567,0.16212542945,0.0142051961037,0.916668011704,0.397925479193,0.0342531956556
-0.118781872094,-0.0113876303658,0.107426680624,-2.5736477375,0.0067566242069,2.63545227051,-0.836201369762,0.0767157375813,-0.000189787868294,-0.00134702434298,0.00242572277784,-0.0237749349326,-7.01987446519e-05,0.000623368483502,0.000128355473862,0.461899860643,-0.00526015913187,0.1617342604,0.013998191844,0.916687515662,0.397927532376,0.0337894645288
-0.118781171739,-0.0113978385925,0.107430674136,-2.57406187057,0.00675650313497,2.63545632362,-0.836202025414,0.0767157375813,-0.000599597522523,0.000544613169041,0.00291845435277,-0.0225941874087,8.62285742187e-05,-5.42686830158e-05,-3.84245322493e-05,0.461689244672,-0.00525624578732,0.161572059191,0.0139124310069,0.916693795946,0.397932407283,0.0335965422567
-0.118777051568,-0.0113932099193,0.107431031764,-2.57441997528,0.00675616646186,2.63546013832,-0.836203336716,0.0767157375813,6.4389903855e-05,-0.000672597903758,-0.000141667784192,-0.0232328269631,0.00012062901078,-6.9242909376e-05,-2.07537286769e-05,0.461525441775,-0.00525216827991,0.161442002345,0.013843588732,0.916698222095,0.397937524511,0.0334432493271
-0.118778534234,-0.0113856745884,0.107428818941,-2.57483816147,0.00675680022687,2.63546061516,-0.8362018466,0.0767157375813,-0.000118937190564,0.000788500416093,-0.000352294038748,-0.0197784882039,-6.277544162e-05,-0.000258785410551,0.000284400623059,0.461308750857,-0.00525168584358,0.161269629005,0.0137515371521,0.916707049608,0.397937503346,0.0332388859113
-0.118779420853,-0.011384983547,0.107429459691,-2.57590413094,0.00675640115514,2.63546466827,-0.83620429039,0.0767157375813,-0.000130527783767,-0.000698280113284,0.000240383582423,-0.0213972534984,0.000109733067802,0.000255749881035,0.00011394534522,0.460799625831,-0.00524628213087,0.160871343254,0.013539493062,0.91672396536,0.397945117384,0.0327648698084
-0.118775911629,-0.0113898301497,0.107429996133,-2.57624340057,0.00675652828068,2.63546729088,-0.836202561855,0.0767157375813,0.000178529779078,0.00332980207168,-1.15313096103e-05,-0.0195691604167,-2.64673999482e-05,-0.000347635388607,0.000259834399913,0.460624915974,-0.0052428327641,0.160736379798,0.0134676307524,0.916729426315,0.397948194874,0.0326039219582
-0.118781015277,-0.011387235485,0.107428215444,-2.57662057877,0.00675717322156,2.63546848297,-0.836201071739,0.0767157375813,-0.000170190469362,0.00128431722987,-0.000173759108293,-0.0185061264783,7.86082807736e-07,-3.21324405377e-05,-0.000535855127964,0.460458810482,-0.00524400678157,0.160606195184,0.013398073367,0.916736824908,0.397946155544,0.032449074805
-0.118779413402,-0.0113769816235,0.107428848743,-2.57709813118,0.00675686588511,2.63547086716,-0.836202085018,0.0767157375813,0.000299649458611,0.000658526900224,-0.000117113646411,-0.0182848703116,2.07166121982e-05,-6.74419134157e-05,0.000245770730544,0.46021541066,-0.00524032719018,0.160412667181,0.0132948698616,0.91674441805,0.397950759485,0.0322197317737
-0.118777513504,-0.0113847423345,0.107431396842,-2.57751917839,0.0067572593689,2.63547682762,-0.836204826832,0.0767157375813,0.00145987013821,9.34477284318e-05,0.000166945828823,-0.00248781894334,2.64812988462e-05,0.00226473202929,-0.000262676330749,0.460007049259,-0.00523594145139,0.160252506648,0.0132098598908,0.916749794428,0.397956585385,0.0320292030294
-0.118775866926,-0.0113809537143,0.107430800796,-2.57761240005,0.00675676437095,2.63548922539,-0.836202383041,0.0767150819302,0.000330396927893,0.00130679411814,0.000241309331614,0.000105516417534,-3.24716347677e-05,0.000743076030631,1.52773664013e-05,0.459968247344,-0.00523533677089,0.160220333638,0.0131946292207,0.916751312013,0.397956325044,0.0319952609266
-0.118782952428,-0.0113946869969,0.107431516051,-2.57760381699,0.00675729429349,2.63552904129,-0.83620351553,0.0767150819302,-0.00374811771326,-0.000506408279762,0.000189930404304,-0.000250589073403,-2.04628813663e-05,0.00490704644471,2.71643402812e-05,0.459983227953,-0.00523873180452,0.16023398366,0.0132080736393,0.916751453247,0.397953304867,0.032023219483
-0.118780076504,-0.0113916341215,0.107430286705,-2.57760453224,0.00675739999861,2.63557863235,-0.8362018466,0.0767150819302,0.000348089117324,-0.000298657134408,-0.000248026743066,-0.000117475457955,3.64963088941e-05,0.00780833140016,-1.00501829365e-05,0.459992893565,-0.00523809458645,0.160237420758,0.0132173296606,0.916750762857,0.397952901421,0.0320441715367
-0.118776492774,-0.0113855693489,0.10743252933,-2.57760977745,0.00675777345896,2.63568711281,-0.836204111576,0.0767150819302,0.000116622912174,0.000415475486079,0.000918501929846,0.000467783072963,5.60753323953e-05,0.00403219182044,-0.000129112886498,0.460012349933,-0.00523567673528,0.160243816008,0.0132370301982,0.916747705254,0.397955713001,0.0320885667186
-0.118777669966,-0.0113871740177,0.107433713973,-2.57760024071,0.00675773527473,2.63572692871,-0.836204111576,0.0767150819302,0.000178880363819,0.000289831048576,0.00234960252419,0.000248347874731,-3.29009380948e-05,0.00285478052683,0.000116651186545,0.460025748746,-0.00523591216971,0.160252284239,0.0132476294659,0.916746890311,0.397955370529,0.0321117138618
-0.118777781725,-0.0113891344517,0.107432246208,-2.57760047913,0.00675764121115,2.63577651978,-0.836202561855,0.0767150819302,-4.15135182266e-05,0.000547587289475,-0.00134274980519,0.000376779702492,3.39349353453e-05,0.00271475897171,-6.86899438733e-05,0.460037107737,-0.00523657491588,0.160258401706,0.0132589401561,0.916746421741,0.39795410346,0.0321361159788
-0.118783034384,-0.0113872718066,0.107431128621,-2.57759332657,0.00675940467045,2.63581371307,-0.836203277111,0.0767157375813,4.31896805821e-05,-0.000232251652051,0.000183354641194,0.00135264068376,0.000142891483847,-0.000102572710603,0.000100577119156,0.460047537252,-0.00523988853934,0.160263904101,0.0132667219371,0.916747446382,0.397949996654,0.0321545251294
-0.118773885071,-0.0113861514255,0.10743432492,-2.57759428024,0.00675788288936,2.63588356972,-0.836202502251,0.0767157375813,-4.45390724053e-05,-0.000462280411739,0.000207155550015,0.000180794086191,-0.000169447084772,-4.3256488425e-05,3.75380841433e-05,0.460061773108,-0.0052345019167,0.160270222182,0.0132808520734,0.91674382177,0.397955387304,0.0321853011742
-0.118781596422,-0.0113868666813,0.107431277633,-2.57757163048,0.00675961235538,2.6359732151,-0.836204707623,0.0767157375813,0.000145202619024,0.000312095158733,0.000720907351933,-1.4481677681e-05,-0.000179825554369,0.0013231865596,-0.000325197266648,0.460091962972,-0.00523987206029,0.160288421225,0.0133039821368,0.916744024696,0.397949976734,0.0322368258575
-0.118776783347,-0.0113885421306,0.107433967292,-2.5775551796,0.00675989780575,2.63602256775,-0.83620506525,0.0767157375813,0.000171902225702,-2.32903548749e-05,0.000253607984632,0.00296820746735,3.17155427183e-05,0.00420253258198,-0.000340785103617,0.460110820864,-0.00523672604848,0.160300543277,0.0133177992444,0.916741433348,0.397952992255,0.0322675726108
-0.118781581521,-0.0113870892674,0.107431873679,-2.57752084732,0.00675898883492,2.63604855537,-0.836205363274,0.0767157375813,-0.000182887088158,-0.000109076521767,-1.6715759557e-05,0.00111406820361,7.12429173291e-05,-0.000171692212461,1.78096433956e-05,0.460132861023,-0.00524016501438,0.1603156467,0.0133301349066,0.91674164026,0.397949935515,0.0322942877524
-0.118780724704,-0.0113886045292,0.107432045043,-2.57748007774,0.00675939116627,2.63606357574,-0.836204469204,0.0767157375813,0.00076833734056,-0.000499903515447,-5.95678939135e-05,0.00507468916476,5.32394114998e-05,0.00328594865277,0.000122505269246,0.460154624222,-0.00524040199547,0.160332130357,0.0133409803745,0.91674111326,0.397948799456,0.0323187591711
-0.118782535195,-0.0113824401051,0.1074321419,-2.57732820511,0.00675975624472,2.63610386848,-0.836204946041,0.0767157375813,-0.00278542423621,0.00105954392347,-0.00361835537478,0.00402245018631,-4.15813974541e-06,0.000434974761447,0.000117794872494,0.460238107166,-0.0052415589272,0.160392675721,0.0133795551006,0.916738017846,0.39794759067,0.0324053838297
-0.118782088161,-0.0113877374679,0.107431948185,-2.57729387283,0.00676174648106,2.63611912727,-0.836204707623,0.0767157375813,-0.000103565005702,0.000730088795535,0.000151122614625,0.00100112461951,-5.44182785234e-06,0.000893840042409,0.000529147277121,0.460259061422,-0.00524172640505,0.160409766737,0.0133905780652,0.916737455672,0.397946470203,0.0324304844374
-0.118773683906,-0.0113936616108,0.107434809208,-2.57726359367,0.00676088640466,2.63615322113,-0.836205601692,0.0767157375813,-0.000199721587705,0.000507558346726,0.000276618229691,0.000265798676992,1.81224604603e-05,-2.28237786359e-05,0.000145789337694,0.460282191853,-0.0052369791176,0.160427540661,0.0134053492723,0.916733748342,0.397951916763,0.0324623302921
-0.118784040213,-0.0113860592246,0.107432208955,-2.57727074623,0.00676185917109,2.63617777824,-0.836205601692,0.0767157375813,1.3551119082e-05,0.00063370220596,-0.000354144198354,-0.00021573495178,0.000103152924567,0.000113663110824,-0.000170706669451,0.460282533685,-0.0052428124884,0.16042386795,0.0134070217276,0.916736349875,0.39794548792,0.032466981869
-0.118778623641,-0.0113830156624,0.107432052493,-2.577272892,0.00676164217293,2.63618683815,-0.83620518446,0.0767157375813,9.12555551622e-05,-0.000689322652761,0.000516690430231,-0.000262592482613,-4.79296577396e-05,1.64760404004e-05,-8.61500957399e-05,0.460283074105,-0.00523988226441,0.160422677008,0.0134077784205,0.916735070211,0.397948231512,0.0324691737055
-0.1187736094,-0.011385621503,0.107434615493,-2.577272892,0.00676050363109,2.63619637489,-0.836204051971,0.0767157375813,-0.000139780240715,-0.00125386496074,-0.00028440495953,-0.000110329063318,7.1177702921e-05,0.000619800586719,2.49626264122e-05,0.460285421572,-0.00523699982435,0.160424766047,0.0134104150308,0.916733620817,0.397951069815,0.0324742197385
-0.118774287403,-0.0113932564855,0.107437290251,-2.57726716995,0.00676119606942,2.63621068001,-0.836204409599,0.0767157375813,1.38903333209e-05,-0.00101726979483,-3.22731320921e-05,0.000802972645033,-4.43516437372e-05,7.21093456377e-05,-5.05107309436e-05,0.460292576979,-0.00523630647718,0.160431916921,0.0134162885854,0.916732819411,0.397951698661,0.0324867084987
-0.118781335652,-0.0113913631067,0.107432454824,-2.57726240158,0.00676202122122,2.63624095917,-0.836204826832,0.0767157375813,0.00028023775667,0.00158619519789,0.00010428213136,-6.20785722276e-05,-1.38832301673e-05,8.75035548233e-05,0.000199176894967,0.460300952302,-0.00524184560229,0.160435995513,0.0134230290522,0.916734714322,0.397945869059,0.0325018588427
-0.118780001998,-0.011379679665,0.107432767749,-2.57726764679,0.00676206033677,2.63625407219,-0.836205124855,0.0767157375813,0.00012039392459,0.000281247601379,9.51381480263e-06,-0.000162805808941,-1.72351774381e-05,0.000132870147354,0.000287752307486,0.460299174762,-0.0052408722594,0.160430000309,0.0134216974145,0.916734410633,0.397946732568,0.0325004018295
-0.118778891861,-0.0113771148026,0.107434675097,-2.57727050781,0.00676054647192,2.63626122475,-0.836204648018,0.0767157375813,-0.000388665037462,0.000235433442867,-0.00010906985699,4.99341222167e-05,-2.31886042457e-05,-0.000108892316348,0.000309451832436,0.460298867611,-0.00523949165591,0.160428471927,0.013422253837,0.916733624302,0.397948468113,0.0325011012789
-0.118776872754,-0.0113816326484,0.107434436679,-2.57726812363,0.0067618531175,2.63627099991,-0.836205303669,0.0767157375813,-0.000250997982221,-3.22206324199e-05,-0.000728378305212,0.000340357189998,-3.93899426854e-05,-1.0178931916e-05,0.000319297425449,0.460302893445,-0.00523877594774,0.160432457701,0.0134255741443,0.916733091066,0.397948961227,0.0325087317785
-0.118775218725,-0.0113928169012,0.107435531914,-2.5772550106,0.00676176184788,2.63630485535,-0.836203694344,0.0767157375813,0.000430212967331,-0.000356317352271,-0.0015058957506,0.00101639027707,-2.94291749015e-05,8.61905209604e-05,-4.29491592513e-05,0.460318462527,-0.00523801641113,0.160446055662,0.0134381872818,0.91673195899,0.397948984658,0.0325351468374
-0.118777871132,-0.0113805225119,0.107437193394,-2.57725930214,0.00676171388477,2.63631486893,-0.836205124855,0.0767157375813,-0.000252101453952,-0.000233207116253,0.000350565824192,-0.000619555357844,-0.000119681106298,6.92014800734e-05,-0.000119453725347,0.460316340101,-0.00523816788565,0.160439838886,0.0134361815633,0.916731928748,0.397949361147,0.0325322222192
-0.11878002435,-0.0113777592778,0.107434436679,-2.57726168633,0.00676173716784,2.6363222599,-0.83620506525,0.0767157375813,0.00110807898454,-0.000530001183506,-0.000394261645852,0.000208115030546,-3.95668066631e-05,1.1795453247e-05,1.97177305381e-05,0.460316243259,-0.00524038181674,0.160438428929,0.0134365870741,0.916732890577,0.397947045082,0.0325332822319
-0.118782132864,-0.0113815441728,0.107436038554,-2.57726311684,0.0067617315799,2.63633060455,-0.836205244064,0.0767157375813,-2.25079656957e-05,0.000444524950581,0.000107657935587,0.000902943895198,-0.000109498112579,9.75773800747e-05,0.000158401744557,0.460319189527,-0.00524048549856,0.160441434334,0.0134396661977,0.916732696233,0.397946874429,0.0325395734868
-0.118775755167,-0.0113999266177,0.107437632978,-2.57725119591,0.00676156999543,2.6363492012,-0.836204767227,0.0767157375813,-0.00341160385869,0.000560857064556,1.35214349939e-05,-1.33961680149e-06,-0.000113492293167,5.22024492966e-05,0.000180248855031,0.460330931891,-0.00523756727667,0.160455354538,0.0134498119635,0.916730457654,0.397950024811,0.0325599140201
-0.118776135147,-0.0113941282034,0.107436172664,-2.5772497654,0.00676145590842,2.63636088371,-0.836204767227,0.0767157375813,-0.000509831297677,-0.00085029413458,-0.000251911784289,1.60939107445e-05,3.02687731164e-05,-3.27280176862e-05,0.000404668506235,0.460333108605,-0.00523834871945,0.160454452586,0.0134511087361,0.91673069326,0.397949156421,0.0325633581475
-0.118779718876,-0.0113829569891,0.107437357306,-2.57725167274,0.00676166452467,2.63637042046,-0.836205124855,0.0767157375813,-0.00012288504513,0.000588584283832,-0.00011831986194,-9.45967258303e-05,5.41443005204e-05,0.00221375771798,-2.736760689e-05,0.460332272322,-0.0052392481489,0.160449595342,0.0134498793343,0.91673120446,0.397948131026,0.0325620055931
-0.118779867887,-0.0113769965246,0.107437670231,-2.57725644112,0.00676165288314,2.63637709618,-0.836204707623,0.0767157375813,0.000201583810849,-0.00109122612048,0.000104856095277,-9.215681348e-05,9.6441450296e-05,-1.4832467059e-05,-0.00031344711897,0.460330334812,-0.00523905331897,0.160445737043,0.0134487797815,0.916731326957,0.397948025795,0.0325602970508
-0.118779323995,-0.0113959871233,0.107436142862,-2.57724833488,0.0067618181929,2.6363992691,-0.836204707623,0.0767157375813,-0.000260561122559,0.000818199419882,0.000213199207792,-0.00230664107949,-0.000123780409922,1.70511557371e-05,-0.000176782225026,0.460342256945,-0.0052400135237,0.160459810477,0.0134597729369,0.916730741322,0.397947203029,0.0325822913456
-0.118781335652,-0.0113967275247,0.107436351478,-2.57724666595,0.00676164636388,2.63640499115,-0.836206078529,0.0767157375813,-0.000186575460248,0.000524698174559,-0.000510672631208,3.45006583302e-06,-7.24868914403e-06,0.000281380373053,-9.55631694524e-05,0.460344154841,-0.00524071217483,0.160461254087,0.0134614011084,0.916730633363,0.397947130551,0.0325855412917
-0.118776924908,-0.0113874357194,0.107436925173,-2.57724881172,0.00676161423326,2.63641881943,-0.836204648018,0.0767157375813,0.000911905837711,0.000866340764333,-6.3191553636e-05,-0.000512427184731,9.88023998616e-07,0.000299404317047,-0.000231708792853,0.460344723922,-0.00523845476871,0.160457731649,0.0134615631817,0.916729927305,0.39794860963,0.032587274733
-0.118777424097,-0.0113830016926,0.107438378036,-2.57725048065,0.00676132459193,2.63643240929,-0.836206197739,0.0767157375813,0.000572447199374,-0.000740120944101,0.00155133323278,0.000129489417304,4.52758467873e-05,6.39821009827e-05,0.000245444680331,0.460346036021,-0.00523798040631,0.160456467189,0.0134630005345,0.916729266455,0.397949799331,0.0325907431027
-0.118778459728,-0.0113917738199,0.107437469065,-2.57724785805,0.00676172459498,2.63644242287,-0.836207151413,0.0767157375813,-0.000206579017686,-0.000962406396866,3.67639840988e-05,0.000380707118893,-2.09814188565e-05,0.000178873713594,0.000409110682085,0.460350416047,-0.00523904719712,0.16046189547,0.0134673150469,0.916729170472,0.39794916378,0.0325994196167
-0.118777051568,-0.0113961873576,0.107437439263,-2.57724785805,0.00676170922816,2.63644886017,-0.836206436157,0.0767157375813,0.000275559694273,0.00057210662635,-0.00360598531552,0.000439217837993,2.01178972929e-05,2.45394803642e-05,-0.000194002510398,0.460353067271,-0.00523857460098,0.160465201502,0.0134701773762,0.916728867858,0.397949294462,0.0326051510431
-0.118778526783,-0.0113830696791,0.107436060905,-2.57725071907,0.00676152482629,2.63646864891,-0.836206018925,0.0767157375813,-0.000121273420518,-0.000585559406318,-7.16323411325e-05,0.000112739595352,-4.11547771364e-05,3.54832627636e-05,6.87519559506e-06,0.460353993166,-0.00523958688454,0.160460631315,0.013470804666,0.916729347853,0.39794794232,0.032607899222
-0.118777640164,-0.011385477148,0.107437476516,-2.5772485733,0.00676165847108,2.63647723198,-0.83620518446,0.0767157375813,9.0571360488e-05,0.000112221161544,-2.13494131458e-05,-8.36683975649e-05,0.000106679239252,6.12918447587e-05,0.000174398679519,0.460356900427,-0.0052387170306,0.160462954634,0.0134732011299,0.916728959909,0.397948328019,0.0326131081608
-0.118777275085,-0.0113877691329,0.107437111437,-2.57724881172,0.0067614368163,2.63649272919,-0.836206436157,0.0767157375813,0.000448396895081,-0.000153239801875,-0.000126669532619,0.000430946791312,4.50010775239e-05,-3.40303195117e-05,-0.000225039795623,0.460360746713,-0.00523878235948,0.160465710776,0.0134771982746,0.916728311719,0.397948999453,0.0326214827239
-0.118779309094,-0.011387463659,0.107437208295,-2.57724881172,0.00676184380427,2.63650369644,-0.836206257343,0.0767157375813,-0.000110599830805,5.30220495421e-05,0.00214386801235,-0.000382536323741,0.000185716038686,6.07750371273e-05,-7.95339583419e-05,0.460362730254,-0.00523974463846,0.160466504819,0.0134791296417,0.916728712039,0.3979476501,0.0326258953561
-0.118776470423,-0.0113872606307,0.10743509233,-2.57725048065,0.00676161283627,2.63652276993,-0.836206436157,0.0767157375813,0.000393936352339,5.26583471583e-06,0.00025886768708,-6.75052579027e-05,4.22926750616e-05,9.40350146266e-05,-0.00027338322252,0.460365930483,-0.00523947552714,0.160467745263,0.0134827167913,0.9167282206,0.397948020062,0.0326337082308
-0.11877668649,-0.0113847721368,0.107437670231,-2.57724928856,0.00676157372072,2.63654994965,-0.836205601692,0.0767157375813,0.000347392080585,-0.000917159952223,0.000266665738309,0.000125052305521,-4.95819440403e-05,7.14202033123e-05,-0.000209814752452,0.460371867197,-0.00523845471451,0.160469865229,0.0134879233699,0.916727499082,0.397948534328,0.0326455518878
-0.118775986135,-0.0113868415356,0.107439272106,-2.577252388,0.00676172226667,2.63655805588,-0.836207568645,0.0767157375813,0.000263774301857,-0.000225210169447,-0.000220916845137,-0.000100637502328,0.000132212240715,3.71323549189e-05,0.000679227232467,0.460372436774,-0.00523745158055,0.16047046605,0.0134894557299,0.916726561997,0.397950380172,0.032648732219
-0.118779040873,-0.0113898683339,0.107437007129,-2.57724905014,0.00676151178777,2.63657164574,-0.836207985878,0.0767157375813,0.000111341782031,-0.000296548649203,-0.00300530111417,0.000345033389749,7.96171570983e-06,0.00200271094218,6.69970104354e-05,0.460377445337,-0.00524003364498,0.160474529147,0.013493841591,0.916727177882,0.397948077835,0.0326576882263
-0.11877848953,-0.0113837812096,0.107438966632,-2.57724571228,0.00676130270585,2.63660001755,-0.836206316948,0.0765936002135,0.000588472466916,0.000832442194223,-0.000409509375459,-0.000278698280454,-0.000129866952193,0.0026967630256,-0.000444422475994,0.460384069408,-0.00523888985224,0.160475944105,0.013498846967,0.91672656998,0.397948339756,0.0326694902045
-0.118775255978,-0.0113845234737,0.107440933585,-2.57725000381,0.0067612119019,2.63660931587,-0.836210072041,0.0765936002135,0.000778467161581,-3.17201775033e-05,2.33508708334e-05,3.20545332215e-05,-0.00015342203551,3.14708668157e-05,5.87849062867e-05,0.460384096119,-0.00523653142969,0.160475605571,0.0135000879411,0.916724682929,0.397952432294,0.0326720774691
-0.11877553165,-0.0113836405799,0.107441321015,-2.57725071907,0.00676127802581,2.63662719727,-0.836210906506,0.0765936002135,-3.61620623153e-05,0.000198570327484,0.000308623333694,0.00035780921462,0.000100701487099,0.00465529924259,-0.000206734592211,0.460387389835,-0.00523652624855,0.160476774527,0.0135034153487,0.916724247449,0.397952712671,0.0326795053706
-0.118776880205,-0.0113888904452,0.10743996501,-2.57724928856,0.00676232017577,2.63666081429,-0.83621519804,0.0765936002135,-0.000367136817658,9.02009778656e-05,7.69387406763e-05,0.000290716969175,2.08334731724e-05,-8.32083533169e-05,0.00035631711944,0.460396109469,-0.00523798310358,0.160483195377,0.0135118447137,0.916723459374,0.397952740637,0.0326977825791
-0.118780590594,-0.0113895023242,0.107440173626,-2.57724380493,0.00676308851689,2.63682794571,-0.836227297783,0.0765936002135,0.000319077516906,0.000357710203389,0.000245531671681,-0.000257288833382,-4.53132815892e-05,0.00447465945035,-0.00262310146354,0.460435147634,-0.0052400709801,0.160503091215,0.0135484838567,0.91671896928,0.397955203078,0.0327784376013
-0.118777908385,-0.0113874003291,0.107438623905,-2.57724523544,0.00676309410483,2.63686466217,-0.836230278015,0.0765936002135,-0.000101354358776,8.39004787849e-05,-0.000375970033929,-0.000299916835502,-8.29153577797e-05,0.0037709728349,-8.00734924269e-05,0.460441019777,-0.00523961273776,0.16050527812,0.0135543610206,0.9167177369,0.397956782242,0.0327912991483
-0.118777379394,-0.0113851344213,0.107440575957,-2.577252388,0.00676499027759,2.63688802719,-0.836233377457,0.0765936002135,0.000189505910384,-2.5966348403e-05,-0.00044276835979,0.000128466039314,-5.97815014771e-05,3.96548457502e-05,-0.000102002071799,0.460442162587,-0.00523864144377,0.160503759806,0.0135569239876,0.916716756076,0.397958380385,0.0327982637223
-0.118778713048,-0.0113886892796,0.107441142201,-2.57724452019,0.00676260702312,2.63695478439,-0.836234271526,0.0724086612463,-1.33016728796e-05,0.000230038160225,-0.000192293751752,5.13781124027e-05,0.000129292209749,0.00123129982967,0.000153576896992,0.460461204884,-0.00523953051469,0.160515427758,0.0135741741177,0.916715140013,0.397958534443,0.0328344089899
-0.118780739605,-0.0113883512095,0.107439182699,-2.57724714279,0.00676367571577,2.63697862625,-0.836236476898,0.0724086612463,0.000421905133408,0.00106771115679,0.000114657035738,-0.000325018248986,-4.09315907746e-05,0.000419084914029,0.00422622263432,0.460464477628,-0.00524130804451,0.160516594794,0.0135779701531,0.916715265761,0.397957400754,0.0328430679742
-0.11877899617,-0.0113871945068,0.107437595725,-2.57724905014,0.00676190759987,2.63699936867,-0.836238086224,0.0724086612463,-5.12745464221e-05,0.000193185172975,0.000197429850232,-0.000355863681762,7.77578134148e-06,-9.42052938626e-05,0.000185279903235,0.460467747244,-0.00524133069335,0.160517481411,0.0135820090848,0.916714331904,0.397958764218,0.0328509417512
-0.118777036667,-0.011387925595,0.107439815998,-2.57724571228,0.00676310854033,2.6370613575,-0.836243450642,0.0724086612463,0.000267941621132,0.000275199388852,-0.000196284279809,-1.86758898053e-05,-1.97238096007e-05,3.71289788745e-05,-0.000105828330561,0.460482690623,-0.00523968636878,0.160525636183,0.0135954155713,0.916711601517,0.397962114436,0.0328809895486
-0.11877758801,-0.011388592422,0.107441864908,-2.57724690437,0.00676211249083,2.63707542419,-0.836244106293,0.0724086612463,2.14122846955e-05,0.000388470769394,0.000306222151266,-0.000650694186334,-7.51758925617e-05,0.000272775709163,0.000425453181379,0.460485201459,-0.00523905240133,0.160526797206,0.0135985055003,0.916710757898,0.397963444977,0.0328871273567
-0.118777900934,-0.01138397865,0.107440777123,-2.57724785805,0.00676473649219,2.63708662987,-0.83624458313,0.0724086612463,0.00012006265024,-0.000531691068318,9.88815663732e-05,6.14432719885e-05,9.10839735297e-05,8.3809143689e-05,-0.00016172521282,0.460486316159,-0.00523956379426,0.160525479673,0.0135988766526,0.916711304142,0.397961931084,0.0328900669085
-0.118778504431,-0.0113883810118,0.107438370585,-2.5772459507,0.00676294509321,2.63711667061,-0.836246848106,0.0654289498925,7.52046616981e-06,-0.000279537169263,-0.00373774766922,-1.05481576611e-05,8.82675449247e-05,0.000784322153777,0.000127916908241,0.460494360602,-0.00524121253714,0.160531329164,0.0136070817819,0.9167105568,0.397962031602,0.0329062830004
-0.118775583804,-0.0113906851038,0.107441551983,-2.5772459507,0.00676314486191,2.63712835312,-0.836248874664,0.0654289498925,4.09858512285e-05,-0.000292984215776,-2.28781777878e-06,8.03380826255e-05,4.20992982981e-05,0.000162688796991,3.86746396543e-05,0.460497648352,-0.00523839917642,0.160533948276,0.0136103180494,0.916708748169,0.397965504128,0.0329133328496
-0.118777185678,-0.0113872885704,0.107441395521,-2.57724905014,0.00676527293399,2.63713860512,-0.836249053478,0.0654289498925,-0.000171003455762,-0.000173203807208,-8.12207290437e-05,0.00013777280401,4.61211602669e-05,-0.000179084396223,0.00028839049628,0.46049733339,-0.00523919790716,0.160531911722,0.0136101440978,0.916709368461,0.397963974117,0.0329146280501
-0.118777029216,-0.0113839451224,0.107443839312,-2.57724666595,0.00676468433812,2.63717389107,-0.836252570152,0.0654289498925,4.65775701741e-05,0.000689595122822,-0.000455320783658,-0.000345759734046,-1.86652005141e-06,0.000454415450804,-0.000328765221639,0.46050542611,-0.00523810244159,0.160534936467,0.0136172504882,0.916707500615,0.397966741391,0.0329302479999
-0.118776030838,-0.0113865947351,0.107442848384,-2.57724475861,0.00676408689469,2.63718152046,-0.836251974106,0.0654289498925,0.000239403671003,0.000510803132784,0.000159465576871,-0.000109639557195,2.78124025499e-05,7.6210781117e-05,-0.00013476726599,0.460508431729,-0.00523820758109,0.160537666698,0.0136200101459,0.916707315678,0.397966623809,0.032935675492
-0.118776984513,-0.01138755586,0.107442438602,-2.57724547386,0.0067647760734,2.63719320297,-0.83625292778,0.0654289498925,-0.000184333999641,0.000822872971185,6.97540817782e-05,-0.000138561576023,9.53784983722e-05,0.000719894247595,-0.000232716527535,0.460510717969,-0.00523887596157,0.160539041717,0.0136223967912,0.916707322251,0.397966074982,0.0329411366134
-0.118781238794,-0.0113865006715,0.107440419495,-2.57724499702,0.0067651886493,2.63720798492,-0.836255431175,0.0654289498925,0.000588439579587,0.000219058652874,0.00039468932664,0.000239632936427,-4.59979746665e-05,6.22002917225e-05,4.56004781881e-05,0.46051404355,-0.00524140497081,0.160540379154,0.0136254617993,0.916707653063,0.397964656132,0.0329478035286
-0.118777759373,-0.0113845858723,0.107442378998,-2.57724642754,0.00676509737968,2.63722276688,-0.836256623268,0.0654289498925,0.000360257719876,-0.000562196597457,0.00419564265758,-0.000191983708646,-1.56018249982e-05,8.44817186589e-05,0.000398926262278,0.460516010228,-0.00523929958922,0.160540374013,0.013627566664,0.916706398841,0.39796705353,0.0329528714406
-0.118775829673,-0.0113845439628,0.107443809509,-2.57724618912,0.00676425360143,2.63722968102,-0.83625626564,0.0654289498925,2.39640176005e-05,-0.000139168972964,0.000218774905079,0.000378724886104,-5.57180173928e-05,1.55567286129e-05,0.000277338578599,0.460517603342,-0.00523780635044,0.160541159706,0.0136291780035,0.916705542839,0.39796870782,0.0329560390909
-0.118776038289,-0.011383458972,0.107443146408,-2.57724690437,0.00676500797272,2.63723683357,-0.836257696152,0.0654289498925,-0.000319667626172,0.000784919597208,-7.94822408352e-05,0.000119358905067,3.92528854718e-05,6.3603700255e-05,-0.000211727499845,0.460518580832,-0.00523818659616,0.160541129775,0.0136300957519,0.916705475771,0.397968621752,0.0329585643347
-0.118776522577,-0.0113855255768,0.107441790402,-2.57724809647,0.00676599610597,2.63724565506,-0.836257398129,0.0654289498925,0.000151407235535,-5.56914055778e-05,0.000301354157273,0.000129067397211,0.00015903871099,-5.60163971386e-05,-0.000257603009231,0.460520213915,-0.00523907322656,0.160542533918,0.0136319844745,0.916705912279,0.397967182281,0.0329630232434
-0.118780761957,-0.0113891744986,0.107442349195,-2.57724404335,0.00676573254168,2.63725781441,-0.8362596035,0.0654289498925,-0.000266049901256,5.51470257051e-05,0.000255878840107,0.000515853636898,7.25950812921e-05,-0.000169441351318,-9.67898959061e-05,0.460524993509,-0.00524115294383,0.160546750119,0.0136362112877,0.916706040324,0.397966038618,0.0329715204716
-0.11877913028,-0.0113885449246,0.10744176805,-2.57724356651,0.00676560448483,2.63726377487,-0.836259663105,0.0654289498925,9.12949981284e-05,-0.000600764062256,8.77854326973e-05,0.000236611216678,-7.4811837294e-06,2.20429301407e-05,6.59113793517e-05,0.460526777555,-0.00524045042699,0.160547518538,0.0136375892205,0.916705498296,0.397966988129,0.0329745598198
-0.118778467178,-0.0113846892491,0.10744266957,-2.57724618912,0.00676487339661,2.63726997375,-0.836261808872,0.0654289498925,-0.00405827863142,-0.000715749047231,0.000206705051824,0.00011102748249,0.000120637698274,0.000831643934362,0.000176439934876,0.460526156601,-0.00523968452978,0.160545392446,0.0136375497464,0.916704645739,0.397968963608,0.0329744356169
-0.118776753545,-0.0113858086988,0.107443481684,-2.57724714279,0.00676518399268,2.63727545738,-0.83626127243,0.0627169236541,0.000251417455729,-0.000326194189256,0.000245007046033,-0.000147455066326,-6.53354509268e-05,2.05544438359e-05,-0.000289875228191,0.460527058087,-0.00523855324656,0.160546107585,0.0136386517736,0.916704211269,0.397969711685,0.0329770296075
-0.118778757751,-0.0113911079243,0.107441231608,-2.57722377777,0.00676764175296,2.63734483719,-0.836266815662,0.0627169236541,6.84667975293e-06,0.000145000914927,0.00385543168522,-0.000632399285678,-0.000135998881888,0.00164129026234,-0.0002517986577,0.460554095683,-0.0052409325982,0.160564626664,0.0136586789502,0.916702771232,0.397968635196,0.0330217320273
-0.118777781725,-0.0113939326257,0.107442952693,-2.57720375061,0.00676605850458,2.63753604889,-0.836267709732,0.0627169236541,0.000305166060571,-9.68054664554e-05,-0.000252015568549,0.00111296097748,8.52132798173e-05,0.00402015121654,0.000227469136007,0.460604950315,-0.00524063785137,0.160593340552,0.0137033703429,0.916698310565,0.397969299075,0.0331189028157
-0.118776030838,-0.0113909430802,0.107443869114,-2.57719659805,0.00676521658897,2.63757967949,-0.836269557476,0.0627169236541,3.86556021112e-05,-0.00191323086619,0.00149627542123,0.00139006332029,-3.66305334865e-06,-0.000100807919807,-0.000189224723727,0.460617205628,-0.00523957911441,0.160599215067,0.0137132881774,0.916696493022,0.397971334879,0.0331406352471
-0.118774659932,-0.0113880569115,0.10744395107,-2.57719087601,0.00676715606824,2.63761472702,-0.836268723011,0.0627169236541,-7.49998725951e-05,-0.00132964120712,0.000448421633337,0.000342033978086,9.03865438886e-05,0.000708877516445,-5.45776056242e-05,0.460627809026,-0.005239001437,0.160604555806,0.0137213289958,0.916696016545,0.397970547781,0.0331599330632
-0.118776388466,-0.0113875418901,0.107444316149,-2.57718849182,0.00676639843732,2.63764762878,-0.836269557476,0.0627169236541,0.000567392737139,-0.00112864200491,-0.00101852847729,0.00114780524746,1.81102677743e-05,-0.000143978424603,-0.000169303355506,0.460635002224,-0.00523973915743,0.160607782407,0.0137278618218,0.916695497539,0.397970354172,0.0331738976034
-0.118779547513,-0.0113899167627,0.107440166175,-2.57718348503,0.00676620472223,2.63770222664,-0.836269974709,0.0603502951562,-0.00063657166902,-0.00024572579423,0.00045183202019,0.000532554811798,-0.000118380012282,0.00595060409978,0.000247641815804,0.460649400486,-0.00524338830549,0.160616433911,0.0137409259457,0.916695824805,0.39796680763,0.0332019795459
-0.118780054152,-0.0113959554583,0.107443891466,-2.57714891434,0.00676655955613,2.63777565956,-0.836271762848,0.0603502951562,0.000251752557233,-0.000239625514951,-0.000476019369671,-1.65630081028e-06,1.25199776448e-05,0.00310766720213,-4.13360103266e-05,0.460682937767,-0.00524248570864,0.160639996835,0.0137646017804,0.916693006482,0.397968155291,0.0332537916509
-0.118776857853,-0.0113943107426,0.107443980873,-2.57712936401,0.00676581030712,2.63781905174,-0.836273014545,0.0603502951562,1.63649401657e-05,-0.00147578737233,-0.00079924549209,0.000100931130874,0.000284454436041,0.00407531391829,0.000163131975569,0.460701440098,-0.00524122709128,0.160651199868,0.0137772940175,0.916690967389,0.397970082492,0.0332816706378
-0.118774756789,-0.0113940425217,0.107443600893,-2.57710838318,0.0067656384781,2.63784408569,-0.836273789406,0.0603502951562,-0.000587703252677,-0.000113391593914,0.00151211151388,-0.000106926228909,8.98873622646e-05,0.000228641860303,-0.000451486441307,0.460716976488,-0.00524063618175,0.160661680049,0.013786709172,0.916689682808,0.397970972857,0.0333025003124
-0.118779525161,-0.0113912001252,0.107442870736,-2.57709765434,0.00676688132808,2.63793611526,-0.836277127266,0.0585116259754,0.000169384700712,-0.000110106753709,-0.000151505431859,-0.000245072267717,1.81684099516e-05,0.00445461226627,0.00036086171167,0.460741425297,-0.005243466555,0.160674094592,0.0138073057758,0.916688675994,0.39796872548,0.0333485057087
-0.118780039251,-0.0113900974393,0.107442386448,-2.57709383965,0.00676582334563,2.63795661926,-0.836275041103,0.0585116259754,0.000417808565544,-0.000460648181615,0.000376099837013,-4.16534567194e-05,-4.56312591268e-05,-3.49519796146e-05,0.000104759281385,0.460747245936,-0.00524404996606,0.160677079938,0.0138120357406,0.916688746385,0.397967554141,0.0333585888854
-0.118780821562,-0.0113904969767,0.107442319393,-2.5770907402,0.00676640309393,2.63798356056,-0.836275041103,0.0585116259754,3.5391698475e-05,-0.000904435291886,-0.00188513915055,-0.000328740221448,5.88045768382e-05,-8.61854005052e-06,7.03463738319e-05,0.460754539222,-0.00524455262257,0.160681236884,0.0138182185843,0.916688515268,0.397966706786,0.0333724854094
-0.118778757751,-0.0113899335265,0.107442930341,-2.57709145546,0.00676645850763,2.63800358772,-0.836277484894,0.0585116259754,-3.62356804544e-05,0.00064636854222,-0.000253016973147,8.26293835416e-05,9.29793168325e-05,-2.81421871478e-05,0.000161936171935,0.460758353454,-0.00524338208468,0.160682779558,0.0138220583441,0.916687201436,0.397968883004,0.0333810315753
-0.118777312338,-0.0113909151405,0.107444234192,-2.57709121704,0.00676524778828,2.63802409172,-0.836277723312,0.0585116259754,-0.000428374361945,0.00022839360463,0.000314275879646,0.000162081807503,-2.77494982583e-05,0.000126282247948,-0.000120361743029,0.460762999271,-0.00524225301502,0.160685443255,0.0138268423717,0.916686044684,0.397970563818,0.0333907760841
-0.118781924248,-0.0113900881261,0.107442244887,-2.57708740234,0.00676665408537,2.63807058334,-0.836280524731,0.0585116259754,-8.49895295687e-05,0.000648160174023,-0.000227463344345,-0.000282420573058,-6.74219918437e-05,0.00280078360811,-5.10205645696e-05,0.460774548445,-0.00524543264775,0.160691338196,0.0138368451196,0.916686231131,0.397967888159,0.0334133962178
-0.118780933321,-0.0113914869726,0.107443720102,-2.57708859444,0.0067667090334,2.63808274269,-0.836279332638,0.0585116259754,8.1303427578e-05,-0.000458033377072,0.000222643124289,-0.000103731152194,-5.06201176904e-05,0.00170546001755,-4.0305472794e-05,0.460776795436,-0.00524436715083,0.160692782615,0.0138394018983,0.916685784267,0.397968356858,0.0334190140302
-0.118776097894,-0.0113903004676,0.107443109155,-2.57708716393,0.00676601519808,2.63809704781,-0.836280047894,0.0585116259754,0.000500275054947,-0.000161133852089,-0.000333538948325,0.000224558476475,1.92385014088e-05,0.00268606515601,-0.000172700471012,0.460780347351,-0.00524247754008,0.160694267544,0.0138424540873,0.916684445635,0.397970779837,0.0334256140147
-0.118777863681,-0.0113895488903,0.10744446516,-2.57708644867,0.00676571018994,2.63812041283,-0.836282730103,0.0585116259754,-0.000578216917347,0.000596055702772,-5.4740718042e-05,0.000143145880429,-8.24956514407e-05,0.000105879749754,-0.000233656057389,0.46078552017,-0.00524275631375,0.160696616159,0.0138473723268,0.916683560484,0.397971759473,0.0334361863958
-0.118781141937,-0.0113908424973,0.107443243265,-2.57708692551,0.00676667829975,2.63813924789,-0.836282253265,0.0585116259754,0.000288726121653,-0.000396109215217,0.000119197989989,0.00122484669555,-0.000104956619907,0.00307571422309,-0.00026949509629,0.46078947897,-0.00524489661054,0.160698978867,0.0138513304871,0.916684393708,0.397968947374,0.033445172797
-0.118779331446,-0.011391164735,0.107445418835,-2.57708883286,0.00676648737863,2.63815140724,-0.836281716824,0.0585116259754,0.00014746983652,0.000181705952855,-0.000154220004333,0.000420822791057,-9.94002984953e-05,0.0003775289224,-0.000227795768296,0.46079119947,-0.00524311349986,0.160699656631,0.0138535165391,0.916683502732,0.39797051972,0.0334499777891
-0.118782095611,-0.0113927423954,0.107442200184,-2.57707715034,0.00676723243669,2.63820719719,-0.836285471916,0.0565875917673,-8.71740048751e-05,0.000718173920177,-9.58444506978e-05,0.00152493722271,-9.185365343e-06,0.00335409375839,-9.54044371611e-05,0.460808852475,-0.00524626470947,0.160710167922,0.0138677473611,0.916682957979,0.397968642277,0.0334813318205
-0.118778958917,-0.0113921947777,0.10744240135,-2.57707905769,0.00676610646769,2.63822007179,-0.836284995079,0.0565875917673,-0.000646409345791,0.000386213854654,-6.55469193589e-05,0.00014753373398,-0.00199361122213,6.38343772152e-05,0.000160411917022,0.460810702646,-0.00524467321003,0.16071097827,0.0138701446356,0.916682003897,0.397970360139,0.0334860411515
-0.118777051568,-0.0113874329254,0.107443593442,-2.5770804882,0.00676634395495,2.63822984695,-0.8362865448,0.0565875917673,4.5895420044e-05,-0.000177026100573,0.000147645696416,-0.000406455626944,9.21421160456e-05,0.00226177531295,-0.00017264719645,0.460811276843,-0.00524317380928,0.160709262406,0.0138705988931,0.916681066716,0.397972353926,0.0334878127456
-0.118776068091,-0.0113895982504,0.107446119189,-2.57708120346,0.00676665455103,2.63824486732,-0.836286008358,0.0565875917673,-0.00042334353202,0.00110994058196,0.00139046367258,0.000272829376627,-0.000189133890672,7.30144238332e-05,-0.0026206180919,0.460814499935,-0.00524165143859,0.160711536473,0.0138739764276,0.91668025656,0.39797347161,0.0334953069527
-0.11877989769,-0.0113906329498,0.10744138062,-2.57708072662,0.0067667029798,2.63827013969,-0.836287021637,0.0565875917673,-0.000440762611106,9.09790760488e-05,0.000642720668111,-0.000339137332048,1.93930136447e-05,0.0018759786617,-0.00357430335134,0.460820224533,-0.00524571022764,0.160714814367,0.0138796865171,0.916681328275,0.397969784357,0.0335074188021
-0.118779875338,-0.0113928066567,0.107441686094,-2.57708024979,0.00676614418626,2.63829016685,-0.836285173893,0.0565875917673,-0.000237646599999,-1.48412009366e-05,0.000475841981824,0.000287668604869,0.000275919679552,0.00472071766853,-0.0004755887785,0.460825077037,-0.00524569990104,0.160718067815,0.0138845688243,0.916681161219,0.397969138206,0.0335176391181
-0.118778988719,-0.0113907055929,0.107444904745,-2.57706618309,0.00676594628021,2.63833904266,-0.836287200451,0.0565875917673,-8.1223943198e-06,-0.000509350269567,0.000456958485302,0.0009779460961,0.000186340519576,0.00424854550511,0.000333485862939,0.460841981336,-0.00524403750384,0.160727541769,0.0138970459507,0.916678902397,0.397971569644,0.0335453640726
-0.118777401745,-0.0113916536793,0.107442416251,-2.57706236839,0.00676713977009,2.63843822479,-0.83628731966,0.0564549453557,-0.000579752784688,0.00458623887971,1.75301465788e-06,-0.00101150816772,-7.94049810793e-06,0.00234138150699,3.61201964552e-05,0.460865330566,-0.00524487578569,0.160739630334,0.0139187599509,0.916677486478,0.397969986942,0.0335937952633
-0.118782736361,-0.0113915028051,0.107442110777,-2.57706284523,0.00676693907008,2.6385178566,-0.836289525032,0.0564549453557,-0.003088490339,-0.000869071751367,-0.000383792852517,0.000131969864015,-0.000126580242068,0.000630239082966,0.000207000251976,0.460881625061,-0.00524774259728,0.160747721613,0.0139348091883,0.916676903898,0.39796782616,0.0336286184011
-0.118781365454,-0.0113910539076,0.107442483306,-2.57706212997,0.00676690554246,2.63854408264,-0.836289942265,0.0564549453557,-0.000292376149446,0.000579665589612,-4.47382371931e-05,-0.000823111215141,3.61834136129e-05,0.00263789691962,5.87803924645e-06,0.460887466718,-0.00524703658476,0.160750508393,0.0139402529924,0.916676032591,0.397968622662,0.0336406848566
-0.118779852986,-0.0113894892856,0.107442229986,-2.57706737518,0.00676613859832,2.6385641098,-0.836290180683,0.0564549453557,-0.000304388231598,9.33008959692e-06,-0.000235931918724,-0.00042302836664,8.21079520392e-05,0.00214140326716,-0.00147757469676,0.460888885195,-0.00524649638002,0.160749864571,0.013943090686,0.916675391734,0.397969494775,0.0336466539307
-0.118778511882,-0.0113905379549,0.107444100082,-2.57706642151,0.00676667271182,2.63858485222,-0.83629077673,0.0564549453557,-0.00279974029399,-0.00115456164349,0.000498376553878,0.000110713030153,1.91289236682e-05,4.95196654811e-05,-0.000178513015271,0.460893944702,-0.00524511124468,0.160752859458,0.013947679197,0.916674349179,0.397970856661,0.0336570457972
-0.118780635297,-0.0113931661472,0.107444681227,-2.57706212997,0.00676677469164,2.63863420486,-0.836290895939,0.0564549453557,-0.000295156380162,-0.000287755014142,9.53837516136e-05,-0.000460221723188,-0.00010009673133,0.00252622156404,0.0036882867571,0.460906946777,-0.00524608643309,0.160760821367,0.0139594302671,0.916673717591,0.397969738843,0.0336825834981
-0.118780814111,-0.0113887963817,0.107441939414,-2.57706356049,0.00676677189767,2.63866615295,-0.836290717125,0.0564549453557,0.000328046065988,-0.000321076455293,9.27201181185e-05,-0.000645256834105,8.27918993309e-05,-3.93282862206e-05,-2.27967884712e-05,0.460912257175,-0.00524745421,0.160761587448,0.0139646776256,0.916673909032,0.397968099457,0.0336945659414
-0.118778958917,-0.0113866711035,0.10744189471,-2.57706332207,0.00676687946543,2.63869953156,-0.836292147636,0.0564549453557,0.000799589033704,0.000931586662773,7.70414699218e-05,0.000226894466323,-0.000107809093606,0.00355912162922,-0.000264092872385,0.460919095138,-0.00524670337917,0.160764166765,0.0139710617559,0.916672765719,0.397969290386,0.0337089544794
-0.118779823184,-0.0113875633106,0.10744317621,-2.57706356049,0.00676647899672,2.63872981071,-0.836290717125,0.0564549453557,0.000131446548039,-0.000587872520555,-0.000363268190995,-8.05557792773e-05,8.72909083682e-07,0.00115715665743,-5.18507840752e-05,0.460925550975,-0.00524665896949,0.160767624732,0.0139775683127,0.916672388276,0.397968743867,0.0337229705555
-0.118781082332,-0.0113931344822,0.107443533838,-2.57706403732,0.00676683429629,2.63881778717,-0.836293756962,0.0538538917899,0.000388369720895,8.6280015239e-05,0.000455670407973,0.000273050420219,-0.000100488032331,0.00462082074955,0.000108683743747,0.460944913351,-0.00524751628617,0.160779122792,0.0139970526886,0.916670482151,0.397968870302,0.0337651835403
-0.118780724704,-0.0113930832595,0.107441790402,-2.57706284523,0.00676677655429,2.63885736465,-0.836295187473,0.0538538917899,0.000205700474908,0.000316552177537,-0.000178139147465,-0.000175028922968,1.66947174876e-05,0.00157755136024,-2.24183190767e-06,0.460953869333,-0.00524831118783,0.160783662265,0.0140055201656,0.916669790297,0.397968595697,0.0337836866261
-0.118778541684,-0.0113903107122,0.107442289591,-2.57705950737,0.00676705269143,2.63889980316,-0.836294293404,0.0538538917899,-0.000170596817043,-0.000745320692658,0.000315888726618,0.000790429359768,-8.95942503121e-05,0.00188537023496,-0.00012163566862,0.460964036666,-0.00524719228442,0.160788070309,0.0140141567803,0.91666877169,0.397968966558,0.0338033689884
-0.118780359626,-0.0113913267851,0.107442565262,-2.57705879211,0.00676684780046,2.63892698288,-0.836295425892,0.0538538917899,-0.000290321419016,0.000629034184385,-0.000514108513016,0.000845809117891,6.52109156363e-05,0.00275735813193,8.41520595714e-05,0.460972884028,-0.00524878195481,0.160792455538,0.0140221782979,0.916668528952,0.397967754708,0.0338208876168
-0.118782065809,-0.0114019010216,0.107441619039,-2.57705163956,0.00676768785343,2.63907980919,-0.836295068264,0.0538538917899,0.000211222737562,-0.00157250545453,0.0026475591585,0.000244422000833,-9.38315351959e-05,0.00725180981681,-9.23783954931e-05,0.461007994733,-0.00525007856407,0.160815073014,0.0140558394359,0.916666241158,0.397965627792,0.0338938707626
-0.118781089783,-0.0113955242559,0.107443615794,-2.57704973221,0.00676742941141,2.63912582397,-0.836294949055,0.0538538917899,-9.27426226554e-05,-0.000203663119464,0.000274628197076,-0.000378533964977,1.41733536907e-07,0.00185737351421,4.12369954574e-05,0.461017603969,-0.00524877670731,0.16081765491,0.0140641561186,0.916664946003,0.397966695392,0.0339129078861
-0.118777312338,-0.0113905491307,0.10744395107,-2.57705545425,0.00676653627306,2.63915681839,-0.836297631264,0.0538538917899,-0.000117160881928,0.0014923508279,0.000145726866322,0.000254812999628,-0.00242823013104,0.0030271995347,-0.000198078763788,0.461020456443,-0.00524684435872,0.160816831906,0.0140682108618,0.916663219123,0.397969760153,0.0339219373643
-0.118779547513,-0.0113864187151,0.107443124056,-2.5770573616,0.00676750252023,2.63920068741,-0.836295068264,0.0538538917899,-5.93982513237e-05,0.00104712753091,3.59695332008e-06,0.000719728472177,-5.14924795425e-05,0.00218379613943,0.000134720452479,0.461028186517,-0.00524835398904,0.160818338814,0.0140757511022,0.916663776581,0.397966706377,0.0339395673408
-0.118780314922,-0.0113878520206,0.107443891466,-2.5770573616,0.00676720123738,2.63925242424,-0.836295962334,0.0538538917899,1.28415758809e-05,-0.000702690624166,0.000145964309922,-0.000369813089492,1.15372959044e-05,0.00175216956995,-0.000147188737174,0.461039394937,-0.00524859313413,0.160824367822,0.0140869005238,0.91666266291,0.397966820079,0.0339636785103
-0.11877630651,-0.0113905537874,0.107445128262,-2.57706141472,0.00676673138514,2.63926553726,-0.836296260357,0.0530166402459,0.000127046980197,-0.003337767208,-0.000116828538012,-0.000356465840014,-2.06032764254e-05,0.00247209332883,0.000295780686429,0.461040680392,-0.00524627580802,0.160825418473,0.0140894973104,0.916661284193,0.397969454579,0.0339689421539
-0.118777051568,-0.0113903321326,0.107445277274,-2.57705783844,0.00676658144221,2.63927865028,-0.836298048496,0.0530166402459,0.000150315885548,-0.000824490736704,-3.66663516616e-05,0.000792085484136,0.000141626223922,0.00215627253056,0.000304831250105,0.461045167037,-0.00524661942692,0.16082804527,0.0140929595717,0.916660745568,0.39796993522,0.0339764089885
-0.118785440922,-0.0113979903981,0.107442460954,-2.5770418644,0.00676769856364,2.63931298256,-0.836296021938,0.0530166402459,-0.000447284197435,-0.00290225469507,3.59791520168e-05,0.000680799363181,-0.00563326105475,0.00541697908193,4.58870181319e-06,0.461061505917,-0.00525211868559,0.160841228176,0.0141051303795,0.916662586349,0.397963020587,0.0340026765435
-0.118781283498,-0.0114033622667,0.107440829277,-2.57703709602,0.00676745269448,2.6393995285,-0.836299777031,0.0530166402459,-0.000377333664801,-0.000306207861286,-0.000202014285605,0.0004881460045,6.52684029774e-05,0.000176334098796,9.46777581703e-05,0.461083806228,-0.00525164126991,0.160854942222,0.0141258643557,0.916659733874,0.397965014284,0.0340476039928
-0.118779882789,-0.0113980649039,0.107443094254,-2.57704257965,0.00676696421579,2.63942265511,-0.836298108101,0.0530166402459,-0.000300215731841,0.000317433325108,0.000111487635877,-0.000438587041572,-7.11301108822e-05,0.00306182075292,0.000146823120303,0.461084439986,-0.00524970758569,0.160852380998,0.0141277880271,0.91665899993,0.397966241809,0.0340522174684
-0.118785589933,-0.0113895982504,0.10744073987,-2.57705068588,0.00676750997081,2.63943552971,-0.83629989624,0.0530166402459,-1.3567770111e-05,-0.000235006737057,0.000238659369643,0.000427357968874,5.54256803298e-05,0.00274192518555,3.74185692635e-05,0.461081714935,-0.00525324035051,0.160846740104,0.0141266913634,0.916660417884,0.39796314296,0.0340507180785
-0.118780076504,-0.0113906720653,0.107439465821,-2.57704472542,0.00676707411185,2.63944840431,-0.836300075054,0.0530166402459,0.00023517027148,-0.000563870125916,3.95896022383e-05,0.000707899627741,-0.00150116975419,7.50831823098e-05,-0.000287773931632,0.461087563731,-0.00525139739322,0.160850848707,0.0141308676379,0.91665912754,0.397965194617,0.0340597420869
-0.118790648878,-0.0114031285048,0.107437990606,-2.57702302933,0.00676771532744,2.63950943947,-0.836298763752,0.0508483275771,-0.00019217422232,-0.000762988289353,-0.00279720453545,0.00188138731755,0.000121041251987,0.00635731220245,-4.27749218943e-05,0.461114566237,-0.005257593654,0.160872386486,0.0141520977226,0.916660228009,0.397958031419,0.0341049765712
-0.118783272803,-0.0114055210724,0.107440963387,-2.57700204849,0.00676912209019,2.63957595825,-0.836300969124,0.0508483275771,0.000844053167384,0.000558695814107,-0.00201299530454,0.00257236836478,-0.000120457414596,0.00484112277627,-3.08716312247e-06,0.461137989183,-0.0052531384205,0.160887222724,0.0141692709143,0.916656504293,0.397962666325,0.0341438250955
-0.118771024048,-0.0114080505446,0.107452251017,-2.5769906044,0.00676774280146,2.63965034485,-0.836300313473,0.0508483275771,0.000494251435157,-0.000429514213465,0.000405400816817,0.000642846629489,1.95183256437e-05,0.00277606933378,-0.000164489640156,0.461159108964,-0.00524317288307,0.160899820455,0.0141870763591,0.916650504287,0.397972504986,0.0341828145435
-0.118769444525,-0.0114014269784,0.107451707125,-2.57698392868,0.00676809297875,2.63967657089,-0.836301386356,0.0508483275771,-0.000572700286284,0.000389211723814,-0.000259505904978,-0.00087373459246,-9.30394016905e-05,-5.49601718376e-05,-0.000381467485568,0.461167592051,-0.00524225422694,0.160902724012,0.0141926256739,0.916649431708,0.39797363472,0.0341961178275
-0.118769310415,-0.0113979978487,0.107452392578,-2.57698535919,0.00676987040788,2.63969373703,-0.836302280426,0.0508483275771,0.000403823709348,-0.000717823859304,0.000877592014149,0.00175465771463,-0.00021576002473,0.00010028804536,0.000271495053312,0.461169948309,-0.00524181653829,0.160902389023,0.0141946087274,0.916649192852,0.397973610463,0.0342019792364
-0.118762232363,-0.011397623457,0.107459492981,-2.57698774338,0.0067685986869,2.63970565796,-0.836300730705,0.0508483275771,-0.000368943117792,-0.000638928962871,0.000442386226496,-3.29084832629e-05,0.000139481373481,0.000345449574525,0.000148210368934,0.461171316022,-0.00523535402686,0.160902541104,0.0141965561314,0.916646311354,0.397979822891,0.0342061095105
-0.118769295514,-0.0113986935467,0.10745664686,-2.57698774338,0.00676867971197,2.63971495628,-0.83630245924,0.0508483275771,-0.000151997126522,0.000534626073204,-0.000362920371117,-0.000152117296238,5.63907087781e-05,-8.58799903654e-05,0.000211140650208,0.461173417574,-0.00523997367226,0.16090400006,0.0141989145783,0.916647778528,0.397975961899,0.0342107348081
-0.118767522275,-0.01139730867,0.107457198203,-2.57698774338,0.00677128415555,2.63972902298,-0.836303770542,0.0508483275771,0.000220360394451,-0.00053367234068,4.72210340376e-05,-7.27245642338e-05,-7.23253979231e-05,0.00235288729891,3.00852461805e-05,0.461176174294,-0.00523885529627,0.160904827321,0.0142008510184,0.916647288694,0.397976498193,0.0342168164545
-0.118758395314,-0.0113906478509,0.107464745641,-2.57699155807,0.00676967203617,2.6397330761,-0.83630502224,0.0508483275771,-0.000360642705346,-0.000192923675058,-0.000216544503928,-0.000176850648131,-1.34145739139e-06,4.89292797283e-05,-0.000227804353926,0.461174114155,-0.00523108635285,0.160900731719,0.0141993828145,0.916643563567,0.397985375711,0.0342139635229
-0.118759207428,-0.0113890646026,0.107466973364,-2.57699418068,0.00677122781053,2.63973617554,-0.836304306984,0.0508483275771,-0.000259587191977,-0.000524027331267,-0.000123108111438,-0.000490463920869,5.26472831552e-05,-5.26054100192e-05,-0.000260697648628,0.461173225433,-0.00523036043719,0.160899324224,0.0141987002997,0.916643711643,0.39798508448,0.0342136672677
-0.118760034442,-0.0113882478327,0.107464842498,-2.57699680328,0.0067718019709,2.63973641396,-0.836302697659,0.0508483275771,-0.00106577889528,0.000299893261399,-0.000597224163357,-0.000154430716066,2.3557267923e-05,-0.000120032636914,-4.65874181828e-05,0.461171839239,-0.00523167512593,0.160897973142,0.0141978868429,0.916644774826,0.397982783631,0.0342122844474
-0.118762604892,-0.0113811362535,0.107465200126,-2.57700848579,0.00677062477916,2.63974118233,-0.836305856705,0.0488520599902,0.000143912795465,0.000338961253874,-0.000288213341264,-0.000508600962348,-1.12259804155e-05,4.33784080087e-05,0.000112167246698,0.461165909225,-0.00523254375457,0.160890741644,0.0141950655519,0.916644636217,0.397983752886,0.0342058931945
-0.118768461049,-0.0113858114928,0.107463262975,-2.57699871063,0.00677104759961,2.63974618912,-0.836305975914,0.0488520599902,-0.000576707359869,-7.80206828495e-05,-0.000206306373002,0.0016126075061,0.00018466587062,6.54847317492e-05,0.000357346871169,0.461172508752,-0.005236286175,0.160897143917,0.0141993010364,0.916645898057,0.397979943604,0.0342146400689
-0.118768975139,-0.0113984020427,0.107465088367,-2.57697796822,0.00677409023046,2.6397550106,-0.836303293705,0.0488520599902,0.000348016445059,-0.000832923164126,0.000130430940771,0.000795740750618,0.000113628120744,-4.96953325637e-05,6.74429566061e-06,0.461186679705,-0.00523599505683,0.160911763353,0.0142077603165,0.91664595612,0.39797785257,0.0342338899401
-0.11875731498,-0.0113966548815,0.107472531497,-2.57698178291,0.00677193282172,2.63976383209,-0.836304783821,0.0488520599902,0.000931961345486,-0.000472289015306,0.000121057186334,-0.00063598837005,-6.96062270436e-05,0.00264341337606,6.17610494373e-05,0.461186481849,-0.00522723949624,0.160910416663,0.0142086052109,0.916641439728,0.397988104701,0.03423528455
-0.118757426739,-0.0114001045004,0.10747706145,-2.57698178291,0.00677262339741,2.63977360725,-0.836306452751,0.0488520599902,-0.000190047707292,0.000113475856779,-0.000493639789056,0.000167160455021,0.000113070047519,0.00175948860124,-0.000127209612401,0.461188659327,-0.00522445478756,0.16091240736,0.0142108810971,0.916639969131,0.397990968468,0.0342404227332
-0.11875680089,-0.0114022577181,0.10747821629,-2.57698535919,0.00677285389975,2.63977766037,-0.836305201054,0.048858627677,3.33439929818e-05,0.000102175552456,-0.000169243648998,-0.000120419055747,4.80170165247e-05,-0.000140193078551,-0.000218293193029,0.461188464162,-0.00522440484213,0.160912990531,0.0142118495933,0.916639956718,0.397990795085,0.0342423683199
-0.118758447468,-0.0114014614373,0.107480041683,-2.57699012756,0.00677060196176,2.63978075981,-0.83630746603,0.048858627677,-2.64945219897e-06,-0.000125629579998,-0.000275759841315,0.000154379391461,9.89554318949e-05,0.000168990620296,0.000574592093471,0.461186839872,-0.00522447158754,0.160911186293,0.0142118977565,0.916639185731,0.39799267675,0.0342411167966
-0.118762560189,-0.011400452815,0.107477918267,-2.57698082924,0.00677395379171,2.63978433609,-0.836305737495,0.048858627677,-0.000479016278405,0.000166042242199,0.000132802975713,0.00016759535356,-6.33188392385e-05,9.7313313745e-05,-0.000422951183282,0.461191941311,-0.00522728913688,0.160914651865,0.0142135643791,0.916641138604,0.397987623795,0.0342468771338
-0.118758738041,-0.0113925822079,0.107482589781,-2.57698631287,0.00677226250991,2.63979578018,-0.836307883263,0.048858627677,0.000260797824012,-0.000258558342466,-6.67115818942e-05,-0.000318717531627,-6.2558305217e-05,-0.000200309586944,0.000313383003231,0.461190381923,-0.00522328473754,0.160910133468,0.0142131385742,0.916638777019,0.397993150307,0.0342460384131
-0.118751496077,-0.0114006372169,0.107496626675,-2.57698941231,0.00677254796028,2.63979673386,-0.836308062077,0.048858627677,7.70371989347e-05,-0.0012188256951,0.00208928831853,-0.000617135141511,-7.35360663384e-05,1.64519624377e-05,0.000157374990522,0.461190552724,-0.00521364310396,0.160912733514,0.0142143731126,0.916634449407,0.398002846401,0.0342486743574
-0.118752650917,-0.0114045161754,0.107503242791,-2.57699036598,0.00677291722968,2.63979768753,-0.836309254169,0.048858627677,9.93869798549e-06,-0.000403774145525,-0.000556964194402,0.000251008372288,0.000143715995364,7.29756211513e-05,-2.95812697004e-05,0.46119097835,-0.0052112050411,0.16091424311,0.0142152258605,0.916633119531,0.398005730475,0.0342503974037
-0.11876115948,-0.011396503076,0.1075020805,-2.57698154449,0.0067741679959,2.63980221748,-0.836308181286,0.048858627677,-0.000758735812269,0.00036068924237,-0.000469993072329,0.000909954775125,7.77178647695e-05,0.000132404980832,0.000141343785799,0.461194832703,-0.00521552611995,0.160914412911,0.0142157938744,0.916635384244,0.398000261981,0.0342530976659
-0.118755333126,-0.0113985519856,0.107513353229,-2.57699584961,0.00677329627797,2.63980460167,-0.836307823658,0.048858627677,0.000365678337403,-0.000677408708725,0.00187602860387,-0.000710089865606,-1.0042471331e-05,0.000120082746434,-0.000807396310847,0.461188779099,-0.00520766590489,0.160910125007,0.0142138432304,0.916632076486,0.398008341718,0.0342485419054
-0.118756763637,-0.0114082917571,0.10752260685,-2.57700848579,0.00677330372855,2.63980555534,-0.836308956146,0.048858627677,2.47421885433e-05,-0.000177423076821,0.000281738117337,-0.00100135349203,-6.92559260642e-05,2.58752243099e-05,-0.000174477885594,0.461184505186,-0.00520421476367,0.160909854313,0.014213843777,0.916630325805,0.39801246861,0.0342474374342
-0.118753910065,-0.0114078894258,0.107531502843,-2.57702517509,0.00677232071757,2.63980603218,-0.83631169796,0.048858627677,0.00212620291859,-0.00049201148795,0.000260296830675,-0.00426418101415,4.67668214696e-05,9.82615310932e-05,-0.00330582703464,0.46117643524,-0.00519875115265,0.160903334015,0.0142105537437,0.916627564079,0.398019603082,0.0342398039812
-0.118774674833,-0.0114015657455,0.107537664473,-2.5771381855,0.00677441293374,2.63982319832,-0.836313545704,0.0485165044665,-0.000888311828021,0.000319905724609,-0.000772027706262,-0.000560830754694,4.95060266985e-05,0.000194278516574,0.000186693083378,0.46112365176,-0.00520480747774,0.160859015638,0.0141892647329,0.916632254587,0.398013546992,0.0341934308002
-0.118775159121,-0.0114124091342,0.107533827424,-2.57719945908,0.00677515612915,2.63983035088,-0.836313426495,0.0485165044665,0.00101176765747,-0.00380450533703,0.000432298285887,-0.00550803821534,-0.000276018196018,5.50135082449e-05,0.000401816156227,0.461097034202,-0.00520671190452,0.160841312313,0.0141808469323,0.916634019585,0.398011495758,0.0341734786844
-0.118752479553,-0.0114384349436,0.107549078763,-2.57731628418,0.00677155982703,2.63985037804,-0.836316108704,0.0485165044665,0.000545151240658,-0.00178672955371,0.000529009616002,-0.00977772381157,-0.000115080685646,0.0003515627468,-0.000343125284417,0.461048783501,-0.00518937551538,0.160810666129,0.0141680113179,0.916626557776,0.398031978829,0.0341403653349
-0.118760719895,-0.0115108955652,0.107546195388,-2.57746076584,0.0067718368955,2.63987398148,-0.836318254471,0.0485165044665,-0.000709780550096,-0.0092246811837,-0.00083345011808,-0.00638070283458,0.000180255796295,7.65888117371e-08,0.000165224191733,0.460997802746,-0.0051946656467,0.160791312753,0.0141617004618,0.916628917363,0.398028785198,0.0341168569592
-0.11876744777,-0.0116754844785,0.107538044453,-2.57757234573,0.00677180243656,2.63988780975,-0.836323738098,0.0485165044665,0.00023619372223,-0.00186629418749,0.000250297220191,-0.000801464891993,-0.000133155845106,6.89194857841e-05,0.000309726019623,0.460972035854,-0.00520484965686,0.160826782624,0.0141844250446,0.916629714402,0.398023823644,0.034143875785
-0.118764959276,-0.011797898449,0.107541054487,-2.57759046555,0.00677256705239,2.63987660408,-0.836323976517,0.0485165044665,0.0001036071626,-0.00646208925173,4.31232328992e-05,-0.000675010785926,7.98612672952e-05,-0.000127581079141,-9.04159678612e-05,0.460981591999,-0.00520484223954,0.160873376963,0.0142082300864,0.916627180538,0.398025512712,0.0341822908567
-0.118768207729,-0.0119179859757,0.107539072633,-2.57759141922,0.00677377171814,2.63985395432,-0.836323857307,0.0485165044665,0.000287101662252,-0.0122418710962,-0.000317888014251,0.000850909331348,2.72230317933e-05,-0.00634454283863,0.00013021635823,0.460996822539,-0.00520957250145,0.160925702101,0.0142333994325,0.916626706223,0.398022167296,0.0342234685732
-0.118770904839,-0.0121323112398,0.10753762722,-2.57761979103,0.00677265226841,2.63976788521,-0.83632349968,0.0485165044665,-1.60694162332e-05,-0.0143532613292,0.00277365953662,-0.00336816138588,2.86493450403e-05,-0.00406932132319,-0.000148926934344,0.461001306225,-0.00521540773212,0.161004146298,0.0142641215491,0.916625524154,0.398020326627,0.034263721034
-0.118762969971,-0.0144174145535,0.107540458441,-2.5775039196,0.00676767434925,2.63561582565,-0.836324155331,0.0485165044665,-0.000725113146473,-0.0824916139245,0.00134057493415,0.00945691112429,-0.000168623664649,-0.163298383355,-0.00258011929691,0.460567549356,-0.00524178881743,0.161664388935,0.0140059020488,0.916648956564,0.398047815382,0.0334134926107
-0.118763111532,-0.0160518754274,0.107541926205,-2.57715082169,0.00676362356171,2.63207697868,-0.836320161819,0.0485165044665,-0.000688101456035,-0.11673219502,-0.00203537428752,0.0273360013962,-9.05194028746e-05,-0.254951834679,2.65545004368e-05,0.460267009134,-0.00526270741556,0.162181672327,0.0137588781055,0.916672079339,0.398064925982,0.0326696589842
-0.118772678077,-0.0179039090872,0.107537157834,-2.57657670975,0.00676121003926,2.6276576519,-0.836311995983,0.0485165044665,-0.00142829678953,-0.147798120975,-0.0013183200499,0.0557187087834,-0.000601506326348,-0.367937922478,-0.000218599132495,0.459922411306,-0.00529281562236,0.162793279687,0.0134294933002,0.916705532169,0.398075938356,0.0317200722644
-0.118790529668,-0.0213589034975,0.107526622713,-2.5749194622,0.00675929291174,2.6182949543,-0.836285114288,0.0485165044665,-0.00162126054056,-0.20029707253,0.00016103273083,0.107583716512,-0.000455847737612,-0.571233510971,-0.000589048606344,0.459320690505,-0.00534786260388,0.164048712614,0.012702662567,0.916776345128,0.39809200271,0.0297074475106
-0.118777170777,-0.0350934043527,0.107561193407,-2.56587433815,0.00674951914698,2.57878494263,-0.835621893406,0.0491212941706,9.66673633229e-06,-0.360792756081,-0.000328314199578,0.263471990824,0.000654201139696,-1.04378128052,0.0344160199165,0.457523439293,-0.00549013741239,0.169833234966,0.00983535412289,0.917096140424,0.397948853959,0.021786333861
-0.118784539402,-0.0492627881467,0.107638284564,-2.55490970612,0.00674511631951,2.53921580315,-0.834327340126,0.0491212941706,0.000542076944839,-0.483370751143,0.00244678114541,0.401914834976,-0.000942309794482,-1.3503485918,0.0465671122074,0.456506381331,-0.00562675258208,0.176695112091,0.00745842812474,0.917462105357,0.397474075173,0.0149002124043
-0.118793718517,-0.0764692649245,0.107931941748,-2.52995729446,0.00673793675378,2.46546339989,-0.831381857395,0.0491212941706,0.000211292383028,-0.636159956455,0.00280243041925,0.644648313522,0.00231586722657,-1.68930506706,0.0741421729326,0.45623257048,-0.00579784015632,0.192020724412,0.0041794817921,0.918092721426,0.396318582444,0.00445731830421
-0.118777446449,-0.0856470316648,0.108037665486,-2.52054667473,0.00673666596413,2.44119143486,-0.830394089222,0.0491212941706,-0.000521188601851,-0.682337641716,0.0143037335947,0.706554889679,-0.00970319379121,-1.75292897224,0.0641256570816,0.456521971289,-0.00583239905561,0.197764290795,0.00340955527904,0.918276232435,0.395922183045,0.00166148464408
-0.118804834783,-0.103340186179,0.108339175582,-2.50091695786,0.00672000367194,2.39619231224,-0.828549623489,0.0494535677135,-0.000359228492016,-0.712176501751,0.0132827479392,0.841507792473,-0.00504721375182,-1.84298372269,0.0797559544444,0.45781270449,-0.00586499899646,0.209773297969,0.00261489355111,0.918592458914,0.395191145359,-0.00223943511396
-0.118789456785,-0.11533510685,0.108550868928,-2.48687672615,0.00674654031172,2.36667895317,-0.827213466167,0.0494535677135,0.00429541477934,-0.765417098999,0.0171945057809,0.922372102737,-0.0019833506085,-1.84055006504,0.0838563069701,0.458963465732,-0.00584669121022,0.218433301422,0.00242448588436,0.918817636508,0.394653665833,-0.00409346266865
-0.118821918964,-0.131530329585,0.109010837972,-2.46670055389,0.00675222743303,2.32799625397,-0.825298309326,0.0494535677135,-0.00262779742479,-0.806334376335,0.0207581780851,1.00135695934,-0.00077417481225,-1.81686508656,0.0940701216459,0.460932285889,-0.00574346642307,0.230900594561,0.00268020545623,0.91911684384,0.3939372782,-0.00551945602864
-0.118794031441,-0.148389145732,0.109502054751,-2.44480037689,0.00675454409793,2.29001069069,-0.823688685894,0.0494535677135,0.000600287690759,-0.78438347578,0.0252341013402,1.05075085163,0.0068220384419,-1.79652547836,0.058293543756,0.463376094714,-0.00556528570149,0.244658417523,0.00360415579039,0.91934292468,0.393401478298,-0.00555638872319
-0.118800759315,-0.172188311815,0.11034373939,-2.41279506683,0.00674893567339,2.24015140533,-0.82223880291,0.0494535677135,0.000703733297996,-0.81200003624,0.0252943020314,1.13476204872,-0.00410946737975,-1.65608680248,0.0517699494958,0.467192711746,-0.00519599738801,0.265215348375,0.00591854131549,0.919482861864,0.393070791788,-0.00340439881323
-0.118781499565,-0.187186419964,0.110832422972,-2.39227557182,0.00679165218025,2.21113562584,-0.821184456348,0.0494535677135,-0.000164615630638,-0.809298038483,0.0279235430062,1.13569533825,0.00745740346611,-1.56693065166,0.0610083267093,0.469823780673,-0.00490130241303,0.279487070244,0.0080445832644,0.919606631918,0.3927576211,-0.000614786707123
-0.118774935603,-0.200735509396,0.111294366419,-2.3741402626,0.00679870601743,2.18692612648,-0.820149183273,0.0494535677135,-0.000487755285576,-0.855469286442,0.0273092482239,1.12316763401,0.00019298279949,-1.44960582256,0.0688012912869,0.471840421402,-0.00463526705967,0.291057016981,0.0100738679418,0.919703427001,0.392477739049,0.00231248366578
-0.118787042797,-0.216648891568,0.111741371453,-2.35291457176,0.00685669342056,2.16029286385,-0.818602561951,0.0494535677135,0.000375344359782,-0.827376008034,0.0199071634561,1.10328161716,0.00922811497003,-1.34138596058,0.0900632664561,0.474257676894,-0.00430973045109,0.305797765271,0.0129227090333,0.919890604074,0.39190394977,0.00675084919487
-0.118771016598,-0.252663373947,0.112480506301,-2.30887579918,0.00702281203121,2.1096470356,-0.815217912197,0.0494975633919,0.000485466851387,-0.864989101887,0.00974219758064,0.935971438885,0.00677392492071,-0.99530184269,0.0915716961026,0.478589198686,-0.00354426270714,0.338647986315,0.0204591357039,0.920175185347,0.390490557925,0.0193952543685
-0.118764929473,-0.269749850035,0.112638063729,-2.29023075104,0.00712674250826,2.090031147,-0.813348531723,0.0494975633919,0.000217359658564,-0.795933485031,0.00505822710693,0.789140284061,0.00437284633517,-0.869161963463,0.08622148633,0.480070831055,-0.00319990290654,0.354443860533,0.0246100095738,0.920300411036,0.389521865557,0.0267248350939
-0.118753992021,-0.282075047493,0.112664848566,-2.27844452858,0.00718115316704,2.07763051987,-0.811904788017,0.0494975633919,-0.00234827166423,-0.801487147808,0.000950233486947,0.715285778046,0.00489996746182,-0.738679766655,0.0971193686128,0.480625033704,-0.00300749740752,0.364090563394,0.0273000772701,0.920375275211,0.388807667827,0.0315064387428
-0.1199939996,-0.320819407701,0.112685926259,-2.24948954582,0.00726652471349,2.0474319458,-0.808225572109,0.0494975633919,-0.0436346642673,-0.708069384098,-0.00691738119349,0.401142597198,0.00212077586912,-0.463230997324,0.0653034001589,0.480658794739,-0.002981813273,0.393639221663,0.0365048668513,0.920490723738,0.386105805252,0.04781766452
-0.120910353959,-0.331916987896,0.112528450787,-2.24376726151,0.00726912263781,2.04070997238,-0.807356059551,0.0494975633919,-0.0665692687035,-0.67837792635,-0.0190736092627,0.323006182909,3.28447958964e-06,-0.386567264795,0.0397695861757,0.480095937482,-0.00329797439861,0.400607978004,0.0388648696043,0.920580894922,0.385129176557,0.051921622294
-0.122467562556,-0.343341201544,0.112134858966,-2.23894166946,0.00723846070468,2.03446102142,-0.806834042072,0.0495074130595,-0.103585407138,-0.60331594944,-0.0294648390263,0.21398460865,-0.00455311778933,-0.320242643356,0.0181382372975,0.479174749928,-0.00409439547637,0.408213928522,0.0415395475281,0.920763900516,0.383767130056,0.0564897784342
-0.124592587352,-0.353401333094,0.111508473754,-2.23590540886,0.00713107269257,2.02929234505,-0.806766808033,0.0495074130595,-0.127420470119,-0.519071638584,-0.0455627404153,0.137131616473,-0.0166896022856,-0.261721253395,-0.000998453469947,0.478074191763,-0.00528215800542,0.413943530252,0.0436217459519,0.921046868688,0.382344680007,0.0598527719661
-0.12964220345,-0.367798745632,0.108797855675,-2.23355841637,0.00559891108423,2.02226805687,-0.807025432587,0.0495074130595,-0.188126400113,-0.366585046053,-0.121829748154,0.0205043237656,-0.088608160615,-0.183360502124,-0.0304533131421,0.475931167405,-0.00902605061424,0.421185432294,0.0467147067785,0.922031405666,0.378966403875,0.0637203856931
-0.133515492082,-0.373538583517,0.106296904385,-2.2335152626,0.00337214628235,2.01915884018,-0.808311700821,0.0495074130595,-0.24051079154,-0.253899157047,-0.160232484341,-0.00520002283156,-0.163271322846,-0.166416883469,-0.109638862312,0.474713985542,-0.0123335588352,0.42360360808,0.048308183709,0.922729154382,0.376944086273,0.0644234627024
-0.13753592968,-0.376553505659,0.103500619531,-2.23358654976,0.000281668588286,2.01674389839,-0.810436367989,0.0495074130595,-0.292559802532,-0.151194393635,-0.212621644139,-0.00159045867622,-0.240765452385,-0.155337184668,-0.171077132225,0.473810529872,-0.0160144074989,0.424766210998,0.049698113847,0.923355062307,0.375293496537,0.0640337218308
-0.143669754267,-0.378206223249,0.0986513197422,-2.2336037159,-0.00501679349691,2.01414227486,-0.814876437187,0.0495074130595,-0.359158247709,-0.0261049866676,-0.299920111895,-0.00138415547553,-0.319462537766,-0.108092591166,-0.289644241333,0.47282200851,-0.0223926360474,0.425342987876,0.0516181831432,0.924246691303,0.373095618596,0.0624762022826
-0.177479922771,-0.36578515172,0.0687438547611,-2.23280358315,-0.033163048327,2.01149106026,-0.851969242096,0.0495074130595,-0.64002174139,0.405264854431,-0.620414316654,0.0574113279581,-0.459802657366,0.00463369535282,-0.804041385651,0.470681864163,-0.0567462252263,0.420182818342,0.0578227977095,0.927305415906,0.366328854127,0.0506395104001
-0.226174592972,-0.325013399124,0.0171258077025,-2.21989989281,-0.0573381260037,2.01291942596,-0.912862420082,0.0495120100677,-0.88536554575,0.881839036942,-1.00665223598,0.385029405355,-0.260279715061,0.0526585541666,-1.0924808979,0.468433771169,-0.108789675763,0.40788601936,0.0561757542065,0.933036818091,0.353713111738,0.0342580646936
-0.243267193437,-0.30679628253,-0.00283314962871,-2.21160149574,-0.0608973987401,2.01415729523,-0.933914959431,0.0495120100677,-0.903935015202,0.985005199909,-1.07793974876,0.456414729357,-0.152316719294,0.0628190934658,-1.1155551672,0.467657378493,-0.125463224085,0.403885451673,0.0537934704255,0.93540240702,0.3481456895,0.0303838451882
-0.258258104324,-0.289835453033,-0.0213962513953,-2.20289921761,-0.0619923360646,2.01546430588,-0.951941609383,0.0495120100677,-0.933734953403,1.11741673946,-1.18338406086,0.601817011833,-0.0240561608225,0.0821320936084,-1.12781262398,0.466513198546,-0.14424722463,0.399572640145,0.0504111174551,0.938403596179,0.340775108626,0.0270136066267
-0.306009143591,-0.228859230876,-0.0848608762026,-2.16758942604,-0.0597540363669,2.01895427704,-1.00718307495,0.0495126657188,-0.96234357357,1.28137326241,-1.33507514,0.801313400269,0.156401127577,0.048296995461,-1.09016633034,0.460604212973,-0.200012002206,0.386764831898,0.0392220081875,0.948096182182,0.314980125276,0.0190468836211
-0.322017610073,-0.206622987986,-0.107493780553,-2.15422868729,-0.0564956404269,2.0195183754,-1.0255355835,0.0495126657188,-0.926681160927,1.30942523479,-1.33153831959,0.800910055637,0.21021810174,0.0251168273389,-1.07150793076,0.457678877174,-0.216992233206,0.382523479652,0.0352226532789,0.951185227748,0.306136853337,0.0169190404084
-0.336881846189,-0.185888662934,-0.128857940435,-2.14136362076,-0.0524075850844,2.01984381676,-1.04222416878,0.0495126657188,-0.907700061798,1.28949952126,-1.31135559082,0.798105180264,0.279225736856,0.00299831363373,-1.01891672611,0.453436307882,-0.237160761188,0.37750961352,0.0303810775317,0.954909818172,0.294968720502,0.0147540808513
-0.354039490223,-0.161665320396,-0.153473570943,-2.12717628479,-0.0469741374254,2.01992344856,-1.06133937836,0.0495126657188,-0.908983945847,1.24495732784,-1.2804659605,0.74026286602,0.287673562765,0.00830993242562,-0.997846961021,0.447968400368,-0.257590552442,0.371761423336,0.025076121507,0.958662726532,0.283172742259,0.012254085902
-0.395806998014,-0.10712467134,-0.210697308183,-2.09805560112,-0.0325783416629,2.01924538612,-1.10699081421,0.0495126657188,-0.835014641285,1.01350748539,-1.08501768112,0.479878664017,0.268860012293,-0.0179159417748,-0.886658906937,0.429899423699,-0.304447414402,0.357003217782,0.0122127797884,0.966926826382,0.254694311647,0.00584531782835
-0.408092409372,-0.0927358418703,-0.226359292865,-2.09176206589,-0.0290424264967,2.01860809326,-1.11978685856,0.0495126657188,-0.818807303905,0.909953296185,-1.02934074402,0.368978381157,0.202834159136,-0.0547746121883,-0.821295022964,0.423222439378,-0.317099974103,0.352353849809,0.00842945041764,0.969064358778,0.246640230461,0.00343646967775
-0.422934323549,-0.076802007854,-0.244507133961,-2.08587503433,-0.0256347283721,2.01732516289,-1.13486099243,0.0495126657188,-0.754852056503,0.797731339931,-0.882771849632,0.249481424689,0.156943768263,-0.074618794024,-0.766021370888,0.414269174767,-0.331546478242,0.346634415797,0.00380388840499,0.971442936716,0.237242791919,9.22739321173e-05
-0.444668769836,-0.0559225901961,-0.270010203123,-2.08107876778,-0.0223376434296,2.01424026489,-1.15759706497,0.0495212040842,-0.629716336727,0.555412709713,-0.732849597931,0.0628335177898,0.0809694603086,-0.106966324151,-0.691396057606,0.399263622067,-0.350983222236,0.337673820807,-0.00363533773482,0.974420223778,0.224626533642,-0.00591032075545
-0.456114113331,-0.0466936714947,-0.282967627048,-2.08082747459,-0.0210575927049,2.01174688339,-1.17041516304,0.0495212040842,-0.57927697897,0.437054038048,-0.643656790257,-0.0175702553242,0.0602536723018,-0.159084632993,-0.667002737522,0.390854669887,-0.359714375925,0.333019213058,-0.00791876652674,0.975650921693,0.218992425384,-0.00921354745768
-0.464769184589,-0.0405255518854,-0.292519301176,-2.08136749268,-0.0202339701355,2.00882077217,-1.18063080311,0.0495212040842,-0.507806837559,0.336169451475,-0.546543002129,-0.0501463189721,0.0413813591003,-0.209641650319,-0.610879361629,0.383248548084,-0.366540705846,0.329086207654,-0.0120433341426,0.97654837334,0.214613740369,-0.0122137124021
-0.472328692675,-0.0360742993653,-0.300345420837,-2.08246159554,-0.0197714883834,2.00532722473,-1.19023108482,0.0495212040842,-0.432385414839,0.220176652074,-0.438219577074,-0.0833167135715,0.0189731549472,-0.224841117859,-0.571039378643,0.377191271205,-0.371244876681,0.326189423694,-0.0155104936991,0.977072350202,0.211837107106,-0.0146317054508
-0.480640530586,-0.0325037315488,-0.30856987834,-2.0845746994,-0.0195859689265,2.00053095818,-1.20167541504,0.0495212040842,-0.350415110588,0.117573313415,-0.345637828112,-0.113056331873,0.0060942270793,-0.225724294782,-0.525470554829,0.369344349624,-0.376430410755,0.322830360842,-0.0201421573027,0.977522017996,0.209124319912,-0.0176639845216
-0.488619744778,-0.0314307548106,-0.316400974989,-2.08816981316,-0.0195212643594,1.99395167828,-1.21627855301,0.0495212040842,-0.205112993717,-0.0133542204276,-0.205426424742,-0.120355039835,0.00281200674362,-0.22326952219,-0.488724768162,0.361503073924,-0.38029031308,0.320130443841,-0.0251696041037,0.977486079097,0.208500891616,-0.0203674763035
-0.491333663464,-0.0319932289422,-0.318868875504,-2.08992815018,-0.0195034965873,1.99055016041,-1.22380840778,0.0495212040842,-0.135551154613,-0.0670617893338,-0.108149252832,-0.101321741939,-0.000433375593275,-0.209253251553,-0.454737275839,0.358608432194,-0.381184173875,0.319354730418,-0.0273414732391,0.977164186219,0.209637883991,-0.0213202791672
-0.493149906397,-0.0341628789902,-0.319978743792,-2.09166049957,-0.0194813292474,1.98669958115,-1.2319611311,0.0495212040842,-0.0554631650448,-0.1454192698,-0.0152008496225,-0.0748110190034,0.00144226127304,-0.195753738284,-0.405309230089,0.356529445322,-0.38119777014,0.319365055452,-0.0291515567205,0.976551156669,0.212187510297,-0.0217826839298
-0.493181407452,-0.0370201170444,-0.319800436497,-2.09276151657,-0.0193817112595,1.98336136341,-1.2392411232,0.0495212040842,0.0469230338931,-0.171680167317,0.0375771187246,-0.0433686301112,0.00672127027065,-0.158566698432,-0.367938756943,0.355861433852,-0.380343544922,0.320043148138,-0.0302128663331,0.9757286587,0.215799111158,-0.0217142952484
-0.487256288528,-0.0468844175339,-0.314180731773,-2.09338903427,-0.0190780758858,1.9783987999,-1.25488162041,0.0495258010924,0.200607404113,-0.266754239798,0.200167730451,0.00587980914861,0.0120323831216,-0.0671552568674,-0.318991422653,0.359430170758,-0.375283938311,0.324309364071,-0.0293923001556,0.972782854268,0.229031487704,-0.0193439517489
-0.482544124126,-0.052737172693,-0.309565067291,-2.09320783615,-0.0188479572535,1.97753560543,-1.26071751118,0.0495258010924,0.265048891306,-0.311412960291,0.269179582596,0.00953437574208,0.00764833437279,-0.02842303738,-0.268890172243,0.362879945108,-0.371817291809,0.327254713247,-0.0276903863445,0.971108184049,0.236391147379,-0.0173597958595
-0.476967811584,-0.0586613304913,-0.304013848305,-2.09289216995,-0.0185553431511,1.97717452049,-1.26556813717,0.0495258010924,0.315709471703,-0.309716820717,0.31527030468,0.0216407384723,0.0263914447278,-0.0125306034461,-0.23557689786,0.367060163966,-0.367754433439,0.330349768483,-0.0256537272763,0.969286416678,0.244118699009,-0.0152246250364
-0.4673153162,-0.0682270675898,-0.293959230185,-2.0918161869,-0.0178797636181,1.97673261166,-1.27187812328,0.0495258010924,0.358549892902,-0.341410070658,0.374023914337,0.0509915202856,0.0240283049643,-0.0144669087604,-0.198425754905,0.374476738218,-0.360551991025,0.335649959161,-0.0220443774594,0.966191685594,0.256618885463,-0.0115939392813
-0.46105697751,-0.0738063007593,-0.287148416042,-2.09066843987,-0.0174138247967,1.97652888298,-1.27518773079,0.0495258010924,0.377017378807,-0.318738907576,0.428197443485,0.0778004005551,0.0271408595145,-0.00758713530377,-0.194608315825,0.379407813588,-0.35578804432,0.339009784872,-0.0196688600515,0.964153904515,0.26444850295,-0.00934737040896
-0.454746544361,-0.0789127349854,-0.280115813017,-2.08921980858,-0.0168768279254,1.97649121284,-1.27805912495,0.0495258010924,0.403289288282,-0.330395817757,0.442522078753,0.0946140438318,0.0317297913134,-0.000773124571424,-0.16522449255,0.384461376905,-0.350923594889,0.342301857397,-0.0172576696163,0.962070883608,0.272159533852,-0.00713971838533
-0.446945786476,-0.0850682258606,-0.271734893322,-2.08732914925,-0.0160481687635,1.97649908066,-1.28105854988,0.0495264567435,0.406848430634,-0.309215098619,0.433370530605,0.104079559445,0.0525449104607,-0.000290968309855,-0.155461207032,0.390540096192,-0.344927724291,0.346358774796,-0.0143129029647,0.959527760583,0.281216354118,-0.00435652937284
-0.438981324434,-0.0907636359334,-0.263252407312,-2.08515357971,-0.0150161040947,1.97649168968,-1.28411853313,0.0495264567435,0.423736840487,-0.30068820715,0.458389222622,0.123622596264,0.0464827008545,-0.000400751217967,-0.160161092877,0.396677436628,-0.338739004543,0.350337378489,-0.0114584053517,0.95684882795,0.290355787482,-0.00159429113435
-0.425615698099,-0.0995143949986,-0.248593360186,-2.08132863045,-0.013267933391,1.97652184963,-1.2888661623,0.0495264567435,0.416895568371,-0.258947521448,0.463956564665,0.133880570531,0.0665097162127,-0.000599038612563,-0.141178756952,0.406899805493,-0.327946958621,0.356738705149,-0.00684952777824,0.952120272183,0.305634124788,0.00280227107155
-0.412408202887,-0.107546195388,-0.23389673233,-2.07717394829,-0.0119019662961,1.9765393734,-1.29298937321,0.0495264567435,0.403024226427,-0.22392359376,0.44544801116,0.135619774461,0.0215335357934,0.00322358030826,-0.132871210575,0.416775907659,-0.316974273876,0.362975391719,-0.00227013007156,0.947207765625,0.320538257104,0.00689352380196
-0.387141227722,-0.119529560208,-0.205056369305,-2.06865620613,-0.00941975228488,1.97660958767,-1.30121719837,0.0495264567435,0.322655051947,-0.137217387557,0.3602861166,0.0911391600966,0.0557204447687,0.00027163606137,-0.091299764812,0.435124220913,-0.294903371203,0.373564641262,0.00559900499371,0.936891370863,0.34930943694,0.013642847833
-0.382113099098,-0.121463619173,-0.199243932962,-2.06727051735,-0.00861584302038,1.97662377357,-1.30275070667,0.0495271123946,0.294669568539,-0.115355119109,0.357777923346,0.0796276256442,0.0431047976017,-0.000220708752749,-0.0931580662727,0.438613167556,-0.290248185418,0.375305010552,0.00679303456585,0.934751689875,0.354925986532,0.014855191944
-0.377466440201,-0.123169705272,-0.193551331758,-2.06600904465,-0.00798190385103,1.97662079334,-1.30422198772,0.0495271123946,0.252708852291,-0.0917712748051,0.310707867146,0.0632631629705,0.0333372056484,0.00092778733233,-0.0820128023624,0.441867247246,-0.285775465724,0.376866459135,0.00789309779271,0.93266833448,0.360298688756,0.0158849435502
-0.367041885853,-0.126306042075,-0.18113078177,-2.06377696991,-0.00604140665382,1.97662007809,-1.30791640282,0.0495271123946,0.1784273386,-0.0343636125326,0.214409857988,0.0308984089643,0.0384051464498,-0.000365892861737,-0.0805706232786,0.448602644471,-0.275949179429,0.379660927387,0.00968455431268,0.928076030059,0.371832950057,0.0179262035249
-0.364021629095,-0.126741111279,-0.177673473954,-2.06342220306,-0.00563902501017,1.97661185265,-1.30925250053,0.0495271123946,0.140239089727,-0.0216839294881,0.159987911582,0.0115489931777,0.00653928844258,3.18710772262e-05,-0.0518509894609,0.450701524649,-0.272671273723,0.380164158216,0.010009467636,0.926474067487,0.375781898035,0.0182641075144
-0.361790597439,-0.126890435815,-0.175274476409,-2.06335711479,-0.00549874734133,1.97661018372,-1.31001281738,0.0495271123946,0.117013514042,0.000658404489513,0.124611884356,-0.00103331042919,0.0115394294262,0.000162745840498,-0.0324075818062,0.451979100686,-0.27056390824,0.380301743285,0.0101220807917,0.925468668297,0.378246209827,0.018305516001
-0.360029518604,-0.126762777567,-0.173374384642,-2.06345868111,-0.00536603201181,1.97657990456,-1.31058681011,0.0495271123946,0.0771852061152,0.015743907541,0.0963775962591,-0.00760144228116,0.00776393897831,-0.00321192038245,-0.0288527179509,0.452909753269,-0.268947568671,0.380215481944,0.0100556178258,0.924717118732,0.380086199741,0.0182103081479
-0.358869254589,-0.125391051173,-0.170787364244,-2.06402349472,-0.00528884353116,1.97655344009,-1.31273853779,0.0495271123946,-0.00680257612839,0.0385300703347,0.0066219959408,-0.017944317311,-0.000149236264406,-0.000427439197665,-0.0407828465104,0.453887687699,-0.267088462481,0.379248643707,0.00942823092147,0.923580169831,0.382892141291,0.0174466666756
-0.359171569347,-0.124717541039,-0.170923992991,-2.06428050995,-0.00528770312667,1.97654724121,-1.31326472759,0.0495290830731,-0.0320959463716,0.0517595782876,-0.0126384692267,-0.0171299800277,-0.000389423512388,-0.000742619449738,-0.0250823926181,0.453723325445,-0.2672807939,0.378742128636,0.00907353972066,0.923576846653,0.382924269888,0.0171021173248
-0.36003524065,-0.123849622905,-0.171311125159,-2.06453990936,-0.00528858508915,1.9765304327,-1.31362915039,0.0495290830731,-0.0584842637181,0.0506153404713,-0.0272610671818,-0.0145458532497,-7.79842521297e-05,-0.000977319665253,-0.0169638395309,0.45337628332,-0.267801122996,0.378191372541,0.00868498000116,0.923750242625,0.382531182569,0.0167318384771
-0.361425310373,-0.122818373144,-0.172187924385,-2.06484365463,-0.00529323704541,1.97651958466,-1.31404697895,0.0495290830731,-0.0690986812115,0.0536820590496,-0.059383906424,-0.0154720842838,-0.00020872677851,0.000257141684415,-0.0277482643723,0.452737574426,-0.268799889789,0.377499030914,0.00819108633354,0.924113183586,0.381683820507,0.0162846821707
-0.363942623138,-0.121341966093,-0.174164399505,-2.06529474258,-0.00529427779838,1.97649872303,-1.31474673748,0.0495290830731,-0.0994134321809,0.0459492206573,-0.0773721113801,-0.01618068479,-5.11270554853e-05,0.000120141572552,-0.0259089171886,0.451475965813,-0.270787505394,0.376491949176,0.00745153259322,0.924848306718,0.379940331172,0.0156661627266
-0.365301251411,-0.120665334165,-0.175339862704,-2.06554055214,-0.00529440166429,1.97649133205,-1.31501173973,0.0495290830731,-0.0976744741201,0.0430976971984,-0.0865076258779,-0.0166697818786,-0.000111374778498,7.61077317293e-05,-0.0199691317976,0.450756569512,-0.271904711913,0.376008984345,0.00708870153364,0.925284165309,0.378896236018,0.015381994462
-0.366442143917,-0.120126776397,-0.176356315613,-2.06573581696,-0.00529879890382,1.9764854908,-1.31519079208,0.0495290830731,-0.105172000825,0.0407800003886,-0.0938105508685,-0.0172816757113,0.000443566241302,-0.000438760704128,-0.0117825418711,0.450005440198,-0.27306952647,0.375543219299,0.00673656793428,0.925748167221,0.37777849721,0.0151114614758
-0.369558602571,-0.118942588568,-0.178879916668,-2.06621789932,-0.00529932556674,1.97647225857,-1.31551539898,0.0495290830731,-0.128881931305,0.0445286594331,-0.0904895588756,-0.0159316174686,-9.58411692409e-05,-0.00032971939072,-0.0124337589368,0.448528280675,-0.275336562352,0.374749075267,0.00612916415116,0.926671903102,0.375535142376,0.0146619873259
-0.373424977064,-0.117701373994,-0.18165615201,-2.06675243378,-0.00530287669972,1.97644507885,-1.31578707695,0.049528427422,-0.121744714677,0.0338964015245,-0.0988496392965,-0.0192070994526,0.000281676242594,-0.00316548720002,-0.00359849375673,0.446542004737,-0.278343063556,0.373787332659,0.00538655580986,0.927911554876,0.372494012931,0.0141188299086
-0.375083357096,-0.117223605514,-0.183110773563,-2.0670003891,-0.00530127016827,1.97642052174,-1.3158864975,0.049528427422,-0.109441779554,0.0312307439744,-0.106614626944,-0.016565265134,-0.000145032376167,0.000420215976192,-0.00169018120505,0.445596179288,-0.279746704215,0.373390525786,0.00506292363072,0.928494597904,0.371050781533,0.013909193894
-0.377011448145,-0.116673760116,-0.185135468841,-2.067299366,-0.005301582627,1.97638463974,-1.31600081921,0.049528427422,-0.105722382665,0.0283877849579,-0.115755267441,-0.0144532043487,-0.000361436163075,-0.00271582440473,-0.00526601355523,0.444529908922,-0.281320361281,0.37297659094,0.00471454292164,0.929147672014,0.36942473028,0.0137020077903
-0.379182785749,-0.116160087287,-0.187345340848,-2.06757616997,-0.00530695868656,1.97635006905,-1.31610560417,0.049528427422,-0.110205717385,0.0243428684771,-0.10502178967,-0.01231206581,-0.000320495921187,1.7139240299e-05,-0.00288826483302,0.443240999676,-0.28322791155,0.372549770267,0.00435117372862,0.929936885219,0.367445545436,0.0134991711234
-0.388040691614,-0.11518638581,-0.194631993771,-2.06855916977,-0.00530822621658,1.97629356384,-1.31632137299,0.049528427422,-0.0853706747293,0.000590081734117,-0.0655446499586,-0.00889673084021,9.79576579994e-05,-0.00274572847411,-0.00061065540649,0.438409394614,-0.290201383099,0.371485683903,0.00339865812183,0.93283393436,0.360052443047,0.0130972505027
-0.389344841242,-0.115179173648,-0.195779114962,-2.06868886948,-0.00530723528937,1.97629141808,-1.31634533405,0.0495303981006,-0.074043430388,0.000696016883012,-0.0604243054986,-0.00725645804778,-0.000119310505397,-0.000331581482897,-0.00294584571384,0.43766690656,-0.291254720447,0.371406024096,0.00331050135062,0.933269169209,0.358923593526,0.0130977891343
-0.391246885061,-0.115201428533,-0.197603672743,-2.06878757477,-0.00530940014869,1.97627806664,-1.31638896465,0.0495303981006,-0.0538072250783,-0.00117776764091,-0.057054694742,-0.000300760060782,4.1284456529e-05,0.00013347606,-0.000332896684995,0.436552738571,-0.292867743857,0.371347182987,0.00322149641955,0.933926157509,0.35720993325,0.0131383999725
-0.392002612352,-0.11522436887,-0.198425680399,-2.06877732277,-0.00530795473605,1.97627615929,-1.316411376,0.0495303981006,-0.0496741607785,-0.00139788549859,-0.0518640801311,0.00118244218174,0.000127232880914,0.000117809577205,-0.00287004699931,0.436034370751,-0.293644489046,0.371355458003,0.00320763323049,0.934236803173,0.356395076914,0.0131854284816
-0.392779916525,-0.11524426192,-0.199346408248,-2.0687558651,-0.00530602736399,1.97627902031,-1.3164473772,0.0495303981006,-0.0417154766619,-0.000302974745864,-0.038981821388,0.000854204001371,-0.000198248075321,-6.02599757258e-05,-0.00267828535289,0.435597761431,-0.294302616345,0.371363563124,0.00319766224911,0.934497174363,0.355710307532,0.0132281088789
