imanlab/tactile_prediction_flat_dataset/train/data_sample_2021-11-24-15-34-53/robot_state.csv
position_panda_joint1,position_panda_joint2,position_panda_joint3,position_panda_joint4,position_panda_joint5,position_panda_joint6,position_panda_joint7,position_panda_finger,velocity_panda_joint1,velocity_panda_joint2,velocity_panda_joint3,velocity_panda_joint4,velocity_panda_joint5,velocity_panda_joint6,velocity_panda_joint7,ee_state_position_x,ee_state_position_y,ee_state_position_z,ee_state_orientation_x,ee_state_orientation_y,ee_state_orientation_z,ee_state_orientation_w
0.362104415894,0.117533989251,-0.373293727636,-2.48656129837,0.02665752545,2.58776926994,-0.73591285944,0.0785176306963,0.000499480578583,-0.000209903140785,-0.000299419072689,8.65825222718e-06,-3.21712323057e-05,-6.26393521088e-05,0.00030642139609,0.472418395263,-0.0116608771238,0.133054915505,0.0120143840702,0.938552125077,0.344813890746,-0.00888501686423
0.362110763788,0.117533899844,-0.37328979373,-2.48655772209,0.0266577750444,2.58777117729,-0.735926687717,0.0785176306963,-0.000212214275962,0.00078423449304,0.000119740143418,-0.00056964502437,0.000108684340375,-0.00444192765281,-0.00065410049865,0.472420725119,-0.0116558999975,0.133056308622,0.0120150658101,0.938548000847,0.344825159626,-0.0088824137812
0.362105429173,0.117530971766,-0.373293280602,-2.4865591526,0.0266579985619,2.58777594566,-0.735937297344,0.0785176306963,0.00148581585381,0.000478629110148,0.000278557563433,0.000372415437596,2.72549350484e-05,3.0523838177e-06,-0.00218325364403,0.472421523704,-0.0116599527497,0.133057565619,0.0120157558612,0.93854773953,0.344825921886,-0.00887949977201
0.362099289894,0.117533296347,-0.373295038939,-2.48656105995,0.0266574788839,2.58777737617,-0.735943615437,0.0785176306963,0.000280701438896,-6.99352312949e-05,-0.000363620783901,-0.000332447612891,-0.000142162374686,-0.0019335366087,-0.000363923987607,0.472420361452,-0.011663929035,0.133056030775,0.0120158632552,0.938547920739,0.344825385555,-0.0088810286691
0.362106174231,0.117533110082,-0.37329351902,-2.48655962944,0.0266574025154,2.58778595924,-0.735971689224,0.0785176306963,-4.65937409899e-05,-8.58643034007e-05,0.000270907214144,0.000231307843933,0.000189379934454,9.91959896055e-05,8.34309175843e-05,0.472423089278,-0.0116599430262,0.133057330303,0.0120175637906,0.938541612849,0.344842613455,-0.00887641496441
0.362105309963,0.117533296347,-0.373293370008,-2.48655605316,0.0266579445451,2.58778810501,-0.735980927944,0.0785176306963,-0.000499817193486,0.000179284368642,0.000299132050714,-1.29657223624e-06,0.000116129100206,-7.04095727997e-05,6.46876724204e-05,0.472425323845,-0.0116602405896,0.133058702153,0.0120184150108,0.938540211598,0.344846463627,-0.00887384503845
0.362101078033,0.117534287274,-0.373295873404,-2.48655748367,0.0266578793526,2.58778738976,-0.735990762711,0.0785176306963,-0.000207726217923,-0.000422213983256,-0.000111445631774,-0.000249490811257,5.21678957739e-05,-0.000131989610964,-1.26859231386e-05,0.472424201029,-0.0116635542628,0.133057750371,0.0120181223664,0.938539661793,0.344847928989,-0.0088754455844
0.362099349499,0.11753256619,-0.373295813799,-2.48655748367,0.0266578868032,2.5877904892,-0.736006259918,0.0785176306963,8.80980951479e-05,-4.44449397037e-05,-0.000122411656776,0.000427547114668,-1.63312852237e-05,0.000116980314488,-0.00293208425865,0.472425183571,-0.011664233196,0.133058769933,0.0120186126609,0.93853728716,0.344854431125,-0.00887325083033
0.362106949091,0.117532879114,-0.373293668032,-2.48655867577,0.0266578588635,2.58779287338,-0.736032247543,0.0785176306963,8.10845085653e-05,0.00042563866009,0.000273950077826,-0.000236283623963,-2.34275539697e-05,8.06991010904e-06,-0.0037265534047,0.472425141948,-0.0116596359128,0.133058370022,0.0120186589042,0.938531124862,0.34487120748,-0.00887296127065
0.362105458975,0.117533057928,-0.373293250799,-2.48655557632,0.0266571398824,2.5877969265,-0.736041367054,0.0785169750452,-0.000383119302569,0.000907004403416,-0.00030103023164,0.000517358246725,-5.45103512195e-06,6.93686015438e-05,2.50231232712e-06,0.472427547827,-0.0116601613234,0.133059736085,0.0120200689935,0.938529616329,0.344875343434,-0.00886985866388
0.36210462451,0.117530032992,-0.373293936253,-2.48655414581,0.0266565158963,2.58779835701,-0.73605132103,0.0785169750452,0.00012787063315,-0.000213221777813,-9.22565595829e-05,-0.00020450745069,-0.00115333730355,0.00175245548598,-0.000517569133081,0.472429137619,-0.0116606940473,0.133061707297,0.0120207135343,0.9385280805,0.344879570196,-0.00886714765385
0.362103283405,0.117532320321,-0.373294949532,-2.48655676842,0.0266579017043,2.58779811859,-0.736075997353,0.0785169750452,0.000422640121542,-0.00084204779705,0.00193633837625,0.000304122513626,-0.000118375355669,0.000114950467832,-0.00203719106503,0.472427642188,-0.0116617991144,0.133060136376,0.0120199204962,0.938524256496,0.344889950949,-0.0088692108702
0.362102001905,0.117532551289,-0.373293757439,-2.4865527153,0.0266573000699,2.58780026436,-0.736093997955,0.0785169750452,-0.000457364745671,0.00012149563554,-0.0041869408451,0.000435037160059,-5.80739215366e-05,8.39265194372e-05,0.00349825178273,0.472429779467,-0.0116619851027,0.133061273902,0.0120209371128,0.938521239375,0.344898181403,-0.00886704368367
0.362103223801,0.117534920573,-0.373294234276,-2.48655319214,0.0266579762101,2.58780241013,-0.736115396023,0.0785169750452,0.000216261672904,-0.000168571685208,0.000170530372998,-4.55027948192e-05,0.000135096343001,2.69849060714e-05,-0.00104245904367,0.472429580333,-0.0116617972621,0.133060261794,0.0120210405843,0.938517506733,0.344908322731,-0.00886751020311
0.362104833126,0.117533743382,-0.373294174671,-2.48655581474,0.0266576129943,2.58780097961,-0.73614436388,0.0785176306963,-0.000515171792358,6.80701486999e-05,0.00154914334416,0.00362852052785,-3.51079797838e-05,-0.00291406060569,-0.00128554471303,0.472428179614,-0.0116609607914,0.133059719965,0.0120202662656,0.938512184906,0.344922791769,-0.00886901273121
0.362106978893,0.11753090471,-0.373294264078,-2.48655533791,0.0266577675939,2.58780622482,-0.73616528511,0.0785176306963,4.40785188403e-05,-0.00047306146007,0.000431856402429,-0.00393108883873,0.000106159743154,0.000108600390377,-0.000191041544895,0.47243001773,-0.0116596966585,0.133061415812,0.012021164107,0.938508035292,0.344934150434,-0.00886514843752
0.362100958824,0.117531299591,-0.373294740915,-2.4865527153,0.0266577582806,2.58780622482,-0.73618888855,0.0785176306963,-0.000103595848486,0.000147334605572,-0.000253174133832,-0.000703969737515,1.47430664583e-05,4.97550809087e-06,-0.00237236381508,0.472431307719,-0.0116628802899,0.133062356332,0.0120215652235,0.938505294793,0.344941617448,-0.00886418944197
0.362100452185,0.117530681193,-0.373295038939,-2.48655438423,0.0266578905284,2.58780813217,-0.736196696758,0.0785176306963,0.000189396901987,-0.000727991282474,-0.000142074786709,1.81800089649e-07,2.34295384871e-05,0.000850604788866,-0.000658307806589,0.472430992234,-0.0116632433099,0.133062204171,0.0120215721399,0.938504113754,0.344944840158,-0.00886381432986
0.362099528313,0.117533765733,-0.373294204473,-2.48655366898,0.0266578029841,2.58780741692,-0.736202657223,0.0785176306963,0.000153716682689,0.000286278169369,0.000277587212622,9.68799940892e-05,5.13285522175e-05,0.000210169077036,0.000117815892736,0.472430738259,-0.0116634445291,0.133061023056,0.0120215482428,0.938502985892,0.344947871903,-0.00886528091825
0.362104505301,0.117533095181,-0.373293787241,-2.48655319214,0.0266569238156,2.58780884743,-0.736211419106,0.0785176306963,0.000140329502756,0.000927039072849,0.000221848560614,-0.00041648739716,6.73632675898e-05,-3.31456831191e-05,-0.000266117800493,0.472431350444,-0.0116609140752,0.133061608336,0.0120220454635,0.938500496804,0.344954652054,-0.00886428977801
0.362102985382,0.117534019053,-0.373294323683,-2.48655247688,0.0266572274268,2.5878098011,-0.736223876476,0.0785176306963,-4.59582988697e-05,-0.000184013828402,3.93930713471e-05,0.000148211052874,4.00376302423e-05,-7.28819723008e-05,0.000333876319928,0.472431729459,-0.0116619453334,0.133061551564,0.0120222492519,0.938498739026,0.344959433871,-0.00886403062214
0.362105995417,0.117529764771,-0.373294860125,-2.48655200005,0.0266579985619,2.58781290054,-0.736227273941,0.0785176306963,-0.000158731229021,-0.00185001688078,-0.000329517119098,0.000179639901035,2.17137039726e-05,0.000143682438647,0.000268880918156,0.472433480843,-0.0116604630261,0.133063861009,0.0120227352844,0.938497864553,0.344961895212,-0.0088601695015
0.362102717161,0.117532968521,-0.37329480052,-2.48655056953,0.0266578178853,2.58781290054,-0.736237466335,0.0785176306963,-0.000439173541963,-0.000361821090337,-0.000510217039846,-6.56119955238e-05,1.59059945872e-05,-0.000222001501243,-6.61708545522e-05,0.472433566378,-0.0116622013171,0.133062966564,0.0120229842399,0.938496610206,0.344965272562,-0.00886120168378
0.362104713917,0.117532432079,-0.373294919729,-2.48655343056,0.0266573391855,2.58781433105,-0.7362408638,0.0785176306963,0.000380032084649,-0.000183020965778,-0.00097300671041,-0.000170634564711,3.69852386939e-05,6.47592460155e-05,-0.000248641561484,0.472432557507,-0.0116613349535,0.133062310372,0.0120228592539,0.938495638936,0.344967907353,-0.00886166669701
0.362103492022,0.11753448844,-0.373294234276,-2.4865527153,0.0266575329006,2.58781528473,-0.736247479916,0.0785176306963,-0.000202955008717,-0.000333809613949,-0.000168474580278,0.000255385908531,-8.28325573821e-05,0.000180162940524,-0.000148904859088,0.472432732115,-0.0116617099856,0.133061732536,0.0120230559705,0.938494604837,0.34497070672,-0.00886194159588
0.36210295558,0.117532625794,-0.373294621706,-2.48655200005,0.0266574881971,2.58781719208,-0.736254036427,0.0785176306963,0.000202602852369,-0.000401430268539,0.000398533855332,0.000301036605379,0.000126633429318,-9.37134827836e-05,0.000107759806269,0.472433853086,-0.0116620243611,0.133062974958,0.0120235307003,0.938493634005,0.344973385265,-0.0088598412561
0.362107127905,0.117529667914,-0.373294889927,-2.48654961586,0.026657698676,2.58781790733,-0.736256480217,0.0785176306963,-3.6231467675e-05,4.99352863699e-05,-2.54230344581e-05,0.000326776556903,-1.81925988727e-05,-8.69142168085e-05,-0.000219166409806,0.472435815928,-0.011659944502,0.133065184587,0.0120240429672,0.938492581175,0.344976307496,-0.00885688557041
0.362105041742,0.117533810437,-0.373295366764,-2.48655033112,0.0266577433795,2.58781766891,-0.736264050007,0.0785176306963,-0.000393566559069,-0.00105362338945,0.00332989613526,-0.00024477916304,-2.80642016151e-05,7.1480681072e-05,-0.000364774256013,0.472434751668,-0.0116614125908,0.133063457726,0.0120238421938,0.938491635951,0.344978830282,-0.00885905253359
0.362101346254,0.11753308773,-0.373294562101,-2.48655247688,0.0266576949507,2.58782076836,-0.736276447773,0.0785176306963,5.54578291485e-05,4.3422998715e-05,0.000235757295741,0.00017353030853,4.68744292448e-05,-5.03036717419e-05,0.000202719063964,0.47243429288,-0.0116628008256,0.13306291047,0.0120239593122,0.938490062677,0.344983113668,-0.00885876006355
0.362101942301,0.117534689605,-0.373293817043,-2.48655104637,0.0266577675939,2.58782172203,-0.736280739307,0.0785176306963,-0.000108459993498,-0.00342860328965,-0.00127754721325,1.19899250421e-05,4.45723799203e-06,0.000218350673094,-4.23089695687e-05,0.47243493511,-0.0116622527253,0.133062784824,0.012024324335,0.938489088208,0.344985759561,-0.00885846067964
0.362102866173,0.11753269285,-0.373296260834,-2.48654747009,0.0266575459391,2.5878238678,-0.736289203167,0.0785176306963,-2.33498194575e-05,0.0010298548732,-0.000157096394105,0.000410569220548,-0.00020135534578,5.55823207833e-05,-0.000633045390714,0.472437900578,-0.0116628376115,0.133065502813,0.0120255981214,0.938487822434,0.344989260885,-0.00885447307479
0.362104296684,0.117530040443,-0.373294383287,-2.48654985428,0.0266576204449,2.58782553673,-0.736298322678,0.0785176306963,-1.36594835567e-05,-0.000413636909798,0.000991814187728,-0.000332406169036,0.000173094202182,-0.000131900422275,-0.000330225244397,0.472437269887,-0.011661099323,0.133065584954,0.0120252251773,0.938485746294,0.344994935813,-0.00885392076503
0.362103283405,0.117533646524,-0.373293101788,-2.48654913902,0.0266577042639,2.58782720566,-0.736303567886,0.0785176306963,0.000115702277981,0.00020316868904,-0.000139517011121,0.000580958731007,-2.80696758637e-06,1.15361799544e-05,5.62457389606e-05,0.472437316073,-0.0116612004488,0.133064378271,0.0120255645483,0.938484783972,0.344997523369,-0.0088546375472
0.362100630999,0.11753308028,-0.373295545578,-2.48655104637,0.0266576800495,2.58782839775,-0.736314535141,0.0785176306963,4.35865549662e-05,-0.000899333157577,-0.00150629458949,-9.90091502899e-05,4.6769167966e-05,0.000218132481677,0.000142889737617,0.472436681031,-0.0116636403832,0.133064101776,0.0120255261101,0.938483771883,0.345000273903,-0.00885479122331
0.362101495266,0.117531403899,-0.373294144869,-2.48654651642,0.0266578905284,2.58783173561,-0.736334145069,0.0764031633735,5.10598620167e-05,-0.000411997141782,-0.000335382937919,0.000392604764784,9.82283963822e-05,-9.00984923646e-06,-0.00139446090907,0.47244003133,-0.0116623831212,0.133066705254,0.0120267339991,0.938480026792,0.345010532584,-0.00885037145808
0.362102031708,0.117532864213,-0.373293995857,-2.48654437065,0.0266580637544,2.58783197403,-0.736347794533,0.0764031633735,0.000171138744918,0.000521627836861,-0.000643690058496,-0.000346565706423,0.000517894979566,0.00015130470274,-0.00364426407032,0.472440901829,-0.0116621309391,0.133066846544,0.0120270572504,0.938477564469,0.345017227427,-0.00885004788735
0.362105548382,0.117533043027,-0.373294055462,-2.48654699326,0.0266585443169,2.5878329277,-0.736356556416,0.0764031633735,0.000660747871734,8.40526554384e-05,0.000119819909742,-0.000386467028875,-7.87349345046e-05,0.0022031175904,0.000459799251985,0.472439794123,-0.0116605245478,0.133065918555,0.0120266380887,0.938475534914,0.345022740611,-0.00885090342213
0.362105458975,0.117531955242,-0.373294264078,-2.4865500927,0.0266580563039,2.58783221245,-0.736364126205,0.0764031633735,-6.4073887188e-05,4.14934875153e-05,2.91460582957e-05,0.000372551643522,-0.0013588136062,9.65153667494e-05,-0.000239605942625,0.472438271998,-0.0116606420065,0.133065235483,0.0120260456958,0.938474223273,0.345026294717,-0.00885223796675
0.362100601196,0.117533393204,-0.373294591904,-2.48654651642,0.0266579743475,2.58783555031,-0.736381947994,0.0764031633735,0.000401608354878,-0.000395988114178,-0.000347366090864,-0.000155655579874,-3.67108186765e-05,-5.40910732525e-05,0.000324886408634,0.472440485369,-0.0116631795548,0.133066173199,0.012027246954,0.938472008142,0.345032338336,-0.00884988431191
0.362101346254,0.117531843483,-0.373292922974,-2.48654723167,0.0266582947224,2.58783769608,-0.736385941505,0.0764031633735,-1.14586055133e-05,-0.000427903054515,-0.000118790740089,-0.000207718388992,3.55837946699e-05,4.15749564127e-05,0.000417160481447,0.472440899524,-0.0116619025182,0.133066747092,0.0120273331902,0.938470964017,0.345035212674,-0.00884842668629
0.362102985382,0.117533653975,-0.37329313159,-2.48654580116,0.026657845825,2.58783769608,-0.736395359039,0.0764031633735,-0.000354690855602,-0.000525404524524,0.000491857470479,-5.44150134374e-06,-0.000105224506115,-0.000144631310832,-0.000333854637574,0.472441301682,-0.011661361506,0.133066468346,0.0120276794346,0.938469008899,0.345040509858,-0.00884875741705
0.362103104591,0.117529913783,-0.373294830322,-2.48654389381,0.0266584716737,2.58784246445,-0.736424505711,0.0764031633735,-0.000102594640339,-0.000219683744945,0.000106572319055,-0.000180709641427,0.000973070506006,-0.000236438616412,-0.00327066145837,0.472444008534,-0.0116618500541,0.1330692302,0.0120287049756,0.938464358431,0.345053246978,-0.00884390455272
0.362105071545,0.117531299591,-0.373293638229,-2.48654508591,0.0266581755131,2.58784198761,-0.736432671547,0.0667252168059,-9.43070990616e-05,-0.00028336403193,0.00226480606943,-0.000251283112448,-0.00209091114812,-0.000101684447145,-1.25676406242e-05,0.472443068845,-0.0116604561095,0.133068133937,0.0120283907871,0.938462357213,0.345058661441,-0.00884543722833
0.362102895975,0.117530815303,-0.373293459415,-2.48654580116,0.0266577359289,2.58784270287,-0.736439943314,0.0667252168059,-0.000208470941288,8.82267704583e-05,0.000243659247644,2.10643374885e-05,1.39487792694e-05,8.93403048394e-05,-0.000765786622651,0.472442929726,-0.011661390409,0.133068150041,0.0120284500502,0.938461385833,0.345061304778,-0.00884529939074
0.362102925777,0.117531597614,-0.373295217752,-2.48654770851,0.026657782495,2.58784365654,-0.736447155476,0.0667252168059,0.00034412171226,0.000151353568071,0.000519281253219,-0.000223252616706,-3.78343684133e-05,6.87021747581e-05,0.000339972029906,0.472442023808,-0.0116623181481,0.133067248316,0.0120283479033,0.938460443938,0.345063847215,-0.0088461880209
0.362105071545,0.117532625794,-0.373293548822,-2.48654532433,0.0266577117145,2.58784508705,-0.736464560032,0.0667252168059,0.0005420637317,-0.000653561670333,0.000411373679526,0.000275509810308,-0.000152883425471,-3.00529018205e-06,0.000103730293631,0.472443380802,-0.0116605411708,0.133067734981,0.0120289012061,0.938456760286,0.345073876172,-0.00884501441612
0.362103849649,0.117531612515,-0.373294115067,-2.48654127121,0.0266577731818,2.58784580231,-0.73646992445,0.0667252168059,0.000141099153552,-0.000696258444805,0.000421789096436,0.000119392891065,-3.74879346055e-05,-2.8866723369e-05,0.000243814691203,0.472445759241,-0.0116612818884,0.133069693538,0.0120297333202,0.938456145148,0.345075589188,-0.00884231774303
0.362102717161,0.117531858385,-0.373294383287,-2.48654389381,0.0266570430249,2.58784723282,-0.736489236355,0.0667252168059,-1.82853746082e-05,-0.000662269827444,0.00206578080542,0.000308852613671,3.10623727273e-05,4.46823059974e-06,-0.000202312759939,0.472444687281,-0.0116620300488,0.133068783135,0.012029638461,0.938452949569,0.345084260256,-0.0088432037866
0.362105369568,0.117530040443,-0.37329402566,-2.48654079437,0.0266578756273,2.58784794807,-0.736491680145,0.0667252168059,0.000444292760221,-0.000196522902115,0.000213875435293,-9.74430295173e-05,-1.73443095264e-05,0.000445086974651,-0.000247635674896,0.472446783481,-0.0116604088558,0.133070734484,0.0120300930442,0.938452136088,0.345086527856,-0.00884042492923
0.362103462219,0.117530845106,-0.373295724392,-2.48654437065,0.0266580283642,2.58784770966,-0.736496090889,0.0554266050458,-0.000312465708703,-0.000108734267997,0.00413410272449,-0.000306854664814,-6.17238038103e-05,-0.000150466614286,0.00029223706224,0.472444746067,-0.0116622324749,0.133069125088,0.0120294478475,0.938452023354,0.345086800145,-0.00884264100665
0.36210334301,0.117535836995,-0.373293995857,-2.48654484749,0.026657871902,2.58784747124,-0.736502289772,0.0554266050458,0.000348048837623,-0.000570972857531,0.000799939851277,6.51217269478e-05,3.79968878406e-05,-0.000800542649813,-0.000246076553594,0.472443523527,-0.0116618038119,0.133066714124,0.0120292590654,0.938450625739,0.345090533816,-0.00884551486901
0.362103521824,0.117534667253,-0.373293817043,-2.48654508591,0.0266575738788,2.5878508091,-0.736508190632,0.0554266050458,0.000272753706668,-0.000824164657388,-0.000647914013825,-0.000218704342842,-0.00241128285415,0.000169666775037,-0.000132239118102,0.472444357093,-0.0116615780943,0.13306742611,0.0120298731276,0.938449506756,0.345093605529,-0.00884355875678
0.362105369568,0.117531090975,-0.373294681311,-2.48654103279,0.0266577582806,2.58785033226,-0.7365218997,0.0554266050458,-0.000713252578862,-0.000634304014966,0.00424460507929,1.96430046344e-05,5.98752849328e-05,1.59968676599e-05,-0.000757612811867,0.472446987902,-0.0116608231586,0.133070409596,0.0120304328508,0.938447008472,0.345100467025,-0.00884015395724
0.362101733685,0.117533318698,-0.37329429388,-2.48654103279,0.026657788083,2.58785152435,-0.736526548862,0.0554266050458,0.000582217588089,0.000132432542159,0.000135956986924,0.000102671605418,-0.000117234878417,7.09828018444e-05,-5.89781848248e-05,0.472446792101,-0.0116625125303,0.133069529366,0.0120306022361,0.938446757046,0.345101129313,-0.00884075975019
0.36210283637,0.117533154786,-0.373294472694,-2.48654270172,0.0266573447734,2.58785200119,-0.736536383629,0.0554266050458,-0.00041007049731,0.000371663365513,-0.00366873340681,-0.000368166627595,-0.00494516221806,-9.25192580326e-05,-0.000256530445768,0.472446095908,-0.0116621057051,0.133069052955,0.0120304733266,0.938444839226,0.34510633419,-0.0088413364644
0.362103402615,0.117529883981,-0.373292922974,-2.48654079437,0.0266581196338,2.58785176277,-0.736538648605,0.0554266050458,-0.000211033780943,-0.000323215121171,0.000123236270156,0.000102808713564,3.69395456801e-05,7.60524126235e-05,-0.000418920913944,0.472447631476,-0.0116607926652,0.133071109013,0.0120304723469,0.93844421753,0.345108088697,-0.00883884166399
0.362102717161,0.117531746626,-0.373294562101,-2.4865424633,0.0266578923911,2.58785247803,-0.736542344093,0.0554266050458,0.000103202815808,-0.000404391408665,-0.00011154657841,-0.000145732890815,-1.57760514412e-05,-3.38566860592e-05,7.65498189139e-05,0.472446583387,-0.0116620837037,0.133069796477,0.0120304445214,0.938443936822,0.345108816139,-0.00884028031208
0.362102031708,0.117530822754,-0.373293310404,-2.48654198647,0.0266583897173,2.58785605431,-0.73654961586,0.0505167096853,7.23247867427e-05,-0.000307495822199,0.00320844468661,-0.000122903918964,8.79244980752e-05,1.51978829308e-05,-8.13570150058e-05,0.472447779188,-0.0116617181496,0.133070652486,0.012030971974,0.938442662958,0.345112321974,-0.00883792744816
0.362102180719,0.117531806231,-0.373294323683,-2.4865424633,0.0266579780728,2.58785438538,-0.736552655697,0.0505167096853,0.000140345728141,5.36763727723e-05,-6.74241455272e-05,0.00048905890435,3.5544817365e-05,-3.15791548928e-05,-0.003949013073,0.472446985755,-0.0116622293147,0.133069929998,0.0120307207398,0.938442220395,0.345113494373,-0.00883948112495
0.362103193998,0.117532677948,-0.373295098543,-2.48654317856,0.0266573745757,2.58785557747,-0.736556231976,0.0505167096853,-0.000129398395075,-0.000276932842098,0.00242617214099,0.000236337640672,3.49260153598e-05,-0.000120036835142,-3.68658256775e-05,0.47244673168,-0.0116622301815,0.133069413907,0.0120309974432,0.938441465701,0.345115529227,-0.0088397809142
0.362103223801,0.117530964315,-0.373293101788,-2.48653936386,0.0266579780728,2.58785700798,-0.736555397511,0.0505167096853,-0.00020138110267,0.000388316286262,0.00377198075876,-0.000173529435415,-4.14086389355e-05,0.000201552727958,-0.000172785032191,0.472449301348,-0.0116610551399,0.13307160177,0.0120316820297,0.938441352381,0.345115900103,-0.00883639924744
0.362106889486,0.117533430457,-0.373292684555,-2.48654222488,0.0266574602574,2.5878572464,-0.736561238766,0.0505167096853,9.77302115643e-05,-0.000319082464557,9.9925637187e-05,1.68631777342e-05,5.49250353288e-06,0.000144011166412,-0.000476884044474,0.472447490479,-0.0116593457362,0.133069517283,0.0120313250603,0.938439555551,0.345120733816,-0.00883892366027
0.362107843161,0.11753192544,-0.373293399811,-2.48654103279,0.0266577992588,2.58785653114,-0.736561596394,0.0505167096853,2.104827945e-05,-8.81451633177e-05,-0.00328737450764,0.000396970077418,2.17232809518e-05,-2.2452459234e-05,-0.000148283827002,0.472448362543,-0.0116591168227,0.133070675299,0.0120313952952,0.938439454845,0.34512103504,-0.00883775854307
0.362104684114,0.117533460259,-0.373294442892,-2.48654174805,0.0266577210277,2.58785700798,-0.736562490463,0.0505167096853,-0.000384029350244,0.000134405083372,-6.79846780258e-05,0.00262353452854,-4.90911816087e-07,0.000308105925797,0.000426023936598,0.472447642339,-0.011661236617,0.1330696897,0.0120313823058,0.938440058455,0.345119366753,-0.00883882941727
0.36210283637,0.117532402277,-0.373292982578,-2.48653936386,0.0266573298723,2.58786964417,-0.73656886816,0.0505167096853,-0.000509133969899,-0.000476722780149,0.000403167970944,0.000516236701515,-0.000104934973933,0.00103446631692,0.000177111185621,0.472451802594,-0.0116613638267,0.133072061783,0.012034144489,0.938438957976,0.345122452737,-0.00883141108314
0.362103760242,0.117531999946,-0.373294651508,-2.48651766777,0.0266572460532,2.58791041374,-0.736573159695,0.0505167096853,-0.000391704757931,-0.0001897263719,-0.00293836486526,0.00264535658062,-1.35236168717e-05,0.00846216920763,0.000179892202141,0.472474626366,-0.0116615905354,0.133085115334,0.0120473505867,0.938438186694,0.345124939895,-0.00879810470519
0.362102746964,0.117530681193,-0.373294949532,-2.48649001122,0.0266576241702,2.58820271492,-0.736583769321,0.0505167096853,0.000394801463699,0.000158214592375,2.43025951931e-05,0.00131641107146,2.56484818237e-05,0.0162101723254,-0.00230418355204,0.472550192898,-0.0116631895108,0.133119186414,0.0121052365045,0.938436370147,0.345131518107,-0.00865316877039
0.362116962671,0.117523193359,-0.373285055161,-2.48644280434,0.0266575440764,2.58835625648,-0.736620485783,0.0505167096853,0.000986592960544,-0.000928209512495,0.000639685720671,0.000655965588521,9.09014124773e-06,0.00139402900822,-0.00336944288574,0.472609352617,-0.0116512582709,0.133152328817,0.012141697537,0.938425639948,0.345161827603,-0.00855627960168
0.362122952938,0.117426417768,-0.373285472393,-2.48597550392,0.0266572814435,2.58835434914,-0.736950993538,0.0505167096853,-0.000516934611369,0.00067365472205,-0.000347817374859,0.00701288226992,-9.95779191726e-05,-0.000293604825856,3.92664660467e-05,0.472863108469,-0.0116367514704,0.133360901341,0.0122222015592,0.938366670185,0.345325711471,-0.00829233133328
0.362115472555,0.117383778095,-0.373288631439,-2.48576283455,0.0266580581665,2.58835268021,-0.736955285072,0.0464026927948,-0.000247079122346,-0.000944346946198,-0.000399222422857,0.0139266401529,4.51262603747e-05,0.000129287378513,1.67825983226e-05,0.472977991356,-0.0116364976146,0.133455251108,0.0122592261132,0.938367430847,0.345325191668,-0.00817237949616
0.362118452787,0.117393180728,-0.373289197683,-2.48561429977,0.0266576614231,2.58834719658,-0.736960291862,0.0464026927948,0.000366146618035,0.000459029368358,-8.08113964013e-06,0.00565829267725,2.23260212806e-05,-0.00624935841188,-1.15254906632e-05,0.473050057776,-0.0116344225187,0.133503586745,0.0122846237081,0.938365539262,0.345330894082,-0.00811024201298
0.362120866776,0.1174274683,-0.37328517437,-2.48560380936,0.0266575366259,2.58833932877,-0.736967086792,0.0464026927948,5.23338167113e-05,0.00199006381445,-2.08136361834e-06,-0.00123513606377,-3.37854980899e-05,-0.000285503134364,0.000355042051524,0.473047271387,-0.0116335828596,0.133491532033,0.012284959128,0.938363011155,0.345337377874,-0.00812614323914
0.362115204334,0.117425724864,-0.373288363218,-2.48560738564,0.0266578271985,2.58833503723,-0.736974000931,0.0464026927948,-0.000211936669075,-0.00114216702059,-0.00300412671641,0.00140685553197,6.9699017331e-05,0.000136868577101,-4.84944866912e-05,0.473044773258,-0.0116377138639,0.133490716228,0.0122835671042,0.938363411316,0.345336272888,-0.0081289972773
0.36211758852,0.117397420108,-0.373287796974,-2.48556685448,0.026657037437,2.58834028244,-0.736980736256,0.0464026927948,-0.000100273515272,-0.00135731440969,-0.000240828012465,0.00109023728874,0.000107525964268,0.000395671959268,0.000373685586965,0.473071695751,-0.0116339254379,0.133518006477,0.0122917239613,0.938361646903,0.345341608969,-0.00809357431968
0.362125873566,0.117390394211,-0.373285293579,-2.48556494713,0.0266579706222,2.58834218979,-0.736984848976,0.0364167615771,-0.000170272309333,0.000584498164244,0.00234824931249,-0.00108914764132,-4.35630463471e-05,1.89369493455e-05,-0.000404490128858,0.473074493646,-0.0116282290872,0.13352187733,0.0122920417706,0.938359252035,0.345348232001,-0.00808814993794
0.362129658461,0.11739616096,-0.373282968998,-2.48558020592,0.0266577359289,2.58833932877,-0.736990094185,0.0364167615771,0.001184339053,0.000992162968032,-0.000261277338723,-4.18094132328e-05,4.73901636724e-05,-9.80855475063e-05,-0.00239005777985,0.473065438678,-0.0116258272107,0.133514016853,0.0122888952166,0.938357366801,0.345353216928,-0.00809879428332
0.362117379904,0.11740989238,-0.373286992311,-2.48556613922,0.0266572553664,2.58833885193,-0.736994564533,0.0364167615771,4.75501437904e-05,-0.000683790654875,-0.000288162234938,0.000406790553825,-2.58840373135e-05,-0.000119401316624,-0.00269797304645,0.473069170408,-0.0116343428068,0.133512358804,0.0122914424299,0.938359059753,0.345348487027,-0.00810047020979
0.362119555473,0.11740616709,-0.373287558556,-2.48556542397,0.0266578271985,2.5883409977,-0.736999511719,0.0364167615771,0.000479244772578,2.20079673454e-05,0.00012514887203,-0.000453854125226,-0.000130843967781,-7.67706223996e-05,9.10827511689e-05,0.473070624019,-0.0116326182362,0.133514482436,0.0122916852027,0.938357729702,0.34535216331,-0.00809744202231
0.362133651972,0.117399401963,-0.373279869556,-2.48556804657,0.0266568437219,2.58834123611,-0.737003862858,0.0364167615771,0.000456130277598,-0.000484411459183,9.25228687265e-06,-0.000338063866366,-0.00492563145235,2.98382674373e-05,0.00118079164531,0.473071146011,-0.0116225935632,0.133516630303,0.0122912869221,0.938353486198,0.345363771588,-0.0080946998783
0.362126648426,0.117401979864,-0.373281776905,-2.48556637764,0.0266576036811,2.58833909035,-0.73700940609,0.0364167615771,-0.000601282576099,0.000170914689079,-7.49464379624e-05,-0.000188933583559,-8.68554416229e-05,-3.63232611562e-05,0.000221009497182,0.473071284635,-0.0116265355709,0.133516212253,0.0122911730329,0.938354010264,0.345362326414,-0.00809578079123
0.362122476101,0.117411486804,-0.373286396265,-2.48557090759,0.0266575422138,2.58834075928,-0.737019121647,0.0364167615771,0.000199225949473,-0.000692503817845,0.000205054078833,0.000730536470655,-3.10380382871e-05,0.000234333405388,0.000123041667393,0.473067192183,-0.0116319442067,0.13351040873,0.0122908300223,0.938353940585,0.345362372103,-0.00810242604145
0.362123757601,0.117403782904,-0.37328645587,-2.48555278778,0.0266576912254,2.58834266663,-0.737023055553,0.0364167615771,0.00107420969289,-0.00072530732723,0.000101031124359,0.000750245060772,7.60472757975e-05,0.000175940716872,-0.000171265477547,0.473078210456,-0.0116306299563,0.13352040813,0.0122943119495,0.938353055042,0.345364963729,-0.00808922137963
0.362121075392,0.117394454777,-0.373287379742,-2.48553705215,0.0266577228904,2.58834385872,-0.737031340599,0.0364167615771,-9.8057971627e-05,0.000359870144166,0.000480090617202,-0.00048389082076,-0.000123997640912,0.000113681555376,0.000156226247782,0.473088171835,-0.0116312491652,0.133530328892,0.012297260805,0.938352116621,0.345367703897,-0.00807659591652
0.362125873566,0.117395430803,-0.373288035393,-2.48554134369,0.0266574155539,2.58834218979,-0.737039089203,0.0356963984668,0.000225790252443,0.000162384982104,-8.31630386529e-05,0.00021577111329,0.000344409665558,2.89422096102e-05,0.000129742213176,0.473085460234,-0.0116297009052,0.133528138654,0.0122963028075,0.9383501609,0.345372971024,-0.00808004012703
0.362127572298,0.117397561669,-0.373284459114,-2.48553776741,0.0266575813293,2.58834028244,-0.737042725086,0.0356963984668,0.000249033444561,-0.000399026146624,5.95452838752e-05,0.000752995547373,-0.000119698488561,0.00016299985873,-0.00016170044546,0.473087923703,-0.0116270362508,0.133529721262,0.012296819729,0.938348486538,0.345377552274,-0.00807787763601
0.362121701241,0.117395110428,-0.373285889626,-2.48552942276,0.0266579426825,2.58834266663,-0.737045884132,0.0356963984668,-2.83229637716e-05,-0.000318338919897,0.000169553823071,0.000238630076637,-6.58336721244e-05,-7.38902090234e-05,-0.000390648347093,0.473091601821,-0.0116304495422,0.133532522921,0.0122982107883,0.938349381447,0.345375160011,-0.0080740871393
0.362121582031,0.117396906018,-0.373287171125,-2.4855196476,0.0266579389572,2.58834409714,-0.737051606178,0.0356963984668,-0.000243566129939,0.000575936865062,0.000235856161453,-0.000245347357122,-0.000155692163389,0.00489541003481,-0.000158765949891,0.473096509986,-0.0116311640328,0.133535370142,0.0123002632301,0.938348586926,0.345377345845,-0.00806979565156
0.362124353647,0.117400035262,-0.373287111521,-2.48551845551,0.0266577620059,2.5883436203,-0.737054169178,0.0356963984668,-6.36221593595e-05,1.18645175462e-05,0.00157413526904,-4.51429768873e-05,-6.82238242007e-05,1.52686334332e-05,0.000154805820785,0.473097429699,-0.0116293957474,0.133535258448,0.0123007066964,0.938347147397,0.345381233753,-0.00807010812379
0.362126559019,0.117397427559,-0.37328517437,-2.48551607132,0.0266580078751,2.58834290504,-0.737059533596,0.0356963984668,0.000206103606615,0.000442383345217,-0.000101125733636,-0.00013825930364,-5.09146993863e-05,-0.000121386234241,-7.87062381278e-05,0.473097736673,-0.0116277535965,0.133536097023,0.0123004240545,0.938345965595,0.345384474446,-0.00806925752232
0.362133383751,0.117395579815,-0.373283326626,-2.48552203178,0.0266576241702,2.58834195137,-0.737063229084,0.0356963984668,0.00073439948028,-0.000472089508548,-4.47295969934e-05,1.68668248079e-05,2.245298856e-05,-4.71194143756e-05,5.59261206945e-05,0.473095232236,-0.0116236255243,0.133534835748,0.0122992997018,0.938343855287,0.345390201151,-0.00807125187478
0.362132668495,0.117396101356,-0.373279929161,-2.48552799225,0.026656921953,2.58834242821,-0.7370672822,0.0356963984668,-0.00036195004941,-0.00130436825566,-0.000544056878425,-0.00377978361212,-0.00138989801053,0.000129608553834,-9.85711012618e-05,0.473092232517,-0.0116224248991,0.133532454284,0.0122983015817,0.938342608624,0.345393555564,-0.00807416123091
0.362130522728,0.117396764457,-0.373283833265,-2.48552131653,0.0266576167196,2.58834338188,-0.737072229385,0.0356963984668,-0.000141053038533,-0.00168302340899,-0.000276785576716,0.000849682022817,-0.00014784054656,2.69126139756e-05,0.00035462496453,0.473095651377,-0.0116253108051,0.133534706042,0.0122996815051,0.938342869452,0.345392873505,-0.00807092328326
0.362125784159,0.117398552597,-0.373285084963,-2.48551511765,0.0266575496644,2.58834338188,-0.737077176571,0.0356963984668,-3.53216710209e-05,-5.53004610993e-05,-0.000281727261608,6.74402472214e-05,0.00498081790283,0.000122345067211,6.39551362838e-05,0.473098387894,-0.0116282302496,0.133536157546,0.0123008314246,0.938343005641,0.345392507663,-0.00806899292494
0.362126559019,0.117398753762,-0.373285830021,-2.48551774025,0.0266581792384,2.5883436203,-0.737081885338,0.0355197563767,-3.07713571601e-06,-0.000649267341942,0.00421019457281,-0.000245117058512,0.000116349467135,-0.000176394401933,-1.09464790512e-05,0.473097086123,-0.0116282482673,0.133535170318,0.0123002869018,0.938342288398,0.345394448068,-0.00807017199304
0.362129330635,0.117401897907,-0.373283594847,-2.48552036285,0.0266576427966,2.58834242821,-0.737082004547,0.0355197563767,0.000703160243575,-3.13523996738e-05,-4.31262888014e-05,5.18578708579e-05,-0.00303523195907,0.000182588803,-0.000431036984082,0.473094952921,-0.0116261047421,0.133532708223,0.0122996320351,0.93834131763,0.345397029765,-0.00807354921802
0.362128168344,0.117403499782,-0.373284935951,-2.48552775383,0.0266577806324,2.58834218979,-0.737086474895,0.0355197563767,4.36684422311e-05,-0.000286326918285,-0.000149930987391,2.55449085671e-05,-4.22431439802e-05,-4.54093315057e-05,0.000155822213856,0.473090852919,-0.0116275003337,0.133529379581,0.0122983051896,0.938341012287,0.345397803795,-0.00807794334847
0.362129896879,0.117417216301,-0.373285263777,-2.48553419113,0.026657583192,2.58834052086,-0.73709076643,0.0355197563767,0.00018643673684,0.000315808720188,-9.92301793303e-05,-0.000102953752503,-9.8961936601e-05,0.000211780410609,0.000126721643028,0.473084697014,-0.0116278830439,0.133520936334,0.0122969734929,0.938339940948,0.345400511807,-0.00808862132839
0.362130135298,0.117415934801,-0.37328338623,-2.48553299904,0.0266575273126,2.58833861351,-0.737092792988,0.0355197563767,9.11242823349e-05,0.00343811162747,0.000384745653719,4.52151507488e-05,2.63568144874e-05,6.028466305e-05,-0.000511346617714,0.4730851281,-0.0116267374682,0.133521718228,0.0122967244547,0.938339226054,0.34540247,-0.00808831376552
0.362128704786,0.117405720055,-0.37328389287,-2.48552703857,0.0266573969275,2.58834004402,-0.737093508244,0.0355197563767,-0.000281275104498,-0.00129722116981,-7.56078807171e-05,0.000503128219862,-8.22704823804e-05,7.73734645918e-05,-0.00018149317475,0.473090338066,-0.0116268887652,0.133528453935,0.0122980488442,0.938339455565,0.345401998902,-0.00807978740696
0.362126111984,0.117387466133,-0.373285204172,-2.48551678658,0.0266581233591,2.58834028244,-0.737099945545,0.0355197563767,-0.000127674924443,-0.000216858214117,-0.000564714253414,0.000346633431036,-4.47048405476e-05,6.08917434874e-05,-0.000214420128032,0.473098937214,-0.0116273315886,0.133540155059,0.0122996812305,0.938339198926,0.345402966146,-0.00806574634745
0.362132996321,0.117396309972,-0.373282253742,-2.48552203178,0.0266577005386,2.58833932877,-0.737111628056,0.0355197563767,0.000293469463941,0.000625607557595,0.000167083635461,-0.000234357707086,-0.000552156590857,-0.000117951349239,-0.000701818149537,0.473094519553,-0.0116233182,0.133534265818,0.0122985377133,0.938335390353,0.345413181025,-0.00807311851091
0.362119436264,0.117406338453,-0.373290687799,-2.48552036285,0.0266576167196,2.58834052086,-0.73711836338,0.0355197563767,-0.000107342806587,0.000461005809484,-0.000748155405745,-0.000276203907561,-1.29229110826e-05,0.00271089747548,0.000487647252157,0.473093567684,-0.0116345796002,0.133530744906,0.012299501774,0.938337931942,0.345406151972,-0.00807697969794
0.362116187811,0.117405347526,-0.373295217752,-2.48552203178,0.0266575105488,2.58834004402,-0.737129747868,0.0355197563767,3.11093026539e-06,0.000608925707638,-0.000524111033883,-0.000363386876415,-2.93672455882e-05,0.000404781167163,-0.00244727777317,0.473092752565,-0.0116382938483,0.133530637985,0.0122993260535,0.938337297591,0.345407866739,-0.00807761163775
0.362129539251,0.117389410734,-0.373286545277,-2.48552799225,0.0266583766788,2.58833909035,-0.73713862896,0.0355197563767,0.000836057413835,-0.0028969750274,0.00047270237701,0.000645566673484,-6.46135376883e-05,-0.000357251905371,-0.000143099270645,0.473092691799,-0.01162661234,0.133535233931,0.0122973552649,0.938332221575,0.345421840787,-0.00807270719009
0.362138152122,0.117313660681,-0.373281419277,-2.48551630974,0.0266570020467,2.58833122253,-0.737152338028,0.0355197563767,-0.000156064255862,-0.00805186852813,0.000125601451145,0.00287138833664,-5.11047946929e-05,-0.000112235829874,-0.000145750047523,0.473109129121,-0.0116148492061,0.13356873491,0.012297352327,0.938327709192,0.345434939737,-0.00803662760273
0.362124919891,0.117246523499,-0.373282015324,-2.4854221344,0.0266574975103,2.58830571175,-0.737168192863,0.0358500592411,-0.00344735127874,-0.0044037392363,-0.0033147179056,0.0102951172739,4.96447682963e-05,-0.000725686259102,-0.00335863931105,0.473165407575,-0.0116152227291,0.133632605562,0.012308974878,0.938327530108,0.34543661276,-0.00796753607047
0.362113595009,0.116738818586,-0.373286962509,-2.48446536064,0.0266574211419,2.58776664734,-0.737218856812,0.0358500592411,-7.12927430868e-05,-0.0162897184491,-0.000167911304743,0.0359161160886,0.00379781238735,-0.0260637607425,-0.00283448700793,0.473624214006,-0.0115745375756,0.134149912161,0.0123747967106,0.938321822419,0.345459868208,-0.00751672281247
0.362088978291,0.11595133692,-0.37329262495,-2.48256492615,0.0266560167074,2.58624005318,-0.7372366786,0.0358500592411,-0.00297118839808,-0.0410924591124,-0.00031390262302,0.0779131352901,8.22757865535e-05,-0.0766347497702,-0.000414602778619,0.474392766635,-0.011506609729,0.13504250397,0.0124215348762,0.938323282958,0.345466238215,-0.00694262701085
0.362092614174,0.114877521992,-0.373291105032,-2.48082494736,0.0266549754888,2.58417344093,-0.737243711948,0.0358500592411,-0.000198611232918,-0.0798588320613,0.000708351726644,0.111871600151,-1.07718051368e-05,-0.147271811962,-2.0920911993e-05,0.475013353903,-0.0114013699001,0.135958315678,0.0123369963305,0.938323348937,0.345476748786,-0.00655035074057
0.362092137337,0.111550554633,-0.37328928709,-2.47650146484,0.0266543664038,2.57730555534,-0.737251996994,0.0358500592411,-0.000427573162597,-0.145468831062,-0.000102391088149,0.172142699361,0.000108089268906,-0.307838588953,-0.000373499264242,0.476285978329,-0.0110939181643,0.138381647963,0.0117987180955,0.938332954451,0.345478600854,-0.00604920501938
0.362100690603,0.108491115272,-0.373281061649,-2.47331857681,0.0266522336751,2.57119345665,-0.737256467342,0.0358500592411,0.00443560862914,-0.210850894451,4.91722130391e-05,0.206536158919,-0.00385546032339,-0.419691890478,-0.000226825344726,0.477140470165,-0.010796207964,0.140481826024,0.0111595720425,0.938341421664,0.345480160915,-0.005856487163
0.362107664347,0.10437617451,-0.373271763325,-2.46944856644,0.0266516264528,2.56316876411,-0.737257778645,0.0358500592411,5.83636829106e-05,-0.275865495205,-0.000531095429324,0.25072696805,-0.000145235288073,-0.531927466393,8.02057984401e-05,0.47799556099,-0.0104534044924,0.142880695592,0.0103626376912,0.938354046333,0.34547301798,-0.00571777981044
0.362101763487,0.0985578000546,-0.373278439045,-2.46394634247,0.0266509819776,2.55158758163,-0.737260103226,0.0355112217367,-0.000936496770009,-0.334506452084,-0.000720536860172,0.323584169149,0.000140255244332,-0.688156306744,0.000547781935893,0.479206576623,-0.00996457156557,0.146469492218,0.009138583285,0.938375056958,0.345452348284,-0.00560477716334
0.362085670233,0.0859032198787,-0.373300671577,-2.45255756378,0.026650454849,2.52637219429,-0.73725694418,0.0355112217367,0.00134656846058,-0.472595363855,0.000838107953314,0.405990570784,-9.51684269239e-05,-0.936913430691,-3.21325278492e-05,0.48142509743,-0.00894180736664,0.154142500363,0.00636987813759,0.938411518225,0.345414843997,-0.00564201627876
0.362104177475,0.0777859464288,-0.373284637928,-2.44571709633,0.0266455169767,2.51045846939,-0.737249314785,0.0355112217367,-0.000956390751526,-0.543957531452,5.94790981268e-05,0.453739851713,0.000287963048322,-1.05093717575,0.00127998716198,0.482591897047,-0.00828338295929,0.158967926399,0.00456134277715,0.938415406874,0.345430899527,-0.00576295339317
0.362133473158,0.0667325481772,-0.373273462057,-2.43617415428,0.0266455169767,2.48940062523,-0.73723089695,0.0355112217367,0.0020299050957,-0.60728096962,0.000480111484649,0.533267319202,4.29259343946e-05,-1.18450558186,0.0012570656836,0.484316833442,-0.00741943845823,0.165742652699,0.00225409257098,0.938410938854,0.345469491201,-0.00553707874259
0.362151056528,0.0563973709941,-0.373264759779,-2.42710113525,0.026642402634,2.46965193748,-0.737191319466,0.0355112217367,0.00146384735126,-0.680909097195,0.000949335633777,0.601886451244,0.000278182997135,-1.29432058334,0.0104742730036,0.485871892716,-0.00664631720414,0.172196349213,0.000115174867994,0.938398749139,0.345513896215,-0.00528408523323
0.362227588892,0.0193109251559,-0.373252093792,-2.39324378967,0.0266304481775,2.40075325966,-0.736164808273,0.0355112217367,-0.000771128688939,-0.85103738308,-0.000759594666306,0.764357447624,0.00030133020482,-1.51576983929,0.0301894173026,0.491516070988,-0.00414190058669,0.196549855808,-0.00693892758232,0.938413207269,0.3454334788,-0.00286620270432
0.362233102322,0.00487778615206,-0.373265087605,-2.37904310226,0.0266151316464,2.37429451942,-0.735608696938,0.0355066247284,-0.000346122455085,-0.848352789879,-0.00090658449335,0.881314635277,-0.00205512437969,-1.58356809616,0.0351757518947,0.493669887942,-0.00335759273315,0.206060674241,-0.00928017547678,0.938413359342,0.345387159772,-0.00139817800507
0.362246453762,-0.0116515541449,-0.373270273209,-2.36190915108,0.0265985745937,2.34351229668,-0.734812021255,0.0355066247284,0.000714656431228,-0.879942476749,-0.00423611979932,0.939113795757,-0.00297145568766,-1.6394354105,0.0470306575298,0.496393995177,-0.0024387564709,0.218758140733,-0.0121952571441,0.938410320854,0.345306904442,0.000697745405375
0.362248927355,-0.0280341189355,-0.373283028603,-2.34424352646,0.0264865122736,2.31357264519,-0.733845174313,0.0355066247284,0.000401684694225,-0.913561463356,-0.000113754882477,0.992939770222,-0.019238287583,-1.68634450436,0.06413692981,0.498995876485,-0.0017028450415,0.231217014552,-0.0146745626306,0.938405183585,0.345209972434,0.00323160200851
0.362249672413,-0.0736435130239,-0.373303115368,-2.29155826569,0.0235083606094,2.23110318184,-0.730921328068,0.0355066247284,0.00219120667316,-0.93466937542,0.000304122455418,1.11805307865,-0.12733630836,-1.67464363575,0.0830964744091,0.505852521486,-0.000584769786019,0.269066026074,-0.0198148368886,0.938020842564,0.345799321493,0.0121284828339
0.362167298794,-0.102780811489,-0.373326122761,-2.25598597527,0.0180847086012,2.18033623695,-0.728209853172,0.0355066247284,-0.00529617536813,-0.944982171059,-0.00265005975962,1.16212880611,-0.212043955922,-1.58751380444,0.0891921073198,0.509382443197,-0.000953652162076,0.293497991379,-0.0208287225044,0.937580312225,0.346639565896,0.0187171976458
0.361955821514,-0.121265247464,-0.373350590467,-2.23299360275,0.013271025382,2.14936828613,-0.726282894611,0.0355066247284,-0.0145739736035,-0.93011033535,-0.00497245462611,1.14582550526,-0.274821728468,-1.50877428055,0.0842662677169,0.511342251294,-0.00173744703888,0.309989313871,-0.0205759260557,0.937249778155,0.34725227469,0.0235656959248
0.361774861813,-0.132401183248,-0.373426407576,-2.21938300133,0.00975977629423,2.13173651695,-0.725426316261,0.0355066247284,-0.0176602248102,-0.919962048531,-0.00896975770593,1.12303626537,-0.316325038671,-1.4317625761,0.0663956999779,0.51236198763,-0.00246180765614,0.319962877137,-0.0199907891417,0.936976580167,0.347792474701,0.0267516503362
0.361366719007,-0.150600075722,-0.373619168997,-2.19753432274,0.00258438498713,2.10400700569,-0.724319577217,0.0355066247284,-0.0244957823306,-0.905622959137,-0.01035934221,1.07237184048,-0.394700109959,-1.33595371246,0.0551008656621,0.513651174303,-0.00412065280897,0.336246123158,-0.0182414581775,0.936421480062,0.348934361894,0.032044838249
0.360131949186,-0.177045911551,-0.374104678631,-2.16693782806,-0.0108251916245,2.06702899933,-0.722924351692,0.0355066247284,-0.0494240373373,-0.860105514526,-0.0211425721645,0.966506481171,-0.509745717049,-1.12249016762,0.0423248969018,0.51482622752,-0.00781250229197,0.359782855808,-0.0138668997825,0.93557132275,0.35056380636,0.0402371283067
0.359129160643,-0.191455855966,-0.374623268843,-2.15130257607,-0.0200382843614,2.04876637459,-0.722363352776,0.0355066247284,-0.0667869597673,-0.872504174709,-0.0368399322033,0.856862008572,-0.571862757206,-1.00968718529,0.0315421745181,0.515054312285,-0.0107844853151,0.373036228745,-0.0102066218015,0.935056110708,0.351478691336,0.0450402478028
0.357986539602,-0.20466709137,-0.375381916761,-2.13774442673,-0.0295343361795,2.03352499008,-0.721909582615,0.0355066247284,-0.0811715647578,-0.815799236298,-0.0537256412208,0.829738616943,-0.613233804703,-0.888933479786,0.0333938486874,0.515054993551,-0.0137022087632,0.383576402545,-0.00663783224716,0.934667691326,0.352055945501,0.0490801069406
0.356210768223,-0.219550445676,-0.376637578011,-2.12348461151,-0.0418265759945,2.01795172691,-0.721416890621,0.0355066247284,-0.111430287361,-0.783855438232,-0.0762731507421,0.707367062569,-0.674819886684,-0.75794672966,0.0264963135123,0.514781559656,-0.0180195579551,0.395911572214,-0.00152385810122,0.934277458971,0.352442505159,0.0539220526083
0.349118858576,-0.251831740141,-0.382697314024,-2.09587311745,-0.0773571580648,1.9896594286,-0.721171677113,0.0355007126927,-0.20228138566,-0.595200419426,-0.187862753868,0.479410409927,-0.825590252876,-0.460580378771,-0.000389300636016,0.513203562794,-0.032619549296,0.421397469822,0.0139149992585,0.933987224531,0.351286497684,0.0638124865368
0.345137178898,-0.261837929487,-0.386472344398,-2.08802914619,-0.0926579087973,1.98222053051,-0.721191465855,0.0355007126927,-0.232700660825,-0.523148059845,-0.23238684237,0.411762595177,-0.873061716557,-0.373364835978,-0.00253394246101,0.51237078111,-0.0398651664049,0.428965969301,0.020648926452,0.934290985893,0.349673904392,0.0663485929691
0.34077745676,-0.269872099161,-0.390853285789,-2.08187556267,-0.107784382999,1.97677052021,-0.721286833286,0.0355007126927,-0.273986071348,-0.429161846638,-0.280331492424,0.323430746794,-0.895166218281,-0.290332138538,-0.0111507959664,0.511531031505,-0.0474957237344,0.434948898503,0.0273080996529,0.934789795937,0.347560880911,0.0679980797614
0.334938406944,-0.27746450901,-0.397293001413,-2.07608008385,-0.125764966011,1.97198617458,-0.721802771091,0.0355007126927,-0.312221825123,-0.334554076195,-0.364512056112,0.266442865133,-0.897169172764,-0.201931446791,-0.0486296862364,0.510398724064,-0.0579685964948,0.440748448007,0.0355359489196,0.935707919647,0.344137143108,0.0689747190128
0.324331372976,-0.284710973501,-0.410805433989,-2.06887626648,-0.153053820133,1.96774470806,-0.724436759949,0.0355007126927,-0.388632804155,-0.142132624984,-0.516806602478,0.195939674973,-0.852774679661,-0.0733396857977,-0.104598253965,0.508791494034,-0.0751662826388,0.446274354683,0.0469554692598,0.937579923469,0.337698187542,0.0685492876074
0.31842276454,-0.286094516516,-0.419061809778,-2.06614947319,-0.165618360043,1.96685492992,-0.726393043995,0.0355007126927,-0.399950236082,-0.0456863790751,-0.572829425335,0.177347034216,-0.823273718357,-0.0450994744897,-0.152514651418,0.507906935315,-0.08480689085,0.447731460763,0.05227128803,0.938842759675,0.33361282053,0.0674126895973
0.311361640692,-0.28602746129,-0.429471075535,-2.06340622902,-0.179335251451,1.96659362316,-0.729428112507,0.0355007126927,-0.431253343821,0.0375100933015,-0.640463650227,0.148236304522,-0.792195379734,-0.00125690503046,-0.200827687979,0.506848025822,-0.0962911370388,0.448478508751,0.058014113509,0.940381745447,0.32868821819,0.0654262208355
0.301754891872,-0.283800601959,-0.44413548708,-2.060587883,-0.195110693574,1.96667540073,-0.7347047925,0.0354987420142,-0.471333026886,0.167945206165,-0.746691346169,0.123276434839,-0.712665319443,0.00751621462405,-0.29475414753,0.505161069109,-0.111528862532,0.448057215029,0.0643558121617,0.942523656528,0.32201341767,0.061764430331
0.287457108498,-0.276468664408,-0.467848449945,-2.05731630325,-0.213961705565,1.96706581116,-0.744852006435,0.0354987420142,-0.515993714333,0.316206097603,-0.852805018425,0.102436572313,-0.603421747684,0.0167649518698,-0.404851198196,0.502156407603,-0.133327618446,0.445161605875,0.0711068069015,0.945761720231,0.312219099649,0.0547523886299
0.278586566448,-0.270387500525,-0.483241379261,-2.05567598343,-0.223452284932,1.96758711338,-0.752262711525,0.0354987420142,-0.526111364365,0.402728229761,-0.922559082508,0.09490275383,-0.518668234348,0.0483353026211,-0.467572599649,0.499691287135,-0.147996830499,0.442231210787,0.0745048949042,0.947971294553,0.305554996843,0.0493516862117
0.269798129797,-0.263281702995,-0.498822897673,-2.05419015884,-0.231331840158,1.96842575073,-0.760126829147,0.0354987420142,-0.554923295975,0.478970259428,-1.00579500198,0.0892655104399,-0.465264081955,0.0570943169296,-0.505100786686,0.497129580304,-0.161562171679,0.438936174146,0.0769552795146,0.95004849458,0.299246646115,0.0440134908816
0.259705841541,-0.253930598497,-0.517188966274,-2.05265879631,-0.239294111729,1.96943867207,-0.769842624664,0.0354987420142,-0.585550129414,0.555396914482,-1.04583883286,0.0867048352957,-0.423035115004,0.0538782179356,-0.567755818367,0.493760916065,-0.177079401731,0.434536361445,0.0791558089334,0.952401394321,0.292015694994,0.037319908562
0.231019720435,-0.222868844867,-0.57154238224,-2.04822731018,-0.257678806782,1.9719414711,-0.800309956074,0.0354987420142,-0.592975318432,0.698279857635,-1.15251672268,0.0846208930016,-0.312953233719,0.0639310777187,-0.662493169308,0.481102949101,-0.221820514308,0.41989659054,0.0829663954763,0.95890107121,0.270884015995,0.0157214001896
0.220980405807,-0.210754409432,-0.59151160717,-2.04678797722,-0.262681812048,1.97328424454,-0.811766862869,0.0354987420142,-0.592072188854,0.726644694805,-1.19313681126,0.0854731723666,-0.282458364964,0.0853048861027,-0.697611093521,0.476071752299,-0.236238863737,0.414741851861,0.0835025247219,0.960907250881,0.263843510375,0.00843713781793
0.209825918078,-0.1968832165,-0.614128470421,-2.04533433914,-0.267606437206,1.97503340244,-0.82511472702,0.0354987420142,-0.572946369648,0.734649956226,-1.179733634,0.0678510144353,-0.245400264859,0.109448455274,-0.721679806709,0.469478366728,-0.253172000152,0.408528427734,0.0837983515835,0.963158226422,0.25554646494,-0.000266640353592
0.198826923966,-0.182976797223,-0.636850118637,-2.04427313805,-0.271794140339,1.97728586197,-0.838985562325,0.035497430712,-0.560712456703,0.720139145851,-1.19707036018,0.0432220324874,-0.204776600003,0.123396746814,-0.73232793808,0.462272382399,-0.269725106334,0.402281640621,0.083745321432,0.965237973812,0.247435984677,-0.00882089725011
0.183324679732,-0.163228869438,-0.670091927052,-2.04348945618,-0.277041137218,1.98092079163,-0.859854459763,0.035497430712,-0.538354158401,0.677545785904,-1.1572278738,0.012710605748,-0.153414055705,0.131866857409,-0.748721063137,0.450616116378,-0.293023592618,0.393298165102,0.0830876794143,0.967965576431,0.236000766563,-0.0210408709076
0.173857286572,-0.151589289308,-0.690837025642,-2.04341316223,-0.27967107296,1.98310983181,-0.873348534107,0.035497430712,-0.500132799149,0.623963594437,-1.14522659779,-0.00239201472141,-0.146238580346,0.108427107334,-0.741807818413,0.442613685095,-0.307026553629,0.387909403283,0.0822284376642,0.969517036748,0.229063218385,-0.0283767716963
0.165843993425,-0.141891330481,-0.709025263786,-2.04344677925,-0.281857818365,1.98465931416,-0.885164856911,0.035497430712,-0.490448862314,0.590213954449,-1.12045311928,-0.00334197958,-0.121129512787,0.0933673232794,-0.732373416424,0.435160035747,-0.318925189779,0.383404423029,0.0812605079862,0.970794098107,0.223049716718,-0.0347040701906
0.156271651387,-0.130931898952,-0.730406820774,-2.0435488224,-0.28410205245,1.98606622219,-0.899755477905,0.035497430712,-0.4752125144,0.510027110577,-1.02722072601,-0.00718573387712,-0.11415669322,0.0462282858789,-0.721831798553,0.425782404154,-0.332639693623,0.378332790045,0.079795280101,0.972187691773,0.216138426692,-0.0420474189373
0.135568156838,-0.112302154303,-0.774402558804,-2.0437104702,-0.288948923349,1.9869351387,-0.932345211506,0.035497430712,-0.402215600014,0.289563715458,-0.818854212761,-0.00317674526013,-0.062778249383,0.00478321779519,-0.654822587967,0.403594609975,-0.360702560191,0.369478793604,0.0759208899519,0.974776060468,0.20216493265,-0.0563647949401
0.128785938025,-0.108156859875,-0.787544667721,-2.04376769066,-0.289915680885,1.98694753647,-0.943218946457,0.035497430712,-0.386523246765,0.20641130209,-0.730033397675,-0.000778628513217,-0.0627015158534,-0.0023089107126,-0.61190110445,0.396862474602,-0.36830453327,0.367575168445,0.0745550776541,0.975458695093,0.198410690912,-0.059624424438
0.121961630881,-0.105507723987,-0.800507247448,-2.04384207726,-0.291225284338,1.98692893982,-0.954441964626,0.0354967750609,-0.33872038126,0.0935868322849,-0.641305685043,-0.00931475311518,-0.069354750216,-0.000231524012634,-0.57206183672,0.389856259703,-0.375866164515,0.366148699326,0.0732772318759,0.976105364689,0.194831365631,-0.0623658798982
0.115700609982,-0.10472574085,-0.811716854572,-2.043872118,-0.292677074671,1.9869145155,-0.964639365673,0.0354967750609,-0.304980546236,-0.00312367244624,-0.544942557812,0.000262615125393,-0.0830490291119,-0.000574775796849,-0.509589791298,0.382772409819,-0.383201189115,0.365358636313,0.0721671835783,0.976725173261,0.191472452589,-0.0643283229015
0.107484526932,-0.106124997139,-0.824866831303,-2.04367089272,-0.294502675533,1.98694109917,-0.97887891531,0.0354967750609,-0.260962247849,-0.108877159655,-0.369406610727,0.00617686938494,-0.0405169278383,-0.00121626176406,-0.47719797492,0.374363213504,-0.391603024374,0.365390001705,0.0710380646062,0.977342840584,0.188357751336,-0.0653905386329
0.103356845677,-0.108729690313,-0.8303642869,-2.04346418381,-0.294980078936,1.98691403866,-0.986769556999,0.0354967750609,-0.224587634206,-0.188340812922,-0.288438737392,0.0169134698808,-0.0222080685198,0.000431783788372,-0.451891988516,0.370495914569,-0.395309330976,0.366104694506,0.0705031741107,0.977579138686,0.187534275335,-0.0648014298879
0.0997703671455,-0.112358622253,-0.834895074368,-2.04314208031,-0.295283168554,1.98694705963,-0.994630038738,0.0354967750609,-0.171825319529,-0.209624156356,-0.221210673451,0.0191462524235,-0.0129278488457,0.000365205283742,-0.422975093126,0.367203265918,-0.398436320219,0.36724096919,0.0701320181529,0.977723226627,0.187354890117,-0.0635368947014
0.0972272083163,-0.116477318108,-0.838240861893,-2.04267024994,-0.295463263988,1.98693645,-1.00187754631,0.0354954600334,-0.11615011096,-0.24357187748,-0.156151115894,0.0344110429287,-0.00927179399878,-0.00132082682103,-0.397558122873,0.364783916745,-0.400737165841,0.368644530302,0.0699541077284,0.977738021151,0.187903539379,-0.0618631101026
0.0950988531113,-0.130277574062,-0.8413195014,-2.03978657722,-0.295774459839,1.98693871498,-1.01929974556,0.0354954600334,0.0120247406885,-0.298524558544,0.00614741025493,0.0843860805035,-0.000152293418068,-0.000206122320378,-0.322313606739,0.36265063708,-0.403365242894,0.374341272808,0.0710014047796,0.97702683876,0.193248604756,-0.0550666261676
0.0956481993198,-0.135259836912,-0.840833723545,-2.03810667992,-0.295771211386,1.98692989349,-1.02459537983,0.0354954600334,0.0529086627066,-0.281266659498,0.0511013902724,0.111644253135,-0.000162019525305,0.00140557251871,-0.298596143723,0.36313955644,-0.403378018459,0.37678911412,0.071832418452,0.976568380681,0.196015920262,-0.0522691133664
0.0969167053699,-0.140058577061,-0.839409947395,-2.03583049774,-0.295770734549,1.98695325851,-1.02984023094,0.0354954600334,0.083208963275,-0.25543603301,0.0958133339882,0.139647781849,0.000297645456158,0.00218033231795,-0.278149366379,0.364388376118,-0.402918933209,0.379531621772,0.0730236641441,0.975926236195,0.199504750628,-0.0493293031882
0.103052660823,-0.151740908623,-0.831591010094,-2.0280854702,-0.295764535666,1.98729324341,-1.04230415821,0.0354954600334,0.160662516952,-0.181891322136,0.205141812563,0.16495680809,0.000255778926658,0.0272945743054,-0.211734116077,0.370524884015,-0.399637647491,0.387486341264,0.0773394614678,0.973562165853,0.210916610705,-0.0413460994763
0.105505384505,-0.154448851943,-0.828363835812,-2.02564072609,-0.295760184526,1.98770701885,-1.04527854919,0.0354954600334,0.170151129365,-0.17699791491,0.223265632987,0.167428165674,-0.000177531226655,0.0332425609231,-0.189040794969,0.373252001398,-0.397998849541,0.389983656409,0.079005405374,0.972627582136,0.215030155042,-0.038932820429
0.108490653336,-0.157222986221,-0.824356377125,-2.02277612686,-0.295760810375,1.98832058907,-1.04842352867,0.0354954600334,0.177541956306,-0.152530193329,0.249525502324,0.169812217355,6.04862943874e-05,0.042781110853,-0.17952299118,0.376411561846,-0.396051153718,0.392640164986,0.0808982385142,0.971557865349,0.219557318443,-0.0364056712175
0.112226359546,-0.15973469615,-0.819035828114,-2.01946854591,-0.295749157667,1.98922300339,-1.05160701275,0.0354954600334,0.193700730801,-0.102616891265,0.280511945486,0.160988017917,0.000452653301181,0.0491270981729,-0.150255396962,0.380277164998,-0.393546929557,0.395426397027,0.0830767529024,0.970273129564,0.224775734537,-0.0338256711824
0.118264496326,-0.162132099271,-0.810485184193,-2.01538777351,-0.295737087727,1.99074864388,-1.05503380299,0.0354954600334,0.225375503302,-0.070790015161,0.2979798913,0.124892391264,0.000489938422106,0.0553606636822,-0.0834364295006,0.386914300957,-0.388776493858,0.399138419781,0.0863409304627,0.968097697488,0.23325363966,-0.030411036216
0.122190892696,-0.163040295243,-0.805206477642,-2.01326656342,-0.295690149069,1.99168753624,-1.05636441708,0.0354954600334,0.24232390523,-0.0328962728381,0.312297254801,0.118781216443,0.00698746554554,0.0595170967281,-0.0748426169157,0.391377477241,-0.385312259197,0.401163227884,0.0882902237611,0.966660742856,0.238658996089,-0.0285259160872
0.125660181046,-0.163438484073,-0.800838649273,-2.01173663139,-0.295607030392,1.9925352335,-1.05743455887,0.0354954600334,0.246246233582,-0.0150712635368,0.313598692417,0.0912406221032,0.0144039848819,0.059044893831,-0.0665675550699,0.395458130996,-0.381973076712,0.402664047604,0.0898814292541,0.965310737436,0.243645448751,-0.0270814301878
0.130875483155,-0.16364172101,-0.794172465801,-2.00995659828,-0.295298695564,1.99380397797,-1.05866420269,0.0354954600334,0.248514264822,0.000728582206648,0.325105667114,0.0698090046644,0.019130025059,0.0535214133561,-0.0388652682304,0.399511987643,-0.378443982304,0.403866590791,0.0912573395403,0.963968658255,0.248533920683,-0.0258343539667
0.144132494926,-0.163021743298,-0.776815295219,-2.00863265991,-0.293959617615,1.99677121639,-1.0594419241,0.0354941450059,0.288062959909,0.0312558524311,0.360558450222,-0.00540996901691,0.032260786742,0.0384294465184,-0.000134617992444,0.411494779111,-0.366482968391,0.405730156693,0.0940540553921,0.95993400499,0.262956406199,-0.0231185825203
0.149301365018,-0.162317246199,-0.770489811897,-2.0087480545,-0.293395996094,1.99728226662,-1.05944120884,0.0354941450059,0.285529434681,0.0408085174859,0.344532668591,-0.00829319097102,0.0373951010406,0.01353833545,-0.000245700473897,0.415812166324,-0.36162714317,0.405892901514,0.0946064666005,0.958389541429,0.268376335171,-0.0226549281324
0.163635954261,-0.159652009606,-0.752872824669,-2.00973153114,-0.290331482887,1.99739325047,-1.05943059921,0.0354941450059,0.29961925745,0.0674574896693,0.380057454109,-0.036175172776,0.0953927636147,0.000106524763396,0.00010179993842,0.427311260292,-0.347417031163,0.405542469333,0.0948806954053,0.954104883209,0.283201562766,-0.0218723572695
0.168325603008,-0.158625140786,-0.746655106544,-2.0104162693,-0.288615584373,1.9973949194,-1.05942213535,0.0354941450059,0.290932953358,0.0618625432253,0.389759778976,-0.0500587783754,0.121020980179,0.000244372233283,0.00151357613504,0.431581411931,-0.341679974127,0.405130868015,0.094566548583,0.952469307382,0.288783607081,-0.0215270609963
0.173467427492,-0.157463520765,-0.739686608315,-2.01139855385,-0.286662489176,1.99739205837,-1.05940377712,0.0354941450059,0.29118719697,0.0669671744108,0.384012341499,-0.0632345229387,0.0911124497652,0.00045865503489,0.00138440413866,0.434781291656,-0.337208006356,0.40472415174,0.0942489155634,0.95119633968,0.293067076863,-0.0213155680954
0.178795546293,-0.1562974751,-0.732722818851,-2.01261663437,-0.285181581974,1.99738299847,-1.05935883522,0.0354941450059,0.295134484768,0.062477208674,0.391444474459,-0.0665874257684,0.0857827439904,-0.00130588002503,-8.12131038401e-05,0.439035299839,-0.331039119444,0.404052515906,0.0938888036503,0.949366361653,0.299057967948,-0.0212775798965
0.183877125382,-0.155183747411,-0.72602558136,-2.01392149925,-0.283407002687,1.99737381935,-1.05924856663,0.0354941450059,0.297812491655,0.0595862306654,0.396897375584,-0.0834595486522,0.117113903165,-0.000756977533456,0.00742803141475,0.443036105108,-0.324982337661,0.40331584403,0.0933673932476,0.947615210172,0.304728489169,-0.021177603897
0.18948546052,-0.153999939561,-0.718501389027,-2.01555681229,-0.280767023563,1.99735951424,-1.05906915665,0.0354928337038,0.28805539012,0.0604016855359,0.398859471083,-0.0897431373596,0.146606445312,-0.000667028944008,0.0108606759459,0.447167136103,-0.318419353334,0.402442718096,0.092527512431,0.945806496514,0.310567447076,-0.0208947625134
0.198158755898,-0.152140051126,-0.705963492393,-2.0184469223,-0.27655467391,1.99730074406,-1.05860865116,0.0354928337038,0.292981892824,0.0600176565349,0.41424626112,-0.104051418602,0.143136486411,-0.00668482342735,0.017378911376,0.453568763277,-0.307676792893,0.400927689493,0.0911021882582,0.942832204991,0.319914635282,-0.0205535968986
0.203203395009,-0.151119291782,-0.698870420456,-2.0202870369,-0.273987412453,1.99718344212,-1.05826306343,0.0354928337038,0.303935229778,0.0592033825815,0.422211229801,-0.112201400101,0.140459880233,-0.00915138609707,0.0234572459012,0.457069239143,-0.301416419419,0.399955272513,0.0901278954574,0.941120798592,0.325196323784,-0.0203949896603
0.208274140954,-0.150128409266,-0.691704273224,-2.02228164673,-0.271641910076,1.99703657627,-1.05790865421,0.0354928337038,0.292752206326,0.0544880926609,0.420531988144,-0.120896853507,0.140511497855,-0.00889016594738,0.0172509942204,0.460458871061,-0.295079330432,0.398916703185,0.0891659277218,0.93934419508,0.330555746066,-0.0203671041504
0.213904097676,-0.14923132956,-0.683720111847,-2.0247232914,-0.268755823374,1.99689948559,-1.057549119,0.0354928337038,0.298303037882,0.0479343123734,0.417690932751,-0.135384351015,0.170537129045,-0.0042761801742,0.015797521919,0.464088152183,-0.287915188338,0.397718586405,0.0879403856037,0.937354732588,0.336486528654,-0.0202338724905
0.227932631969,-0.147527515888,-0.662836194038,-2.03167843819,-0.260784506798,1.99672102928,-1.05597436428,0.0354928337038,0.296639353037,0.0271852891892,0.43902528286,-0.162866324186,0.17837741971,-0.00733569124714,0.0524943396449,0.472757659825,-0.269182821812,0.394531348247,0.0844685600147,0.932251932839,0.351260959112,-0.0196757306309
0.23309738934,-0.147060856223,-0.655255913734,-2.03454470634,-0.257672995329,1.99656653404,-1.05488634109,0.0354928337038,0.301442623138,0.0239407233894,0.449772804976,-0.169415697455,0.192632958293,-0.00559019390494,0.077589392662,0.475644494034,-0.26220258445,0.393241766185,0.0829948203685,0.930445365665,0.356374744593,-0.0195018564546
0.238604709506,-0.146597489715,-0.647193074226,-2.03773880005,-0.254030734301,1.99640786648,-1.05333793163,0.0354921780527,0.309954732656,0.0206976830959,0.452912539244,-0.178275078535,0.195247337222,-0.0124609209597,0.0906321629882,0.478587384691,-0.254669391739,0.391799870322,0.081267144291,0.92859302128,0.361579409589,-0.0192609016887
0.244739279151,-0.146243155003,-0.638062298298,-2.04148197174,-0.250071436167,1.99622809887,-1.05146360397,0.0354921780527,0.301116347313,0.0161627568305,0.46349388361,-0.195500254631,0.20170468092,-0.00123022880871,0.103356853127,0.481702671367,-0.246162042918,0.390173853167,0.0793341899263,0.926484995875,0.367381584148,-0.0190370701483
0.253993451595,-0.14570145309,-0.624192714691,-2.04745721817,-0.243754401803,1.99614489079,-1.04789209366,0.0354921780527,0.31221100688,0.0175492074341,0.456645429134,-0.20243537426,0.21577064693,1.07153555291e-05,0.13863492012,0.486111575769,-0.233129806055,0.387565476254,0.0762560112366,0.923381243178,0.375769394804,-0.0186939056321
0.260041892529,-0.145500376821,-0.615421295166,-2.05141162872,-0.239569887519,1.99611699581,-1.04515635967,0.0354921780527,0.310415565968,0.00524102151394,0.46229326725,-0.210544988513,0.224272921681,0.00167709519155,0.163448289037,0.488854241646,-0.224268473384,0.385795752067,0.0740978099673,0.921352942781,0.381154918932,-0.018417297353
0.265003502369,-0.145426169038,-0.608161747456,-2.0547618866,-0.235887140036,1.99612784386,-1.042355299,0.0354921780527,0.321763694286,0.00354626821354,0.455878973007,-0.20973329246,0.243413060904,0.00031713876524,0.19087575376,0.490755201792,-0.217699295739,0.384487787934,0.0724249678725,0.919963661702,0.384827760832,-0.0181405444144
0.270409971476,-0.145250141621,-0.600372552872,-2.05846142769,-0.231608524919,1.99612557888,-1.03876626492,0.035489551723,0.315534770489,0.0107939587906,0.46629050374,-0.22186306119,0.266186356544,-0.000576764286961,0.220539018512,0.492828128893,-0.210055932323,0.382890295508,0.0703573317464,0.918477029096,0.388756494629,-0.0178376135561
0.277499824762,-0.145045369864,-0.59002405405,-2.06357240677,-0.225755482912,1.9961155653,-1.03359627724,0.035489551723,0.31494858861,0.00378765398636,0.462095201015,-0.241213947535,0.257202982903,0.000665134401061,0.237433135509,0.495433905948,-0.199418502576,0.38057624738,0.0673565929564,0.91650382064,0.393926144336,-0.0174936739169
0.283485203981,-0.144947603345,-0.581422924995,-2.06818652153,-0.220594137907,1.99612295628,-1.02863490582,0.035489551723,0.320892870426,0.00848290231079,0.455729961395,-0.247889444232,0.285906881094,0.00175524747465,0.281503260136,0.497182687997,-0.191262272762,0.378690665857,0.0648928251356,0.915131989656,0.397522247371,-0.0172749899943
0.291574478149,-0.144712299109,-0.570215463638,-2.07444596291,-0.213566496968,1.99611186981,-1.02132499218,0.035489551723,0.331239402294,0.00445308210328,0.447469443083,-0.260624945164,0.272663444281,0.00108911143616,0.316128313541,0.49936363874,-0.179804654438,0.375927492951,0.0613239427349,0.913347038562,0.402174002625,-0.0171065043322
