imanlab/tactile_prediction_flat_dataset/train/data_sample_2021-11-24-16-13-18/robot_state.csv
position_panda_joint1,position_panda_joint2,position_panda_joint3,position_panda_joint4,position_panda_joint5,position_panda_joint6,position_panda_joint7,position_panda_finger,velocity_panda_joint1,velocity_panda_joint2,velocity_panda_joint3,velocity_panda_joint4,velocity_panda_joint5,velocity_panda_joint6,velocity_panda_joint7,ee_state_position_x,ee_state_position_y,ee_state_position_z,ee_state_orientation_x,ee_state_orientation_y,ee_state_orientation_z,ee_state_orientation_w
-0.197198823094,0.137784153223,0.149125397205,-2.52259254456,0.0397205613554,2.70033073425,-0.864376723766,0.0555211678147,-1.16452738439e-05,-0.000436583155533,-0.000400422897656,-0.000651266309433,-2.93281209451e-05,6.7925604526e-05,-0.00023875811894,0.472666431935,-0.0184498957073,0.117934317761,-0.00803294435332,0.924751243261,0.379539402887,0.0268412226128
-0.197198271751,0.13777770102,0.1491279006,-2.52259421349,0.0397214628756,2.70033025742,-0.864378213882,0.0555211678147,-0.000156249428983,-0.00438482267782,0.000176397545147,-0.000520582427271,-2.97558744933e-05,-0.000690249551553,0.000135980371851,0.472667147546,-0.0184486484098,0.117937000444,-0.00803174809535,0.924750422643,0.379541268703,0.0268434699329
-0.197200357914,0.137771561742,0.149127364159,-2.52259421349,0.0397209376097,2.70033097267,-0.86437690258,0.0555211678147,-1.51173890117e-05,-0.000940688652918,-9.84114085441e-05,-3.0097529816e-05,4.52271269751e-05,0.000147671555169,0.000217163251364,0.472668543454,-0.0184501828474,0.117939931631,-0.00802973171083,0.92475100142,0.379539702512,0.0268462787301
-0.197205409408,0.137773767114,0.149123325944,-2.52259302139,0.0397216193378,2.70033097267,-0.864377319813,0.0555211678147,0.000160201409017,-4.37844792032e-05,0.000387203210266,-0.000209398029256,0.000133256355184,9.6462907095e-05,0.000121089928143,0.472668503889,-0.0184545146767,0.117939275665,-0.00802986817233,0.924752772981,0.379535413592,0.0268458487345
-0.197206452489,0.137781977654,0.149125352502,-2.52259588242,0.0397215746343,2.70033073425,-0.864377975464,0.0555211678147,0.000193284839042,0.000363581784768,0.000288335955702,0.000427287101047,-2.22910830416e-06,0.00113368371967,0.000451042345958,0.472665274453,-0.0184535561573,0.117934441608,-0.00803291368942,0.924752585968,0.379536140498,0.0268411024643
-0.197204366326,0.137787505984,0.149124473333,-2.52259612083,0.0397216640413,2.70033073425,-0.864377975464,0.0555211678147,0.000206377430004,-0.000399234064389,5.57038911211e-05,0.000122106052004,-7.63315329095e-05,-0.000141323325806,-1.19255137179e-05,0.472664002956,-0.0184527651986,0.117931767239,-0.00803447808714,0.924752441609,0.379536631589,0.0268386636354
-0.197200894356,0.137785166502,0.149125561118,-2.52259659767,0.0397214703262,2.70033073425,-0.864378154278,0.0555211678147,8.41171204229e-05,-0.000453731772723,0.000185721204616,0.00047438609181,-8.14930899651e-05,0.000120505981613,-8.37624393171e-05,0.472664340315,-0.0184506690254,0.117932705019,-0.00803401389931,0.924751486675,0.379538914133,0.0268394272557
-0.197199776769,0.137778177857,0.149125605822,-2.52259802818,0.0397218540311,2.70033097267,-0.864379167557,0.0555211678147,0.000567279581446,0.000296715734294,-0.0012388904579,-9.18753503356e-05,-4.01110482926e-05,-2.30204095715e-05,-5.46810224478e-05,0.47266514927,-0.0184503662107,0.117935495075,-0.0080324119903,0.924751063124,0.379539809954,0.026841832117
-0.197196170688,0.137773394585,0.149127095938,-2.52259898186,0.0397212654352,2.70033073425,-0.864380061626,0.0555211678147,-0.000917460012715,-3.71523856302e-05,-9.8536736914e-05,0.000147541853948,2.58971285803e-05,0.000457444839412,0.000758167007007,0.472665716571,-0.0184480942755,0.117937389178,-0.00803136832499,0.924749780963,0.379542854316,0.0268432701377
-0.197203710675,0.137772485614,0.149123445153,-2.52259922028,0.0397213585675,2.70033168793,-0.86437869072,0.0555211678147,-0.000429570267443,0.000179610593477,-0.0010891839629,-0.0016829634551,0.000153145709191,4.25899124821e-05,-0.000177736466867,0.472665762641,-0.0184535233097,0.117937785659,-0.0080306283463,0.924752162573,0.379537024474,0.026843873836
-0.197209775448,0.137778431177,0.149120330811,-2.52259874344,0.039722122252,2.70033049583,-0.864378511906,0.0555211678147,-0.000385141698644,0.000680049473885,-0.000137368333526,0.000110187582322,-9.27091750782e-05,4.11736473325e-05,0.000193642845261,0.472664313497,-0.018457666475,0.117935027696,-0.00803230024798,0.924754138338,0.379532373043,0.026841074398
-0.197206497192,0.137781947851,0.149119928479,-2.52259922028,0.0397193804383,2.70033073425,-0.864378333092,0.0555211678147,0.000228738237638,0.000231520883972,0.000323032552842,0.000220017202082,-7.82437564339e-06,-8.30832505017e-06,-0.00027825665893,0.472663424443,-0.0184561965597,0.117933236381,-0.0080327844433,0.924753217308,0.379534738383,0.0268392156501
-0.19719825685,0.137774288654,0.149122998118,-2.52259850502,0.0397216007113,2.70032978058,-0.864378392696,0.0555211678147,-4.62994721602e-05,-0.000231768950471,-0.00131171231624,0.000638282683212,-4.61752460978e-05,-0.00559289380908,-0.000118020201626,0.472665433117,-0.0184510698764,0.117937003627,-0.00803150565026,0.924751335247,0.379539112959,0.0268425835938
-0.197199270129,0.137775868177,0.149120867252,-2.52260017395,0.0397218056023,2.70033049583,-0.864377975464,0.0555211678147,-0.000206224765861,0.00108083290979,-0.000423279532697,0.00021410145564,-3.70427369489e-05,0.000100413839391,-0.000328829628415,0.472664322294,-0.0184524999623,0.117935732045,-0.00803201731606,0.924752074285,0.37953738246,0.0268414381717
-0.197202757001,0.137776270509,0.14912314713,-2.52259802818,0.039721544832,2.70033097267,-0.864379525185,0.0555211678147,0.000530501711182,-0.000293172459351,-0.000192259874893,-0.000626255990937,-5.93692057009e-05,-1.84391974472e-05,-1.80598726729e-06,0.472665437001,-0.0184530818708,0.117936360705,-0.008031603774,0.924751950229,0.379537616489,0.0268425267175
-0.19720441103,0.137777492404,0.149121120572,-2.52259969711,0.0397221669555,2.70033049583,-0.864379346371,0.0555211678147,6.8793851824e-05,0.000661133264657,-0.000200336391572,-0.00048645446077,-2.87838647637e-05,-5.98318656557e-05,-0.000161163363373,0.472664015764,-0.0184548417916,0.117935070864,-0.00803242119201,0.924752869132,0.379535471344,0.0268409559387
-0.197202220559,0.137779727578,0.14912314713,-2.52260041237,0.0397222973406,2.70033121109,-0.864378988743,0.0555211678147,0.00040020988672,-0.00081339647295,0.000343962921761,-0.000186901786947,8.17872860353e-05,0.0038024301175,4.53494540125e-05,0.472663539527,-0.0184525995381,0.117933938982,-0.00803317913006,0.924752138909,0.379537289283,0.0268401815135
-0.197199463844,0.137777239084,0.149122029543,-2.52259802818,0.0397207327187,2.70033097267,-0.864378273487,0.0555211678147,0.000577320461161,-0.000321854226058,-0.000171548759681,0.000268255593255,-0.00010025294614,4.08473533753e-05,-0.000436676607933,0.472665533438,-0.0184517026613,0.117936078973,-0.00803160006214,0.924751402232,0.379538972836,0.0268422288915
-0.197194755077,0.137776851654,0.149123504758,-2.52259659767,0.0397215373814,2.70033073425,-0.864380061626,0.0555211678147,0.000231176178204,5.96911449975e-05,4.5082952056e-06,-0.000339341320796,-0.000113818081445,-1.11327944978e-05,2.36227515416e-05,0.472666157761,-0.0184491389479,0.117936568037,-0.00803163877525,0.924750256312,0.37954172313,0.0268428075208
-0.19719709456,0.137779474258,0.149123489857,-2.52259945869,0.0397221371531,2.70033073425,-0.864378929138,0.0555211678147,-0.000499564863276,0.000120048571262,-0.000141467608046,0.000215796535485,0.000135074413265,7.4355819379e-05,-0.000454598630313,0.472664085561,-0.0184500398615,0.117934346749,-0.00803307662654,0.924751076785,0.379539858066,0.0268404822385
-0.197206959128,0.137778997421,0.149119257927,-2.52260112762,0.0397210195661,2.70033121109,-0.864377439022,0.0555211678147,-0.000249824661296,7.23914126866e-05,-0.000148852297571,-0.000236811843934,0.000124334430438,0.000112475987407,7.69707694417e-05,0.472663141884,-0.0184567979639,0.117933990462,-0.0080325542985,0.92475385216,0.379533146436,0.026839922247
-0.197206959128,0.137778267264,0.14911903441,-2.52260160446,0.0397220142186,2.70033121109,-0.864378511906,0.0555211678147,5.1717273891e-05,-0.0002280670451,0.000440837990027,-0.000425707898103,9.03998952708e-05,0.000109089509351,-0.000403090234613,0.47266301895,-0.0184567390391,0.117934278548,-0.0080325524609,0.924753785999,0.379533290808,0.0268401608345
-0.197204872966,0.137773051858,0.14911827445,-2.52260112762,0.0397203713655,2.70033073425,-0.864379882812,0.0555211678147,0.00011290198745,-0.000851948047057,0.000120616714412,-0.000508110853843,3.53709147021e-05,0.000179969487363,-7.60367256589e-05,0.472664307721,-0.0184565499196,0.117936711218,-0.00803081323436,0.924752999727,0.379535106821,0.0268420921032
-0.197199761868,0.137774318457,0.149120733142,-2.52259683609,0.0397213622928,2.70033097267,-0.864376723766,0.0555218234658,0.000330831942847,0.000410321867093,-0.000277321669273,0.000257106323261,-7.22470140317e-05,0.00207901606336,-0.000342331361026,0.472666460758,-0.0184529900192,0.117937662912,-0.00803068104236,0.9247523038,0.379536687588,0.0268437559881
-0.197198107839,0.137777537107,0.149118945003,-2.52260041237,0.0397210195661,2.70033073425,-0.86437857151,0.0555218234658,0.000251938181464,0.000353437382728,6.8425462814e-05,-0.000823982350994,-0.000178496207809,-0.00193543848582,0.000125898019178,0.472663872623,-0.0184528442841,0.117934872383,-0.00803218868754,0.924751994619,0.37953763221,0.0268406000754
-0.197199627757,0.137780293822,0.149120524526,-2.52260518074,0.0397210381925,2.700330019,-0.864379942417,0.0555218234658,-0.000153353423229,4.81977876916e-05,0.000495744985528,0.000391420675442,-2.29493671213e-05,5.1510596677e-05,-0.000239305343712,0.472660673906,-0.0184525437705,0.117931845673,-0.00803424858298,0.924751891847,0.379538091191,0.026837033977
-0.197201639414,0.137777045369,0.14911942184,-2.52259898186,0.0397218801081,2.70033073425,-0.864376783371,0.0555218234658,0.000517594104167,-0.00232519512065,-6.26159380772e-05,0.000323619140545,8.29621567391e-05,4.14976057073e-05,-0.000118645373732,0.472664661794,-0.0184543319611,0.117935605625,-0.00803193246313,0.924753037589,0.379535028796,0.0268415560315
-0.197206526995,0.13777603209,0.14911621809,-2.52259993553,0.0397216044366,2.70033121109,-0.864378273487,0.0555218234658,-0.000485438067699,-0.00018136476865,0.000335381890181,-0.000486649485538,0.00010287835903,8.59622887219e-05,0.000191628190805,0.47266431788,-0.0184582607324,0.117935759995,-0.0080313789049,0.924754235279,0.379532115702,0.0268416489945
-0.197203576565,0.137780860066,0.149118587375,-2.5226020813,0.0397215522826,2.70033240318,-0.864378750324,0.0555218234658,4.61304880446e-05,0.00222161086276,-6.69137371005e-05,0.000184303775313,-3.16188379657e-05,0.00431442912668,-6.76064664731e-05,0.472662542498,-0.0184551655971,0.117932657841,-0.00803303687524,0.924752924731,0.379535449204,0.0268391691384
-0.197200059891,0.137777477503,0.149119541049,-2.52260136604,0.0397220291197,2.70033335686,-0.864379405975,0.0555218234658,0.000427140854299,0.000188195786905,-9.39432939049e-05,9.71252884483e-05,-0.000166783400346,0.000214962245082,0.00022252270719,0.47266393431,-0.0184534855185,0.117934828362,-0.00803198409296,0.924752255157,0.379536939117,0.0268414854929
-0.197199732065,0.13777948916,0.149120002985,-2.52260136604,0.0397207550704,2.7003364563,-0.864381372929,0.0555218234658,0.000107959705929,-0.000370290712453,-0.000211235383176,0.000273852638202,-1.40051733979e-05,8.00327034085e-05,0.00024388753809,0.472664189545,-0.0184531018918,0.117934192448,-0.00803158555383,0.924751528148,0.379538687598,0.0268419284114
-0.197200655937,0.137775927782,0.149118855596,-2.52259969711,0.0397200807929,2.70033669472,-0.864383280277,0.0555218234658,-0.000159755916684,0.00035159647814,-0.00024775401107,-0.000125090795336,0.00013602389663,0.000101415287645,4.94512532896e-05,0.472665807402,-0.0184543281839,0.117936448216,-0.00802993579846,0.924751385221,0.37953891145,0.0268441807632
-0.197201326489,0.137777552009,0.149120017886,-2.52259683609,0.0397219322622,2.7003364563,-0.864383041859,0.0555218234658,-0.000314639793942,0.000648901681416,-7.85504598753e-05,0.000120420190797,-4.23594974563e-05,0.000106623978354,0.000150152642163,0.472666907863,-0.0184540613498,0.117936675742,-0.00803028136698,0.924751640504,0.379538230676,0.0268449083676
-0.197200879455,0.137780144811,0.149118840694,-2.5226020813,0.0397215969861,2.70033788681,-0.864383399487,0.0545401051641,-0.000412848195992,0.000890073308256,-0.00110285717528,-0.000252785801422,5.41936096852e-05,-0.000127284351038,0.000245410134085,0.472663940426,-0.0184541907627,0.117933763984,-0.00803163765456,0.924751727387,0.379538194563,0.0268420200833
-0.197204425931,0.137782260776,0.149117395282,-2.52260565758,0.0397220104933,2.70033812523,-0.864383637905,0.0545401051641,0.000260691944277,0.000120872537082,-0.000294023571769,0.00022219447419,-5.82162210776e-05,8.81685482454e-05,-0.000229982004385,0.47266158553,-0.0184564200839,0.11793151001,-0.00803287679652,0.924752734862,0.379535884031,0.0268396101244
-0.197200089693,0.137777790427,0.149119451642,-2.52260017395,0.0397211350501,2.70033693314,-0.864382982254,0.0545401051641,0.000197442714125,0.00275324448012,-0.000185406854143,-0.000241883870331,-2.61614968622e-05,0.000239380722633,-0.00429859757423,0.472665245631,-0.0184536607347,0.117935441798,-0.00803076458409,0.924751423027,0.3795388562,0.026843411598
-0.197200223804,0.137778222561,0.149119630456,-2.52260184288,0.0397217348218,2.70033884048,-0.864382326603,0.0545401051641,-0.000622118997853,-6.14931268501e-05,-9.35625030252e-06,-7.76367087383e-05,-0.00010848549573,-2.0386196411e-05,0.000189049664186,0.47266470437,-0.0184535960329,0.117934845319,-0.00803094383334,0.924751648891,0.379538303981,0.0268433848324
-0.197202309966,0.13777948916,0.14911852777,-2.52260017395,0.0397210419178,2.70033860207,-0.86438280344,0.0545401051641,-0.000557878986001,6.22851657681e-05,0.000110677545308,0.000167677353602,1.01722962427e-05,-1.86290253623e-05,0.000916967575904,0.472665010444,-0.0184547504189,0.117934856718,-0.00803080030777,0.924751958911,0.379537556014,0.0268433230752
-0.197201550007,0.137774094939,0.14911711216,-2.5226020813,0.0397215262055,2.70033788681,-0.864383757114,0.0545401051641,-0.000392616173485,0.000108534914034,-0.00028329459019,0.000222070651944,-1.6697726096e-05,1.77921265276e-05,0.000127397026517,0.472665162264,-0.0184556229559,0.117936572271,-0.00802981387403,0.924752026619,0.379537330305,0.0268444769127
-0.197202667594,0.137773796916,0.149116635323,-2.52259588242,0.0397218726575,2.70033860207,-0.864383220673,0.0545401051641,0.000265254260739,-8.77289930941e-05,0.000279212981695,-4.44464203611e-05,4.78598412883e-05,4.94915839226e-05,-0.000518635264598,0.472668545222,-0.0184566142073,0.11793893483,-0.00802827842775,0.924752422522,0.379536167206,0.0268477420035
-0.197202280164,0.137779250741,0.149117797613,-2.52260041237,0.0397218316793,2.70033860207,-0.864382266998,0.0545401051641,-4.0196810005e-05,-3.82691832783e-05,9.98077575787e-06,-0.000160921088536,0.000107934749394,-5.53825921088e-05,-0.000531193218194,0.472665092666,-0.0184554760277,0.117934821471,-0.00803084224541,0.924752413421,0.379536438524,0.0268434528376
-0.197199702263,0.137783750892,0.149118259549,-2.52260637283,0.0397203341126,2.70033884048,-0.864382684231,0.0545401051641,-0.000217457258259,0.000285399990389,0.000186681703781,1.81516188604e-05,-0.000105861501652,-4.53035718238e-05,-4.97567925777e-05,0.472661175965,-0.0184536696109,0.117930670543,-0.00803305934953,0.924751618966,0.379538652445,0.0268388554109
-0.197199732065,0.137777537107,0.149118065834,-2.5226020813,0.0397216677666,2.70034050941,-0.864384829998,0.0545190945268,-0.000782104267273,0.000232124730246,3.58027546099e-06,0.000190195365576,-0.000183979558642,-1.554348637e-05,-0.000226658012252,0.472665054691,-0.0184542001185,0.117935227823,-0.00803027266052,0.924751349182,0.37953898705,0.0268442526416
-0.197205096483,0.1377723068,0.149115234613,-2.52260160446,0.0397218763828,2.70034360886,-0.864384889603,0.0545190945268,-0.000165062971064,-0.000195225802599,-0.000489946512971,4.76502737001e-06,-0.000115025475679,0.000219383087824,0.0031925062649,0.47266684804,-0.0184581178766,0.117938053872,-0.0080278788121,0.924752728207,0.379535424206,0.02684783589
-0.197205469012,0.137769043446,0.14911352098,-2.52259612083,0.0397219508886,2.70034646988,-0.86438781023,0.0545190945268,-0.00339904450811,-7.62950367061e-06,0.000176570567419,0.000447645579698,6.01387037023e-05,0.000111996771011,-0.000154233523062,0.472670983164,-0.0184598507921,0.117941801328,-0.00802491287971,0.924752583237,0.379535471922,0.0268530408954
-0.197202146053,0.137777045369,0.149113401771,-2.5226020813,0.0397225506604,2.7003467083,-0.864389240742,0.0545190945268,0.000188057732885,-4.19241841882e-05,0.000384031853173,-0.000335175020155,0.000214143234189,-0.000168443337316,-2.23087499762e-05,0.472666330274,-0.0184578043984,0.117936009752,-0.00802847793077,0.924751956674,0.3795373389,0.0268471643314
-0.197198584676,0.137780860066,0.149116337299,-2.52260613441,0.0397223718464,2.70034766197,-0.864388465881,0.0545190945268,-0.000119374475616,-0.000112061388791,0.000198121822905,-2.19627709157e-05,0.00066697614966,3.55458323611e-05,0.000427879131166,0.472663774779,-0.0184543919326,0.117932938446,-0.00803040619886,0.924750923375,0.379540023138,0.0268442324085
-0.197201877832,0.137778788805,0.149117693305,-2.52260375023,0.0397204719484,2.70034694672,-0.864390611649,0.0545190945268,0.000158841372468,-0.000439839845058,-0.000451708881883,0.000438830960775,1.47790970004e-05,1.46615648191e-05,0.000382199126761,0.472665258277,-0.018455450211,0.117934679973,-0.00802912846095,0.924750525552,0.379540912502,0.0268457446797
-0.197201818228,0.13777475059,0.14911583066,-2.52260231972,0.039722148329,2.70034718513,-0.86438947916,0.0545190945268,-0.000498645938933,-0.000838246138301,-1.01683262983e-05,9.76080700639e-05,2.92661388812e-05,-3.44904365193e-05,0.000170405794051,0.472666857373,-0.0184565468825,0.117937069411,-0.00802787581003,0.924751294757,0.379538886337,0.0268482680516
-0.197204202414,0.137771487236,0.149114981294,-2.52260112762,0.0397208444774,2.70034837723,-0.864388227463,0.0545190945268,-0.000193614047021,0.00032402438228,0.000337056699209,0.000273406534689,-1.91164872376e-05,8.73950630194e-05,0.000285750225885,0.472668187205,-0.0184583207315,0.117939034657,-0.00802625419468,0.924751935531,0.379537209686,0.0268503840362
-0.197201445699,0.137785002589,0.149115785956,-2.52261090279,0.0397212840617,2.70034909248,-0.864388346672,0.0495770201087,0.000259433640167,-0.000346923130564,-0.00184463965707,-0.000152431224706,8.57899867697e-05,-0.000146415477502,4.01799115934e-05,0.472660749723,-0.0184558636291,0.117929451962,-0.00803193773811,0.92475153631,0.37953873404,0.0268408851297
-0.19719555974,0.137781053782,0.149117857218,-2.52260541916,0.0397209227085,2.70034980774,-0.864388167858,0.0495770201087,0.000381231162464,-1.20871209219e-05,0.000350893125869,-4.58313988929e-05,5.83186629228e-05,0.000110071800009,-0.000308340677293,0.472664653257,-0.0184522889625,0.117933319333,-0.00802967632967,0.924749861662,0.379542547712,0.0268453313283
-0.19719517231,0.137770280242,0.149117171764,-2.52259945869,0.0397219359875,2.70035099983,-0.864389240742,0.0495770201087,-0.000320249760989,0.000923798070289,-0.000310190778691,-0.000161915915669,-0.00542115885764,0.000102883081126,0.00294772884808,0.472670248101,-0.0184531073338,0.117940536549,-0.00802530278886,0.924749686585,0.379542516038,0.026853116756
-0.197205424309,0.137769192457,0.149115562439,-2.52260017395,0.0397205650806,2.70035052299,-0.864388823509,0.0495770201087,-0.000615087163169,0.000893154239748,0.00015989250096,-0.000286511291051,4.38713141193e-05,9.56172079896e-05,-0.000209012519917,0.472669776751,-0.0184587842797,0.117940732252,-0.00802474056747,0.92475178342,0.37953743503,0.0268528898645
-0.197205916047,0.13778179884,0.149111777544,-2.52260088921,0.0397221669555,2.70035076141,-0.864388644695,0.0495770201087,0.000512140628416,0.0011565113673,0.000459262228105,0.000103236023278,7.32175794838e-06,8.57888662722e-05,-4.25805847044e-05,0.472666701837,-0.0184603267934,0.117934579605,-0.00802837876378,0.924753053006,0.379534649678,0.0268474480694
-0.197201967239,0.137786835432,0.149114817381,-2.52260398865,0.0397216118872,2.70035004616,-0.864388346672,0.0495770201087,0.000598886632361,0.000257109059021,-0.000149634332047,-0.000229562647291,6.41547967462e-06,-4.61413219455e-05,-0.000132045635837,0.472664032526,-0.0184566275858,0.117931109126,-0.00803075392922,0.924751789164,0.379537946353,0.0268436657443
-0.197199001908,0.137783482671,0.149114832282,-2.52260899544,0.0397213473916,2.70035076141,-0.864390313625,0.0495770201087,4.34808061982e-05,0.00423753866926,3.01092859445e-05,0.000565815600567,4.35022593592e-05,-5.88029388382e-06,-0.000223920680583,0.472662364071,-0.018455215664,0.117931000776,-0.00803068846044,0.924750807599,0.379540380356,0.0268430857102
-0.197198942304,0.137773841619,0.149114623666,-2.52260279655,0.0397211834788,2.70035076141,-0.864388227463,0.0495770201087,-0.000169091304997,-0.000546400086023,0.000127371124108,0.00055069726659,0.000621187093202,1.29845866468e-05,-7.24448182154e-05,0.472667591859,-0.0184559022209,0.117937660929,-0.00802668385335,0.924751027171,0.379539450058,0.0268498719761
-0.197201624513,0.137768700719,0.149114668369,-2.52260112762,0.0397220700979,2.70035362244,-0.864390730858,0.0495770201087,0.00063041492831,0.000435680936789,-0.00029713389813,-0.000594250916038,-0.000189096710528,-0.000142667660839,0.000303203676594,0.472670102571,-0.0184574694116,0.117940921234,-0.00802436529399,0.924751104522,0.379539008365,0.0268541441753
-0.197202309966,0.137776568532,0.149114072323,-2.52260494232,0.0397215671837,2.70035409927,-0.864389240742,0.0495770201087,0.00060001492966,0.00439358735457,0.000165793520864,-0.000145042067743,-1.27234461615e-05,-0.000705547223333,-0.000190779741388,0.472666549463,-0.018457651045,0.117935957195,-0.00802711157688,0.924751676725,0.37953789991,0.0268492846929
-0.197205737233,0.137781083584,0.149112045765,-2.52260518074,0.039721455425,2.70035600662,-0.864388942719,0.0495770201087,-0.00012225023238,0.000674469338264,0.00215195002966,0.000507664168254,-1.73313765117e-05,-4.22236116719e-05,0.000107380532427,0.472665770556,-0.018460123888,0.117933928742,-0.00802776820877,0.924752795177,0.379535246215,0.02684807841
-0.197206139565,0.137785315514,0.149109870195,-2.52260732651,0.0397213324904,2.7003557682,-0.8643887043,0.0495770201087,-0.00142786558717,-0.000722571916413,0.000283461471554,0.000193462095922,-9.42072001635e-05,8.02688664407e-05,-0.00011942817946,0.472663659819,-0.0184611436838,0.117931159244,-0.00802926954215,0.924753381004,0.379533993832,0.0268451552769
-0.197195917368,0.137766942382,0.149112939835,-2.52259969711,0.0397223904729,2.70036077499,-0.864391207695,0.0495770201087,-0.000100886856671,0.000193317144294,-0.0015111763496,-0.000538845430128,-0.000147587095853,9.63323254837e-05,-0.000404316990171,0.472672807514,-0.0184559045293,0.117942915038,-0.00802195304878,0.924750235035,0.379540858836,0.0268586527714
-0.197201386094,0.137771740556,0.149111747742,-2.52260184288,0.039722636342,2.70036101341,-0.864391744137,0.0495770201087,-0.000426701706601,-0.000133044508402,0.000414361391449,9.29797024583e-05,1.84115597222e-05,-0.000117490570119,0.00596333155409,0.472670610142,-0.0184588116476,0.117939937361,-0.00802356740747,0.924751515134,0.379537907791,0.0268557974468
-0.197205126286,0.137779548764,0.149111092091,-2.52260422707,0.0397228971124,2.70036029816,-0.864392280579,0.0495770201087,-0.000594785611611,0.000400701595936,0.000355489290087,-0.000131124048494,-6.95122571415e-06,9.67747200775e-06,-3.9102131268e-05,0.472667723951,-0.0184604419655,0.11793569477,-0.00802614937198,0.924752384704,0.379536040413,0.0268514733642
-0.1972014606,0.137782484293,0.14911057055,-2.52260565758,0.0397224910557,2.70036077499,-0.864392399788,0.0495770201087,0.000148948820424,-0.00042807077989,-0.0037832329981,-0.000342438084772,6.39528952888e-05,-4.53125539934e-06,-0.00236321799457,0.472666295017,-0.0184588515658,0.117933554983,-0.00802728354739,0.924751773028,0.379537650433,0.0268494429775
-0.197202786803,0.137773022056,0.149112820625,-2.5226047039,0.0397225059569,2.70036196709,-0.864392459393,0.0495770201087,-0.000595300050918,0.000243546339334,-0.000102252684883,4.20868855144e-05,7.16017211744e-06,0.000114010486868,-0.000533848884515,0.472669067672,-0.0184588156132,0.117938445468,-0.00802433322716,0.924751458095,0.379538127593,0.0268544263215
-0.197202384472,0.137769460678,0.149111911654,-2.5226020813,0.0397218167782,2.70036196709,-0.864391386509,0.0495770201087,0.000565088004805,0.000444858451374,-0.000295617996017,0.000696300994605,-0.00080980011262,5.85088091611e-05,0.000901024381164,0.472671442203,-0.018459182822,0.117941439823,-0.00802242491137,0.924751629494,0.379537537497,0.0268574340027
-0.197202071548,0.137768939137,0.149113193154,-2.52260231972,0.0397217310965,2.70036363602,-0.864390850067,0.0495494417846,0.00266381143592,0.000624772277661,1.00117382829e-07,0.000193924526684,-5.38911845069e-05,-0.000154195906362,0.000170113169588,0.472671537651,-0.0184585896565,0.117941347847,-0.00802221612865,0.924751346409,0.379538200321,0.0268578767502
-0.197202667594,0.137781590223,0.149111866951,-2.52260828018,0.0397220589221,2.70036649704,-0.864391565323,0.0495494417846,-1.68596816366e-05,-0.000533409416676,9.82076890068e-05,0.000289647403406,0.000165989535162,0.00263995165005,-0.0006919465377,0.472666364237,-0.0184588611699,0.117933625671,-0.00802628513945,0.924751824814,0.379537422697,0.0268511769949
-0.197202414274,0.137776583433,0.149110794067,-2.52259874344,0.0397224500775,2.70037078857,-0.864392220974,0.0495494417846,0.000216892673052,-0.000226127798669,0.000402125966502,0.000734125438612,0.000106574472738,7.85368029028e-05,0.00135050131939,0.472673239527,-0.0184598861402,0.117939690095,-0.0080218891452,0.924751744584,0.379537123266,0.026859484912
-0.197200939059,0.137765243649,0.149111822248,-2.52259516716,0.0397220402956,2.70037126541,-0.864391505718,0.0495494417846,0.00050837919116,0.000184247823199,-4.08781161241e-05,-0.000563475303352,-7.99543777248e-05,-4.34438115917e-05,-0.000683887745254,0.472677629919,-0.0184592884726,0.117946289211,-0.00801790131374,0.924751161539,0.379538165418,0.026866022499
-0.197202861309,0.137780785561,0.149111658335,-2.52260708809,0.0397214181721,2.70037055016,-0.86439293623,0.0338367186487,0.000697768293321,0.000142522156239,0.000209675752558,-0.00010281476716,7.59395770729e-05,0.000128938336275,-0.00554995238781,0.472668007774,-0.0184592271759,0.11793480621,-0.008024717568,0.924751490337,0.379538085807,0.026853791761
-0.197201609612,0.137777835131,0.149112075567,-2.52260255814,0.0397226326168,2.70037412643,-0.864390969276,0.0338367186487,-0.000425109348726,-0.00050819455646,-4.30101972597e-05,0.000497621716931,3.26407425746e-05,0.000643756764475,-2.94613855658e-05,0.472671767975,-0.0184587620616,0.117938112869,-0.00802243853023,0.924751649919,0.3795373926,0.0268587742476
-0.197201326489,0.137770235538,0.149110525846,-2.52260661125,0.0397222340107,2.70037174225,-0.864391744137,0.0338367186487,-0.000392208137782,0.00031326059252,-0.000270795513643,0.000112708024972,-9.04783810256e-05,-0.000155100191478,0.000122729426948,0.472670641562,-0.0184591748295,0.117940051945,-0.00802149605509,0.924751465439,0.379537844935,0.0268590155342
-0.197203412652,0.137777775526,0.14911031723,-2.52260541916,0.0397227853537,2.70037269592,-0.864391863346,0.0338367186487,2.01198072318e-05,0.000582560780458,-0.000165292789461,-0.000191746890778,-5.08085236106e-07,7.57875386626e-06,0.000110741108074,0.47266992246,-0.0184603639903,0.117936988044,-0.00802322806121,0.924752213972,0.379536138867,0.0268568341975
-0.197202637792,0.13777500391,0.149112150073,-2.52260565758,0.0397225171328,2.70037508011,-0.864392340183,0.0338367186487,9.52206464717e-05,0.00148857815657,-0.000234638777329,0.000241807516431,-0.00013429595856,8.7114458438e-05,0.000232470556512,0.472670952687,-0.0184592515904,0.117938448896,-0.00802204598215,0.924751540109,0.379537654197,0.0268589756763
-0.197203412652,0.137770593166,0.149110287428,-2.52260231972,0.0397220999002,2.70037412643,-0.864392280579,0.0338367186487,-3.41917839251e-05,-0.00063357403269,-0.000298944622045,9.7751042631e-05,4.42747150373e-05,-1.26961804199e-05,0.000168768528965,0.472673341315,-0.0184608236318,0.117941560244,-0.008020108691,0.924751900557,0.379536617154,0.0268617980446
-0.1972014606,0.137773245573,0.149112507701,-2.52260422707,0.0397226586938,2.70037460327,-0.864392697811,0.0338367186487,0.000105007115053,0.000329591392074,0.000519903958775,-5.36215738975e-05,0.000153349377797,-8.34687307361e-05,-9.17060824577e-05,0.472671990027,-0.0184586257582,0.117939726089,-0.00802142908005,0.924751172384,0.379538479039,0.026860164971
-0.197201430798,0.137773871422,0.149110615253,-2.52260494232,0.0397227033973,2.70037579536,-0.864390552044,0.0311956070364,-6.44985047984e-05,0.00035715586273,-0.000294435332762,0.000301235122606,7.26618225144e-07,-0.000135092544951,-0.00443492131308,0.472671699333,-0.0184595283246,0.117939280586,-0.00802138676786,0.924751946461,0.379536602592,0.0268600418338
-0.197200596333,0.137775361538,0.149111807346,-2.52260422707,0.039722148329,2.7003762722,-0.864391326904,0.0311956070364,0.000133346722578,0.000215454681893,0.000234120991081,-3.62088321708e-05,-5.85267298447e-05,2.28430981224e-05,0.000866462476552,0.472671899716,-0.0184585199961,0.11793889163,-0.00802151069034,0.924751332771,0.379538102075,0.0268599452967
-0.197203084826,0.137775346637,0.149112313986,-2.52260303497,0.0397218242288,2.70037603378,-0.864391624928,0.0311956070364,-0.000150102336193,-0.000463508913526,-0.00029519436066,-0.000370173511328,-1.62509732036e-05,-7.70844708313e-05,0.000328257068759,0.47267243279,-0.0184594831991,0.117939295714,-0.00802124039997,0.924751588956,0.379537452626,0.0268603827996
-0.197201579809,0.13776922226,0.149109914899,-2.52260279655,0.0397224090993,2.70037674904,-0.864391505718,0.0311956070364,0.000434377609054,-0.00129300029948,-0.000524006143678,-0.000410064210882,0.000102944519313,0.000155903006089,0.000107154352008,0.472673971298,-0.0184602379651,0.117942284566,-0.0080193026003,0.924751794121,0.37953678548,0.0268633245726
-0.197197839618,0.137772589922,0.149111479521,-2.52260160446,0.039722096175,2.70037698746,-0.864390432835,0.0311956070364,0.000214089712244,0.000326196837705,0.000124264421174,-0.000331355520757,-4.11234977946e-05,-4.7128443839e-05,-9.24967389437e-05,0.472673517209,-0.0184575635961,0.117940492939,-0.00802056451813,0.924751121204,0.379538502312,0.0268618562752
-0.197200536728,0.137774005532,0.14911095798,-2.52260804176,0.0397222526371,2.70037698746,-0.864392220974,0.0311956070364,-0.000507422082592,-0.00028197420761,-2.58288423538e-07,-0.000780889065936,5.4170115618e-05,-3.42285820807e-05,-0.000211482940358,0.472670678363,-0.0184586976331,0.117938397836,-0.00802167587558,0.924751332031,0.379538144601,0.0268593205287
-0.197203353047,0.137774810195,0.149110272527,-2.52260541916,0.0397213920951,2.70037746429,-0.864390492439,0.0311956070364,8.0031757534e-05,4.92310937261e-05,-0.000169514722074,0.000755361339543,-4.13171328546e-05,-9.20697275433e-05,-0.000252563069807,0.472671567462,-0.018460607021,0.117938833182,-0.00802105247497,0.924752176074,0.379536049637,0.0268600497565
-0.197200626135,0.137775048614,0.149109646678,-2.5226020813,0.0397231541574,2.70037937164,-0.864392220974,0.0311956070364,9.65476938291e-05,0.000231427926337,0.000447642960353,-0.000632730894722,-7.00046439306e-05,6.08436530456e-05,-0.000142582517583,0.472673685354,-0.0184597456328,0.117940063315,-0.00802029793059,0.924751702454,0.37953704979,0.0268624486809
-0.197199687362,0.13777475059,0.149109616876,-2.52260637283,0.0397222451866,2.70037937164,-0.864391922951,0.0311956070364,-0.000632897717878,0.00158880266827,-0.000249813834671,-0.000270413729595,-3.88203916373e-05,5.22227092006e-05,-0.000590583891608,0.472670601437,-0.0184604670097,0.117937771132,-0.00802131737125,0.924751687529,0.379537269284,0.0268595567267
-0.197203531861,0.137773513794,0.149110645056,-2.52260899544,0.0397225655615,2.70037770271,-0.864392459393,0.0311956070364,-0.000697581330314,-0.000525868323166,-0.000193251340534,-0.000195770611754,1.50235982801e-05,8.46591938171e-05,-4.2129195208e-05,0.472670053629,-0.0184604330576,0.117938220757,-0.00802163416576,0.924751977317,0.379536581124,0.0268592089454
-0.197206050158,0.137770399451,0.149108693004,-2.52260184288,0.0397231988609,2.70038080215,-0.864390552044,0.031211366877,-3.83388214686e-06,0.000525319832377,-0.00330196367577,2.84167144855e-05,-8.07515607448e-05,-5.7949568145e-05,0.000178105270606,0.472674972174,-0.0184630180264,0.117942446733,-0.00801852533588,0.924753168094,0.379533327479,0.0268651143326
-0.197201877832,0.137773677707,0.149108409882,-2.52260398865,0.0397226028144,2.70037865639,-0.864391624928,0.031211366877,0.000120725759189,-0.000370252644643,-0.000451106723631,6.95219205227e-05,3.78633194487e-05,-2.21437549044e-05,-0.000298825238133,0.472672783568,-0.018460939565,0.117939957296,-0.00802028036142,0.924752199997,0.379535887532,0.0268617472056
-0.197201862931,0.137773573399,0.149109274149,-2.52260255814,0.0397222526371,2.70038151741,-0.864390492439,0.031211366877,-0.000284998124698,-0.000261801993474,-2.57205556409e-05,7.37751543056e-06,6.25011016382e-05,-4.31276312156e-05,0.00277264625765,0.472674177118,-0.0184606216464,0.117940789591,-0.00801929902761,0.9247521598,0.379535867896,0.0268637013871
-0.197199136019,0.137772142887,0.149111405015,-2.52260494232,0.0397219620645,2.70038151741,-0.864393293858,0.031211366877,-4.19799980591e-05,-0.000464641751023,0.00307922507636,-0.000103775302705,6.70345179969e-05,0.00536482455209,-0.00419636815786,0.472673349859,-0.0184582597495,0.117940649121,-0.00801950067226,0.92475066452,0.379539537897,0.0268632636825
-0.197203159332,0.137777268887,0.149111494422,-2.52260446548,0.0397217459977,2.70038151741,-0.864390671253,0.031211366877,-3.96357136196e-05,4.49351045972e-06,-0.000134414731292,-0.000225902811508,-2.0036701244e-05,-2.09069844459e-06,0.000371177855413,0.472672442502,-0.0184599196018,0.117938421488,-0.00802076140354,0.924751931961,0.379536559677,0.0268613341502
-0.197200194001,0.137771993876,0.149110093713,-2.52260231972,0.0397219695151,2.70038247108,-0.864390671253,0.031211366877,-0.000186384626431,-0.000347267749021,0.000104738071968,-9.60395027505e-06,-5.05696989421e-05,1.56618625624e-05,-0.00017478679365,0.472674887699,-0.0184595245427,0.117941710938,-0.00801861393513,0.924751580134,0.379537210901,0.0268648859042
-0.19720262289,0.137772962451,0.149107396603,-2.52260565758,0.039722468704,2.70038104057,-0.864390254021,0.031211366877,-0.000628322479315,9.18544465094e-05,0.00306941661984,-9.28245935938e-06,-2.38538505073e-05,0.000489784579258,-0.00156520528253,0.472672545566,-0.0184618253069,0.117939930315,-0.00801980234957,0.924752763858,0.379534484636,0.0268623000244
-0.197202757001,0.137772515416,0.149110883474,-2.52260446548,0.0397223383188,2.70038127899,-0.864390254021,0.031211366877,5.41935187357e-05,-8.58607600094e-05,-0.000288026058115,-0.000102753583633,-7.57188099669e-05,-7.9253622971e-05,0.00568056339398,0.472673387329,-0.0184602200015,0.11794061298,-0.00801958827107,0.924752091055,0.379536062059,0.0268632383174
-0.197204679251,0.137771502137,0.149108693004,-2.52260398865,0.039722956717,2.70038223267,-0.864392280579,0.031211366877,-0.000546206138097,0.000112250403618,-0.000171354287886,-0.00020528260211,8.94254844752e-05,6.7964741902e-05,7.69539765315e-05,0.472673963825,-0.0184622882307,0.117941322539,-0.00801890604854,0.924752565294,0.379534845889,0.0268642991109
-0.197202444077,0.1377735883,0.149109750986,-2.52260279655,0.0397219434381,2.70038247108,-0.864390134811,0.031211366877,0.00105040229391,0.000604192144237,-0.000513728125952,-0.000142931239679,3.83785118174e-05,2.7755343126e-06,0.00116548279766,0.472674255587,-0.0184606760876,0.117940796542,-0.00801910403992,0.92475219353,0.379535768746,0.0268639992822
-0.197204947472,0.137773007154,0.149109408259,-2.52260756493,0.0397219359875,2.70038342476,-0.864392220974,0.031211366877,-0.00010950210708,-0.00030308260466,0.000382845697459,-2.49181393883e-05,-0.000412766035879,-0.000128331201267,-0.000101381534478,0.472672067462,-0.0184619195013,0.117939496038,-0.00801965191675,0.924752368145,0.379535436852,0.0268625138482
-0.197204560041,0.137768507004,0.149110212922,-2.52260541916,0.0397220030427,2.70038318634,-0.86439114809,0.031211366877,0.000220858230023,-0.000997488154098,-0.000210577534745,0.000447553524282,-1.74438664544e-05,1.12414900286e-05,0.000252615485806,0.472674099248,-0.0184615898903,0.117942330715,-0.00801809488364,0.924752282949,0.379535481571,0.0268652795816
-0.197201952338,0.137771338224,0.14910954237,-2.5226020813,0.0397227443755,2.70038437843,-0.864391803741,0.031211366877,0.000590573530644,-0.000443842203822,0.000193803643924,0.000330707320245,2.54896203842e-05,3.48228059011e-05,-5.42014786333e-05,0.472675512672,-0.0184606962959,0.117942279499,-0.00801802471094,0.924751910591,0.379536326572,0.0268661801078
-0.197199806571,0.137773677707,0.149109855294,-2.52260398865,0.039722636342,2.70038628578,-0.864391684532,0.031211366877,-0.000341534934705,3.98097763536e-05,9.21523314901e-05,0.000712232373189,4.3413892854e-05,-4.32172055298e-05,-1.77303136297e-05,0.47267449063,-0.0184594089555,0.117940709988,-0.00801867230853,0.924751484952,0.379537420578,0.026865182636
-0.197201386094,0.13777577877,0.149109631777,-2.52260446548,0.0397226661444,2.70038509369,-0.864391863346,0.031211366877,0.000283363973722,7.45104407542e-05,0.000190488382941,-9.94174260995e-05,4.77988141938e-05,-6.63027603878e-05,0.000147799015394,0.472673511673,-0.0184601359876,0.117939444883,-0.00801959412942,0.924751835166,0.379536662311,0.0268635647511
-0.197200700641,0.137773752213,0.149109885097,-2.52260494232,0.0397219620645,2.70038533211,-0.864391624928,0.031068213284,-0.000342343410011,0.000151297717821,-0.000426191807492,-0.00165992311668,2.98639201901e-06,1.03532220237e-05,-6.4684645622e-05,0.472673761996,-0.0184597708751,0.117940250748,-0.00801896838843,0.924751563528,0.379537289784,0.0268642372722
-0.197201400995,0.137769937515,0.149108603597,-2.52260446548,0.0397221334279,2.70038485527,-0.864390730858,0.031068213284,0.000920343911275,-3.10332757181e-06,-0.000443780591013,-0.000304356362903,6.76803610986e-05,-4.48445498478e-05,5.74158548261e-05,0.472674666826,-0.0184609024881,0.11794213964,-0.00801786742369,0.924752087602,0.379535925467,0.0268658005788
-0.197204649448,0.137767896056,0.149109572172,-2.52260446548,0.0397225432098,2.70038747787,-0.864391386509,0.031068213284,-0.000356991629815,0.000779889465775,0.000223547438509,-0.000250161101576,-1.04345017462e-05,0.000124130849144,0.000343920954037,0.472675622859,-0.0184620943171,0.117943357053,-0.00801680175805,0.92475242461,0.379534978009,0.0268679031314
-0.19720518589,0.137770786881,0.14910762012,-2.52260327339,0.039723161608,2.7003865242,-0.864391207695,0.031068213284,0.000253918231465,0.000168470825884,-3.77803844458e-05,-4.95028798468e-05,3.3115305996e-05,0.00284638279118,2.62446319539e-05,0.47267536791,-0.0184632059773,0.117942309961,-0.00801754860241,0.924753061834,0.379533487102,0.0268668084167
-0.197202503681,0.137776568532,0.149107709527,-2.52260541916,0.0397223979235,2.70038676262,-0.864393532276,0.031068213284,2.30776240642e-05,3.90142558899e-05,-4.97182154504e-05,7.18375740689e-05,-5.10048084834e-05,-0.000137109018397,-9.76845985861e-05,0.47267314324,-0.0184615958312,0.11793888542,-0.00801940693534,0.924752058271,0.379536129587,0.0268634669472
-0.197202026844,0.137771725655,0.149108663201,-2.52259969711,0.0397212691605,2.70038747787,-0.86439204216,0.031068213284,-0.000336525903549,-6.46100897939e-06,-0.000398688745918,0.000162177457241,2.53431826422e-05,4.94964333484e-05,0.000108500098577,0.472677108523,-0.0184609460076,0.117942952545,-0.00801672857594,0.924751608672,0.379536958091,0.0268680376571
-0.197202041745,0.137770071626,0.149107292295,-2.52260422707,0.0397216305137,2.70038747787,-0.864392280579,0.031068213284,0.000368400797015,0.00130178348627,-0.000389839755371,-0.000907705747522,6.26141991233e-05,4.40182475359e-06,-0.000421407807153,0.47267527926,-0.0184619239756,0.11794239999,-0.00801703103684,0.924752063794,0.379535920824,0.0268669352328
-0.197204396129,0.137772858143,0.149109855294,-2.52260351181,0.0397225916386,2.70038723946,-0.864390790462,0.031068213284,-0.000170264655026,-0.000324203225318,-0.000660689081997,0.000872528296895,-2.40529334405e-05,4.08164269174e-05,-0.00253458600491,0.472675028984,-0.0184616499916,0.117941351115,-0.0080180675253,0.924752498129,0.379534894542,0.0268661740029
-0.197203069925,0.13777372241,0.149107992649,-2.52260494232,0.0397228449583,2.70038986206,-0.864392340183,0.031068213284,0.000572448421735,-6.73449831083e-05,0.000547731353436,-0.000487943325425,4.8640096793e-05,-0.000107670901343,-0.00126839510631,0.472674650208,-0.0184619200629,0.117940683905,-0.00801792832877,0.924752355455,0.37953523661,0.0268662941176
-0.197201445699,0.137771949172,0.149109214544,-2.52260565758,0.0397215969861,2.70038938522,-0.864391803741,0.0306472908705,0.00393250770867,0.000650139059871,0.000313374010148,-0.000277280458249,4.05592800234e-05,1.84136115422e-05,4.43229000666e-05,0.472674610904,-0.0184606030654,0.117941228842,-0.00801756187591,0.924751698355,0.379536837032,0.0268664123042
-0.197200015187,0.137770876288,0.149107933044,-2.52260041237,0.0397222526371,2.70038986206,-0.864390432835,0.0306472908705,0.000138066476211,0.00045353063615,-3.49742513208e-05,-0.000418701558374,-1.76358917088e-05,-6.65788174956e-05,-1.11671499781e-06,0.472677642113,-0.0184607819398,0.117943590168,-0.00801612046146,0.924751972989,0.37953598324,0.026869450589
-0.197200670838,0.137771725655,0.149109229445,-2.52260541916,0.0397216938436,2.70039105415,-0.864390254021,0.0306472908705,-0.00059057562612,0.000671880668961,-0.000497871136758,-0.000102599828097,0.000207997669349,-6.1482853198e-05,-0.00223879422992,0.472675153276,-0.0184602818995,0.117941577909,-0.00801711974009,0.924751844214,0.379536424227,0.0268673553104
-0.197202265263,0.137772232294,0.149109348655,-2.52260804176,0.0397222414613,2.7003903389,-0.864391922951,0.0306472908705,-0.000576710386667,0.000140006595757,2.89633953798e-05,-1.502687428e-05,-0.00010208330059,0.000370991765521,-8.3147213445e-05,0.472673971076,-0.0184614088003,0.117940857696,-0.0080176201456,0.924752244092,0.379535509244,0.0268663678274
-0.19720633328,0.137767389417,0.149105191231,-2.52259635925,0.0397219471633,2.70039319992,-0.8643912673,0.0306472908705,1.45878375406e-05,-0.00276234932244,-0.000291773932986,-0.000323142827256,-0.000194529158762,0.000872900825925,-0.000410799577367,0.472681000663,-0.0184654883619,0.117946925252,-0.00801317997851,0.924753380679,0.379532284409,0.0268741259043
-0.19720390439,0.137772142887,0.149106144905,-2.52260756493,0.0397218838334,2.70039319992,-0.864392876625,0.0305251497775,0.0003922531032,0.000133143083076,0.00020293466514,-0.000626464607194,-2.39324094764e-06,-0.000365606189007,-7.04595149728e-05,0.472674283911,-0.0184633006063,0.117940811763,-0.00801694336523,0.924752587346,0.379534635287,0.026867101008
-0.197198703885,0.137780085206,0.149107798934,-2.52262377739,0.0397223308682,2.70038461685,-0.864393949509,0.0305251497775,-0.00063450721791,0.000752154679503,0.000131237931782,-0.000132619388751,-9.98618997983e-05,-5.98490169068e-06,-0.000159665665706,0.47266254139,-0.0184589612,0.117930642487,-0.00802481218398,0.924751457148,0.379538239998,0.0268527271388
-0.19720415771,0.137779086828,0.149105399847,-2.52262854576,0.0397212207317,2.7003865242,-0.864393830299,0.0305251497775,0.000109422522655,-0.000413870788179,0.000160326992045,-0.000362247868907,4.36820155301e-05,4.49397375633e-05,-0.00105578277726,0.472660693934,-0.0184627080526,0.117929759979,-0.00802460235768,0.924752869552,0.379534864526,0.0268518584873
-0.197201132774,0.137779384851,0.149105280638,-2.52262997627,0.0397217199206,2.70038437843,-0.864392697811,0.0305251497775,0.000327837857185,7.31370091671e-05,-0.00011147207988,-0.000991096720099,0.00531986122951,7.67958335928e-05,2.44681232289e-05,0.472659265599,-0.0184610160322,0.117928696506,-0.0080256788039,0.924752589913,0.379535657628,0.0268499571713
-0.197202041745,0.137778013945,0.149107590318,-2.52263069153,0.0397227965295,2.70038533211,-0.864391803741,0.0305251497775,-0.000246312702075,0.000220239933697,-0.000619909784291,0.00010812914843,2.80680633296e-05,7.35224602977e-05,0.000281369924778,0.472659497594,-0.0184605132093,0.117929269382,-0.00802560917053,0.924752649387,0.379535453107,0.0268508206025
-0.197201892734,0.137780979276,0.149106770754,-2.52263092995,0.0397224761546,2.70038509369,-0.864393830299,0.0305251497775,0.000114938055049,0.000246948126005,0.000528881442733,0.000175859211595,0.000100823504908,-1.36088401632e-05,0.000202170966077,0.472658680751,-0.0184607166922,0.117927769582,-0.00802638715465,0.924752378387,0.379536202972,0.0268493220362
-0.197202369571,0.137777864933,0.149108171463,-2.52264714241,0.039722263813,2.70038557053,-0.864393055439,0.0305251497775,0.000339222286129,-0.000209916048334,0.000295325211482,-0.00022826132772,5.62803797948e-05,-9.38476950978e-05,-0.000198679292225,0.4726510986,-0.0184598606718,0.117923638608,-0.00802892369065,0.924752426167,0.379536443161,0.0268435220979
-0.197202190757,0.137771904469,0.14910620451,-2.52265238762,0.0397225655615,2.70038533211,-0.864392220974,0.0305251497775,-6.3439222231e-07,-0.000957178126555,7.71286795498e-05,0.000315517594572,2.05411902243e-06,5.97701218794e-05,4.14782152802e-05,0.472649628283,-0.0184607385486,0.117924896195,-0.00802819760499,0.924752985108,0.379535080185,0.0268437547292
-0.197203814983,0.137774199247,0.149106636643,-2.52265381813,0.0397216901183,2.70038533211,-0.864392518997,0.0305251497775,3.77561764253e-06,-2.31405010709e-05,-0.00027088279603,0.00033485062886,-4.49016188213e-05,-0.000134194109705,5.21972979186e-05,0.472648311602,-0.0184612459498,0.117922986983,-0.0080291472655,0.924753015123,0.379535123851,0.026841819261
-0.197206526995,0.13778026402,0.14910517633,-2.52265572548,0.0397219695151,2.70038533211,-0.864391744137,0.0305251497775,-1.20481715271e-07,0.000420178286731,-0.00390833849087,-0.000408582942327,-0.000115198236017,1.27757539303e-05,-0.000219356414163,0.472645963366,-0.0184629319745,0.117919475088,-0.00803115838902,0.924754091878,0.379532698382,0.02683841634
-0.197201773524,0.137782633305,0.149106264114,-2.52265954018,0.0397218316793,2.70038414001,-0.86439293623,0.0305251497775,0.000374170514988,-0.000111576053314,-0.000314146454912,-2.46603503911e-05,-3.5562676203e-05,-4.33226123278e-05,0.000165288976859,0.47264335367,-0.0184598957542,0.117916935728,-0.00803299413156,0.924752806896,0.379536018994,0.0268351842404
-0.197201177478,0.137778401375,0.149107053876,-2.52265739441,0.039721108973,2.70038533211,-0.864391982555,0.0264577567577,0.000288489682134,-0.000498554029036,0.00021194567671,0.000114629139716,9.25750282477e-05,7.78628527769e-05,0.000175577835762,0.472645309101,-0.0184596904926,0.117919442949,-0.00803130767324,0.92475261599,0.37953632803,0.0268378967891
-0.197198629379,0.137772545218,0.149108201265,-2.52265906334,0.0397220849991,2.70038414001,-0.86439281702,0.0264577567577,0.000429399340646,0.000602122629061,0.00355252996087,-0.00014736164303,0.000139202791615,-9.4105316748e-06,8.95813718671e-05,0.472645832392,-0.0184578838387,0.117921833895,-0.00803033298564,0.92475177981,0.379538260244,0.0268396755812
-0.197199448943,0.137776225805,0.149105325341,-2.52266454697,0.0397213809192,2.70038127899,-0.864391982555,0.0264577567577,-0.00033675332088,0.000686838058755,-0.000105822429759,-0.000253519596299,7.71262148191e-06,-0.00010001569899,-0.000248124153586,0.472641306964,-0.0184593916236,0.117917606226,-0.00803302992789,0.924752701292,0.379536362897,0.0268339487273
-0.197202190757,0.137772262096,0.149104371667,-2.5226650238,0.0397208668292,2.70038318634,-0.864391028881,0.0264577567577,0.000380241312087,-0.00066183047602,-0.00110171677079,-0.00010423756612,-7.99074405222e-05,-4.74555563414e-05,-3.69696426787e-05,0.472642452799,-0.0184612840895,0.117919758373,-0.00803120041535,0.924753373415,0.379534588148,0.0268364353157
-0.197202220559,0.137770429254,0.149106174707,-2.52266597748,0.039722699672,2.70038294792,-0.864393830299,0.0264577567577,-0.000197665664018,-0.00086156692123,-0.000249010365224,0.000290002673864,-0.000120484364743,0.00012925977353,0.000231080732192,0.472642341208,-0.0184604172198,0.117920278765,-0.00803140975467,0.924752798956,0.379535950148,0.0268369057208
-0.197199583054,0.137768134475,0.149107381701,-2.5226688385,0.039722558111,2.70038318634,-0.864394009113,0.0264577567577,0.000519123976119,-0.000371858652215,0.0002517918183,-0.000475980516057,0.00495796184987,-7.23825069144e-05,-0.00310045923106,0.472641477508,-0.0184585810195,0.117920389647,-0.00803141814399,0.924752009975,0.37953788757,0.0268366903892
-0.197198569775,0.137769043446,0.149107292295,-2.52267408371,0.0397220440209,2.70038127899,-0.86439114809,0.0264577567577,-0.000190302584087,5.70760021219e-05,0.00338629889302,0.000559268693905,-0.000219614681555,-0.000119447162433,0.000125004458823,0.472638186614,-0.0184579021523,0.117917952831,-0.00803316275684,0.92475236306,0.379537249554,0.0268330243526
-0.19719864428,0.137770205736,0.14910762012,-2.52268004417,0.0397211052477,2.70038318634,-0.864392161369,0.0264577567577,-0.000147198414197,-0.000327110989019,0.0025772289373,0.000103033642517,-0.000126812185044,2.56852017628e-05,-0.000134192101541,0.472635279674,-0.0184575855962,0.11791552156,-0.00803413475358,0.924752026224,0.37953821973,0.0268306190852
-0.19719992578,0.137769654393,0.149106025696,-2.5226855278,0.0397225990891,2.70038151741,-0.86439281702,0.0264577567577,-0.00342811271548,0.000742015545256,-0.000226531847147,-0.00204343372025,-0.000611939525697,2.88300379907e-05,-0.00259714340791,0.472631621435,-0.018459033857,0.117913120792,-0.00803601659448,0.924752848949,0.379536423441,0.0268271087235
-0.197201862931,0.137768447399,0.149105906487,-2.52268886566,0.0397219099104,2.70038127899,-0.864390850067,0.0264577567577,-0.00049283541739,0.000226210191613,-3.23231761286e-05,-0.000865683832671,-0.000863739056513,5.27021365997e-05,-0.000580663327128,0.472630654843,-0.0184599578021,0.117913234718,-0.00803573452627,0.924753326039,0.379535300972,0.0268266276246
-0.197201088071,0.137769848108,0.149106889963,-2.52268719673,0.0397222265601,2.70038342476,-0.864394009113,0.0264577567577,0.000156193971634,9.49946552282e-05,-0.00234762043692,0.000279344792943,-4.28627499787e-05,0.000111107925477,-0.000347513821907,0.4726318241,-0.0184590750366,0.117913139998,-0.00803547575854,0.924752447733,0.379537366132,0.026827764249
-0.197203934193,0.137771263719,0.149104177952,-2.52269363403,0.0397219918668,2.70038342476,-0.864391684532,0.0250918902457,2.42074584094e-05,-0.000632280716673,0.00298914848827,7.99863482825e-05,9.98624091153e-05,-0.000137810231536,-0.000239337372477,0.472627915449,-0.0184613012698,0.117910283269,-0.00803713468384,0.924754056436,0.379533668771,0.0268241220426
-0.197203829885,0.137768819928,0.149103835225,-2.5226919651,0.0397225134075,2.70038223267,-0.8643912673,0.0250918902457,0.000338620127877,0.000612998032011,-0.000378593889764,0.000531267491169,-8.99493024917e-05,-5.98210535827e-05,0.000146098187543,0.472629031072,-0.0184615464496,0.117911887402,-0.00803646427888,0.924754228147,0.379533174284,0.0268253996587
-0.19719915092,0.137768507004,0.149105161428,-2.52269530296,0.0397222600877,2.7003827095,-0.864390790462,0.0250918902457,0.000181915602298,-0.000211393227801,-0.000971147906967,0.00032685638871,-4.92345861858e-05,-2.7545111152e-05,-0.000302067113807,0.472627594785,-0.0184585938763,0.117910930761,-0.00803708989693,0.924753162713,0.37953583952,0.0268242323642
-0.19719491899,0.13777127862,0.149106889963,-2.52269887924,0.0397221520543,2.70038366318,-0.864392101765,0.0250918902457,0.000188395410078,-0.000466151250293,-0.000102542951936,0.00065717776306,5.13747500008e-06,-9.75614093477e-05,0.00231631589122,0.472625488581,-0.0184555232733,0.117908500669,-0.00803853835914,0.924751828581,0.379539222801,0.0268219215759
-0.197206050158,0.137778073549,0.149103045464,-2.52270174026,0.0397224240005,2.70038199425,-0.864391684532,0.0250918902457,0.000153072294779,-0.000257100822637,3.64113257092e-05,-0.000606454967055,8.503702702e-05,7.86784312368e-06,-0.000154572568135,0.472621923846,-0.0184622750332,0.11790413005,-0.00804104859147,0.924754911478,0.379532006159,0.0268169949549
-0.19719684124,0.137771651149,0.149107471108,-2.5227098465,0.0397202968597,2.70038104057,-0.864392876625,0.0250918902457,0.00390113354661,2.54003698501e-05,9.4692404673e-05,-0.000481674273033,8.85883855517e-05,-7.82840434113e-05,0.00331108621322,0.472619165191,-0.0184557370808,0.117904258964,-0.00804120300513,0.924751749985,0.379539811937,0.0268154953778
-0.197187408805,0.13775460422,0.149113386869,-2.52272725105,0.0397207550704,2.70037651062,-0.864392578602,0.0250918902457,0.000594525714405,-0.00606036838144,0.00123439880554,-0.000707662664354,9.63620623224e-05,-0.00259820884094,3.50880072801e-05,0.472613126245,-0.018448382458,0.11790578326,-0.00804186227034,0.924748952352,0.37954679711,0.0268129085069
-0.197187110782,0.137586340308,0.149113848805,-2.52279281616,0.0397212803364,2.70036220551,-0.864391386509,0.0250918902457,-0.000744735880289,-0.0152748236433,-4.36410737166e-05,-0.00730342883617,-2.08831152122e-05,-0.00206333189271,-0.000292515556794,0.472611733735,-0.0184526393637,0.117960163098,-0.00801267611956,0.924747733327,0.379547975708,0.0268469839427
-0.197188094258,0.137064427137,0.149110764265,-2.5229818821,0.0397191606462,2.70024800301,-0.864393174648,0.0250918902457,0.00216561392881,-0.0261608269066,0.00217334157787,-0.00384599599056,5.82125649089e-05,-0.0109560955316,-2.18308287003e-05,0.472599647058,-0.018467970325,0.118126990595,-0.00793389141276,0.924743759679,0.379553599202,0.0269276311094
-0.197193562984,0.136496335268,0.149108991027,-2.5230910778,0.039720363915,2.69992542267,-0.864391446114,0.0250918902457,-0.000764804834034,-0.0495683215559,-0.000635671196505,-0.00329179270193,-0.00032942488906,-0.0257526803762,0.000315534358378,0.472593745423,-0.018484688873,0.118323033985,-0.00787371835871,0.924741473552,0.379557316465,0.0269713710026
-0.197202607989,0.135522589087,0.149104207754,-2.52313375473,0.0397227592766,2.69911885262,-0.864390134811,0.0250918902457,-0.000233494822169,-0.063279800117,7.26917205611e-05,0.00012559730385,4.37113558291e-05,-0.0564359650016,-0.000403289217502,0.472603560377,-0.0185131587001,0.118684830128,-0.00779774332988,0.924737667842,0.379566196615,0.026998943388
-0.197192773223,0.133810803294,0.149109855294,-2.52311611176,0.0397193394601,2.69752120972,-0.864374697208,0.0250918902457,0.000400627410272,-0.110576272011,0.000497704080772,-0.00177075748798,-6.875883264e-05,-0.0994171649218,-0.000377411721274,0.472630072332,-0.018543118109,0.119335904671,-0.0076854773956,0.924724860405,0.379598970543,0.0270090213249
-0.197185128927,0.129369542003,0.149122923613,-2.52305412292,0.0397137738764,2.69301939011,-0.864114701748,0.0251706894487,-5.15340034326e-05,-0.19294449687,-0.00333023769781,0.0176259428263,-9.45752981352e-05,-0.229239776731,0.0200712047517,0.472625382544,-0.0186220201303,0.120996340185,-0.00747525388176,0.924739788914,0.37957572565,0.0268832951719
-0.197183817625,0.125326454639,0.149128496647,-2.52265715599,0.0397128276527,2.68791604042,-0.863768041134,0.0251706894487,5.10387508257e-05,-0.256395041943,0.00157380197197,0.0398425161839,-0.000119077165436,-0.334240227938,0.0230195876211,0.472573881103,-0.0186876774352,0.122530558143,-0.00744243393562,0.924780127779,0.379506736927,0.0264756822757
-0.197188228369,0.11967138201,0.149130001664,-2.52173948288,0.0397086851299,2.67998957634,-0.863416552544,0.0251706894487,-0.000435838242993,-0.335983455181,-9.80005061137e-05,0.066118940711,2.97050792142e-05,-0.494334131479,0.0229908321053,0.472506435948,-0.0187784248772,0.124730260755,-0.00749576588659,0.924814535288,0.379473897584,0.0257186615079
-0.197196021676,0.112767316401,0.149123474956,-2.5201921463,0.0397047251463,2.66946744919,-0.863031029701,0.0251706894487,-0.00107092573307,-0.41323980689,-0.000472176208859,0.105853445828,-0.000282966240775,-0.651846468449,0.0250092167407,0.472440134506,-0.0188868832627,0.127491218066,-0.00766061669,0.924851342156,0.379454341835,0.0246112171579
-0.19719864428,0.0986815169454,0.149122133851,-2.51555013657,0.0397011674941,2.64612841606,-0.86192804575,0.0251706894487,0.00418799836189,-0.554451227188,0.00170111400075,0.200054034591,-0.0012617232278,-0.931418716908,0.0512620061636,0.472584983778,-0.0190968563651,0.133746445349,-0.00812689546753,0.92498327895,0.379278142557,0.0220902126386
-0.197196304798,0.0871534645557,0.149132341146,-2.51121687889,0.0396962314844,2.62692737579,-0.860975980759,0.0251706894487,-0.00287601538002,-0.660255849361,-0.000882485706825,0.260791808367,0.000967156956904,-1.08529686928,0.0497043170035,0.472853663925,-0.0192524933142,0.138643704136,-0.00837837978431,0.925083738606,0.37912233593,0.0203993480581
-0.197221934795,0.0760896280408,0.149114847183,-2.50639915466,0.0396943166852,2.60843157768,-0.860135018826,0.0251706894487,-0.001120158704,-0.718213915825,0.000167548743775,0.32552960515,-1.17538843369e-06,-1.22577142715,0.0527754202485,0.473352549133,-0.0194406360023,0.143843580896,-0.00850683282646,0.925177555076,0.378965797581,0.018948596937
-0.197213992476,0.0647850632668,0.149124577641,-2.50107884407,0.0396837666631,2.58930253983,-0.859185159206,0.0251706894487,0.00335567351431,-0.76869148016,0.00103264197242,0.383190602064,0.00256755854934,-1.32302868366,0.073701120913,0.473926167474,-0.0195978985636,0.149318811767,-0.0086015508654,0.925275912515,0.37879128132,0.0175403512302
-0.197214648128,0.0451452620327,0.149127483368,-2.49102020264,0.0396753288805,2.55684804916,-0.857181608677,0.0251706894487,0.00124745070934,-0.898620486259,-0.000299387349514,0.491780012846,-0.00112183357123,-1.48060011864,0.0895795300603,0.475201133219,-0.0198771191397,0.158824459668,-0.00842833460007,0.925505094375,0.378308789659,0.0158664051099
-0.197212859988,0.0175213683397,0.149148643017,-2.47436714172,0.0396627821028,2.51030611992,-0.854352295399,0.0251706894487,0.000324840191752,-1.01351523399,0.0033028984908,0.629757642746,0.00393568491563,-1.71151173115,0.111569821835,0.47768035515,-0.0202636594613,0.174434604335,-0.0077887061069,0.925842657889,0.377566130104,0.014089924511
-0.197225049138,0.00303388875909,0.14914765954,-2.46489739418,0.0396782383323,2.48584461212,-0.852669835091,0.0251706894487,0.000394252565457,-1.06916689873,0.000267165189143,0.75319647789,-0.00853533297777,-1.80760419369,0.137883648276,0.479018485262,-0.0204469902338,0.182763645418,-0.00731561484279,0.926058046574,0.377068644833,0.0134986266628
-0.197256952524,-0.018711714074,0.149136662483,-2.4493432045,0.0396742895246,2.44905185699,-0.849695146084,0.0251706894487,-0.000190532067791,-1.09268510342,0.000452566397144,0.814960062504,0.00421599857509,-1.89822340012,0.158988773823,0.481264645573,-0.0207071501005,0.195942087742,-0.00632250883906,0.926460894209,0.376107246641,0.0131748279593
-0.197500422597,-0.0967990085483,0.149169430137,-2.38469743729,0.0396623387933,2.31805753708,-0.834082186222,0.0251700337976,-0.0104023739696,-1.21061885357,-0.000325323897414,1.08935189247,-0.0081845568493,-1.96825253963,0.290304452181,0.489292539262,-0.0212147274866,0.24855040705,-0.000580507645733,0.928772013234,0.370285222837,0.0164640176431
-0.197663500905,-0.11735701561,0.149162441492,-2.36594462395,0.0396876633167,2.28476071358,-0.828912079334,0.0251700337976,-0.0142616676167,-1.20219039917,-0.000513055128977,1.10461568832,-0.000492357357871,-1.9463083744,0.313206464052,0.491163412147,-0.0212602204134,0.26364694803,0.00155770184385,0.929566268545,0.368179470605,0.0186548400559
-0.197922289371,-0.138062849641,0.149164170027,-2.34675192833,0.0396836735308,2.25203680992,-0.823162853718,0.0251700337976,-0.0144972736016,-1.21180737019,0.0020401745569,1.12572443485,-0.000558305939194,-1.90599584579,0.361627280712,0.492775274626,-0.0212813290035,0.279213228324,0.00396037846931,0.930454548015,0.365762512576,0.0213643057286
-0.198360323906,-0.163573294878,0.149156972766,-2.32290863991,0.0396841168404,2.21293401718,-0.81540542841,0.0251700337976,-0.0253620315343,-1.20344543457,-0.00454174820334,1.13362002373,0.000406698556617,-1.81288790703,0.378335893154,0.4942912098,-0.0212674518405,0.298778556304,0.00721388844905,0.931654975996,0.362387027767,0.025349700311
-0.199252739549,-0.199629291892,0.149028092623,-2.28963303566,0.0396507494152,2.16062736511,-0.804162919521,0.0251726601273,-0.0383702591062,-1.18103992939,-0.0101904254407,1.07238805294,0.000500519992784,-1.68280339241,0.359841644764,0.495371406995,-0.021248860144,0.326799427915,0.0123503021339,0.933372230522,0.357253950439,0.0321459781206
-0.199918493629,-0.218675211072,0.14879232645,-2.27268052101,0.0396503657103,2.13480758667,-0.798528313637,0.0251726601273,-0.0424671061337,-1.17843818665,-0.0207922440022,1.03640067577,0.00542269134894,-1.55779957771,0.344263017178,0.495386220216,-0.0213251765093,0.3415833652,0.0152981959128,0.934235803017,0.354474939455,0.0362897581621
-0.200775340199,-0.238444343209,0.148468583822,-2.25574564934,0.0396234057844,2.10923647881,-0.792725026608,0.0251726601273,-0.0590585693717,-1.16489863396,-0.0252962335944,0.986400723457,-0.0034076734446,-1.45186793804,0.341852575541,0.494929387795,-0.0214623530391,0.356780756404,0.0184790898039,0.93512331209,0.351473968802,0.0408529480764
-0.201814591885,-0.257931172848,0.148058384657,-2.23993515968,0.0395884215832,2.08584165573,-0.787222325802,0.0251726601273,-0.0635106191039,-1.13437652588,-0.030546721071,0.896613895893,-0.00695543223992,-1.33344864845,0.323145896196,0.494152855014,-0.0216667066727,0.370704734635,0.021613156633,0.935906497595,0.348629143159,0.0454930703125
-0.206431418657,-0.313064157963,0.145647227764,-2.20236253738,0.0382187217474,2.0295817852,-0.772103488445,0.0251726601273,-0.110617347062,-1.02398514748,-0.0741701200604,0.604999065399,-0.0728802010417,-0.901496112347,0.261005192995,0.489248586539,-0.0236831377476,0.410849511649,0.0322240097836,0.938364595259,0.338725764775,0.060814106279
-0.207998618484,-0.325989305973,0.144576817751,-2.19503760338,0.037029504776,2.01855993271,-0.768904387951,0.0251726601273,-0.125635147095,-0.982213556767,-0.0889501720667,0.518731594086,-0.118536964059,-0.799222052097,0.238874360919,0.487670248506,-0.0247263928291,0.419541914942,0.0351373781204,0.938908857746,0.336235000662,0.0645100420249
-0.211120575666,-0.345516473055,0.14246083796,-2.18547773361,0.0331649333239,2.00283193588,-0.76418697834,0.0251726601273,-0.17678681016,-0.871533036232,-0.116052590311,0.393822401762,-0.252910196781,-0.693787813187,0.204789981246,0.48474965733,-0.0272129512369,0.431991498542,0.0402750414074,0.939780851968,0.332215402218,0.0694463644126
-0.214927971363,-0.361787199974,0.139903321862,-2.17869305611,0.0274799317122,1.9906617403,-0.760427892208,0.0251726601273,-0.231670498848,-0.832367002964,-0.152314826846,0.328844726086,-0.350599616766,-0.590793192387,0.196676686406,0.481877572156,-0.0306318740285,0.441856735368,0.0455258410093,0.940644347971,0.328311628634,0.0729868660861
-0.222874760628,-0.382702559233,0.134807527065,-2.17102098465,0.0148971118033,1.976146698,-0.755331158638,0.0251726601273,-0.326419264078,-0.636100411415,-0.197869747877,0.207127764821,-0.520639121532,-0.42954030633,0.144992619753,0.477568803783,-0.0382009394536,0.454149932828,0.0544641877472,0.942233840538,0.321507745181,0.076562467785
-0.229331105947,-0.393141508102,0.130733206868,-2.1676568985,0.004725409206,1.96922087669,-0.753129005432,0.0251726601273,-0.385535895824,-0.524984002113,-0.251483142376,0.166758269072,-0.615564882755,-0.349236339331,0.0977061986923,0.474966041519,-0.0445303932366,0.460129219344,0.0604994021015,0.943369299672,0.316840978637,0.0774982627216
-0.235958859324,-0.400547862053,0.126340314746,-2.16528630257,-0.00572179583833,1.9643856287,-0.752041876316,0.0251733157784,-0.449637621641,-0.408536583185,-0.301664978266,0.136913210154,-0.696711540222,-0.27154186368,0.0434192121029,0.472782675111,-0.0512402561803,0.464433777166,0.0660940897252,0.944446138768,0.312477987902,0.0775278597337
-0.245215922594,-0.406755387783,0.119975753129,-2.16292405128,-0.0199006982148,1.96036171913,-0.751721978188,0.0251733157784,-0.517470061779,-0.257533192635,-0.357084840536,0.115883283317,-0.78829729557,-0.167427048087,0.00048272695858,0.470415539087,-0.060794351156,0.468362328074,0.0730150545005,0.945877546499,0.306783869363,0.07660369464
-0.273633211851,-0.409838736057,0.097786411643,-2.15790247917,-0.0573864020407,1.95851993561,-0.751786589622,0.0251733157784,-0.706245422363,0.126090496778,-0.61022734642,0.132216379046,-0.807291328907,0.0296075250953,-0.0104356734082,0.46540263011,-0.0924795568484,0.4732001367,0.089300127541,0.95110809212,0.286932786678,0.0713334419722
-0.288351535797,-0.405441433191,0.0848646759987,-2.1549038887,-0.0728924274445,1.95982146263,-0.752210378647,0.0251733157784,-0.767735362053,0.324710816145,-0.697478234768,0.174718484282,-0.733093738556,0.0996223464608,-0.0376435108483,0.463693392938,-0.106811816651,0.473223150547,0.0939055374507,0.953724957988,0.277334949756,0.0683796744672
-0.300216138363,-0.39951261878,0.0736500546336,-2.15200567245,-0.083340793848,1.96170771122,-0.753081977367,0.0251733157784,-0.820317208767,0.456947416067,-0.791902303696,0.218459427357,-0.656781315804,0.154704228044,-0.0717475414276,0.462331437341,-0.119751765732,0.472469470367,0.0967662306218,0.956161108114,0.268467467485,0.0657073095901
-0.316753596067,-0.388812243938,0.0568432062864,-2.14719605446,-0.0955779924989,1.96532952785,-0.754743278027,0.0251733157784,-0.840349137783,0.641983091831,-0.903804838657,0.260455161333,-0.553142547607,0.213008716702,-0.110263198614,0.460256299319,-0.140005475842,0.470426624098,0.0995632301128,0.960032124043,0.254181780023,0.0617827355462
-0.358210176229,-0.349048674107,0.00835005007684,-2.13166928291,-0.115208052099,1.98114025593,-0.763582408428,0.0251733157784,-0.885001599789,0.982297241688,-1.12674367428,0.361380070448,-0.263394832611,0.411614567041,-0.276375800371,0.455612343806,-0.186389079419,0.461861295321,0.100010279816,0.968578015065,0.221164159299,0.0542308675724
-0.372806638479,-0.331153720617,-0.011026987806,-2.12495732307,-0.118865810335,1.98839902878,-0.768923103809,0.0251733157784,-0.851151645184,1.09837424755,-1.14453828335,0.422776728868,-0.160704731941,0.433732062578,-0.346826314926,0.453448185757,-0.204328683635,0.457386747306,0.0986222531458,0.971643895681,0.208612237893,0.0516015994459
-0.389066547155,-0.309188365936,-0.0335181169212,-2.11687755585,-0.121027112007,1.99645411968,-0.776024580002,0.0251733157784,-0.821582317352,1.18169236183,-1.18889677525,0.434144079685,-0.0734055712819,0.405551582575,-0.397930860519,0.450446602917,-0.224598538801,0.451470616052,0.0960701611606,0.975003586017,0.194419673262,0.0483686027581
-0.427396804094,-0.248397916555,-0.0915633141994,-2.0960392952,-0.121567189693,2.01368522644,-0.797613024712,0.0251733157784,-0.768603742123,1.3179410696,-1.18108606339,0.418292373419,0.000655570009258,0.313340872526,-0.488598316908,0.439201491377,-0.275313893674,0.432260497691,0.0863266447729,0.982760115854,0.159210854787,0.0371775268667
-0.440301269293,-0.226163133979,-0.111600503325,-2.08945870399,-0.121418334544,2.01858854294,-0.805906772614,0.0251733157784,-0.732364296913,1.30034410954,-1.14534723759,0.368491023779,0.0281603448093,0.263476938009,-0.497148543596,0.434249099196,-0.291010324452,0.424871978444,0.0826504772582,0.984939469665,0.148379056137,0.0323542130451
-0.453215420246,-0.203075587749,-0.131624609232,-2.08345532417,-0.120789259672,2.0230307579,-0.815062880516,0.0251733157784,-0.710775852203,1.25803267956,-1.09010589123,0.292008370161,0.0429408699274,0.21188120544,-0.512410342693,0.428212512174,-0.307391420287,0.416133444019,0.0781865912168,0.987101316952,0.137170605077,0.0264966379943
-0.467878639698,-0.177271530032,-0.153620630503,-2.07828617096,-0.119733273983,2.02691578865,-0.826063752174,0.0251733157784,-0.681378960609,1.20310389996,-1.0016272068,0.210863262415,0.0560980662704,0.16679674387,-0.53404301405,0.420200375765,-0.324991456305,0.405358965155,0.0724064625661,0.989331033456,0.124992665444,0.0189273268629
-0.48683950305,-0.144225433469,-0.18012188375,-2.07395911217,-0.117862477899,2.0303800106,-0.84139341116,0.0251733157784,-0.633292078972,1.06803977489,-0.860921144485,0.089297555387,0.0558884739876,0.0766308754683,-0.513679027557,0.408484573607,-0.345777135915,0.390172997637,0.0637948867174,0.991785580922,0.11058889328,0.00785304301253
-0.497087657452,-0.126739412546,-0.193585932255,-2.07307505608,-0.117365583777,2.03109693527,-0.850144386292,0.0251733157784,-0.567696928978,0.990135729313,-0.729960262775,0.0177620258182,0.011494464241,0.0134573038667,-0.509999513626,0.401325585505,-0.356029436786,0.381326834746,0.0585806305038,0.992898851867,0.103534362242,0.000902897633892
-0.505506157875,-0.112460762262,-0.204021140933,-2.07316160202,-0.117300868034,2.0310921669,-0.857704102993,0.0251733157784,-0.551823914051,0.917238175869,-0.667106389999,-0.0230462662876,-0.00049700809177,-0.0105390995741,-0.499257206917,0.395084185371,-0.363836775895,0.373671810093,0.0539456487589,0.993679452943,0.0982963754734,-0.00536973434156
-0.525330960751,-0.0779747292399,-0.227682054043,-2.07590031624,-0.117235332727,2.02964496613,-0.877197802067,0.0251733157784,-0.393308699131,0.679704666138,-0.440231144428,-0.104520395398,-0.00298507558182,-0.0648786425591,-0.402524858713,0.379009052369,-0.380468080953,0.353960057656,0.0412236481268,0.995091935602,0.0872830726601,-0.0217787846627
-0.542814850807,-0.045791041106,-0.245697170496,-2.08503079414,-0.117253482342,2.02317714691,-0.902498006821,0.0251733157784,-0.117953427136,0.283571988344,-0.0998319461942,-0.132703989744,-0.000615698343609,-0.143877565861,-0.347548693419,0.362657177601,-0.390860728315,0.332553488168,0.0249248562607,0.995410717286,0.0830096886596,-0.0405665717045
-0.544159889221,-0.0423062741756,-0.246666938066,-2.08700799942,-0.1172529459,2.02085471153,-0.907429277897,0.0251765996218,-0.0622316561639,0.189630284905,-0.0308756045997,-0.128176301718,-0.000754057255108,-0.157374948263,-0.31471285224,0.360771184198,-0.390932720508,0.329433306952,0.0219257085283,0.995227807492,0.0844535563223,-0.043686050682
-0.544518947601,-0.0398036912084,-0.246743232012,-2.08897829056,-0.117241889238,2.01800537109,-0.912685573101,0.0251765996218,0.0150453709066,0.10902710259,0.00919531192631,-0.106214806437,0.000408087507822,-0.175745040178,-0.29593500495,0.359667922476,-0.390214061113,0.327016532502,0.0192563269284,0.994953155956,0.0868880197059,-0.0463452592623
-0.54370123148,-0.0386780463159,-0.24608592689,-2.0905444622,-0.117227695882,2.01500749588,-0.917598307133,0.0251765996218,0.0782212987542,0.0165150184184,0.074520252645,-0.0704525858164,0.002104583662,-0.178463816643,-0.278490632772,0.359367678633,-0.388976909933,0.325552141155,0.0172521136043,0.99463664577,0.0898470334692,-0.0482474635965
-0.539505124092,-0.0392540358007,-0.242140412331,-2.09147286415,-0.117217324674,2.00927829742,-0.926289796829,0.0251765996218,0.1870200634,-0.0634596049786,0.1686886549,0.00913227256387,0.000512738421094,-0.177957206964,-0.266278266907,0.361338638075,-0.384913158116,0.324932132328,0.014898311682,0.993769433603,0.0982903969069,-0.0503919707833
-0.537014424801,-0.0404063016176,-0.239991649985,-2.09130048752,-0.117205947638,2.00734615326,-0.929339170456,0.0251765996218,0.227574065328,-0.134097620845,0.197796836495,0.0166625548154,-0.000140312535223,-0.131043002009,-0.24271504581,0.3632625703,-0.382499529735,0.325650725943,0.0146773204167,0.993288859207,0.103010119996,-0.0505047850926
-0.531587421894,-0.0437877848744,-0.235406816006,-2.09079551697,-0.117189124227,2.0048418045,-0.934706449509,0.0251765996218,0.271294534206,-0.16466628015,0.223708704114,0.0354180522263,0.000411478773458,-0.101230427623,-0.239182114601,0.366171994474,-0.379315077036,0.327144264138,0.0151016071788,0.992654578206,0.109157813214,-0.0499339697968
-0.525880455971,-0.0474754087627,-0.23058155179,-2.08983230591,-0.117171391845,2.00330328941,-0.938946247101,0.0251765996218,0.318741798401,-0.225409314036,0.282798558474,0.0651080161333,0.00174471514765,-0.0732898935676,-0.208260759711,0.370295472337,-0.375262019086,0.32946697396,0.016286662072,0.991841815265,0.116699939296,-0.0486382770767
-0.515261828899,-0.0552598983049,-0.221473902464,-2.08725070953,-0.11700835079,2.00138950348,-0.945203542709,0.0251785703003,0.36347553134,-0.267801046371,0.313977837563,0.0994335561991,0.0117594487965,-0.0383462235332,-0.195590749383,0.378175939087,-0.367940102689,0.334715316227,0.0194813024133,0.990334463585,0.129677272177,-0.0451877623951
-0.508846879005,-0.0599238723516,-0.215760931373,-2.08527135849,-0.11686976254,2.00080275536,-0.948466539383,0.0251785703003,0.390623539686,-0.281691670418,0.350569576025,0.12967300415,0.00335648003966,-0.0275026205927,-0.194489762187,0.382702388373,-0.363895696688,0.337824374269,0.0215853122761,0.989447809708,0.136674775187,-0.0429780372174
-0.501583456993,-0.0650027766824,-0.209500744939,-2.08269238472,-0.116732344031,2.00031542778,-0.951711773872,0.0251785703003,0.413648217916,-0.295754551888,0.342691034079,0.1435623914,0.00697852345183,-0.0287746973336,-0.168267592788,0.388083923366,-0.35913182451,0.341633693544,0.0242391451778,0.988354370796,0.144738669192,-0.0402345486724
-0.494454950094,-0.0701653659344,-0.203695088625,-2.08012580872,-0.11652161926,1.9999986887,-0.954335927963,0.0251785703003,0.424716353416,-0.308960914612,0.342574387789,0.158270165324,0.0109422346577,-0.0135833881795,-0.150631055236,0.39320787828,-0.354514578226,0.345504824942,0.0269363122673,0.987278883055,0.152180736731,-0.0373612796982
-0.473955243826,-0.085364960134,-0.185597106814,-2.07105875015,-0.115705281496,1.9998267889,-0.961696565151,0.0251785703003,0.405105322599,-0.295869767666,0.370524376631,0.198008850217,0.028145076707,0.000431939959526,-0.154532581568,0.408508267857,-0.340550120597,0.357781321997,0.0356508332175,0.983696631301,0.174024873506,-0.0280231824631
-0.467964619398,-0.0899638906121,-0.180192276835,-2.06808543205,-0.115285441279,1.9998332262,-0.963907361031,0.0251785703003,0.39397329092,-0.311823040247,0.352338522673,0.199748396873,0.0238405372947,-0.000140299714985,-0.140392124653,0.41297673535,-0.336306738036,0.361637638963,0.0383158256752,0.982523622998,0.180424130838,-0.0250271944267
-0.461243093014,-0.0951301902533,-0.174058958888,-2.06464838982,-0.114851698279,1.99985969067,-0.966159343719,0.0251785703003,0.390753954649,-0.282716095448,0.366016238928,0.203633725643,0.0232383161783,0.00763527443632,-0.135809317231,0.417955473871,-0.331454412297,0.366036329266,0.0413587438015,0.981152053853,0.187517166128,-0.021619751025
-0.453480839729,-0.100865490735,-0.166667625308,-2.06031537056,-0.114322945476,1.99988222122,-0.968943059444,0.0251785703003,0.348243653774,-0.280366182327,0.330066651106,0.200988590717,0.0262786056846,-0.00145721051376,-0.138058796525,0.423787421421,-0.325665707556,0.371195620264,0.0449216526641,0.97943181667,0.19591904594,-0.0176377081995
-0.443750619888,-0.108787663281,-0.157385706902,-2.05491065979,-0.11357434839,1.99997496605,-0.972599744797,0.0251785703003,0.313770502806,-0.255656450987,0.290558069944,0.170792818069,0.0246401503682,0.00762145780027,-0.114892356098,0.43091371956,-0.318196337996,0.378075024646,0.0495694117533,0.97711729258,0.20647887892,-0.01229399101
-0.438633292913,-0.112809471786,-0.152593791485,-2.05204343796,-0.113155841827,2.00013113022,-0.974487602711,0.0251785703003,0.295958608389,-0.227496102452,0.285642832518,0.165873840451,0.0256047900766,0.00876811146736,-0.105816438794,0.434584588146,-0.314240040986,0.381654460634,0.0519923824423,0.975848857765,0.21195763765,-0.00947409642267
-0.434191942215,-0.116468794644,-0.148084789515,-2.04947113991,-0.112641893327,2.00025749207,-0.976143419743,0.0251785703003,0.255155831575,-0.227000072598,0.270424753428,0.152011573315,0.0354831777513,0.00709640746936,-0.0962956473231,0.437855192024,-0.31059502268,0.384900920811,0.0541343617569,0.974679013435,0.216847680087,-0.00688294869635
-0.429440051317,-0.120885543525,-0.143176868558,-2.04664826393,-0.111852228642,2.00031924248,-0.978055655956,0.0251785703003,0.215959876776,-0.201803550124,0.223833009601,0.133403211832,0.0348020605743,0.00281206611544,-0.10717445612,0.441324205204,-0.306566868847,0.388673923579,0.0564956955018,0.97337382016,0.222119179291,-0.00383568809973
-0.423736035824,-0.126397222281,-0.137172371149,-2.04317498207,-0.111012496054,2.00035309792,-0.981391251087,0.0251785703003,0.168340086937,-0.175844162703,0.178036674857,0.0958997607231,0.0140404859558,-0.000672449124977,-0.112043827772,0.445434504759,-0.301629269536,0.393368685107,0.0594412911027,0.97160864934,0.229005121163,-0.000140054223268
-0.420866459608,-0.12955455482,-0.134263977408,-2.0416302681,-0.110746189952,2.00038361549,-0.983195185661,0.0251785703003,0.13101926446,-0.154961124063,0.133574530482,0.0737894028425,0.0121646439657,0.00198016269132,-0.083642989397,0.44735861094,-0.299150694783,0.395842103739,0.0610167095928,0.970680319556,0.232494308079,0.00175350552324
-0.418962806463,-0.1318487674,-0.132359728217,-2.04059815407,-0.110626846552,2.00039744377,-0.984297931194,0.0251785703003,0.112593509257,-0.129343092442,0.10029348731,0.0579619519413,0.00646204128861,0.00158191157971,-0.0684120431542,0.448598649859,-0.29751087913,0.39759446376,0.0621402861547,0.970061961512,0.234752906228,0.00307382099729
-0.417313694954,-0.133915379643,-0.130809649825,-2.03972625732,-0.110568106174,2.00040650368,-0.985584199429,0.0251785703003,0.0815833285451,-0.103923968971,0.07010884583,0.0396863035858,0.00416797073558,-0.000173231834196,-0.0758318901062,0.449620846084,-0.296129601637,0.399144013468,0.0631391677877,0.969488984859,0.236826467791,0.00421634622016
-0.416162699461,-0.135723233223,-0.129896208644,-2.03915166855,-0.110505849123,2.00040006638,-0.987074375153,0.0251785703003,0.0426878742874,-0.0795003771782,0.0349803306162,0.0256813373417,0.00366388401017,0.000222424438107,-0.0829765275121,0.450275592943,-0.295180907076,0.400466668735,0.0639584611503,0.969007821876,0.238550483628,0.00517907763778
-0.41592168808,-0.137601405382,-0.129611000419,-2.0385658741,-0.110432349145,2.0003862381,-0.990034639835,0.0251785703003,-0.0255273878574,-0.0125679625198,-0.0137229291722,0.00032264640322,-0.000356275675585,6.38393685222e-05,-0.0440121404827,0.450429682656,-0.294980962781,0.401681849823,0.0646857868987,0.968580443244,0.24006591938,0.00600233151527
-0.416875362396,-0.13761511445,-0.130291730165,-2.0386505127,-0.110434494913,2.00033521652,-0.99117821455,0.0251785703003,-0.0489584803581,0.0101110292599,-0.0406524688005,-0.0103836040944,-0.000294182886137,-0.00582263479009,-0.050527010113,0.44990438468,-0.29572220768,0.40164191328,0.0646194774826,0.968643178067,0.239833032261,0.00590195251035
-0.419940441847,-0.136176794767,-0.13311880827,-2.03882813454,-0.11043637991,2.0000193119,-0.993306517601,0.0251785703003,-0.09037104249,0.047873172909,-0.0751405507326,-0.0062627280131,-8.06420357549e-05,-0.00118455279153,-0.0452264510095,0.448143713167,-0.298365250981,0.400721088268,0.0638792593747,0.969134813805,0.238058753183,0.00501822877132
-0.421593487263,-0.13530690968,-0.13449563086,-2.03896379471,-0.110437393188,1.99997842312,-0.994133114815,0.0251785703003,-0.106510967016,0.0525151751935,-0.0864358693361,-0.00898154638708,-0.00275902752765,-0.00480057857931,-0.0506881438196,0.447253169313,-0.299728396941,0.400170532641,0.063486685978,0.969416773893,0.237022946401,0.00454772146712
-0.423116505146,-0.134537279606,-0.13573384285,-2.03912734985,-0.110438361764,1.99992918968,-0.994812369347,0.0251785703003,-0.110935516655,0.0627812072635,-0.0911765769124,-0.00935687962919,-0.000375337083824,-0.00199151528068,-0.0432717613876,0.446301722737,-0.301143730538,0.399578783982,0.063059261025,0.969723519329,0.235888691622,0.00404357746195
-0.425810873508,-0.132951200008,-0.138058394194,-2.03951334953,-0.110441230237,1.99985611439,-0.99549549818,0.0251785703003,-0.111319720745,0.0727170407772,-0.100092627108,-0.0164784565568,-0.000154571214807,-0.00415339739993,-0.0130767636001,0.44490650991,-0.303187322091,0.398590292905,0.0623576146709,0.970228686097,0.234002792613,0.00324304027856
-0.429296195507,-0.130852818489,-0.141283020377,-2.04028773308,-0.110443852842,1.99974584579,-0.996017515659,0.0251785703003,-0.11899163574,0.0687481760979,-0.105077899992,-0.0288212057203,0.00252539105713,-0.00457781041041,-0.0170723572373,0.442797044778,-0.306110596792,0.397041333378,0.0612413734446,0.971000825416,0.231090516324,0.00201598103098
-0.431013375521,-0.129884004593,-0.142943158746,-2.04076814651,-0.110445104539,1.99968004227,-0.996354818344,0.0251785703003,-0.112125396729,0.0639916211367,-0.114097632468,-0.0340774543583,0.00211372086778,-0.0093347132206,-0.0253415293992,0.441626696225,-0.30765413773,0.396208877914,0.0606274358605,0.97140196044,0.229566343706,0.00135602598692
-0.43282571435,-0.128713831306,-0.144903063774,-2.04131174088,-0.110448613763,1.99955749512,-0.99681943655,0.0251785703003,-0.104104824364,0.0748647674918,-0.113375835121,-0.0273928213865,9.05111592147e-05,-0.00576695660129,-0.0293631907552,0.440462951666,-0.309167413139,0.395335351906,0.0599733632658,0.971786975077,0.228107081418,0.000655645491801
-0.43475073576,-0.127360388637,-0.147193744779,-2.04187202454,-0.110448420048,1.99938106537,-0.997482955456,0.0251785703003,-0.102878279984,0.0649216547608,-0.122445702553,-0.0300203245133,-5.74740406591e-05,-0.00989705510437,-0.0397435389459,0.439077292696,-0.310962322734,0.394294277387,0.0591794958604,0.972225918042,0.226438768926,-0.000187557364125
-0.438069492579,-0.125501602888,-0.150447383523,-2.0428712368,-0.11044922471,1.99911808968,-0.998513996601,0.0251785703003,-0.114573925734,0.0620579607785,-0.0903037190437,-0.0282227750868,9.77246259026e-07,-0.0124333314598,-0.0232455469668,0.436861186888,-0.313720182551,0.392748620435,0.0579905529305,0.972900116514,0.223831080588,-0.00145124577984
-0.439859747887,-0.124478511512,-0.151901781559,-2.04338359833,-0.110452406108,1.99899613857,-0.998893797398,0.0251785703003,-0.108122184873,0.0619938820601,-0.0918037071824,-0.0305380206555,-0.00016050771228,-0.00435183010995,-0.0238347165287,0.435827995881,-0.314994510466,0.39197665306,0.0574128922062,0.973223773372,0.222564427858,-0.00207891771087
-0.441641449928,-0.123355574906,-0.153478845954,-2.04390358925,-0.110451057553,1.99884104729,-0.999278068542,0.0251785703003,-0.093324020505,0.0559227205813,-0.0869786143303,-0.0265861190856,4.31485823356e-05,-0.00938283279538,-0.0197885669768,0.434619992298,-0.316472772117,0.391038060081,0.0567030260461,0.973600875525,0.221083757714,-0.00284144029785
-0.443200409412,-0.12243655324,-0.154887914658,-2.04438662529,-0.110452093184,1.99869942665,-0.999677360058,0.0251785703003,-0.0905270725489,0.054900880903,-0.0803363546729,-0.0258017014712,-0.000101900717709,-0.0101426532492,-0.0260144174099,0.433480038653,-0.317835637454,0.390196785868,0.0560553230206,0.97393997546,0.219741376058,-0.00352878225553
-0.44479110837,-0.121405050159,-0.156602665782,-2.04493069649,-0.110455781221,1.9985281229,-1.00027346611,0.0251785703003,-0.0663355439901,0.0436076112092,-0.0823010653257,-0.0235392451286,0.000101849553175,-0.0157729070634,-0.0342432819307,0.432446707486,-0.319056280141,0.389430738119,0.0554569831723,0.974228175815,0.218601727393,-0.00415559147617
-0.446438461542,-0.120158471167,-0.158795773983,-2.04554772377,-0.110453486443,1.99823915958,-1.00121951103,0.0251785703003,-0.0565201342106,0.0412476994097,-0.0811928734183,-0.0171583313495,-5.83640212426e-05,-0.0129230711609,-0.0280776023865,0.431094379903,-0.320621853957,0.38841239057,0.0546300757765,0.974574506475,0.217244163635,-0.0050059175849
-0.447342991829,-0.119544826448,-0.160054579377,-2.04584884644,-0.110453881323,1.99801838398,-1.00166404247,0.0251785703003,-0.0488146729767,0.026503963396,-0.0596283897758,-0.0124990893528,7.81468188507e-05,-0.0160129647702,-0.023192288354,0.430363810612,-0.321455417625,0.387928193567,0.0542097788216,0.97476684817,0.216474986744,-0.00542875653706
-0.448026448488,-0.119046032429,-0.161005809903,-2.04605102539,-0.110453695059,1.99783980846,-1.00187790394,0.0251785703003,-0.0372499488294,0.0279382821172,-0.0497798025608,-0.00996644515544,0.000260265514953,-0.00664793560281,-0.0126147093251,0.429745963534,-0.322165927482,0.3875101182,0.0538464786853,0.974943908408,0.215757658964,-0.00579348645048
