imanlab/tactile_prediction_flat_dataset/train/data_sample_2021-11-24-16-17-35/robot_state.csv
position_panda_joint1,position_panda_joint2,position_panda_joint3,position_panda_joint4,position_panda_joint5,position_panda_joint6,position_panda_joint7,position_panda_finger,velocity_panda_joint1,velocity_panda_joint2,velocity_panda_joint3,velocity_panda_joint4,velocity_panda_joint5,velocity_panda_joint6,velocity_panda_joint7,ee_state_position_x,ee_state_position_y,ee_state_position_z,ee_state_orientation_x,ee_state_orientation_y,ee_state_orientation_z,ee_state_orientation_w
-0.095414146781,0.109409056604,0.0926667302847,-2.53094148636,-0.0328409820795,2.66993641853,-0.65705871582,0.0696953162551,-7.84548101365e-05,-0.000507836637553,-0.00312167825177,0.000490724167321,0.00012551889813,2.75719753517e-06,0.000167920647073,0.467929165043,-0.000134044614282,0.124908055604,0.00738101767779,0.942203155496,0.334691506945,0.0134286714808
-0.0954168885946,0.109410971403,0.0926660299301,-2.53094577789,-0.0328408405185,2.66993880272,-0.657056152821,0.0696953162551,-0.000192220497411,-4.6119774197e-05,0.00185853324365,-0.00030294599128,4.18574090872e-05,-0.00023490365129,0.000451470259577,0.467927079145,-0.00013559129638,0.12490587704,0.00738026690283,0.942204197555,0.334688660656,0.013426909022
-0.0954131856561,0.10940965265,0.0926661342382,-2.53094649315,-0.0328405089676,2.66993951797,-0.657055795193,0.0696953162551,6.13976517343e-05,0.000119943935715,0.00186962448061,0.000408007996157,-0.000300241139485,5.44793620065e-05,0.000130656233523,0.467927140399,-0.00013381878233,0.124906307986,0.00738042927317,0.942203658576,0.334690148588,0.0134275520813
-0.0954108536243,0.109406165779,0.0926658511162,-2.53094005585,-0.032841231674,2.6699411869,-0.6570571661,0.0696953162551,-0.000206604760024,1.80105234904e-05,-0.000459969189251,0.000207826902624,2.12471604755e-05,2.71264998446e-05,0.000122906392789,0.467931585432,-0.000133190561886,0.12491048253,0.00738273155404,0.942203046865,0.334691600192,0.0134330265186
-0.0954126194119,0.109409175813,0.0926676765084,-2.53094387054,-0.0328405499458,2.66994047165,-0.657056689262,0.0696953162551,-0.000113489484647,6.28783309367e-05,0.00018296953931,-0.000327477639075,0.00466687092558,0.000190633436432,7.0208508987e-05,0.467928794989,-0.000132819881604,0.124907549713,0.0073810459758,0.942203128295,0.334691549963,0.0134294922418
-0.0954167097807,0.109409466386,0.0926647633314,-2.53094530106,-0.0328403413296,2.66993999481,-0.657055616379,0.0696953162551,0.000262416549958,0.000934932439122,0.000591665157117,0.000136927425046,0.000301078223856,-0.000120131611766,-0.00499210134149,0.46792789017,-0.000136139998136,0.12490685223,0.007380806322,0.942204519809,0.334687682254,0.0134283872782
-0.0954151749611,0.109409116209,0.0926679670811,-2.53094434738,-0.0328408293426,2.66994047165,-0.657054543495,0.0696953162551,0.000416441005655,0.00044905510731,0.000344178261003,-0.0012063276954,-0.0001437983301,-5.56905906706e-05,5.25092473254e-05,0.467928563082,-0.000133878547445,0.124907411294,0.00738102645381,0.94220382728,0.334689591143,0.0134292805357
-0.0954134240746,0.109408289194,0.092665605247,-2.53094506264,-0.0328416116536,2.66994261742,-0.657055020332,0.0696953162551,-2.71146109299e-05,8.30812132335e-05,-4.73250838695e-05,0.00017115646915,-0.00516516761854,-7.67434903537e-05,-0.000172408952494,0.46792882637,-0.00013422741147,0.124907736608,0.00738171123774,0.942203711911,0.334689863038,0.0134302221482
-0.0954123586416,0.109407901764,0.0926670879126,-2.53094291687,-0.0328414663672,2.66994476318,-0.657050609589,0.0696953162551,-0.000211172140553,7.00571545167e-05,-0.000270182848908,0.000190653721802,0.0002451754699,-3.53131799784e-05,0.000180131872185,0.467930475226,-0.000133008577416,0.124908881473,0.00738233656135,0.942204017389,0.334688897963,0.013432497556
-0.0954115241766,0.109408721328,0.0926669463515,-2.53094577789,-0.0328412987292,2.66994333267,-0.657050609589,0.0696953162551,-0.00012171259732,0.000243885762757,0.00185647804756,-3.56223499693e-05,7.57989109843e-05,-0.000211253456655,-0.000160958821652,0.467928527539,-0.000132661021945,0.124907357975,0.00738142294025,0.942203957156,0.334689183412,0.0134301120541
-0.095415353775,0.109408453107,0.0926672667265,-2.53094696999,-0.032840706408,2.66994333267,-0.657051444054,0.0696953162551,-2.2141417503e-05,-0.000695165537763,-0.000142357370351,0.000628649780992,0.000243031259743,-7.55879009375e-05,-0.000548395735677,0.467927971179,-0.000134283301594,0.124907065331,0.00738116014257,0.942204497286,0.334687684872,0.0134297077846
-0.0954149737954,0.109408989549,0.0926668271422,-2.53094553947,-0.0328401550651,2.6699450016,-0.657050967216,0.0696953162551,0.00226268405095,-0.000807824137155,-5.11425741934e-06,0.000234100836678,-1.43087981996e-05,-0.00394660979509,0.000185196040547,0.467928953761,-0.000134295040164,0.124907473935,0.00738144406149,0.9422046523,0.334687191848,0.013430963027
-0.095410451293,0.109408073127,0.0926674678922,-2.53094434738,-0.0328413136303,2.66994643211,-0.657049298286,0.0696953162551,0.0001393420971,6.75535329719e-06,2.4590324756e-05,-9.1682508355e-05,-0.00295166531578,-1.4990391719e-05,4.84209958813e-05,0.467930067347,-0.000131906515414,0.124908458395,0.00738224087106,0.942203873024,0.334689303444,0.0134325733358
-0.0954102054238,0.109408192337,0.0926681980491,-2.53094530106,-0.0328402407467,2.66994738579,-0.657048761845,0.0696953162551,-0.000273621029919,-0.000175523236976,-0.000291605159873,3.44245054293e-05,-0.00040110773989,6.86449129716e-05,-0.000160367519129,0.4679297481,-0.000131637531545,0.124908227258,0.0073818636588,0.942204103751,0.334688660494,0.0134326165996
-0.0954095646739,0.109407119453,0.092667683959,-2.53094577789,-0.0328411124647,2.66994714737,-0.657048463821,0.0696953162551,9.7801850643e-05,-0.000191620318219,5.97498255956e-05,5.05690950376e-05,-4.72411848023e-05,9.12877367227e-05,-4.92789840791e-05,0.467929685822,-0.000131389085508,0.124908468402,0.00738224355233,0.942203853385,0.334689353618,0.0134326992245
-0.0954134017229,0.109407685697,0.0926657021046,-2.53094220161,-0.0328413508832,2.66994953156,-0.657048285007,0.0696953162551,2.95997815556e-05,-0.000268155999947,0.000277505052509,0.000173825465026,-5.58203137189e-05,-1.36358366944e-05,-0.000294626690447,0.467932085611,-0.00013397195633,0.124909777766,0.00738335394164,0.942204691385,0.334686861747,0.0134353964545
-0.095411285758,0.109408758581,0.0926679298282,-2.5309445858,-0.0328406617045,2.66994953156,-0.657045125961,0.0696953162551,-0.000195886212168,6.70498266118e-05,0.00162759155501,0.000487777404487,-0.00070803007111,-4.07050356444e-06,-4.29141546192e-05,0.467930473587,-0.000132024324349,0.124908350518,0.00738234377301,0.942204713583,0.334686889781,0.013433696392
-0.0954102724791,0.109409198165,0.0926658883691,-2.53094577789,-0.032841462642,2.66995024681,-0.65704458952,0.0696953162551,-0.000168559228769,-0.000213919454836,-0.000355599011527,-0.00067979155574,-7.36570509616e-05,2.40690733335e-05,-7.0848633186e-05,0.467929921193,-0.000132543512922,0.124907784503,0.00738244237661,0.942204857406,0.334686503914,0.0134331682663
-0.0954157188535,0.109409078956,0.0926656723022,-2.53094625473,-0.0328408591449,2.66995024681,-0.657044053078,0.0696959719062,-0.000211677048355,-0.000360965466825,-0.000687315361574,0.000121599878184,0.00010691848729,-0.000135928610689,-0.000202506271307,0.467929699606,-0.000135184547305,0.124907671283,0.00738229821117,0.942205985659,0.334683336843,0.0134330185699
-0.0954168513417,0.109406083822,0.092665925622,-2.53094601631,-0.0328396707773,2.66994953156,-0.657043874264,0.0696959719062,0.000217501132283,-0.000476311339298,9.02663887246e-05,0.000261915760348,0.00181017036084,0.000219197841943,-0.000136616945383,0.467930287574,-0.00013563079474,0.124909083729,0.00738258929832,0.942206322692,0.334682332628,0.0134342386647
-0.0954089388251,0.109408289194,0.0926679670811,-2.5309472084,-0.03284105286,2.66995072365,-0.657041609287,0.0696959719062,-0.000144138102769,0.000809155579191,-0.000303973210976,-0.000135703026899,-0.000128872896312,9.20305246837e-05,0.00100557086989,0.467929483093,-0.000130904550873,0.124907760157,0.00738223031286,0.942204845927,0.334686538214,0.0134332354128
-0.0954125076532,0.10940951854,0.0926668792963,-2.53094768524,-0.0328416079283,2.66995072365,-0.657040476799,0.0696959719062,0.000140454649227,0.000426608195994,0.000771146675106,0.000119851567433,-6.32185992799e-06,1.52911143232e-05,0.000603560591117,0.467928981038,-0.000133089919514,0.124907014671,0.00738209039536,0.942205741847,0.334684053638,0.0134323750759
-0.0954168140888,0.109405376017,0.0926646590233,-2.53094553947,-0.0328409262002,2.66995286942,-0.657039165497,0.0696959719062,-0.00024280580692,0.000124104786664,0.000698312593158,-0.000455436267657,0.00548612233251,0.000132982167997,0.000116823328426,0.46793139822,-0.000136253981712,0.124909890683,0.00738365551023,0.942207095553,0.334680052142,0.0134362608566
-0.095412902534,0.109407059848,0.0926656574011,-2.53094553947,-0.0328408330679,2.66995072365,-0.657039225101,0.0696959719062,-2.48030919465e-05,-0.000291321164696,-0.00148195074871,-0.000201482616831,-5.86522874073e-05,-6.34598836768e-05,7.11754328222e-05,0.467930588357,-0.000133914319556,0.124908908267,0.00738286374843,0.942206307215,0.334682358606,0.0134345261302
-0.0954070612788,0.109408505261,0.0926684513688,-2.5309484005,-0.0328410565853,2.66995191574,-0.657037615776,0.0696953162551,5.2897088608e-05,-0.000176479763468,-6.84497281327e-05,0.000130870117573,0.000140365053085,0.000127845356474,0.000338421639754,0.467929244151,-0.000129933351357,0.12490752121,0.00738213156051,0.942205253341,0.334685387438,0.0134333850031
-0.0954147577286,0.109406977892,0.092666439712,-2.53094673157,-0.0328410081565,2.66995406151,-0.657035112381,0.0696953162551,-0.000458520982647,0.000215438107261,-0.00021669002308,-0.00028497556923,-0.00371604203247,-7.57855523261e-05,0.000123319230624,0.467930716682,-0.000134379720095,0.124908846804,0.00738317759584,0.942207130162,0.334679991584,0.0134356049845
-0.0954148247838,0.10940849781,0.0926648303866,-2.53094696999,-0.0328397117555,2.66995501518,-0.6570327878,0.0696953162551,0.000157407906954,0.000557555467822,0.000530087156221,-0.000179822585778,0.000150106148794,1.27981511469e-05,0.000186794801266,0.467930350861,-0.000134893320457,0.124907942108,0.00738262808567,0.942207944654,0.334677726545,0.0134352102625
-0.0954132974148,0.109408266842,0.0926655307412,-2.53094625473,-0.0328406952322,2.66995429993,-0.657034039497,0.0696953162551,-3.12534757541e-05,-0.000123984355014,-0.0065998416394,0.000176137691597,-4.64953482151e-05,0.000117952396977,0.000480610615341,0.467930743889,-0.000134108647943,0.124908432114,0.00738298718316,0.94220726757,0.334679618506,0.0134353668441
-0.0954119414091,0.109407424927,0.0926666483283,-2.5309445858,-0.0328391157091,2.66995620728,-0.657029807568,0.0696953162551,-1.65781038959e-05,-0.000612532661762,0.00053517910419,-0.000485628348542,0.00283413659781,5.81116728426e-05,3.76062489522e-05,0.467932189045,-0.000132909596871,0.124909596578,0.00738329248181,0.942207769127,0.334678109821,0.0134376070204
-0.0954139903188,0.109408885241,0.0926650241017,-2.53094696999,-0.0328404344618,2.66995644569,-0.657031238079,0.0696953162551,8.94456388778e-05,0.000350745336618,-3.28809037455e-05,0.00021360097162,1.23850713862e-05,0.00530052278191,0.000237019805354,0.467930711138,-0.000134645496259,0.124908093018,0.0073830250861,0.942207966852,0.334677632287,0.0134357833875
-0.0954125672579,0.109407402575,0.0926668345928,-2.53094816208,-0.0328400470316,2.66995668411,-0.657031655312,0.0696953162551,-1.58506991284e-05,3.0741422961e-05,0.000239514396526,0.000137615614221,0.000105362814793,8.13276492408e-05,0.000821667781565,0.467930462119,-0.000133110056703,0.124908395879,0.0073829798398,0.942207409655,0.334679189701,0.0134360882601
-0.0954121798277,0.109407253563,0.0926669687033,-2.53094887733,-0.0328399427235,2.66995573044,-0.65702855587,0.0696953162551,0.000139843774377,-0.000242405323661,-0.000384434883017,0.000120594821055,0.000788414734416,-0.000139261537697,0.000273488083621,0.467929920041,-0.000132866126786,0.124908124311,0.00738268836398,0.942207866489,0.334677938047,0.013435390191
-0.095411837101,0.109407670796,0.0926664322615,-2.5309472084,-0.0328413695097,2.66995692253,-0.657027304173,0.0696953162551,-2.03665440495e-05,-2.35496850109e-06,0.000294068653602,0.00011613121751,-6.67650165269e-05,7.20063762856e-05,-0.000213010949665,0.467930947442,-0.00013299077866,0.124908626944,0.00738340316924,0.942207881221,0.334677838695,0.0134364391165
-0.0954122245312,0.109407417476,0.0926675871015,-2.53094625473,-0.0328409597278,2.66995787621,-0.657028973103,0.0696953162551,0.000234677456319,8.50229698699e-05,0.000131355176563,-0.000108005886432,-9.27405471884e-06,5.63748144486e-05,-0.000204144729651,0.467931540025,-0.000132603228738,0.124909012258,0.00738354459492,0.942207566766,0.334678685452,0.0134373207694
-0.0954116433859,0.109406962991,0.0926679000258,-2.53094506264,-0.0328400209546,2.66995811462,-0.657025277615,0.0696953162551,-0.000370127410861,-0.000368644541595,-0.000166662488482,0.000113889771455,0.000377580727218,-0.000214874846279,0.000403125741286,0.467932455706,-0.000132173841554,0.124909830663,0.007383703848,0.942208119747,0.33467707849,0.0134384828635
-0.0954142287374,0.109407640994,0.0926664993167,-2.53094911575,-0.0328396856785,2.6699590683,-0.657023429871,0.0696953162551,-0.00050498865312,-0.000716177804861,-0.00328740198165,0.000347460823832,0.00262416177429,6.52235248708e-05,0.000211874095839,0.467930437462,-0.000134019265905,0.124908173332,0.00738303294754,0.942209161873,0.334674230726,0.0134367065298
-0.0954139903188,0.109407544136,0.0926650986075,-2.53094935417,-0.0328396968544,2.66995978355,-0.657020807266,0.0696953162551,-0.000145440630149,-0.000139694297104,0.00079363794066,-0.000223873154027,3.90160566894e-05,0.000104357503005,6.26339578957e-06,0.467930614835,-0.000134304614623,0.124908385335,0.00738326851551,0.942209711075,0.334672664773,0.013437069736
-0.0954114943743,0.109406471252,0.0926663279533,-2.53094768524,-0.0328401364386,2.66996097565,-0.657019674778,0.069694660604,-0.000106135652459,-0.000294876546832,2.91436754196e-05,-0.000109605833131,-0.000118602773,0.000120652475744,0.000122041659779,0.467931826476,-0.00013285201736,0.124909400677,0.00738388410705,0.942209264281,0.334673839501,0.0134388020142
-0.0954109281301,0.109407059848,0.0926676914096,-2.53094673157,-0.0328402258456,2.669962883,-0.657016992569,0.069694660604,-6.38820711174e-05,3.04565510305e-05,-0.000243575355853,0.000241237299633,-0.00016964491806,-0.000247733405558,-4.95548338222e-05,0.467932609567,-0.000131905701475,0.12490964874,0.00738413830646,0.942209363627,0.334673508811,0.0134399323708
-0.0954103320837,0.109409272671,0.0926661789417,-2.53094863892,-0.0328409671783,2.66996192932,-0.657016634941,0.069694660604,0.000624060397968,0.000310227478622,-0.000184262549737,3.21045490637e-06,2.77612089121e-05,-0.00025042812922,-0.000438110873802,0.467930963125,-0.000132332047709,0.124907850028,0.00738344312356,0.942209497114,0.33467324651,0.0134374876403
-0.0954114794731,0.109411023557,0.0926671773195,-2.53094935417,-0.0328390412033,2.669962883,-0.657016098499,0.069694660604,3.78353179258e-05,-0.000565606402233,-0.0037362780422,0.000132793007651,2.96285088552e-05,0.00385801983066,3.33065690938e-05,0.467930334054,-0.000132212196149,0.124906638399,0.00738246240462,0.942209908753,0.334672138399,0.0134367616767
-0.0954133495688,0.109406381845,0.092668004334,-2.53094887733,-0.0328389964998,2.6699616909,-0.657013833523,0.069694660604,0.000319162121741,0.000574553909246,0.000262633984676,-0.000239328204771,-0.000105647726741,-0.00275841983967,-5.71634927837e-06,0.467931390773,-0.000132869604471,0.124909098883,0.00738343878449,0.942210443166,0.33467053186,0.0134387652812
-0.095413044095,0.109407275915,0.0926666408777,-2.53094768524,-0.0328383781016,2.66996192932,-0.65701431036,0.069694660604,-0.000154537323397,-1.76641588041e-05,-0.000216068685404,-0.000704027304891,-5.05654061271e-05,-8.01042770036e-05,0.000242201189394,0.467931865512,-0.000133365727838,0.124909117336,0.00738342861595,0.942210628927,0.334669997954,0.013439042952
-0.0954105407,0.109407223761,0.0926669389009,-2.53094816208,-0.032839268446,2.66996216774,-0.657013297081,0.069694660604,-4.70829108963e-05,-0.000716353242751,4.00810058636e-05,0.000225295254495,-4.56359739474e-05,2.61146306002e-06,-0.000481956230942,0.467931684618,-0.00013206482573,0.124908998099,0.00738355330096,0.942210198092,0.334671213457,0.0134389107714
-0.0954106226563,0.109408020973,0.092666529119,-2.53094792366,-0.0328409895301,2.66996502876,-0.657013297081,0.069694660604,0.000141630865983,-0.000428151251981,-0.0013774962863,2.68489548034e-05,6.04713131906e-05,-0.000104756327346,-0.00015461750445,0.467932260272,-0.000132307495843,0.124908979309,0.00738427459214,0.942210006934,0.334671696668,0.0134398831282
-0.0954122766852,0.109407939017,0.0926685109735,-2.53094744682,-0.0328386574984,2.66996479034,-0.657010555267,0.069694660604,-9.8166281532e-05,0.000397896714276,-0.000432953733252,-8.71971715242e-05,-0.000116566945508,0.000102944723039,0.000199244444957,0.467932473519,-0.000132071177525,0.124909171908,0.00738369940918,0.942210758723,0.334669577665,0.0134402604871
-0.0954136922956,0.109406873584,0.092666529119,-2.53094911575,-0.0328406877816,2.66996359825,-0.657010614872,0.069694660604,-0.000337027013302,-0.000398633739678,0.000428251340054,-0.000225271476666,-0.0044037704356,0.000155496396474,-0.000584592751693,0.467931506814,-0.000133977881312,0.12490889698,0.00738391454399,0.942211185272,0.334668420642,0.0134390500874
-0.0954110696912,0.109406329691,0.0926663577557,-2.53095054626,-0.0328401252627,2.66996479034,-0.657009243965,0.0758134797215,-0.000188459598576,0.000380345183657,-0.000394229660742,-0.000336066208547,0.000136874499731,0.000258231040789,-0.000218522618525,0.46793082915,-0.000132894035392,0.124908343244,0.00738377743252,0.942210867864,0.334669326218,0.0134388275363
-0.0954141095281,0.109407030046,0.092666439712,-2.53094911575,-0.032840102911,2.66996979713,-0.657010614872,0.0758134797215,-0.000303273118334,-0.00014219134755,-0.000205920805456,0.000233353363001,-0.000195203581825,-4.84126758238e-05,0.000436121859821,0.467932883318,-0.000133948558497,0.124909472175,0.00738483660853,0.942211148674,0.334668380952,0.0134420973342
-0.0954100191593,0.109406501055,0.0926668271422,-2.53094959259,-0.0328403301537,2.6699821949,-0.657011806965,0.0758134797215,-7.0777379733e-05,0.00020391313592,-0.000310386472847,0.000242299487581,-4.23375095124e-05,0.00015861474094,0.000102157588117,0.467935429668,-0.0001317833273,0.124910725201,0.0073868015958,0.942210071389,0.334671133029,0.0134480087361
-0.0954148173332,0.109407924116,0.0926669538021,-2.53094696999,-0.0328393913805,2.66998839378,-0.657011985779,0.0758134797215,-0.000380474259146,0.000262223678874,-0.00417667860165,0.000160348063218,-4.03801677749e-05,-0.000121282559121,0.000450290506706,0.46793782002,-0.000133895020118,0.124911570963,0.00738772406061,0.942210912582,0.334668600169,0.0134515981727
-0.0954134017229,0.109407216311,0.0926661491394,-2.5309510231,-0.0328392200172,2.66999125481,-0.657012701035,0.0695344358683,-7.79516485636e-05,-2.25473831961e-06,-6.61256635794e-05,-0.000478589267004,0.000102650592453,0.00016201454855,5.88902985328e-05,0.467936503131,-0.000133596931994,0.124910742428,0.00738763553419,0.94221070882,0.334669185148,0.0134513652244
-0.0954128950834,0.109404943883,0.0926669090986,-2.5309381485,-0.0328399986029,2.67002224922,-0.657013773918,0.0695344358683,-0.000340954196872,-0.000502340262756,-0.000880870909896,0.00189378927462,0.000277443323284,0.00342587172054,0.000171824824065,0.467950283479,-0.000132930633258,0.124919261983,0.00739523635289,0.942209886483,0.334670456444,0.0134731423283
-0.0954163298011,0.109406098723,0.092665463686,-2.53092598915,-0.0328379496932,2.67007613182,-0.657013773918,0.0695344358683,-0.000541718269233,0.000306477217237,-0.000284072739305,-0.000831112905871,6.78788055666e-05,0.0098769068718,0.000181410461664,0.467967926844,-0.0001349146972,0.124928087838,0.00740506042655,0.942210542555,0.334667146572,0.0135040464984
-0.0954170227051,0.109407961369,0.0926644727588,-2.53095531464,-0.0328400880098,2.67036724091,-0.657014131546,0.0695344358683,0.000232308986597,0.000224463990889,0.00314730522223,-0.000524330942426,7.55868895794e-05,0.00973572582006,-0.00029174919473,0.468015409962,-0.00013381561885,0.124944447894,0.00744543860703,0.942208384855,0.33466731873,0.0136275608596
-0.0954129770398,0.109406590462,0.0926670134068,-2.53094339371,-0.0328399017453,2.67044878006,-0.657012879848,0.0695344358683,0.000222145958105,-0.000283063855022,0.00236604292877,0.000681901001371,0.00422670226544,0.00040032461402,-0.000191063605598,0.468039440393,-0.000130275234543,0.124957008749,0.00746017948872,0.94220682587,0.334669540825,0.0136726419174
-0.095411837101,0.109409205616,0.092666245997,-2.53095555305,-0.0328404195607,2.67046546936,-0.657013714314,0.0695344358683,0.000486865843413,0.000342797429767,0.000207911085454,-0.000424132304033,-0.000102282858279,0.000342029874446,5.90727759118e-05,0.468036264262,-0.00012991036593,0.124953090679,0.00746031881558,0.942206499028,0.334670418337,0.0136736100031
-0.095413826406,0.109402701259,0.0926650390029,-2.53094387054,-0.0328405499458,2.6704852581,-0.657015562057,0.0695344358683,0.000468448735774,4.42546734121e-05,0.000168322498212,0.000805551127996,0.000201473943889,0.000825113500468,-0.00121313531417,0.468047880333,-0.000131503494742,0.124962096948,0.00746686282031,0.94220644449,0.33466969858,0.0136914009764
-0.0954066067934,0.109389796853,0.0926705673337,-2.53092360497,-0.0328408665955,2.67054510117,-0.65701520443,0.0695344358683,-7.45346960684e-06,-0.00111640885007,-0.000233009515796,0.000427131104516,9.732790204e-05,0.00146302231587,-5.02881739521e-05,0.468073898874,-0.000125433678146,0.124980929552,0.00748201187672,0.942203672377,0.334675362776,0.0137353739117
-0.0954001620412,0.109379395843,0.092672906816,-2.53092050552,-0.0328398086131,2.67066764832,-0.657015860081,0.0695344358683,0.000140886302688,0.000280213571386,9.22521576285e-05,-0.000309584866045,3.8619422412e-05,0.0030186350923,0.000305896042846,0.468104130991,-0.000120733890863,0.124998483544,0.00750335119156,0.942201213523,0.334679151092,0.0137999445265
-0.095403932035,0.10938783735,0.0926720872521,-2.53093552589,-0.0328400321305,2.67078471184,-0.657015502453,0.0695344358683,-0.0019799224101,0.00056118919747,-5.82580942137e-05,-1.35902610054e-05,-2.90173356916e-05,0.000348795147147,-0.00213193078525,0.46811996931,-0.000121948670104,0.125000352418,0.00751731916235,0.942201237669,0.334676923969,0.0138446342446
-0.0954001992941,0.109388642013,0.0926714539528,-2.53093767166,-0.0328396894038,2.67079854012,-0.657015442848,0.0695344358683,0.000173372740392,0.000354914285708,5.04321142216e-05,-0.000364087056369,-0.000834629056044,0.00300767226145,-2.62002631644e-05,0.468121688492,-0.000120392248659,0.125000529714,0.00751886642846,0.942200688588,0.334678219033,0.0138498543153
-0.09540245682,0.109384506941,0.0926703512669,-2.53093576431,-0.0328407548368,2.67080926895,-0.657015264034,0.0695344358683,-0.000394004397094,0.000304106069962,0.000211176011362,0.000309293769533,0.000105823892227,0.00280652195215,-0.000181396564585,0.468125839502,-0.00012203632682,0.125004138869,0.0075220411959,0.942200997554,0.334676956934,0.013857607639
-0.095401905477,0.109380185604,0.0926732644439,-2.53092432022,-0.0328393206,2.67083001137,-0.657015264034,0.0695344358683,-9.93181583908e-06,0.00030201068148,9.65012441156e-05,0.000354077666998,-4.60997362097e-05,0.00163390708622,0.000156740483362,0.468137094615,-0.000120346802948,0.125012157496,0.00752762215149,0.942200381735,0.334677844831,0.0138749929809
-0.0953975468874,0.109377995133,0.0926749110222,-2.5309252739,-0.032840102911,2.67087888718,-0.657014906406,0.0600357502699,2.34047020058e-05,-4.46698832093e-05,7.00769815012e-05,0.000295278150588,5.67282586417e-05,0.00277466000989,-0.000129798136186,0.468147624323,-0.000117261768307,0.125017482466,0.00753555885506,0.942198930618,0.334680764953,0.0138987680634
-0.095399685204,0.109380371869,0.0926723480225,-2.53092503548,-0.0328390561044,2.67090582848,-0.657015860081,0.0600357502699,0.00104422937147,0.000830526754726,-0.00019054049335,0.000449601677246,3.83894030165e-06,0.00025853261468,9.58689270192e-05,0.468153069199,-0.000119282640375,0.125018999341,0.00753921236854,0.942199515564,0.334678544191,0.0139106036203
-0.0953997671604,0.109377525747,0.0926740840077,-2.53092622757,-0.032839436084,2.67093038559,-0.657015502453,0.0600357502699,0.000147273938637,0.000596973230131,-5.04914578414e-06,-0.000156703288667,-4.49776380265e-05,0.00461392570287,0.000274371326668,0.468156169179,-0.000119290928064,0.125021033212,0.00754174252232,0.942199342472,0.334678686615,0.0139175277133
-0.0953962281346,0.109380759299,0.0926740989089,-2.53093004227,-0.0328388959169,2.67100811005,-0.657015144825,0.0600357502699,-0.00270126014948,-6.33972376818e-05,0.000123640624224,0.00070637348108,3.17217418342e-05,0.00271693686955,0.000140927149914,0.468172523779,-0.000116153353944,0.125026760472,0.00755399786507,0.942198019254,0.334680501868,0.0139567541943
-0.0953943282366,0.109377346933,0.0926737189293,-2.53092932701,-0.0328404940665,2.67101860046,-0.657016575336,0.0600357502699,0.000210572674405,0.000270074961009,-0.000241075380472,-0.000356538279448,4.88338992e-05,8.26837494969e-05,-0.00577308703214,0.468175864015,-0.000115490439681,0.12502959523,0.00755684105938,0.942197176659,0.334682528565,0.0139634956451
-0.0953918099403,0.109378919005,0.0926732644439,-2.53092956543,-0.0328392498195,2.67102909088,-0.657014429569,0.0600357502699,-0.000797171902377,0.000727975508198,0.000315470359055,-6.08306763752e-05,-1.97625959117e-05,0.00221120892093,-0.000170617699041,0.46817768137,-0.000114411356179,0.125029770783,0.00755781393829,0.942197305175,0.334681967111,0.0139677538324
-0.0953904166818,0.109380811453,0.0926735028625,-2.53092980385,-0.032840333879,2.67104029655,-0.657014608383,0.0600357502699,0.000332043680828,5.12411752425e-05,-8.53833334986e-05,-0.000539927103091,7.32989065e-06,0.00209081382491,2.47593470704e-05,0.468179589614,-0.000113558727951,0.125029868486,0.00755933125997,0.942196768722,0.33468326413,0.013972040659
-0.095390342176,0.109378784895,0.0926717743278,-2.5309317112,-0.0328390672803,2.67105221748,-0.657014429569,0.0600357502699,-0.0035483147949,0.000292405078653,-0.000101781544799,0.000304278364638,-6.89327789587e-05,0.000157985195983,-8.56671103975e-05,0.468181601476,-0.000114298912618,0.12503126356,0.00756110286664,0.942197163128,0.334681874358,0.0139777744871
-0.0953891277313,0.109380237758,0.0926719978452,-2.53093099594,-0.0328399799764,2.67105913162,-0.65701431036,0.0593377128243,-3.31847404595e-05,-0.000152614273247,0.000132571964059,8.46728071338e-05,6.13520896877e-05,-1.45861122292e-05,-0.000588478636928,0.468183162692,-0.000113573375929,0.125031494737,0.00756217012221,0.942196759741,0.334682864402,0.0139806823712
-0.0953863486648,0.109378509223,0.0926729664207,-2.53093290329,-0.0328402481973,2.67106318474,-0.65701687336,0.0593377128243,0.000210858444916,-0.000455301022157,0.000149047162267,0.00029099866515,2.09838253795e-06,-8.10801866464e-05,-0.00428152643144,0.468183420205,-0.000111804920107,0.125032018324,0.00756284584164,0.942195630833,0.334685951225,0.0139825012423
-0.0953854992986,0.109381049871,0.092672586441,-2.53093290329,-0.0328389517963,2.67107415199,-0.657016277313,0.0593377128243,-0.000173246837221,-1.91592353076e-05,0.000360883248504,0.000214855172089,-0.000415489310399,0.00035776180448,1.73561129486e-05,0.468185262315,-0.000111448920354,0.125031871972,0.00756373491356,0.942195776686,0.334685347052,0.0139866531101
-0.0953863710165,0.109379760921,0.0926735028625,-2.53093409538,-0.0328383371234,2.67108154297,-0.657014966011,0.0593377128243,0.000114481903438,0.000357505166903,-0.000320974068018,2.68595304078e-05,-0.000109813357994,-0.000167748527019,0.000612191099208,0.468186166951,-0.000111948666627,0.12503235625,0.00756463477071,0.942196134568,0.334684188384,0.0139897833595
-0.0953830704093,0.109380535781,0.0926720052958,-2.53093647957,-0.0328405313194,2.6710858345,-0.657014608383,0.0593377128243,3.61755555787e-05,0.000262109970208,0.000319379789289,0.000136460977956,-7.45275901863e-05,0.000184521020856,-0.00029542989796,0.468186057549,-0.00011054897938,0.125031958376,0.00756540706711,0.942195434858,0.334686104977,0.0139906387122
-0.0953806266189,0.109380066395,0.0926728099585,-2.53093647957,-0.0328396633267,2.67108941078,-0.657015800476,0.0593377128243,-0.000125183709315,-0.000341712118825,-0.000281897111563,-0.000615963712335,-9.78468669928e-05,0.000260700355284,0.00010675314843,0.468186954649,-0.000109212678587,0.125032675755,0.00756597998296,0.942194790925,0.334687813247,0.0139928285955
-0.0953826084733,0.109380036592,0.0926725193858,-2.53093624115,-0.03283996135,2.67109179497,-0.657014548779,0.0593377128243,-0.000277383602224,-7.69803664298e-05,0.00047319746227,-0.000100398210634,4.56290581496e-05,0.000680617638864,0.000496883643791,0.46818757193,-0.000110044991067,0.125032842445,0.00756631908799,0.942195315161,0.334686286343,0.0139938674193
-0.0953839868307,0.109379976988,0.0926724374294,-2.53093600273,-0.0328401997685,2.67109441757,-0.657015800476,0.0593377128243,-0.000208041674341,0.000181536917808,0.000207675955608,-8.10237615951e-05,-0.000120231852634,-7.39169481676e-05,-0.000100073841168,0.468188273018,-0.000110721823817,0.125033202382,0.00756685492884,0.942195292242,0.334686282059,0.0139952232031
-0.095380872488,0.109381452203,0.0926734209061,-2.53093791008,-0.0328394845128,2.67109918594,-0.657014727592,0.0593377128243,-3.46833221556e-05,-0.00022571531008,7.64063588576e-05,0.000245720497333,-3.15900433634e-05,6.18506674073e-05,-0.000442115357146,0.468188021344,-0.000108700825847,0.125032300591,0.00756671758395,0.942194877142,0.334687420473,0.0139960185755
-0.0953830778599,0.10938026011,0.0926742330194,-2.53093671799,-0.0328396931291,2.67110300064,-0.657014429569,0.0593377128243,-0.000353979790816,9.909599612e-05,-0.000156831156346,-0.00012617680477,-7.39674505894e-05,-0.000113918620627,1.90105711226e-05,0.468189705708,-0.000109348132473,0.125033641225,0.00756777694114,0.942195085226,0.334686688907,0.0139989315397
-0.0953821539879,0.109381221235,0.0926735252142,-2.53093576431,-0.0328398570418,2.67110323906,-0.657016158104,0.0593377128243,-8.9470842795e-05,-2.8144627322e-06,7.11490429239e-05,-0.000119094547699,7.45183424442e-05,1.17102563308e-05,0.000297946622595,0.468189591475,-0.000109750422242,0.125033212458,0.00756781461176,0.94219529178,0.334686097787,0.013999141568
-0.0953797772527,0.109380461276,0.092672906816,-2.53093600273,-0.0328394286335,2.6711063385,-0.657014071941,0.0594368688762,-0.000110494882392,7.53859876568e-06,0.000201502130949,-0.000541619258001,0.000104628277768,0.000245120783802,0.000162333832122,0.468190749434,-0.000108424020201,0.125034109102,0.00756836391473,0.942194823646,0.334687335499,0.014000760924
-0.0953786820173,0.109379500151,0.0926717817783,-2.53093624115,-0.0328400954604,2.67110943794,-0.657016158104,0.0594368688762,0.00031112760189,0.00034094019793,-0.000106570769276,6.4454114181e-05,2.38660686591e-05,6.57945347484e-05,-0.000146253747516,0.468191493632,-0.000108473154162,0.125034761664,0.0075692261763,0.942194348821,0.334688581033,0.0140024739864
-0.0953796058893,0.109382010996,0.0926721915603,-2.53093934059,-0.0328406468034,2.67111134529,-0.657015621662,0.0594368688762,-0.000297474965919,0.000125256658066,-3.58737852366e-05,-3.34775395459e-05,2.68262738246e-05,8.35047612782e-05,-2.95019908663e-05,0.468189796673,-0.000108639736319,0.125032683909,0.00756856951134,0.942194463168,0.334688345955,0.0140007535868
-0.0953773707151,0.109379738569,0.0926744118333,-2.53093934059,-0.032840795815,2.67111253738,-0.657014429569,0.0594368688762,0.000427821767516,0.00022834133415,-0.000532372272573,-0.000322992680594,-2.65552316705e-05,-0.00038103145198,0.000198908252059,0.468190530027,-0.000106550664044,0.125033866849,0.00756911883568,0.942193871876,0.334689928755,0.0140024111421
-0.0953801497817,0.109380617738,0.092670917511,-2.53093719482,-0.0328387394547,2.6711165905,-0.657015740871,0.0594368688762,-1.37582601383e-05,-6.97723007761e-05,-0.000181653114851,-0.000280798180029,-0.000107456566184,0.000259763735812,-0.000155070636538,0.468192315407,-0.00010948341458,0.12503457908,0.00756969449664,0.942194966296,0.334686726849,0.0140049909263
-0.0953739732504,0.109381847084,0.0926723703742,-2.53093719482,-0.0328403674066,2.67112088203,-0.657014131546,0.0594368688762,0.000233805461903,-8.31586439745e-05,1.07116538857e-05,-0.000112613466626,0.000178690897883,1.93388386833e-05,-7.78014782554e-06,0.468192992928,-0.000105866181298,0.125034420263,0.00757032506225,0.942193694227,0.334690233755,0.0140064219078
-0.0953779071569,0.109380155802,0.0926727950573,-2.53093695641,-0.0328398384154,2.6711204052,-0.657014250755,0.0594368688762,-0.000177005262231,-0.000565673457459,0.000473170162877,-0.00215370114893,-3.07008303935e-05,-8.78987266333e-05,-0.000298070401186,0.468193362634,-0.000107527378904,0.125035249194,0.00757053611053,0.942194330772,0.334688408281,0.014007108721
-0.0953761711717,0.109380379319,0.0926738902926,-2.53093957901,-0.0328401252627,2.67112493515,-0.657014131546,0.0594368688762,0.000541714543942,-0.000262548594037,0.000212613304029,-6.65597917759e-06,-7.30555038899e-05,1.50793885041e-05,-7.49293758417e-05,0.46819295219,-0.000106140535667,0.125034657217,0.00757073772439,0.942193815787,0.334689818613,0.0140079416044
-0.0953740775585,0.109380252659,0.0926719605923,-2.53094124794,-0.0328392572701,2.67112541199,-0.657014667988,0.0594368688762,8.91190720722e-05,-0.000195751883439,-0.000290249241516,-0.000518884218764,1.49155800955e-06,-0.000104782084236,-0.000218706409214,0.468192220465,-0.00010607482718,0.125034164839,0.00757046212585,0.942193829184,0.334689807351,0.0140074584734
-0.0953794270754,0.109381012619,0.0926687642932,-2.5309407711,-0.0328401997685,2.67112874985,-0.657015740871,0.0594795532525,0.000584486988373,0.000685446953867,1.85494409379e-05,3.61281831829e-06,-0.000169968159753,3.94640483137e-05,3.94182789023e-05,0.468193021628,-0.000110126053491,0.125034279474,0.00757133431313,0.942194912222,0.334686684864,0.0140087451827
-0.0953704640269,0.109381251037,0.0926754251122,-2.53094005585,-0.0328401476145,2.67112898827,-0.657014667988,0.0594795532525,-0.000391022942495,-0.00031002148171,0.000273586338153,-0.000395629002014,9.79663745966e-05,4.75742235722e-05,-0.000218756787945,0.46819340682,-0.000102675657499,0.125034474931,0.00757098410946,0.942192489918,0.334693488326,0.0140093076456
-0.0953712835908,0.109379991889,0.0926729142666,-2.5309381485,-0.0328399240971,2.67113137245,-0.657015442848,0.0594795532525,-0.00025150240981,-0.000386771047488,-0.000466111116111,0.000253061269177,0.000126574930619,-3.84522099921e-05,0.000331644172547,0.468195155391,-0.000104300442849,0.125035946666,0.00757204591666,0.942192909299,0.33469217722,0.0140118515286
-0.0953750833869,0.10938154161,0.0926724895835,-2.53093838692,-0.0328398793936,2.67113089561,-0.657014369965,0.0594795532525,0.000202208088012,-0.000389582448406,-0.000430808810052,-2.48930136877e-05,-0.00485633127391,5.31521582161e-05,6.36704062345e-05,0.468194607826,-0.000106256753729,0.125035093218,0.00757163709525,0.942193818246,0.334689672022,0.0140107922655
-0.0953747779131,0.109380163252,0.0926721096039,-2.53094148636,-0.0328398272395,2.67113518715,-0.657015800476,0.0594795532525,6.44179381197e-05,0.000283466564724,-0.000212381593883,0.000103818900243,-5.20886969753e-05,-7.69956168369e-05,7.96167005319e-05,0.468194264085,-0.000106168000666,0.12503512865,0.00757215099694,0.942193506193,0.33469048598,0.0140120555008
-0.0953724980354,0.109381318092,0.0926738232374,-2.53093981743,-0.0328394249082,2.67113518715,-0.657013952732,0.05948940292,0.000216795524466,0.000609275768511,-8.93321630429e-05,0.00034216925269,-4.77739267808e-05,0.000678221695125,5.34618084203e-05,0.468194850325,-0.000104356976107,0.125035107456,0.00757191179165,0.942193273807,0.334691133646,0.0140123406342
-0.0953760221601,0.10938154161,0.0926708579063,-2.53093862534,-0.0328389778733,2.6711370945,-0.657014906406,0.05948940292,-0.000183020951226,-2.19240810111e-05,0.000123115023598,0.000329520902596,4.60138699054e-06,-1.93121868506e-05,6.85714257997e-05,0.468195820481,-0.00010743495973,0.125035589076,0.00757246155469,0.94219424294,0.334688338445,0.0140136430735
-0.0953662022948,0.109383113682,0.092673368752,-2.53094005585,-0.0328384898603,2.67113995552,-0.657014429569,0.05948940292,-0.000808474025689,-2.37271233345e-05,-0.000139490977745,-7.38439994166e-05,0.000548722979147,-0.00487635936588,-5.6341104937e-05,0.468195322163,-0.000101656126798,0.125034587163,0.00757194236028,0.94219235225,0.334693673407,0.014013626238
-0.0953667163849,0.109382614493,0.0926728099585,-2.53094053268,-0.032839179039,2.67114090919,-0.657013952732,0.05948940292,0.00154629524332,0.00060963613214,-0.000136328540975,-0.000237590516917,-4.0371043724e-05,-0.000209593374166,8.90426963451e-06,0.468195762362,-0.000101665798259,0.125035017193,0.00757247868196,0.942192235395,0.334693952304,0.0140145319925
-0.0953707918525,0.109381020069,0.0926725715399,-2.53093957901,-0.0328394584358,2.67114186287,-0.657014369965,0.05948940292,-0.000518331537023,-0.000434256857261,0.000110976769065,0.000125664897496,-3.84345803468e-05,0.000251799559919,0.000221906055231,0.468196474007,-0.000104136365353,0.125035957149,0.00757312029081,0.942193065339,0.334691551284,0.0140157291301
-0.0953707098961,0.109381407499,0.0926744192839,-2.53094029427,-0.032840359956,2.67114329338,-0.657013595104,0.05948940292,-0.000650765025057,4.408955283e-05,0.000284093752271,0.000101958408777,-5.93456161369e-06,4.29572392022e-05,-0.000200143273105,0.468196340529,-0.00010319499614,0.125035669658,0.00757322915695,0.94219273601,0.33469246946,0.0140158832976
-0.0953635424376,0.109382465482,0.0926746353507,-2.53093957901,-0.0328404679894,2.67114567757,-0.657015144825,0.05948940292,-0.000857436738443,-0.00037981980131,0.000127599138068,-0.0002352445008,-8.54752070154e-05,-0.000150670617586,0.000114986527478,0.468197009874,-9.95064270203e-05,0.125035474664,0.00757344126581,0.942191159488,0.334696867187,0.0140167311909
-0.0953624024987,0.109382532537,0.0926750600338,-2.53094244003,-0.0328394472599,2.67114377022,-0.657015562057,0.05948940292,-0.000106275896542,0.000375019997591,0.000646736414637,0.000189559694263,-6.50482070341e-06,8.70115472935e-05,-0.000220243397052,0.468195111424,-9.89374536239e-05,0.125034438606,0.00757241989465,0.942191061808,0.334697250363,0.014014699186
-0.0953617021441,0.109381839633,0.0926751568913,-2.53094005585,-0.0328412055969,2.67114591599,-0.657013952732,0.05948940292,-0.000284121691948,-0.000241369241849,0.000161711097462,-0.000157402333571,0.000763504998758,-0.00226492271759,-0.000174507964402,0.468196943044,-9.86120443089e-05,0.125035804487,0.00757367033882,0.942190901918,0.334697574301,0.014017036256
-0.0953657776117,0.109381258488,0.0926737785339,-2.53093409538,-0.0328405126929,2.6711473465,-0.657013952732,0.05948940292,-0.00020367828256,-9.35877542361e-05,0.000385977706173,0.000237498927163,0.000199326110305,9.04241605895e-05,2.79246833088e-05,0.468200426907,-0.000101212313902,0.125038301214,0.00757497493475,0.942191868429,0.334694667078,0.0140207823327
-0.095359236002,0.109382070601,0.092674382031,-2.53094530106,-0.032840706408,2.67114925385,-0.65701520443,0.05948940292,0.00102737289853,-0.00048132930533,-5.24122042407e-05,-0.000819067354314,-5.16086729476e-05,1.32395398396e-05,9.84432408586e-05,0.468194923207,-9.77729785055e-05,0.125034164169,0.00757317804017,0.942190485956,0.33469879683,0.0140160706691
-0.09535600245,0.109381809831,0.0926785394549,-2.53094553947,-0.032840013504,2.67114830017,-0.657014727592,0.05948940292,-0.000470908911666,-0.000113926456834,-0.000411243207054,0.00054842577083,-0.000109532753413,0.000244738592301,-0.000152873748448,0.468194658139,-9.42255163302e-05,0.125034131507,0.0075726307266,0.942189444252,0.334701752963,0.0140158001607
-0.0953731611371,0.109382711351,0.0926677435637,-2.53094315529,-0.0328401699662,2.67115020752,-0.657014846802,0.05948940292,-0.00106676074211,-0.000195186206838,-0.000379103497835,-0.000209213598282,3.32293675456e-05,-0.000110530840175,0.000200862850761,0.468195785815,-0.000108399400662,0.125034584502,0.00757385167916,0.942194352769,0.334687869868,0.0140166982682
-0.0953758433461,0.109380677342,0.0926645472646,-2.53095173836,-0.0328399576247,2.67115044594,-0.65701508522,0.05948940292,0.00079970061779,-0.000134823290864,0.000469194346806,-0.000362248334568,0.000500608352013,0.000252724334132,7.69227917772e-05,0.468191930714,-0.000109892029113,0.12503242822,0.00757304919246,0.942194858456,0.334686585507,0.0140138072668
-0.0953434258699,0.109224155545,0.0926828160882,-2.53089594841,-0.0328403152525,2.67115020752,-0.657018661499,0.05948940292,0.00192350137513,-0.00277426023968,-0.000302406813717,6.39000500087e-05,0.000194425680093,-9.12037721719e-05,0.000131108274218,0.468253155897,-8.962340476e-05,0.125125266243,0.00761440410305,0.942184485236,0.334710740037,0.0141115846986
-0.0953455045819,0.109160147607,0.09267937392,-2.53088068962,-0.0328392274678,2.67114377022,-0.657019734383,0.05948940292,0.000895650940947,-0.00484289973974,0.00069016776979,-8.69504001457e-05,1.93948039851e-06,-0.00190944445785,9.49714012677e-05,0.468272829062,-9.36389637382e-05,0.125159845857,0.00762949182912,0.942184882107,0.334707882449,0.0141446773648
-0.095333635807,0.109026536345,0.0926850810647,-2.53089284897,-0.0328407436609,2.67112207413,-0.657018721104,0.05948940292,-0.000106989573396,-0.00654769595712,-0.000127354112919,-0.00122689036652,-6.29799978924e-05,0.000271496828645,-8.59377832967e-05,0.468289559272,-8.80392000698e-05,0.125215819623,0.0076522446009,0.942181139945,0.334716009675,0.0141892649249
-0.0953349322081,0.108662620187,0.0926824957132,-2.5309112072,-0.0328399352729,2.67098879814,-0.65701842308,0.0594999082386,0.000226593459956,-0.0188460405916,-0.000362398859579,-0.00134820234962,-0.00237632542849,-0.0179424509406,1.78411046363e-05,0.468326593944,-9.78009522314e-05,0.125366346351,0.00770537804454,0.942180408258,0.334712900332,0.0142821385633
-0.09533765167,0.108316369355,0.092683814466,-2.53092670441,-0.0328400731087,2.67063903809,-0.657019913197,0.0594999082386,-0.000376622716431,-0.0259886309505,0.00147316337097,-0.000661908998154,-0.000286128546577,-0.0309045147151,-0.000304296874674,0.468314648828,-0.000107321276052,0.125489110006,0.00772167288596,0.94218067272,0.334712490031,0.0142654977069
-0.0953407213092,0.107802994549,0.0926906093955,-2.53093934059,-0.0328408889472,2.67002463341,-0.657018244267,0.0594999082386,-0.00044966416317,-0.0388042330742,0.000257510400843,-0.001631133724,4.37027774751e-05,-0.0384388677776,-0.000201746646781,0.468281475281,-0.000119270081288,0.125665691688,0.00773253821843,0.942181371625,0.334713046268,0.0142002521645
-0.0953388884664,0.106843344867,0.0927022024989,-2.53097772598,-0.0328408665955,2.66888260841,-0.657019376755,0.0594999082386,0.000870728923474,-0.0663083419204,0.00136285077315,-0.00185945455451,-0.000263091322267,-0.0801342278719,-2.30959922192e-05,0.468213039164,-0.000138444906078,0.125991171346,0.0077510629143,0.942181147395,0.334718559697,0.0140745159748
-0.0953527614474,0.103692121804,0.0928064361215,-2.53094530106,-0.0328412204981,2.66471934319,-0.657018482685,0.0594999082386,0.000406894105254,-0.12863214314,0.00494163157418,0.00513128517196,-0.000710532825906,-0.17411865294,1.3784489056e-05,0.467987659098,-0.000179988474813,0.127032865925,0.00777101445409,0.942176108815,0.334753298536,0.0135654015463
-0.0953454822302,0.0978753790259,0.0929560884833,-2.53062295914,-0.0328437909484,2.65612721443,-0.657016515732,0.0594999082386,-0.000270823249593,-0.213437199593,0.0081338211894,0.0153374727815,0.0001773009717,-0.336071699858,-0.000513119448442,0.467471620421,-0.000273986726134,0.129089257712,0.0077152543579,0.942172868553,0.33481448403,0.0122483298301
-0.0953482910991,0.0934799462557,0.0930656343699,-2.53023767471,-0.0328449718654,2.64927601814,-0.657015681267,0.0576500818133,-0.00266480911523,-0.272478759289,0.00588062079623,0.026387328282,-0.000121857701743,-0.422752946615,0.000266444083536,0.467074178364,-0.000352021449636,0.130627982696,0.0076418267882,0.942173997185,0.334850794983,0.0111671973765
-0.0953367426991,0.0769812688231,0.0933303683996,-2.52810096741,-0.0328493900597,2.6237051487,-0.65701597929,0.0576500818133,0.000995122478344,-0.430030047894,0.0046468032524,0.0659808814526,0.000231794576393,-0.649278223515,2.27876244026e-05,0.465910767628,-0.00069533682404,0.13651553369,0.00751347999819,0.942190584751,0.334907390223,0.00758216900174
-0.0953313708305,0.0678197965026,0.0934316962957,-2.52648186684,-0.0328489989042,2.60973906517,-0.657016277313,0.0576500818133,0.000626957975328,-0.484176814556,0.00308796623722,0.0982591807842,0.000187365396414,-0.73774600029,-0.000172859276063,0.465441472694,-0.000921449454683,0.140229977826,0.00755498499343,0.942205121102,0.334901594085,0.0057752867571
-0.0953422710299,0.0580304376781,0.0934962704778,-2.52438306808,-0.0328534282744,2.59499931335,-0.65701764822,0.0576500818133,-0.000630097405519,-0.548541247845,0.000588403083384,0.126643329859,0.00138497969601,-0.809860110283,0.000305731984554,0.465144587738,-0.00117873598092,0.144184887019,0.00769140965492,0.942227678356,0.334858570625,0.00419305661169
-0.0953339114785,0.0476603843272,0.0935198739171,-2.52169084549,-0.0328531935811,2.57985568047,-0.657016277313,0.0576500818133,0.00102223828435,-0.59326505661,0.00264122732915,0.162808388472,-2.12774248212e-05,-0.87317854166,-0.000107585052319,0.465109963219,-0.00144214927075,0.148343696049,0.00796850757122,0.942253982714,0.334790632104,0.00302775325582
-0.0953456908464,0.0293667390943,0.0935677587986,-2.51572084427,-0.0328585058451,2.55296421051,-0.657017707825,0.0576500818133,-0.00122830760665,-0.671230077744,0.000888085749466,0.242676392198,0.000886150170118,-0.973534703255,0.000453260814538,0.465472987011,-0.00195325070115,0.156872038124,0.00868556758327,0.942310021622,0.334626278136,0.0012797400653
-0.0953442230821,0.0182657297701,0.0935779362917,-2.51167869568,-0.0328561700881,2.53713274002,-0.657016277313,0.0576500818133,0.0018098509172,-0.708666265011,0.00265559065156,0.271481513977,-0.00183870061301,-1.006275177,-6.96374263498e-05,0.465905778476,-0.00224852213128,0.162120483601,0.00925219359316,0.942347477525,0.334507328822,0.000689324356902
-0.0953392609954,0.0037196802441,0.0935992375016,-2.50578665733,-0.0328631512821,2.51663160324,-0.657018482685,0.0576500818133,-0.000420036958531,-0.731346726418,0.00166459789034,0.318326145411,-0.00605957675725,-1.03119087219,-0.000702649820596,0.466695731853,-0.00262051205562,0.169282104047,0.010132432689,0.942395646716,0.334346648288,0.00031196835168
-0.0953412950039,-0.00824998971075,0.0936018005013,-2.50047588348,-0.0328573808074,2.50003957748,-0.657014787197,0.0576500818133,0.000917123863474,-0.759556651115,0.00133861519862,0.341626524925,0.000319921149639,-1.06029784679,0.000108538231871,0.46752114241,-0.00292559338693,0.175411608725,0.0109718221254,0.942443506022,0.334185176137,0.000353289899566
-0.0953660011292,-0.0459103323519,0.0936024561524,-2.48103284836,-0.0328560248017,2.44931960106,-0.657016217709,0.0576500818133,-0.000109030486783,-0.847452640533,-0.000372674607206,0.468259006739,4.77483372379e-05,-1.08936727047,0.000526119489223,0.471035452948,-0.00383064794518,0.196129213156,0.0142890166375,0.942600173901,0.333608424188,0.00248096005006
-0.0953678414226,-0.0606995373964,0.0936018750072,-2.47237086296,-0.032859262079,2.42990064621,-0.657017946243,0.0576500818133,0.0014739256585,-0.845990121365,-0.000945778971072,0.489438652992,0.00145623844583,-1.07526540756,0.000228103162954,0.47268242178,-0.00415231819306,0.204826438366,0.0158344600863,0.942658212364,0.333359331499,0.00403984235071
-0.095362201333,-0.0754376873374,0.0936094224453,-2.46298217773,-0.0328561142087,2.41087651253,-0.657017827034,0.0576500818133,-0.000815713254269,-0.851649522781,-0.000582324515563,0.54803699255,0.00118249782827,-1.05291795731,0.000310530595016,0.474540234494,-0.00444513502111,0.213899354227,0.0175456699302,0.94270876987,0.333099108499,0.00610805055485
-0.0953607335687,-0.090959250927,0.0936138778925,-2.45250082016,-0.0328592099249,2.39132761955,-0.657015621662,0.0584210082889,-6.9929711799e-07,-0.828423142433,0.0004447310057,0.558478176594,0.0011420531664,-1.01628768444,0.000308759044856,0.476750621171,-0.00474796577811,0.224349595184,0.0196258977854,0.942754013932,0.332790586869,0.00895088432737
-0.095374904573,-0.129512682557,0.0936029702425,-2.42517232895,-0.0328585170209,2.34598064423,-0.657016277313,0.0584210082889,-0.000978673109785,-0.789251446724,-0.000129782943986,0.572002232075,-0.000608059694059,-0.88235616684,-0.000196026448975,0.482145032128,-0.00536325992431,0.250220617197,0.0252332269776,0.942779033277,0.331983466038,0.017831338568
-0.0953731164336,-0.143473729491,0.09360486269,-2.41505026817,-0.0328497253358,2.33039593697,-0.657016932964,0.0584210082889,0.000915062846616,-0.768250763416,0.000601530424319,0.554529905319,0.00039649012615,-0.865613758564,-0.000198053297936,0.483870656678,-0.0055283609275,0.259340759929,0.0272915436745,0.942752167316,0.331690602247,0.0213276049645
-0.0953745320439,-0.155254036188,0.0935990586877,-2.40622806549,-0.0328535139561,2.31787538528,-0.657019793987,0.0584210082889,-0.00138450937811,-0.745729625225,-0.000288044248009,0.569676876068,-0.00109838636126,-0.790812790394,-0.000573582889047,0.485496035043,-0.00566278968435,0.267732423365,0.029277052194,0.942701185515,0.33141836481,0.0248836532096
-0.0953752696514,-0.19199423492,0.0935905873775,-2.37943553925,-0.0328457131982,2.28174066544,-0.657017350197,0.0584210082889,0.000330108363414,-0.668629229069,-0.00120119308122,0.476526588202,0.000532713718712,-0.611101269722,-4.44451616204e-05,0.489886204161,-0.00596932650792,0.294148675628,0.0357756332608,0.942395262278,0.330515549461,0.0370235729175
-0.0953562781215,-0.202521413565,0.0935968905687,-2.37208914757,-0.032843708992,2.27219390869,-0.657019615173,0.0584210082889,0.00124252366368,-0.646290302277,-0.00148720608559,0.440412729979,0.00375991291367,-0.576936423779,8.50186770549e-05,0.490908743114,-0.0060154638907,0.30171705113,0.0377030544541,0.942257375816,0.3302583708,0.0407299104924
-0.095363587141,-0.213181123137,0.0935886502266,-2.36502814293,-0.032845351845,2.26266169548,-0.657019555569,0.0584210082889,2.72822148872e-06,-0.61056214571,0.000314767268719,0.40155813098,0.000665850937366,-0.540856778622,0.000250660435995,0.491712192346,-0.006073682683,0.309241621897,0.0396109188825,0.9421143292,0.329974248787,0.044368464542
-0.095345877111,-0.224831327796,0.0935500711203,-2.35723519325,-0.0328405834734,2.25264453888,-0.657017767429,0.0589292682707,0.000745310913771,-0.557089149952,-0.00170948298182,0.371448874474,-0.00147304183338,-0.461420089006,4.83051053379e-06,0.492557969259,-0.00612197602154,0.317572018165,0.0417628301356,0.941927543469,0.329649860556,0.0485730171629
-0.0953375771642,-0.248457476497,0.0933363288641,-2.34352993965,-0.0328356586397,2.23401498795,-0.657020509243,0.0589292682707,0.00294499029405,-0.429736703634,-0.0039970530197,0.227804258466,-0.000226048956392,-0.332790613174,-5.23615781276e-05,0.493472214527,-0.00626587819162,0.333708157379,0.0460228837759,0.941518509033,0.32891601489,0.0569126185807
-0.0953331068158,-0.255008906126,0.0932084619999,-2.34022521973,-0.0328376591206,2.22899675369,-0.657019615173,0.0589292682707,0.00111137283966,-0.392164319754,-0.0113733159378,0.185907661915,-0.00106474326458,-0.302225857973,0.000171353894984,0.493496943842,-0.00633312179596,0.337967641617,0.047137552181,0.941412926321,0.328681066299,0.0590636070137
-0.0953341573477,-0.261534839869,0.0930046886206,-2.33716773987,-0.0328392758965,2.22400665283,-0.657019197941,0.0589292682707,0.000619910599198,-0.338727355003,-0.0148084415123,0.15462885797,-0.000506737211253,-0.2616340518,0.000245501054451,0.493427927344,-0.00641856433903,0.341453919708,0.0480364785105,0.941336746412,0.328455211634,0.0607848683815
-0.0953187644482,-0.273891568184,0.0920114666224,-2.33240365982,-0.0328591875732,2.21315836906,-0.657020270824,0.0589292682707,0.000988030806184,-0.173208206892,-0.0300293434411,0.0421808809042,0.000179552371264,-0.184720665216,-8.55137841427e-05,0.492537344025,-0.00693540705954,0.349250021119,0.0497730717271,0.94133075786,0.327633599796,0.0638378383819
-0.0953514277935,-0.27676731348,0.0913011729717,-2.33194637299,-0.0328796692193,2.20980024338,-0.657022893429,0.0590382739902,-0.0037860814482,-0.114842399955,-0.0426274240017,0.00431864149868,-0.00542579125613,-0.166827827692,-0.000353459239705,0.491943713063,-0.00731186321595,0.350493266404,0.0498601193969,0.941471016488,0.327226934582,0.0637873543741
-0.0955060198903,-0.278055667877,0.0905207246542,-2.33191776276,-0.0329310111701,2.20702624321,-0.657020568848,0.0590382739902,-0.00921582337469,-0.0418927147985,-0.0530982129276,-0.00798952579498,-0.0111022200435,-0.15922690928,-1.39001740536e-05,0.491359442714,-0.00778669204544,0.350814830594,0.0496461228641,0.941686089519,0.326775869945,0.0630880479944
-0.0957839488983,-0.278267532587,0.0894815772772,-2.33206248283,-0.0332103930414,2.20406603813,-0.657023847103,0.0590382739902,-0.0172747150064,0.00742319505662,-0.0561417005956,-0.0126634771004,-0.0219657793641,-0.171703189611,0.000147522529005,0.490698415937,-0.00847739329941,0.350505457106,0.0492193165968,0.941988920073,0.326231258372,0.0617049356304
-0.0982476770878,-0.275031536818,0.0858218669891,-2.33294081688,-0.0368975922465,2.19685506821,-0.657030701637,0.0590382739902,-0.0915389880538,0.13408125937,-0.0868152305484,-0.0350820086896,-0.131234645844,-0.119253821671,-0.000344745727489,0.488872252684,-0.012161959304,0.347509242695,0.0484409062635,0.943083810423,0.324268402726,0.0556453753574
-0.100087702274,-0.272534132004,0.0839886218309,-2.33367919922,-0.0398025847971,2.1948029995,-0.657038867474,0.0590382739902,-0.121722504497,0.154725626111,-0.111532822251,-0.047259002924,-0.182983323932,-0.0997665673494,-0.00281070661731,0.488278662199,-0.0141054339025,0.345916393394,0.0485092785919,0.943516199939,0.323425631119,0.0531026474456
-0.102376751602,-0.269633799791,0.0819428488612,-2.33447432518,-0.0431783422828,2.19319343567,-0.657053172588,0.0590382739902,-0.153748854995,0.185458481312,-0.129380479455,-0.0485645607114,-0.214964568615,-0.0921010971069,-0.00015309722221,0.487664618411,-0.0166342118772,0.343970027049,0.0487186418318,0.944048056879,0.322307176184,0.0501781238063
-0.105776697397,-0.265247732401,0.0789290294051,-2.3354139328,-0.0486463494599,2.19140434265,-0.657087862492,0.0590382739902,-0.178992807865,0.224142327905,-0.166811317205,-0.0411933623254,-0.301590651274,-0.0780519098043,-0.00562010845169,0.486918047464,-0.0204242538115,0.341238678268,0.0493188496501,0.944744574413,0.320777098674,0.0461236689864
-0.115896865726,-0.253643810749,0.0688998326659,-2.3373913765,-0.0658629834652,2.18880748749,-0.658064365387,0.0590481236577,-0.258711576462,0.277350366116,-0.263133913279,-0.0361631698906,-0.422671228647,-0.0353840626776,-0.0442637391388,0.485249239981,-0.0322670680112,0.334566453975,0.0521823197041,0.946508182762,0.316367661075,0.0362045327066
-0.121236115694,-0.248397439718,0.0633870214224,-2.33797264099,-0.0741099640727,2.1882610321,-0.658905625343,0.0590481236577,-0.302499890327,0.278997600079,-0.316317856312,-0.0251624584198,-0.445149928331,-0.0196226965636,-0.050607316196,0.484547336732,-0.0384911035096,0.331788805689,0.0536968176121,0.947402159742,0.313875921321,0.0320578414301
-0.127112001181,-0.243108674884,0.0572862364352,-2.33831071854,-0.0824092924595,2.18806910515,-0.660039365292,0.0590481236577,-0.348659098148,0.305299818516,-0.351647913456,-0.0113103473559,-0.472464978695,-0.000307684647851,-0.0762332230806,0.483861209084,-0.0452472191911,0.329151001249,0.0552514065546,0.948379701841,0.311017501831,0.0281307030332
-0.143753692508,-0.229799509048,0.0393861308694,-2.33821845055,-0.104738987982,2.188123703,-0.665915369987,0.0590481236577,-0.425771325827,0.30988240242,-0.472293943167,0.0143581116572,-0.510769486427,0.00367324100807,-0.214855119586,0.481889857404,-0.0639972469935,0.323179227638,0.0595699559404,0.950700123237,0.303760834015,0.018709661494
-0.152360185981,-0.223874092102,0.0298723038286,-2.33780622482,-0.114419803023,2.18817019463,-0.670695781708,0.0590481236577,-0.462567955256,0.303060114384,-0.50618237257,0.0312309507281,-0.495238274336,0.00539958709851,-0.27022638917,0.480606956217,-0.0742950619186,0.320491953388,0.0614155813781,0.951867699859,0.299954336653,0.0142619754166
-0.16036580503,-0.218913316727,0.0210000183433,-2.33721423149,-0.122640140355,2.18826055527,-0.675726532936,0.0590481236577,-0.500130295753,0.298683732748,-0.56048387289,0.0440912023187,-0.478730887175,0.00620495714247,-0.325018197298,0.479299099443,-0.0838857914524,0.318360276841,0.0629515028899,0.952924149383,0.296414111853,0.010552146236
-0.171103388071,-0.212528243661,0.00864978134632,-2.33581733704,-0.132583588362,2.1885035038,-0.683005511761,0.0590573176742,-0.529848575592,0.309024453163,-0.621791779995,0.0898978412151,-0.463988810778,0.0120657933876,-0.36930051446,0.477665596315,-0.0955039382331,0.316170705123,0.0645231915733,0.954240659667,0.291921220118,0.00659712986616
-0.185120761395,-0.204456552863,-0.00808320194483,-2.33294415474,-0.143898263574,2.18881583214,-0.693830668926,0.0590573176742,-0.549003243446,0.316567659378,-0.668825209141,0.138839334249,-0.399749696255,0.0176017973572,-0.456061899662,0.475278532374,-0.111500374421,0.313733330431,0.0662138353743,0.956042677523,0.285647640424,0.00188466719551
-0.193483188748,-0.19984574616,-0.0184033773839,-2.33070921898,-0.149357333779,2.18913698196,-0.701032519341,0.0590573176742,-0.574950635433,0.303157776594,-0.720275640488,0.161582678556,-0.354925721884,0.0222801044583,-0.494321376085,0.473681855522,-0.121715884012,0.312533957941,0.0669153550291,0.957235431608,0.281464694636,-0.000537680750819
-0.206301093102,-0.19326941669,-0.0344749167562,-2.3265235424,-0.156355634332,2.18966650963,-0.712410986423,0.0590573176742,-0.579162478447,0.297292500734,-0.737725973129,0.214990496635,-0.288533478975,0.0266226455569,-0.543440163136,0.471396125491,-0.135693063081,0.311416659851,0.0676439125089,0.958944104089,0.275391575916,-0.00316005363885
-0.22240459919,-0.184858515859,-0.0550512000918,-2.31958603859,-0.163459658623,2.19062972069,-0.727675378323,0.0590573176742,-0.598899006844,0.309022396803,-0.803763449192,0.283428609371,-0.249654516578,0.0347715429962,-0.582712650299,0.468346634697,-0.154184791444,0.310601322409,0.0684170596828,0.961198961618,0.267176720351,-0.00567995799499
-0.231983348727,-0.180106401443,-0.0677839666605,-2.31487894058,-0.167264729738,2.19138216972,-0.737458884716,0.0590573176742,-0.596496164799,0.297279566526,-0.782730937004,0.311162412167,-0.231414273381,0.0619869939983,-0.619827449322,0.466351468404,-0.165419854117,0.31049604402,0.0689582325654,0.962511790109,0.262240802827,-0.00675108044692
-0.242737978697,-0.17458845675,-0.0823497772217,-2.30854010582,-0.171054571867,2.19260239601,-0.749071598053,0.0590573176742,-0.59502440691,0.305814564228,-0.820995032787,0.383731275797,-0.183339118958,0.0724042132497,-0.657848715782,0.464173597612,-0.178229582104,0.310790526671,0.0697371380422,0.963942536898,0.256703091919,-0.00741885620559
-0.266607284546,-0.162498041987,-0.116497188807,-2.2913415432,-0.17684660852,2.19631266594,-0.777872085571,0.0590573176742,-0.562210440636,0.28979036212,-0.840379357338,0.437958210707,-0.096557714045,0.1106775105,-0.738874733448,0.458987548825,-0.2076532912,0.31296853321,0.0718217889751,0.967054090627,0.244130203134,-0.00696132459614
-0.27946305275,-0.156287267804,-0.135762527585,-2.28069329262,-0.178390175104,2.1992688179,-0.794866681099,0.0590651966631,-0.54892116785,0.252770185471,-0.834070324898,0.482108592987,-0.0465065129101,0.134959250689,-0.740487992764,0.45589913392,-0.223992305089,0.314979829453,0.0732811504562,0.968689703597,0.237149043217,-0.00551925057254
-0.289475828409,-0.151439934969,-0.151281908154,-2.27134943008,-0.179334610701,2.201867342,-0.808871030807,0.0590651966631,-0.519588649273,0.251806139946,-0.821830093861,0.49927842617,-0.0455108210444,0.140054300427,-0.728829503059,0.453345230606,-0.237120396337,0.317053914153,0.0748374569838,0.969894955515,0.231705718292,-0.00394843049032
-0.319189697504,-0.139147266746,-0.200440198183,-2.23931312561,-0.180211782455,2.21228694916,-0.855567038059,0.0590651966631,-0.413724839687,0.145593896508,-0.676972746849,0.474197745323,-0.000715923903044,0.155841708183,-0.704389631748,0.444440938035,-0.278276518097,0.326571008189,0.0822665464997,0.9729793178,0.215705255648,0.00383468908329
-0.325516223907,-0.137257948518,-0.21086794138,-2.23194432259,-0.180184364319,2.21474862099,-0.866374969482,0.0590651966631,-0.378318697214,0.0922103375196,-0.630139708519,0.459760576487,0.00626802677289,0.15973341465,-0.65466594696,0.44225050785,-0.287135369219,0.329276809939,0.0844467157742,0.973463443882,0.212608754623,0.00593234959625
-0.333041220903,-0.135507211089,-0.223428234458,-2.22249031067,-0.179990768433,2.21795606613,-0.879571795464,0.0590651966631,-0.339146643877,0.0653987824917,-0.555915594101,0.42627876997,0.00795663427562,0.137035906315,-0.597864151001,0.4395956547,-0.297874505088,0.333128733126,0.0875452465604,0.973966446413,0.20891530644,0.00892107030815
-0.342218101025,-0.134519934654,-0.237470284104,-2.21098875999,-0.178637355566,2.22125673294,-0.896119713783,0.0590776726604,-0.283898472786,0.00335510983132,-0.428747713566,0.353270173073,0.0837469547987,0.0903583616018,-0.558371543884,0.436294843464,-0.310243521461,0.338372099809,0.0913205904039,0.974431756558,0.204879840596,0.0129441953144
-0.350490033627,-0.13504254818,-0.250294148922,-2.19941067696,-0.174374699593,2.22449469566,-0.914359748363,0.0590776726604,-0.184875234962,-0.0397673137486,-0.300292521715,0.290652394295,0.13174623251,0.100717693567,-0.490178853273,0.433438022066,-0.321387589975,0.344448402974,0.0948700655314,0.974638830394,0.201855721081,0.0182507127692
-0.35335406661,-0.135971546173,-0.255322039127,-2.19453191757,-0.17142392695,2.22613978386,-0.922828733921,0.0590776726604,-0.137716069818,-0.0570586621761,-0.252701282501,0.255239725113,0.195559412241,0.0824498236179,-0.463197737932,0.4325629811,-0.325554916598,0.347416746333,0.096379615471,0.974583416313,0.201120630498,0.0211807943961
-0.356118083,-0.139316216111,-0.262479633093,-2.18616914749,-0.157671123743,2.22941374779,-0.9425598979,0.0590776726604,0.00719040166587,-0.0864578187466,-0.063900321722,0.114277236164,0.413263559341,0.0564815215766,-0.39509832859,0.432747564028,-0.330299220909,0.353524021035,0.0971508953092,0.974128165331,0.201878365204,0.0296841103345
-0.355666846037,-0.141087681055,-0.262900143862,-2.18456363678,-0.148962140083,2.23051595688,-0.949747622013,0.0590776726604,0.0127754481509,-0.0856684073806,-0.040725402534,0.0989666059613,0.433171629906,0.0588996782899,-0.384556949139,0.433790923385,-0.329789696769,0.355179954326,0.0960906555272,0.973889937747,0.202948929358,0.0334171638756
-0.354139268398,-0.142988055944,-0.262399733067,-2.18399548531,-0.140019282699,2.23137068748,-0.955633699894,0.0590776726604,0.0978232771158,-0.11429284513,0.0317969731987,0.029541797936,0.537337422371,0.0495012626052,-0.345291286707,0.43525325481,-0.328177475184,0.35648008677,0.0945113761673,0.973607225012,0.204390047147,0.0371655687626
-0.343087255955,-0.147239342332,-0.257275372744,-2.18487739563,-0.108390539885,2.23207116127,-0.971032083035,0.0590848959982,0.298377096653,-0.0717634558678,0.170549586415,-0.0441646426916,0.738987088203,0.00114064244553,-0.289792537689,0.442041916652,-0.318073329377,0.358166936113,0.0865990965929,0.972414428971,0.211233472012,0.0478664265863
-0.338525086641,-0.148034349084,-0.254532575607,-2.18560123444,-0.0974849164486,2.23210430145,-0.975086569786,0.0590848959982,0.33752810955,-0.0410032942891,0.215737149119,-0.0566476099193,0.788112223148,0.000396674266085,-0.27651655674,0.445028253141,-0.313278703742,0.358225281102,0.0831408808519,0.971899596273,0.214122890347,0.0514796680149
-0.332031071186,-0.148625284433,-0.25008431077,-2.18684649467,-0.082950539887,2.23217558861,-0.979837059975,0.0590848959982,0.390480339527,-0.0263140331954,0.284145057201,-0.0778196379542,0.832126021385,0.00793694332242,-0.269309788942,0.449003804653,-0.30669473801,0.357933318552,0.0786046474209,0.971183511384,0.217996224126,0.0556914946962
-0.323288708925,-0.149099513888,-0.243551835418,-2.18888735771,-0.0646174475551,2.23225545883,-0.985132932663,0.0590848959982,0.441227853298,-0.0184647720307,0.329776406288,-0.102894023061,0.904148936272,0.00566398538649,-0.223548218608,0.454229313766,-0.29757925107,0.357230287433,0.0725990778235,0.970152948325,0.22326246901,0.0607165577182
-0.30925488472,-0.149069666862,-0.232644721866,-2.19250774384,-0.0376545898616,2.23235702515,-0.991697907448,0.0590848959982,0.518869996071,0.0136269424111,0.419521838427,-0.145879909396,0.961271226406,0.00712330592796,-0.205101162195,0.462182001781,-0.282789331907,0.35557781008,0.0632330270409,0.968404447852,0.231595853692,0.067511257707
-0.29988732934,-0.148720324039,-0.224789321423,-2.19514250755,-0.0210049897432,2.23252511024,-0.995190739632,0.0590848959982,0.564670443535,0.0278700664639,0.485445141792,-0.162183344364,1.00034189224,0.0078813591972,-0.19766330719,0.467297970087,-0.272659805861,0.354245431716,0.0571944200913,0.96711355527,0.237326547946,0.0713882263224
-0.291240245104,-0.14817622304,-0.217328682542,-2.197712183,-0.00593028822914,2.23268675804,-0.997964918613,0.0590848959982,0.597341895103,0.0374325327575,0.517075538635,-0.175833299756,1.00791966915,0.0175767913461,-0.182767510414,0.471847429732,-0.263148293988,0.352851401739,0.0515584728701,0.965886037706,0.242550113693,0.0746681195666
-0.260431915522,-0.145312264562,-0.189545094967,-2.20665812492,0.0430782437325,2.23338532448,-1.00565373898,0.0590908080339,0.699948310852,0.0896190404892,0.645593941212,-0.195170432329,1.04984676838,0.0252800043672,-0.132416635752,0.48795789673,-0.225510949084,0.347128935187,0.0307746030166,0.960458696566,0.263386079218,0.0848515702038
-0.24514451623,-0.143468976021,-0.175114408135,-2.21075940132,0.0655687972903,2.2337667942,-1.00837171078,0.0590908080339,0.750133275986,0.0927525088191,0.716487646103,-0.192787632346,1.08472037315,0.0193135533482,-0.125912502408,0.493349694149,-0.211258488681,0.345032840709,0.0234255876024,0.958204644604,0.271237406386,0.0878940838304
-0.230047568679,-0.141349032521,-0.160523995757,-2.21457648277,0.0871665924788,2.23403286934,-1.01067626476,0.0590908080339,0.777023255825,0.124191269279,0.748477935791,-0.185999780893,1.07459139824,0.0138175357133,-0.107023581862,0.499409453903,-0.193787476433,0.342435491563,0.0145439586837,0.955335909045,0.280746347742,0.0911222369938
-0.216461926699,-0.138988941908,-0.147232919931,-2.21758294106,0.105484753847,2.23415541649,-1.01239848137,0.0590908080339,0.799255073071,0.147355720401,0.797633588314,-0.171823456883,1.07278394699,0.00281149637885,-0.0906471461058,0.504437773139,-0.178017390814,0.340062329989,0.00681214986136,0.952602347179,0.289428714123,0.0934525649473
-0.192656114697,-0.134455159307,-0.123381748796,-2.221991539,0.136087656021,2.23418951035,-1.01439809799,0.0590908080339,0.840221345425,0.178582295775,0.864420890808,-0.12906947732,1.04056942463,0.00270974799059,-0.0524476356804,0.512332005406,-0.150069571759,0.336107948766,-0.00633367734672,0.947514497457,0.304645795375,0.0967837831976
-0.179307579994,-0.131385713816,-0.1095424667,-2.22382831573,0.152481466532,2.23421883583,-1.01491951942,0.0590908080339,0.845207691193,0.20240958035,0.865566909313,-0.102623492479,1.00687241554,0.00412290077657,-0.0196078624576,0.51633105168,-0.134170148062,0.333926626392,-0.0134951250894,0.94449143932,0.313218033997,0.0982255848366
-0.162957936525,-0.127203628421,-0.0923494026065,-2.22540187836,0.171612843871,2.23429322243,-1.01502847672,0.0590908080339,0.853591382504,0.230026826262,0.921408712864,-0.0713570341468,1.00150001049,0.00693985400721,-0.000490208913106,0.52078289226,-0.114609763016,0.331356629254,-0.0219522046427,0.940630003918,0.323742192623,0.099620724971
-0.149327337742,-0.123507544398,-0.0776596739888,-2.226323843,0.187251225114,2.23442006111,-1.01502907276,0.0590908080339,0.868122279644,0.226086214185,0.924088299274,-0.0477796457708,0.953897416592,0.00461304513738,-0.000182806455996,0.524099786232,-0.0980852824909,0.329298119043,-0.0288903531351,0.937226836618,0.332642314244,0.100599675344
-0.106702156365,-0.111352004111,-0.0306623931974,-2.22693562508,0.231155961752,2.23507094383,-1.01499652863,0.0590967163444,0.852842509747,0.260286748409,0.973930716515,0.00329082785174,0.828606128693,0.0345946624875,5.46615738131e-05,0.531845429444,-0.0460517076214,0.323569237057,-0.0487494978708,0.925323034759,0.361870482309,0.102227792302
-0.0929642170668,-0.107388280332,-0.0150526221842,-2.22697877884,0.244158983231,2.2358353138,-1.01494526863,0.0590967163444,0.872862756252,0.238876253366,0.997803092003,-0.00262579671107,0.795432507992,0.0450022220612,0.00667313113809,0.53348841304,-0.0280026487988,0.321694884686,-0.0550484137426,0.920821694889,0.372239766778,0.102443321296
-0.0775787085295,-0.103062048554,0.00273423851468,-2.22699379921,0.257844060659,2.23692107201,-1.01466810703,0.0590967163444,0.856057405472,0.24627289176,0.969337761402,0.00395784433931,0.727075517178,0.0690528675914,0.0259174033999,0.534560941915,-0.00997142590666,0.319894542799,-0.0610055839792,0.916142589827,0.382707585559,0.102449877814
-0.0229096189141,-0.0878792405128,0.0688057392836,-2.22650957108,0.296487689018,2.24274635315,-1.00983154774,0.0590967163444,0.764553546906,0.208436906338,0.956341385841,0.00828586611897,0.436678946018,0.11393250525,0.147020891309,0.533464461549,0.0583463524765,0.31336141422,-0.0799360671916,0.896770458383,0.423550457185,0.100089859761
-0.0113770039752,-0.0847537070513,0.0832630321383,-2.22636127472,0.302617371082,2.24467539787,-1.00719416142,0.0590967163444,0.757497787476,0.199146494269,0.967190265656,0.0117564257234,0.380469679832,0.134951874614,0.208790957928,0.53222382079,0.0727423764691,0.312049071628,-0.083162839596,0.892510539148,0.432039461549,0.0992511106166
0.0246995929629,-0.0763995721936,0.130323886871,-2.22616696358,0.318680644035,2.2532813549,-0.991230726242,0.0591131336987,0.650610744953,0.145055711269,0.884838581085,-0.000738666625693,0.266668856144,0.217787846923,0.409603446722,0.526088431697,0.118060416149,0.308705764544,-0.091786733438,0.879703469758,0.456415859576,0.0968584723116
0.0355203785002,-0.0742313712835,0.144888982177,-2.22616553307,0.322757661343,2.25707006454,-0.983668029308,0.0591131336987,0.619906425476,0.113029427826,0.841223657131,0.000346841930877,0.208229228854,0.231262162328,0.483578711748,0.523675637291,0.131673885345,0.307945810442,-0.0939431029295,0.876204300025,0.46275930643,0.0964082051085
0.0462261624634,-0.0725734606385,0.159770160913,-2.22617912292,0.325983375311,2.2613055706,-0.974406480789,0.0591131336987,0.572172641754,0.0752373710275,0.802612185478,-0.00263232644647,0.172668293118,0.247502326965,0.550843656063,0.520984096651,0.145236073968,0.307463533345,-0.0956900307145,0.872910210701,0.468650876495,0.0961121100858
0.054525628686,-0.0714319944382,0.171412989497,-2.22618031502,0.3282943964,2.26527166367,-0.96569699049,0.0591131336987,0.529392957687,0.0729580819607,0.747430443764,6.30740905763e-05,0.136449381709,0.278717339039,0.603729963303,0.518789939624,0.155734103082,0.307231739467,-0.096890249633,0.870648020166,0.472593420568,0.0961236860058
0.0655191913247,-0.0703054741025,0.187408685684,-2.22622108459,0.330551356077,2.27168250084,-0.951746284962,0.0591131336987,0.469722092152,0.0224002767354,0.7134334445,-0.0027131983079,0.0847355425358,0.299669981003,0.669537127018,0.515705877252,0.169776902422,0.307198456097,-0.0980271782075,0.867979386129,0.477164277278,0.0965231047192
0.0769920870662,-0.0701707750559,0.204941004515,-2.22619986534,0.332261830568,2.28031778336,-0.932898104191,0.0591131336987,0.388183385134,-0.00394593691453,0.588305652142,0.0107540609315,0.0549092441797,0.336504817009,0.735243856907,0.512278696569,0.18522554822,0.307955180754,-0.0986643044613,0.865843937275,0.480593535716,0.0980279776586
0.083932518959,-0.0703393369913,0.215318635106,-2.22591662407,0.333176493645,2.2870259285,-0.918604314327,0.0591131336987,0.347866863012,-0.0128790540621,0.508465766907,0.0245536677539,0.0390515886247,0.361961573362,0.767238199711,0.510617875382,0.193625556952,0.308775150943,-0.098809380861,0.865338830536,0.48114857409,0.0996065456559
0.0893919616938,-0.0707767084241,0.223391473293,-2.22541928291,0.333550274372,2.29341602325,-0.905362665653,0.0591131336987,0.289587885141,-0.0394989587367,0.450377613306,0.0347620546818,0.00638402299955,0.382672280073,0.794943511486,0.509465305394,0.200570772758,0.309858255923,-0.0986552083742,0.86533467069,0.480779282693,0.101559532112
0.0942400693893,-0.0717254728079,0.231119051576,-2.22455048561,0.333550721407,2.30064463615,-0.889889836311,0.0591420270503,0.228705883026,-0.0491376593709,0.359485954046,0.0581326037645,0.000178723814315,0.369488120079,0.825895547867,0.508720923635,0.207037917339,0.311484726708,-0.0982148406084,0.865993238778,0.479109469609,0.10422893683
0.101551920176,-0.0749220177531,0.242639482021,-2.22028684616,0.333539605141,2.31685400009,-0.851164102554,0.0591420270503,0.0727649182081,-0.0951952114701,0.13976688683,0.118297986686,6.64263570798e-05,0.32659471035,0.813601076603,0.509511525343,0.217114487421,0.316952636998,-0.0970737491285,0.870302890961,0.46962406815,0.112262190862
0.10255151242,-0.0768503174186,0.244344323874,-2.21784186363,0.333480000496,2.32246732712,-0.836630105972,0.0591420270503,0.0271764155477,-0.116118475795,0.0515429191291,0.144295707345,-0.00403721816838,0.289518713951,0.763711154461,0.51086990592,0.218794996293,0.319812141952,-0.0964822542904,0.872754344379,0.464237878138,0.116078512847
0.102262318134,-0.0798048824072,0.244373574853,-2.2140686512,0.333170801401,2.32880592346,-0.819258093834,0.0591420270503,-0.051759198308,-0.138338014483,-0.0352131165564,0.175826892257,-0.0207030028105,0.266169786453,0.718534469604,0.51342455334,0.219103660812,0.324002999249,-0.0955275636463,0.876273053944,0.456385621682,0.12137620651
0.0963697060943,-0.0866926684976,0.239724099636,-2.20451521873,0.330996632576,2.33880782127,-0.790101826191,0.0591571293771,-0.196250587702,-0.181490033865,-0.16768668592,0.264856010675,-0.0779205039144,0.190366327763,0.587546229362,0.520683544681,0.214588928308,0.333731747251,-0.0926082035875,0.883595944232,0.439343973117,0.132886421135
0.0933726653457,-0.0893440842628,0.23702403903,-2.20061588287,0.329736143351,2.34132027626,-0.781968951225,0.0591571293771,-0.229269295931,-0.204019531608,-0.217866659164,0.283041775227,-0.0916717126966,0.166684195399,0.568956136703,0.523786014499,0.211726853181,0.337745075371,-0.0912026321063,0.886102368406,0.433184761903,0.137315819662
0.0883188098669,-0.093622840941,0.231754973531,-2.19459295273,0.327674090862,2.34452009201,-0.770922064781,0.0591571293771,-0.276885598898,-0.210809797049,-0.297503471375,0.321500748396,-0.102562852204,0.152354478836,0.532191932201,0.528132709478,0.206981836242,0.34330305475,-0.0891724618653,0.889416534952,0.424795344949,0.143301828259
0.0829797387123,-0.0976581200957,0.22604753077,-2.18868565559,0.325950741768,2.34697794914,-0.761866986752,0.0591571293771,-0.310350388288,-0.24215862155,-0.324601203203,0.331632733345,-0.0916628167033,0.123282521963,0.473651975393,0.532551396689,0.20157861759,0.34891098138,-0.0871780658118,0.892584369665,0.416440587227,0.149232586442
0.0653078183532,-0.111356876791,0.206220030785,-2.17054057121,0.319572329521,2.35320043564,-0.740410387516,0.0591571293771,-0.412309914827,-0.293460637331,-0.483729839325,0.409641414881,-0.146173596382,0.120833180845,0.4155177176,0.545780267201,0.18243587431,0.366942016415,-0.079946718478,0.900901378387,0.392222084362,0.16777087006
0.058498814702,-0.116406343877,0.198296844959,-2.16391634941,0.317167580128,2.35516548157,-0.733967959881,0.0591571293771,-0.434094786644,-0.329609781504,-0.492218792439,0.415375500917,-0.153265222907,0.11817419529,0.393167704344,0.550131402797,0.175159993001,0.37318435142,-0.0773033209542,0.9034614147,0.384032064243,0.174071944977
0.0493900030851,-0.123351454735,0.187987297773,-2.15559267998,0.313817352057,2.35720777512,-0.726793825626,0.0591571293771,-0.480252236128,-0.351078242064,-0.544468462467,0.435156315565,-0.169146358967,0.10432139039,0.341786444187,0.556013850623,0.164214729006,0.382332730831,-0.0732302614334,0.906805173366,0.372605072508,0.183049627116
0.0410890169442,-0.129305019975,0.178565040231,-2.14782357216,0.311044305563,2.3590991497,-0.721324563026,0.0591571293771,-0.502519249916,-0.360072255135,-0.569279134274,0.458771258593,-0.167251855135,0.117243997753,0.316490620375,0.560902747234,0.154557264514,0.390241692827,-0.069691716893,0.909375673031,0.363004798058,0.190804785479
0.0255865138024,-0.141046628356,0.160644561052,-2.13434553146,0.305671066046,2.36254930496,-0.712391316891,0.0591584444046,-0.530271351337,-0.406363517046,-0.612898170948,0.438232749701,-0.177781060338,0.114549092948,0.277540117502,0.56901978942,0.135875838923,0.404944644653,-0.0627298491572,0.913634287792,0.345422494507,0.204989400125
0.0170258432627,-0.147652044892,0.150533750653,-2.12725281715,0.302832394838,2.36447262764,-0.707934498787,0.0591584444046,-0.539963781834,-0.417171925306,-0.648689627647,0.463658124208,-0.177276164293,0.134225443006,0.286643475294,0.572514609385,0.12659903339,0.411991143366,-0.059312492462,0.915489309489,0.336954939995,0.211713770321
0.0115812644362,-0.151835992932,0.143970355392,-2.12261986732,0.301040381193,2.36581206322,-0.705097317696,0.0591584444046,-0.559062182903,-0.420966118574,-0.665432095528,0.450710982084,-0.16449315846,0.132396370173,0.28290066123,0.575453171979,0.118325171908,0.418269748981,-0.0562638043728,0.91701512504,0.329434631528,0.2176935185
-0.00304553774185,-0.163298636675,0.126511573792,-2.11108469963,0.297284752131,2.36930465698,-0.698005318642,0.0591584444046,-0.581998884678,-0.452727526426,-0.68261218071,0.434060037136,-0.145236372948,0.139719516039,0.258802354336,0.581106121074,0.09967887914,0.432075963704,-0.0497495917268,0.920120988682,0.312498020359,0.230753832609
-0.0205294471234,-0.176746442914,0.105493605137,-2.09851312637,0.29376155138,2.37358045578,-0.691101014614,0.0591584444046,-0.574635565281,-0.456756055355,-0.711085379124,0.415895342827,-0.0848913118243,0.151786327362,0.215793907642,0.586444289781,0.0769379868681,0.447935931451,-0.0421072308614,0.92322063954,0.292440058074,0.245701941288
-0.030956171453,-0.185026913881,0.0926142334938,-2.09124779701,0.292483627796,2.37620568275,-0.687326550484,0.0591584444046,-0.588731706142,-0.476256161928,-0.722910344601,0.386148184538,-0.0757037252188,0.143490105867,0.205030024052,0.588958046098,0.063053755799,0.457513022791,-0.0376943862112,0.924779243883,0.280169733549,0.254690799633
-0.042842566967,-0.194325849414,0.0778681859374,-2.08385777473,0.290950894356,2.37882709503,-0.68343514204,0.0591584444046,-0.596819043159,-0.455562353134,-0.741515398026,0.351751714945,-0.073678560555,0.127425581217,0.19018368423,0.591029613563,0.0470457324934,0.467819209582,-0.0326831101541,0.926388144852,0.266321455188,0.264215256143
-0.0517032667994,-0.201190933585,0.0667465105653,-2.07895851135,0.289788097143,2.38072252274,-0.680552244186,0.0591610707343,-0.582518577576,-0.462292134762,-0.731162250042,0.308961480856,-0.0823746398091,0.130459785461,0.184626162052,0.592068546957,0.0349514532696,0.475125159721,-0.0289714228512,0.927508118504,0.255907135427,0.270925976031
-0.0801050662994,-0.223566189408,0.0296077877283,-2.06591415405,0.287259161472,2.38728451729,-0.67235660553,0.0591610707343,-0.567662060261,-0.432103186846,-0.757002651691,0.214210435748,-0.0185587313026,0.122155733407,0.151594787836,0.592702815547,-0.00495987136946,0.497409601488,-0.0172733064951,0.930357868583,0.221700859916,0.291521178726
-0.092419102788,-0.233023107052,0.0128074884415,-2.0619032383,0.286817550659,2.38980746269,-0.668811023235,0.0591610707343,-0.553555130959,-0.421568334103,-0.769986391068,0.156100973487,-0.0154653321952,0.109634183347,0.171345457435,0.59162532682,-0.0226888447037,0.505928391509,-0.0126571159979,0.931466474661,0.206283053185,0.299428298012
-0.107024863362,-0.24383546412,-0.00792687479407,-2.05858278275,0.286223083735,2.39283227921,-0.66412961483,0.0591610707343,-0.526426672935,-0.360111743212,-0.758016586304,0.0927942693233,-0.022909084335,0.10949729383,0.162169039249,0.589240328921,-0.0449868919618,0.515218390668,-0.00722010836562,0.932812576013,0.186621526216,0.308189833876
-0.133123546839,-0.260568678379,-0.0469593517482,-2.057295084,0.286067187786,2.39799427986,-0.654459238052,0.0591610707343,-0.472615659237,-0.25630903244,-0.72997635603,-0.0241263862699,-0.000995406648144,0.0801549255848,0.200466573238,0.582711247745,-0.0835736631272,0.526574454114,0.000422754180024,0.935357881946,0.151340203495,0.319689844149
-0.141227722168,-0.264894008636,-0.0601214617491,-2.05803632736,0.286127954721,2.39918518066,-0.65063804388,0.0591636970639,-0.431055188179,-0.21536205709,-0.727427721024,-0.0547865480185,0.00154697080143,0.0562606416643,0.227160423994,0.579955677352,-0.0962942098444,0.528872595387,0.00231315972794,0.93634971937,0.139212367841,0.322279022981
-0.148307844996,-0.268093377352,-0.0724891126156,-2.0592610836,0.286460220814,2.40037751198,-0.646355032921,0.0591636970639,-0.409359455109,-0.155039429665,-0.72138518095,-0.0892348363996,0.0419081412256,0.0842541158199,0.269891858101,0.577286496101,-0.107874854205,0.530202547222,0.00358159929259,0.937352759175,0.127619157102,0.324145534352
-0.165916904807,-0.272018969059,-0.106481656432,-2.06672024727,0.290380686522,2.40483927727,-0.629337310791,0.0591636970639,-0.297575294971,-0.00390691682696,-0.64357227087,-0.203920125961,0.109866134822,0.0952338203788,0.427568942308,0.569699629336,-0.138205390536,0.528738437692,0.00360245177986,0.94071391078,0.0929761538416,0.326189814234
-0.170996159315,-0.271850794554,-0.117810823023,-2.07097172737,0.293053388596,2.40649580956,-0.620975852013,0.0591636970639,-0.26884368062,0.0269998982549,-0.607603371143,-0.266562610865,0.192799255252,0.0898991599679,0.498993366957,0.567067391022,-0.147630279664,0.526366955396,0.00203701183882,0.942074212953,0.0800456773299,0.32570648919
-0.175631210208,-0.270878314972,-0.128378450871,-2.07634758949,0.296984612942,2.40819239616,-0.611526012421,0.0591636970639,-0.249486684799,0.084684021771,-0.554259359837,-0.324224799871,0.232455939054,0.0906654372811,0.54968559742,0.564520466604,-0.156163425551,0.522895770087,-0.000581023969943,0.943507849703,0.0667752963174,0.324551474268
-0.17937669158,-0.26923713088,-0.136841595173,-2.08175587654,0.300994515419,2.40954041481,-0.602365612984,0.0591636970639,-0.230368211865,0.119569413364,-0.5000872612,-0.354097247124,0.277816474438,0.0745078921318,0.590051352978,0.562289224059,-0.163257992367,0.518710258265,-0.00376550650481,0.944915861267,0.0543330546133,0.322750298141
-0.185576856136,-0.26439806819,-0.150595337152,-2.09415102005,0.310584664345,2.41145253181,-0.581753313541,0.0591676384211,-0.185545623302,0.196269392967,-0.40323638916,-0.432607591152,0.344397872686,0.0445846058428,0.740267217159,0.558732619634,-0.173290921436,0.509249086636,-0.01137763817,0.94751929288,0.0322130595116,0.317867987464
-0.188370078802,-0.26036760211,-0.157036319375,-2.10175228119,0.316985160112,2.41195678711,-0.56860011816,0.0591676384211,-0.144203349948,0.270334541798,-0.349516868591,-0.457695543766,0.396064221859,0.0148624358699,0.792115271091,0.556980538903,-0.177794611135,0.502606517229,-0.0168948997297,0.949079779694,0.0192375679011,0.313993709825
-0.190499484539,-0.255704313517,-0.162076354027,-2.10901522636,0.323503613472,2.41226458549,-0.55554240942,0.0591676384211,-0.125528022647,0.302744358778,-0.288077950478,-0.452224344015,0.405504345894,0.0238583572209,0.833759129047,0.555639459848,-0.181079497968,0.495803501624,-0.0225804388553,0.950503159891,0.00723947733975,0.309808741768
-0.192397743464,-0.249823078513,-0.166520372033,-2.11756777763,0.330893009901,2.41249442101,-0.539885759354,0.0591676384211,-0.0875699669123,0.354875028133,-0.213254913688,-0.491638660431,0.412610501051,0.00587389245629,0.904374361038,0.55437052339,-0.18371130011,0.48758555428,-0.0293273573555,0.952054702036,-0.00598694595123,0.30446002465
-0.193739846349,-0.239530041814,-0.171205744147,-2.13039541245,0.341450542212,2.41252803802,-0.515677154064,0.0591676384211,-0.0268614888191,0.43667447567,-0.139845132828,-0.49088716507,0.408153086901,0.00270723411813,0.963912069798,0.55305347053,-0.185636267306,0.474427949464,-0.0396341271798,0.954281480155,-0.0245002860104,0.295255361121
-0.193807631731,-0.228888690472,-0.173182502389,-2.14157485962,0.350887775421,2.41255044937,-0.492504805326,0.0591676384211,0.0123797086999,0.496169507504,-0.0401520170271,-0.494907438755,0.418166458607,-0.00374924018979,1.03931522369,0.552494377849,-0.18545177409,0.462095653196,-0.0491179302051,0.956081306753,-0.0403359100964,0.286127555221
-0.191473022103,-0.206793576479,-0.17256051302,-2.16145968437,0.367808192968,2.41250014305,-0.447763592005,0.0591676384211,0.121451713145,0.580647647381,0.0576999001205,-0.456969559193,0.386443436146,-0.000236814463278,1.1324839592,0.552421609592,-0.18131831963,0.438537039265,-0.0664956065634,0.958899028281,-0.0674963475155,0.267460708576
-0.181895256042,-0.172758847475,-0.165784329176,-2.18506979942,0.387657761574,2.41189837456,-0.38258549571,0.0591689497232,0.228842511773,0.647951841354,0.193070530891,-0.395854055882,0.365844637156,-0.00386031437665,1.2577739954,0.553822845505,-0.169088503359,0.406351404682,-0.0885189646653,0.961733019651,-0.100214540563,0.239146476786
-0.174046143889,-0.152679249644,-0.158516198397,-2.1963353157,0.398803472519,2.41143226624,-0.343836963177,0.0591689497232,0.291853457689,0.672052741051,0.281433820724,-0.360484153032,0.36386975646,-0.0277109164745,1.33578932285,0.555212991151,-0.158998039914,0.388987748014,-0.100311358969,0.962662442531,-0.116920901559,0.222594149681
-0.168388128281,-0.140694186091,-0.15314796567,-2.20249605179,0.404968559742,2.41099643707,-0.319711983204,0.0591689497232,0.332518607378,0.660121917725,0.312068074942,-0.333214312792,0.322453022003,-0.0216015391052,1.35430562496,0.556123756827,-0.151895061681,0.378946950948,-0.107005292051,0.96304799505,-0.126282156209,0.212464687461
-0.162769675255,-0.130129426718,-0.147891536355,-2.20745491982,0.409970343113,2.41061854362,-0.297704935074,0.0591689497232,0.360659956932,0.652882158756,0.338258117437,-0.291955828667,0.291426718235,-0.0232959277928,1.3858487606,0.556988345847,-0.145048832573,0.370367535193,-0.112609305157,0.963279403564,-0.134210479913,0.20346862617
-0.156064599752,-0.118458501995,-0.141403988004,-2.2122130394,0.415092796087,2.4103178978,-0.272525310516,0.0591689497232,0.377064555883,0.645291686058,0.371341645718,-0.235655725002,0.268535226583,-0.0144214415923,1.41441833973,0.558063192405,-0.136923042095,0.361306042532,-0.118448664006,0.963390936722,-0.142690390108,0.193616293992
-0.135855153203,-0.0891208127141,-0.120123401284,-2.22155833244,0.426591187716,2.40920233727,-0.20125707984,0.0591715760529,0.442309647799,0.558731555939,0.466915816069,-0.136697784066,0.203637927771,-0.0214374829084,1.46781075001,0.561261397332,-0.112044980924,0.33992170701,-0.132392676771,0.963086555319,-0.163320412983,0.168115759214
-0.128761738539,-0.0805184617639,-0.112536221743,-2.22328948975,0.429512947798,2.40887355804,-0.177511438727,0.0591715760529,0.44919154048,0.520221590996,0.484161734581,-0.08780798316,0.167279973626,-0.0164809357375,1.49300265312,0.562398509058,-0.103431293216,0.334180840812,-0.136266423275,0.962797902386,-0.169343115245,0.16054460458
-0.11956628412,-0.070807762444,-0.102589897811,-2.22461414337,0.432666569948,2.40864777565,-0.147741600871,0.0591715760529,0.466787755489,0.454988747835,0.514055728912,-0.0408380180597,0.13039471209,-0.00657449150458,1.49103760719,0.563910813847,-0.0923207724851,0.328042090624,-0.140691804106,0.962327563372,-0.176260108076,0.151867873575
-0.0975240841508,-0.0530391409993,-0.0781393647194,-2.22389817238,0.436972469091,2.40921616554,-0.0790804550052,0.0591715760529,0.460933208466,0.298643171787,0.525093197823,0.0512908697128,0.0661175921559,0.0364883542061,1.43752467632,0.567874990111,-0.0658558037123,0.318473966581,-0.149031328529,0.960947087559,-0.189607760389,0.135717555685
-0.0895188674331,-0.0485027357936,-0.06906106323,-2.22272467613,0.438009172678,2.41007494926,-0.0549769215286,0.0591715760529,0.473150074482,0.242844194174,0.5347879529,0.0902097970247,0.0563935860991,0.0640969276428,1.38853800297,0.569406272204,-0.0562502035427,0.316607385052,-0.151614131573,0.96033568004,-0.193623697188,0.131447329101
-0.083041600883,-0.045348778367,-0.0618091933429,-2.22112727165,0.438635498285,2.41107535362,-0.0356672853231,0.0591715760529,0.453775078058,0.20749810338,0.507395625114,0.132844284177,0.0281671416014,0.0803529247642,1.36473155022,0.570989888081,-0.0475197938112,0.31567228631,-0.153834516126,0.959691596787,-0.197119054784,0.128339622244
-0.0731051787734,-0.04161465168,-0.0508239045739,-2.21741294861,0.438978612423,2.41287517548,-0.00597957987338,0.0591715760529,0.441320508718,0.139616325498,0.489235281944,0.204556450248,0.0066816280596,0.0979072004557,1.31740581989,0.573163653257,-0.0369922267691,0.315697743194,-0.156378523554,0.95880604666,-0.201114435367,0.125657096251
-0.0601853616536,-0.0383729711175,-0.0360346250236,-2.21000981331,0.439062863588,2.41753602028,0.0321912206709,0.0591715760529,0.398356407881,0.0744849294424,0.476106196642,0.29254513979,1.21148996186e-05,0.214110925794,1.18937778473,0.577178365401,-0.0218701781499,0.31812845161,-0.159934526673,0.957269104201,-0.206131645218,0.124765996371
-0.0538711063564,-0.037513371557,-0.0286446753889,-2.20474624634,0.439104855061,2.42153382301,0.051436021924,0.0591715760529,0.383866965771,0.0354762449861,0.460517555475,0.364353120327,0.00342066935264,0.273264497519,1.1907235384,0.579836881433,-0.0145457167306,0.320786077392,-0.161800147419,0.956206012115,-0.208716445967,0.12620705037
-0.047685239464,-0.0371451564133,-0.0213796906173,-2.19809007645,0.4391284585,2.42669296265,0.0708711743355,0.0591735467315,0.360494613647,0.00634222477674,0.424907505512,0.422954380512,0.0026900335215,0.341931372881,1.14857506752,0.583040643719,-0.00745494684806,0.324600401938,-0.1638126924,0.954881103996,-0.211429993085,0.129092357456
-0.0404590591788,-0.0371097885072,-0.0129028595984,-2.18861675262,0.439148932695,2.43454694748,0.0937780439854,0.0591735467315,0.33054548502,-0.0038302699104,0.403036296368,0.495801359415,0.00218315282837,0.41918322444,1.07045567036,0.587488836173,0.000711563532065,0.330431614377,-0.166412458381,0.952995314706,-0.214646497818,0.134289629193
-0.0312752872705,-0.0375489220023,-0.00216128607281,-2.17152142525,0.439170390368,2.44924426079,0.123877033591,0.0591735467315,0.286348640919,-0.00966344680637,0.324936330318,0.641063630581,0.000649925146718,0.546384572983,0.951086640358,0.595231981537,0.0107465105493,0.341490650154,-0.170442880161,0.949603349726,-0.219061832457,0.14565238083
-0.0261365510523,-0.0379916131496,0.00342236668803,-2.15890622139,0.439174950123,2.46007442474,0.141291707754,0.0591735467315,0.253064930439,-0.0292714964598,0.270402729511,0.68093585968,-0.00360684446059,0.592421472073,0.872467339039,0.600732533645,0.0159635178214,0.349863838001,-0.173217122502,0.947005206402,-0.221888705193,0.154733221115
-0.0223424639553,-0.0385209470987,0.0074403048493,-2.14720487595,0.439182817936,2.46973729134,0.15497481823,0.0591735467315,0.225441604853,-0.0259461831301,0.233527928591,0.775229692459,0.00147968530655,0.617570698261,0.84213745594,0.605641642942,0.0196561267512,0.3577554238,-0.175718531229,0.944526304917,-0.224290891146,0.163360499937
-0.0190681517124,-0.03887661919,0.0109355766326,-2.13475513458,0.439185827971,2.4798707962,0.168145522475,0.0591735467315,0.183536425233,-0.0241510216147,0.206009209156,0.767151772976,-0.00549934757873,0.644746303558,0.798260211945,0.610719193748,0.0227425129531,0.366112059813,-0.178344093049,0.941769996817,-0.226900829639,0.172564975494
-0.0157981496304,-0.0398039184511,0.0148462271318,-2.11774682999,0.439204543829,2.49411296844,0.183960497379,0.0591735467315,0.127851262689,-0.0495043136179,0.167930573225,0.850027918816,0.00312068592757,0.701676726341,0.717521071434,0.617497034416,0.0257554648143,0.378031327117,-0.181914715314,0.937715517973,-0.230363211651,0.185820973276
-0.0130933737382,-0.0411586202681,0.0185823794454,-2.09447407722,0.439224004745,2.51368403435,0.203477323055,0.05917551741,0.0772327259183,-0.0587922371924,0.0994028821588,0.841421186924,0.00101277325302,0.713691413403,0.68306440115,0.626388971737,0.0279006268427,0.394730345743,-0.186792131406,0.931578952498,-0.235595431544,0.204362783373
-0.0119666680694,-0.0422215685248,0.0198138691485,-2.08029460907,0.439231157303,2.52577376366,0.214643537998,0.05917551741,0.053292453289,-0.0654439553618,0.0465031638741,0.802262604237,0.00254437257536,0.700406312943,0.632214665413,0.631584616206,0.0282525992906,0.40525821222,-0.18980220791,0.927450463846,-0.239104419723,0.215962578093
-0.0111557524651,-0.0438450276852,0.0201848112047,-2.06385612488,0.439245790243,2.53988456726,0.226664409041,0.05917551741,0.0215894505382,-0.0798144564033,-0.00272109848447,0.830414891243,-0.000440672098193,0.689243197441,0.578716099262,0.637080936613,0.027737342368,0.41725869951,-0.19310211401,0.922554961185,-0.243152082043,0.229087279957
-0.0122503237799,-0.0488372407854,0.0185613464564,-2.02822518349,0.439296633005,2.57051467896,0.252440094948,0.05917551741,-0.0570683032274,-0.116815291345,-0.0713140815496,0.681294679642,0.00486292038113,0.613242328167,0.488118976355,0.6488007649,0.0230426263747,0.446834165349,-0.200937450978,0.90936629047,-0.25449288491,0.26059635792
-0.0132245821878,-0.0509951300919,0.0173576064408,-2.01820993423,0.439320415258,2.57959914207,0.259526342154,0.05917551741,-0.0734243616462,-0.161465451121,-0.0805371552706,0.652306735516,0.000121420598589,0.587569355965,0.466271668673,0.651905049416,0.0205903181056,0.45627937076,-0.203257212926,0.90487375326,-0.258296985499,0.27050446025
-0.0147861083969,-0.0542017817497,0.015642689541,-2.00742292404,0.43934828043,2.58963418007,0.267651498318,0.05917551741,-0.104634553194,-0.186832815409,-0.109086349607,0.551631629467,3.26325171045e-05,0.528006196022,0.445851385593,0.654634800525,0.0176306671662,0.465917787399,-0.205565753068,0.90013735653,-0.26242116141,0.280411473135
-0.0170761588961,-0.0579226501286,0.0131871877238,-1.99728274345,0.439366906881,2.59967803955,0.276435166597,0.05917551741,-0.124327108264,-0.197102352977,-0.134487181902,0.474207013845,-0.000106622319436,0.485001385212,0.434440553188,0.657177595297,0.0135174476038,0.476183185588,-0.207945224709,0.894695938313,-0.267682518319,0.290902097876
-0.0210734512657,-0.0643019601703,0.0088095953688,-1.98552429676,0.439388900995,2.61282277107,0.288419544697,0.05917551741,-0.146834909916,-0.237368002534,-0.165642231703,0.328970640898,-4.26587139373e-05,0.409885764122,0.368468075991,0.65971775882,0.00666159654101,0.489819974925,-0.210896765277,0.886959351813,-0.275634571476,0.304715023107
-0.0237927138805,-0.0684543475509,0.00570050859824,-1.98065972328,0.439404189587,2.6192946434,0.294486761093,0.0591761730611,-0.166088491678,-0.243683859706,-0.190593987703,0.250066429377,0.00200092513114,0.347868680954,0.34059509635,0.660517717684,0.00213795999431,0.496689603417,-0.21217276259,0.882758954926,-0.280319050604,0.311673829273
-0.0268380828202,-0.0727692171931,0.00217090384103,-1.97710633278,0.439412295818,2.62514591217,0.300512224436,0.0591761730611,-0.175979211926,-0.248654767871,-0.204143553972,0.157057255507,-0.000267335999524,0.308485805988,0.333789676428,0.660919081722,-0.00282876637211,0.502783768786,-0.213196320336,0.878668419678,-0.285363635652,0.317894215697
-0.0298954695463,-0.0771738365293,-0.00148005073424,-1.97529625893,0.439421802759,2.63003849983,0.306085318327,0.0591761730611,-0.189571902156,-0.264939874411,-0.227206081152,0.0666899904609,0.000221971582505,0.273657768965,0.328474700451,0.660843663772,-0.00809136864553,0.507984715128,-0.213962197839,0.874777164693,-0.290667070956,0.323261107402
-0.0395723730326,-0.0887705609202,-0.0135479206219,-1.9763212204,0.439455866814,2.64050889015,0.32110735774,0.0591761730611,-0.220304042101,-0.216056182981,-0.273375570774,-0.0924711376429,0.00183000287507,0.171520248055,0.286625623703,0.659240575243,-0.0232995595597,0.516771288739,-0.214622764954,0.86572339722,-0.305860965754,0.33303023521
-0.0439396612346,-0.0928757414222,-0.0190390981734,-1.97873854637,0.439466536045,2.64371800423,0.32598683238,0.0591761730611,-0.239462152123,-0.201292872429,-0.29288315773,-0.163183450699,-0.000197630797629,0.16368407011,0.236600935459,0.658161363614,-0.0301546079474,0.518633088,-0.214234884705,0.862494447903,-0.312270686177,0.335698912318
-0.0468478016555,-0.0949594154954,-0.0224755425006,-1.98088157177,0.439470440149,2.64563131332,0.328571736813,0.0591761730611,-0.244856610894,-0.152660638094,-0.281615257263,-0.199033886194,0.000222206494072,0.161842018366,0.207581236959,0.657437308178,-0.0345411734149,0.51907554394,-0.213739921468,0.860690899438,-0.316267239794,0.336899768913
-0.0531125813723,-0.098475702107,-0.0297822356224,-1.98687624931,0.439483523369,2.64935088158,0.333539456129,0.0591794550419,-0.25318390131,-0.134163454175,-0.30584871769,-0.273207008839,0.0018887455808,0.138270229101,0.192297786474,0.655740704345,-0.0438540076331,0.518469604794,-0.21228937928,0.857308255696,-0.324807976219,0.338312802609
-0.0646537765861,-0.102383442223,-0.0446437299252,-2.00270938873,0.439503878355,2.65491676331,0.340919822454,0.0591794550419,-0.261634081602,-0.04620539397,-0.358899503946,-0.40327963233,0.00621571950614,0.121289938688,0.128543078899,0.652056390514,-0.0608273023559,0.512880053468,-0.208464663799,0.852518505538,-0.340394475316,0.33747041722
-0.0699409767985,-0.102830678225,-0.0520673394203,-2.01158881187,0.439513921738,2.65716767311,0.3430570364,0.0591794550419,-0.265431910753,-0.00191679119598,-0.377518862486,-0.478426098824,-0.00032111609471,0.0920302271843,0.0895983502269,0.649846913261,-0.0701056217436,0.507840248255,-0.205748905679,0.850554780501,-0.348680297894,0.335627774033
-0.074524179101,-0.102593302727,-0.0583560951054,-2.02010536194,0.439520120621,2.65848565102,0.344191879034,0.0591794550419,-0.269559532404,0.0314547978342,-0.364851027727,-0.529184579849,-2.6251647796e-05,0.0632402673364,0.0524638593197,0.647919302918,-0.0772087779766,0.50278285947,-0.203327022111,0.849469367237,-0.354977523796,0.333242964617
-0.0823983773589,-0.100738532841,-0.0691842064261,-2.03624820709,0.439554810524,2.6602370739,0.344889521599,0.0591794550419,-0.274792522192,0.104523546994,-0.400339096785,-0.594002962112,0.00317907845601,0.0534031875432,0.00367774371989,0.64427803311,-0.0892355859719,0.492166849512,-0.198644574517,0.848243174176,-0.365586611247,0.327674045075
-0.0873948559165,-0.0987585633993,-0.0764481648803,-2.04750180244,0.439580500126,2.66095042229,0.344892889261,0.0591794550419,-0.271314233541,0.126462072134,-0.39037874341,-0.64352285862,0.00180362700485,0.0275027416646,0.00042895891238,0.641641094941,-0.0969717017565,0.484250175465,-0.195377846665,0.847722612448,-0.372485453039,0.32318486399
