imanlab/tactile_prediction_flat_dataset/train/data_sample_2021-11-24-15-19-34/robot_state.csv
position_panda_joint1,position_panda_joint2,position_panda_joint3,position_panda_joint4,position_panda_joint5,position_panda_joint6,position_panda_joint7,position_panda_finger,velocity_panda_joint1,velocity_panda_joint2,velocity_panda_joint3,velocity_panda_joint4,velocity_panda_joint5,velocity_panda_joint6,velocity_panda_joint7,ee_state_position_x,ee_state_position_y,ee_state_position_z,ee_state_orientation_x,ee_state_orientation_y,ee_state_orientation_z,ee_state_orientation_w
-0.0192784145474,-0.00556117994711,-0.00875084940344,-2.52880215645,0.0195619240403,2.56906485558,0.746714055538,0.0653127208352,0.00024182422203,-0.000579724437557,0.00013223431597,-0.000309243740048,-5.06688811583e-05,-0.000148147242726,0.000415393529693,0.46835450384,-0.0122487778069,0.169647774722,-0.0132141594089,0.922558626575,-0.385136881992,0.0195076481111
-0.0192770902067,-0.0055618933402,-0.00874886568636,-2.52880549431,0.0195610001683,2.5690639019,0.746714711189,0.0653127208352,0.000277202954749,-7.96388576418e-06,6.73901331538e-06,-0.000423060439061,-1.47933042172e-05,-3.4056174627e-05,3.61396487278e-05,0.468352853569,-0.012247218755,0.169646720809,-0.0132133180788,0.922559322258,-0.385135325753,0.0195060421265
-0.0192717760801,-0.00556261045858,-0.00874922517687,-2.52880430222,0.0195621084422,2.56906461716,0.746713936329,0.0653127208352,-0.000334879005095,0.000108595246274,-4.82451941934e-05,0.000183611831744,0.000112551206257,-0.000194517677301,1.93373707589e-05,0.468353758713,-0.0122448742951,0.169647589631,-0.0132141194275,0.922560220596,-0.385133091263,0.0195071299234
-0.0192780513316,-0.00556363444775,-0.0087503278628,-2.52880358696,0.0195615887642,2.56906437874,0.746713519096,0.0653127208352,-0.000207208111533,-0.000131658147438,-0.000289383664494,0.000175181383383,9.13911717362e-05,4.74943990412e-05,0.000301787949866,0.468354126507,-0.0122483623035,0.169648323101,-0.0132141853254,0.922558949842,-0.385136092499,0.0195079294283
-0.0192746501416,-0.00556123023853,-0.00875027198344,-2.5288040638,0.019562387839,2.56906414032,0.746713638306,0.0653127208352,-0.00256369821727,-0.000103838130599,0.000260723085376,-0.000186858902453,-5.15644460393e-05,8.10363635537e-05,-0.000557222869247,0.468353497918,-0.0122466910523,0.169646988881,-0.013213861656,0.92255949452,-0.385134877612,0.0195063748933
-0.0192730277777,-0.00556265050545,-0.00874906778336,-2.52880311012,0.0195625331253,2.5690639019,0.746715545654,0.0653127208352,-0.00023407075787,0.000452214182587,0.00023419642821,0.000451805273769,1.66407116922e-05,1.41806385727e-05,0.000239193439484,0.468354171017,-0.0122453766331,0.169648000839,-0.0132143339101,0.922559628173,-0.385134493191,0.0195073237762
-0.0192752387375,-0.00556331546977,-0.00874869246036,-2.52880358696,0.0195613056421,2.56906485558,0.746714830399,0.0653127208352,6.80307039147e-06,-0.000357406242983,5.09559940838e-05,0.000148968480062,-8.05531453807e-05,-2.94099718303e-05,0.000161456919159,0.46835423058,-0.0122462972274,0.169648220233,-0.0132141863922,0.922559596995,-0.385134538864,0.0195079965044
-0.0192758664489,-0.00556083442643,-0.0087499441579,-2.52880501747,0.0195613093674,2.56906342506,0.746712744236,0.0653127208352,0.000337563658832,5.54758298676e-06,-0.000396854506107,7.44438148104e-05,-7.32415428502e-05,-0.000222991220653,0.000168912505615,0.468352809452,-0.0122471339762,0.169646363059,-0.013213193411,0.922559690399,-0.385134474173,0.0195055288806
-0.0192743837833,-0.00556092755869,-0.00874921679497,-2.52880358696,0.019561920315,2.5690639019,0.746713876724,0.0653127208352,-0.000114903603389,0.000481723080156,-0.000431733671576,0.000618975667749,9.61530440691e-06,1.11606632345e-05,0.000396968884161,0.468353641291,-0.0122460968848,0.169647008415,-0.0132137404669,0.922559779479,-0.385134198829,0.0195063816468
-0.0192774962634,-0.005562718492,-0.00874996837229,-2.52880334854,0.0195622928441,2.56906342506,0.746713221073,0.0653127208352,-0.000499112938996,0.000443937227828,4.04179772886e-05,0.000535090453923,0.000173384338268,3.09561391987e-06,-0.000327489804476,0.468353899284,-0.0122478931327,0.169647893412,-0.0132140857963,0.922559087714,-0.385135807969,0.0195070939979
-0.0192765612155,-0.00556502863765,-0.00875115860254,-2.52880311012,0.0195622015744,2.56906557083,0.746714890003,0.0653127208352,0.000432611443102,0.000639011384919,0.00103471823968,8.01678033895e-05,0.000170905026607,8.82088934304e-05,-0.000158461916726,0.468354847894,-0.0122480487606,0.169649278208,-0.0132149147974,0.922558682326,-0.385136639626,0.0195092847723
-0.0192751549184,-0.00556163489819,-0.00874994322658,-2.52880454063,0.0195634458214,2.5690639019,0.746714770794,0.0653120651841,0.00029179561534,-6.33372692391e-05,-0.000192944251467,1.17477557069e-05,4.30214604421e-05,1.35219052027e-05,0.000236995751038,0.468353284085,-0.0122467189109,0.169646970761,-0.0132140955055,0.922559075775,-0.385135885655,0.0195061182438
-0.0192746352404,-0.00556144397706,-0.00874805916101,-2.52880620956,0.0195606611669,2.56906461716,0.746713101864,0.0653120651841,-0.000581290572882,3.90879977203e-05,0.000201168106287,0.000348717177985,3.57964527211e-05,1.22794381241e-05,0.000293788703857,0.468352629806,-0.0122457035981,0.169646302801,-0.013213155187,0.922560317632,-0.385132956291,0.019505858629
-0.019274301827,-0.00556137179956,-0.0087514128536,-2.52880477905,0.0195630267262,2.56906342506,0.746714293957,0.0653120651841,-3.73000693799e-05,0.000137008843012,0.000336783297826,-0.000356364558684,6.24290623819e-05,4.14591522713e-05,-0.000349322595866,0.46835301614,-0.0122470159565,0.169646708119,-0.013213805506,0.922559126621,-0.385135794584,0.0195057080061
-0.0192758757621,-0.00556289264932,-0.00874839909375,-2.52880454063,0.0195629373193,2.56906604767,0.746713578701,0.0653120651841,-0.000265072711045,-0.000206227559829,-0.000779744179454,-0.000884976238012,6.97590221534e-05,8.09600096545e-05,0.000153865825268,0.468353958809,-0.0122463840334,0.169647769889,-0.0132145544644,0.922559508648,-0.385134749624,0.0195077642964
-0.0192736983299,-0.00556417088956,-0.00874944776297,-2.52880358696,0.0195611491799,2.56906414032,0.746714234352,0.0653120651841,-0.00043628574349,0.000160725438036,-6.05581808486e-05,0.000211622944335,-1.6389938537e-05,-9.07696667127e-05,-1.58507809829e-05,0.468354226193,-0.0122459309574,0.169648550873,-0.0132141831998,0.922559888204,-0.385133837584,0.0195080719205
-0.0192768797278,-0.00556327495724,-0.00875042472035,-2.52880239487,0.0195613373071,2.56906342506,0.746714472771,0.0653120651841,-0.000171413921635,-0.00025339180138,-0.000114680282422,0.000253579521086,-1.11809868031e-05,6.09237940807e-05,-0.000222368355026,0.468354447659,-0.0122478749313,0.169648523432,-0.0132141233849,0.922559016765,-0.38513593671,0.0195078821297
-0.0192776303738,-0.00555879017338,-0.00875176396221,-2.52880454063,0.0195605605841,2.56906318665,0.746714472771,0.0653120651841,-0.00151612714399,0.00021023186855,0.00144727376755,-0.000296092010103,5.40711080248e-05,-3.19919236063e-05,-0.000121640689031,0.468352607806,-0.0122488416477,0.169645566469,-0.0132126527012,0.922558805726,-0.385136650143,0.0195047733614
-0.0192788094282,-0.00556174525991,-0.00875302497298,-2.52880358696,0.0195611417294,2.56906461716,0.746712982655,0.0653120651841,-0.000212179525988,0.000290452706395,-3.87973850593e-05,0.000326357985614,1.81383438758e-05,3.35207478201e-05,6.24184713161e-06,0.468353825947,-0.0122499946127,0.169647461079,-0.0132137301074,0.922558475019,-0.385137280897,0.0195072307858
-0.0192756168544,-0.00556059088558,-0.0087509714067,-2.52880120277,0.0195611659437,2.56906437874,0.746713936329,0.0653120651841,0.000156499634613,0.000378612050554,0.000315838115057,0.000201401780942,-1.12955749501e-05,1.17616955322e-05,-0.000315365788992,0.46835471718,-0.0122474285661,0.169647590721,-0.0132139035125,0.922559442579,-0.385134947924,0.019507414825
-0.0192731004208,-0.00556300813332,-0.00874582119286,-2.52880430222,0.0195607170463,2.56906533241,0.746713936329,0.0653120651841,-0.000390668254113,-0.000258186686551,-0.00104743579868,0.000361297366908,5.40921973879e-05,-1.19175747386e-05,0.000396493211156,0.46835399975,-0.0122439743029,0.169647845329,-0.0132139617546,0.922560832897,-0.385131597139,0.0195077776121
-0.0192748550326,-0.00556179694831,-0.0087483972311,-2.52880477905,0.0195612683892,2.56906437874,0.74671381712,0.0653120651841,-7.69335674704e-05,-0.000734534056392,-0.000131886365125,0.000527867232449,-9.22882245504e-05,0.000125528458739,-0.000160366442287,0.468353316782,-0.0122459553174,0.169646999838,-0.013213597659,0.922559960445,-0.385133763393,0.0195065168187
-0.0192777104676,-0.00556199206039,-0.00874863285571,-2.52880716324,0.0195619370788,2.56906318665,0.746712982655,0.0653120651841,0.000143468249007,0.000405945727834,0.00018437273684,-0.0041714431718,0.000142839518958,-3.61997772416e-05,0.000439237628598,0.468351912916,-0.0122473288978,0.169646050346,-0.0132131381832,0.922559453129,-0.385135076506,0.0195048954928
-0.0192767232656,-0.00556335970759,-0.00874946266413,-2.52880334854,0.0195624623448,2.56906533241,0.746714532375,0.0653120651841,0.000292841839837,0.000443256256403,0.000433090812294,0.000284146808553,-7.09331070539e-05,0.000126108090626,0.000163392396644,0.468354429104,-0.0122473092906,0.169648380674,-0.0132146000277,0.922559025797,-0.385135879887,0.0195082539722
-0.0192754901946,-0.00556104583666,-0.00874966196716,-2.52880215645,0.0195610839874,2.56906199455,0.746714651585,0.0653120651841,7.60980474297e-05,-4.77409776067e-05,-0.000534684921149,0.000133758730954,0.000144089324749,1.61414027389e-05,-0.000268620060524,0.468353916961,-0.0122468599996,0.169647431352,-0.0132134650876,0.922559473408,-0.385134945783,0.019506296008
-0.0192727390677,-0.00556172663346,-0.00874876324087,-2.52880311012,0.0195618383586,2.56906342506,0.74671292305,0.0653120651841,0.000182406569365,-0.000640495214611,-5.4073992942e-05,0.000171814914211,2.82335422526e-05,1.25787228171e-05,-7.41218318581e-05,0.468353923746,-0.0122451221288,0.169647520965,-0.0132138793043,0.922560373682,-0.385132751897,0.0195067527758
-0.0192750431597,-0.00556096760556,-0.00874867569655,-2.52880430222,0.0195607915521,2.56906509399,0.746713280678,0.0653120651841,-0.000328622438246,0.000139824376674,-0.000272366887657,0.000263272086158,4.11260662077e-05,-0.000148683888256,0.000107971558464,0.468353556802,-0.0122462062307,0.169646865978,-0.0132135197781,0.922560045694,-0.385133550409,0.0195067428138
-0.0192772001028,-0.00556087493896,-0.00875085685402,-2.5288028717,0.0195623859763,2.56906604767,0.746715664864,0.0653120651841,-0.000471765873954,-0.00093958794605,-6.24004824203e-05,0.000287945760647,-1.74305223481e-05,1.16917053674e-05,-9.13919357117e-05,0.468354382361,-0.0122481938709,0.169647471425,-0.0132143287165,0.922558470674,-0.385137248626,0.0195076679266
-0.0192794967443,-0.0055631948635,-0.00875074788928,-2.52880191803,0.0195615235716,2.56906533241,0.746713459492,0.0653120651841,-0.000257200561464,0.000192727165995,-0.000444677425548,-0.000372425944079,0.000113886133477,-4.83670119138e-05,-0.000493510218803,0.468355036745,-0.0122492696688,0.169648857657,-0.0132145334958,0.922558589715,-0.385136890498,0.0195089699375
-0.0192761067301,-0.00556040229276,-0.00874919816852,-2.52880334854,0.0195615347475,2.56906366348,0.746712625027,0.0653120651841,0.00214836839586,-0.000331281655235,-2.22207381739e-05,0.000430839689216,-6.13746815361e-05,-4.43671633548e-05,3.28617097693e-05,0.46835333427,-0.0122470057159,0.169646432719,-0.013213358263,0.922559782362,-0.38513423158,0.019505857554
-0.0192766804248,-0.00556247262284,-0.00875011086464,-2.5288040638,0.0195616167039,2.56906366348,0.746713995934,0.0653120651841,-0.000720710551832,-0.000472696352517,-0.000145407786476,0.000381131685572,7.63963835198e-05,6.37507837382e-05,-0.000469462538604,0.468353814638,-0.01224768932,0.169647860902,-0.0132139706886,0.922559176507,-0.385135591062,0.0195072551034
-0.0192774329334,-0.00555915758014,-0.00875163730234,-2.5288028717,0.0195610336959,2.56906366348,0.746714353561,0.0653120651841,0.000125854610815,-3.47805762431e-05,4.83133844682e-05,-0.00012642328511,-4.71044572237e-08,-7.04451076672e-06,0.00019269711629,0.468353575437,-0.0122486975164,0.169646432692,-0.0132132277094,0.92255878991,-0.385136611316,0.0195058985856
-0.019276637584,-0.00556130800396,-0.00874996278435,-2.5288040638,0.0195607319474,2.5690639019,0.746714234352,0.0653120651841,-7.61308983783e-05,-5.25374380231e-05,5.17044063599e-05,0.000459942413727,2.69526444754e-05,4.9779049732e-05,-0.00052635348402,0.468353510902,-0.0122475628857,0.169647105614,-0.0132134120948,0.922559391268,-0.385135133877,0.0195065030107
-0.0192759055644,-0.00556484982371,-0.0087489085272,-2.52880644798,0.0195609852672,2.56906461716,0.746714353561,0.065311409533,-0.000152156455442,-0.000305319117615,0.000731407955755,-0.00016905364464,1.55848047143e-05,5.5751115724e-05,-0.000138915216667,0.468353046401,-0.0122466886312,0.169647806145,-0.0132138166232,0.922559585743,-0.385134613597,0.019507303675
-0.019278800115,-0.00556388450786,-0.00874830409884,-2.52880454063,0.0195612683892,2.56906414032,0.746714472771,0.065311409533,-0.00253322883509,-0.000732337823138,-9.90828175418e-06,-0.00291128340177,-1.08863923742e-05,3.42151251971e-05,-7.94492516434e-05,0.468353673761,-0.0122477667443,0.169648046975,-0.01321395141,0.922559072834,-0.38513582726,0.0195075078714
-0.0192767921835,-0.00556255364791,-0.00875017605722,-2.5288040638,0.0195615440607,2.56906485558,0.746713936329,0.065311409533,-0.000232020116528,-0.000320014776662,-0.000188729900401,0.000339207239449,2.65691523964e-05,2.08570781979e-05,-0.000254583428614,0.468353840758,-0.0122476988202,0.169647678507,-0.0132139889382,0.922559157813,-0.385135626823,0.0195074208056
-0.0192791838199,-0.00556217553094,-0.00875394046307,-2.52880072594,0.0195621307939,2.56906461716,0.746714413166,0.065311409533,5.29824283149e-05,-0.000565935508348,-0.000107577558083,0.000143801196828,1.86053293874e-05,-4.66882484034e-05,0.000230897741858,0.468355254571,-0.0122505936373,0.169648772576,-0.0132145861971,0.922557760451,-0.385138890503,0.0195086659641
-0.0192781835794,-0.00555839342996,-0.00875025428832,-2.52880358696,0.0195605605841,2.56906366348,0.746713459492,0.065311409533,0.000772314029746,3.77604592359e-05,0.000244377384661,3.81918289349e-05,1.12881325549e-05,-9.38482407946e-05,-0.000336923083523,0.468353114375,-0.0122484116889,0.169645797115,-0.0132128286423,0.922559174225,-0.385135736781,0.0195052595142
-0.0192704182118,-0.00555953942239,-0.00874687545002,-2.52880382538,0.019561143592,2.56906461716,0.746714532375,0.065311409533,0.0039773946628,-0.000123790698126,-0.00037672862527,0.000185476921615,5.63456960663e-05,1.27302018882e-05,0.000214502695599,0.468353636533,-0.0122428139733,0.169646379572,-0.0132134728417,0.922561082477,-0.385131103835,0.0195060445951
-0.0192671306431,-0.00556129543111,-0.00874232593924,-2.52880096436,0.0195603631437,2.56906509399,0.74671369791,0.065311409533,-0.000185291151865,0.000814923609141,-0.000154669280164,0.000474803178804,3.62626415153e-05,-8.51528820931e-05,-2.19628582272e-05,0.46835553476,-0.0122396680189,0.169648288091,-0.0132142327177,0.922562734498,-0.385127009915,0.0195082260905
-0.0192818064243,-0.00556076597422,-0.00875310786068,-2.52880311012,0.0195610169321,2.56906437874,0.746712744236,0.0653127208352,-0.000663189974148,-0.000637248915154,0.000124438927742,0.000661818892695,-4.59469956695e-05,-1.48827357407e-05,-6.37775810901e-05,0.468353805594,-0.0122514434036,0.169647163775,-0.0132135299834,0.922557955554,-0.385138547818,0.019506920212
-0.0192797947675,-0.00556375226006,-0.00875229761004,-2.52880454063,0.019561894238,2.5690639019,0.746713221073,0.0653127208352,0.00284158508293,5.16598774993e-05,0.00012261797383,0.000154282461153,0.000201693066629,-7.96845342848e-05,0.000301277963445,0.468353541224,-0.0122500684454,0.169647961919,-0.0132139998543,0.922558256521,-0.385137791028,0.019507309846
-0.0192745830864,-0.00556266587228,-0.00874816440046,-2.52880740166,0.0195628330112,2.56906533241,0.746712684631,0.0653127208352,-3.58064717147e-05,0.000142580232932,0.000133364330395,-3.40854930982e-05,9.07491339603e-05,7.93378421804e-05,-0.000238008753513,0.468352414652,-0.0122456267763,0.169646484138,-0.0132138542551,0.922560029632,-0.385133615292,0.019505994868
-0.0192740429193,-0.00556205073372,-0.00874792877585,-2.52880358696,0.0195605494082,2.5690639019,0.746714115143,0.0653127208352,4.93241132062e-05,-0.000341941253282,-0.000438112183474,8.64873072715e-05,-7.05551137798e-05,2.3509208404e-05,1.4300321709e-05,0.468353841963,-0.0122453998933,0.169647533951,-0.0132136017898,0.922560257046,-0.385133026865,0.0195070281432
-0.0192739833146,-0.00556115619838,-0.0087491767481,-2.52880382538,0.0195606723428,2.56906414032,0.746713936329,0.0653127208352,0.000462068885099,-1.88445028471e-05,-0.000130947155412,-0.000204367854167,-3.87146101275e-05,-9.59612152656e-05,-0.000516301661264,0.468353587533,-0.0122462009819,0.169647099734,-0.0132134757987,0.922559879239,-0.385133959735,0.0195065634581
-0.0192734096199,-0.00556263979524,-0.00874780770391,-2.52880620956,0.0195610150695,2.56906414032,0.746713519096,0.0653127208352,9.22111848922e-06,0.000424861616921,0.000220500005526,-0.000540105334949,0.00016752241936,8.26433533803e-05,-5.64569309063e-05,0.468352741611,-0.012244994973,0.16964681654,-0.0132134034913,0.922560458835,-0.3851325951,0.0195061435738
-0.0192730650306,-0.00556270824745,-0.0087481494993,-2.52880215645,0.0195613503456,2.56906485558,0.746714234352,0.0653127208352,-0.000760704395361,0.000816079322249,0.000150526917423,0.000599681981839,-6.89452281222e-05,-0.000162785625434,-1.88440535567e-05,0.468354850851,-0.0122450407121,0.169648490493,-0.0132143627667,0.922560219888,-0.385133022119,0.0195083636593
-0.0192773230374,-0.00556329125538,-0.00875166524202,-2.52880311012,0.019560765475,2.56906509399,0.746712625027,0.0653127208352,0.000247330084676,0.000469557795441,0.000167565376614,-7.64682190493e-05,1.10423388833e-05,9.12450559554e-05,0.000111124762043,0.46835440728,-0.0122485714696,0.169648303579,-0.0132140615544,0.922559169926,-0.385135550594,0.0195083036918
-0.0192784816027,-0.00556281488389,-0.00875286199152,-2.52880311012,0.0195620115846,2.56906557083,0.746714770794,0.0653120651841,0.000206439071917,-0.000265260459855,4.81686074636e-05,-0.000244065056904,-0.000110979854071,7.73731153458e-05,-9.34875861276e-05,0.468354441612,-0.0122497459217,0.169648240929,-0.0132144262904,0.922558059274,-0.385138198865,0.0195082973338
-0.0192781947553,-0.00555875105783,-0.00875011086464,-2.52880358696,0.0195616092533,2.56906342506,0.746714234352,0.0653120651841,9.75424482021e-05,-0.000669398228638,0.000365841493476,0.000228364806389,-0.000105956132757,-3.12592055707e-05,0.000129704538267,0.468353125322,-0.0122483016871,0.169645941856,-0.0132131370313,0.92255888109,-0.385136431167,0.0195052044988
-0.0192758422345,-0.00556074874476,-0.00875101145357,-2.52880454063,0.0195613559335,2.56906437874,0.746713876724,0.0653120651841,-4.11815053667e-05,0.00306015252136,-4.35190713688e-06,0.000465634249849,-4.70833401778e-05,-1.42524722833e-05,0.000930131995119,0.468353216048,-0.0122476356653,0.169646601202,-0.0132134431708,0.922559249079,-0.38513549115,0.0195061528108
-0.0192763637751,-0.00556161021814,-0.00874970015138,-2.52880525589,0.0195620618761,2.56906533241,0.746714890003,0.0653120651841,0.000519511289895,4.03230624215e-05,0.000290443043923,0.000169242863194,5.13395752932e-05,-9.79656470008e-05,-1.0232499335e-05,0.468353229288,-0.0122472386167,0.169646821209,-0.0132138364376,0.922559079948,-0.385135860805,0.0195065869821
-0.0192731842399,-0.00556077202782,-0.00874627195299,-2.52880597115,0.0195623021573,2.56906461716,0.746713995934,0.0653120651841,-0.000276850769296,0.00022083974909,-0.000202604176593,0.000310959818307,8.40993525344e-05,3.76726275135e-05,-0.000414535286836,0.468352677253,-0.0122441164639,0.16964608131,-0.0132135409895,0.922560509251,-0.385132503729,0.0195054699696
-0.0192724596709,-0.00556404236704,-0.00874613411725,-2.52880692482,0.019560996443,2.56906485558,0.746712207794,0.0653120651841,4.10059583373e-05,0.000434446905274,-0.000349568901584,-4.90323691338e-05,-9.09150912776e-05,2.28083194997e-06,-0.000689744949341,0.468352813107,-0.0122437709309,0.169647266345,-0.0132136592193,0.922561204625,-0.385130766959,0.0195067925535
-0.019276689738,-0.0055652516894,-0.0087498286739,-2.52880644798,0.0195619948208,2.56906437874,0.74671381712,0.0653120651841,0.000496171240229,0.000565924623515,1.19869546324e-05,-0.000261460198089,-1.79457110789e-05,-6.85336635797e-05,1.2814769434e-05,0.468353042021,-0.0122474397028,0.169647971572,-0.0132140949189,0.922559197289,-0.385135535107,0.0195072927978
-0.0192737095058,-0.00555704394355,-0.00874912552536,-2.52880716324,0.0195612087846,2.56906485558,0.746713459492,0.0653120651841,0.000150138308527,0.000109381384391,0.000376918032998,6.92340036039e-05,-5.34251630597e-05,5.62523200642e-05,6.38418568997e-05,0.468351504282,-0.0122457198691,0.169643895179,-0.0132123655237,0.922560182233,-0.385133431049,0.0195034234564
-0.019277645275,-0.00556104164571,-0.00875199958682,-2.52880930901,0.0195621009916,2.5690639019,0.746713995934,0.0653120651841,-0.00313425716013,0.00026237469865,8.83922693902e-05,-0.000301471329294,-6.06890534982e-05,-4.75851593364e-05,4.70268350909e-05,0.468350841899,-0.012248840442,0.169644843069,-0.0132127307687,0.9225586171,-0.385137149413,0.0195037838452
-0.019274905324,-0.00556153059006,-0.00874873902649,-2.5288105011,0.0195611622185,2.56906294823,0.746713161469,0.0653120651841,-8.04589071777e-05,-6.62157908664e-05,-0.000293382792734,0.000251916149864,-4.68559737783e-05,2.47286279773e-05,-2.94251112791e-05,0.468350123124,-0.0122458617873,0.169644355836,-0.013212191879,0.922560175046,-0.385133485668,0.0195028024727
-0.0192747414112,-0.00556330336258,-0.00874886568636,-2.52881217003,0.0195615999401,2.5690639019,0.746714353561,0.0653120651841,-0.000119464108138,0.000578667910304,8.93897449714e-05,5.64003821637e-05,0.000129760534037,-8.0312078353e-05,-0.000320499791997,0.468349911997,-0.0122460064848,0.169644793069,-0.0132125551244,0.922559797262,-0.385134342276,0.0195035110959
-0.0192772615701,-0.00556186819449,-0.00875063799322,-2.52881264687,0.0195609498769,2.56906318665,0.746714949608,0.0653120651841,-0.000228725388297,0.000204265321372,-0.000264988193521,0.000224912699196,-4.56059569842e-05,-2.17340257223e-05,0.000314364209771,0.468349241665,-0.0122480257634,0.169643865398,-0.0132118808496,0.922558987127,-0.385136363674,0.0195023725235
-0.0192785244435,-0.00555918132886,-0.00875168573111,-2.52881646156,0.0195619147271,2.56906318665,0.746712267399,0.0653120651841,0.000235824278207,0.000395871640649,0.000765984528698,0.000191748709767,2.10947382584e-06,3.83679653169e-05,-5.0726270274e-05,0.468346946824,-0.0122490040827,0.169641127873,-0.013210909715,0.922558965766,-0.385136604715,0.0194992805
-0.0192764140666,-0.00556200323626,-0.00874793343246,-2.52881622314,0.0195617191494,2.56906414032,0.746714949608,0.0653120651841,0.000372561451513,5.61684828426e-05,0.000311296083964,-0.000392177375033,3.21495717799e-05,-0.00020713993581,-0.00021875310631,0.468347797981,-0.0122462926384,0.169642635719,-0.0132116570404,0.922559569286,-0.385135040367,0.0195011179389
-0.0192751493305,-0.00555929681286,-0.00874749664217,-2.52881741524,0.019562497735,2.56906414032,0.746713101864,0.0653120651841,7.38300295779e-05,0.000488367630169,-2.42970872932e-05,0.000134431888,-7.25195350242e-05,0.000109019099909,-9.25761560211e-05,0.468346762049,-0.012245370952,0.169640773818,-0.0132110362269,0.922560236151,-0.385133565439,0.0194991191982
-0.0192751716822,-0.00556263839826,-0.00874943099916,-2.52881622314,0.0195611100644,2.56906414032,0.746713519096,0.0653120651841,-0.000649671419524,0.000427172781201,-0.000656232819892,0.000122092227684,-5.96059398958e-05,-2.87396032945e-05,0.000134672867716,0.468347897426,-0.0122464399658,0.169642932953,-0.013211601254,0.922559887453,-0.385134261653,0.0195014829682
-0.0192785225809,-0.00556356785819,-0.00875165592879,-2.52881622314,0.0195612255484,2.56906437874,0.746713340282,0.0653120651841,3.46946653735e-05,-0.000168495680555,-0.000703581143171,-0.000365878164303,-5.31969226358e-06,-6.98279181961e-05,-2.94044857583e-05,0.468348032345,-0.0122490496443,0.169643391765,-0.0132117928974,0.922558817785,-0.3851367886,0.0195020513192
-0.0192777663469,-0.00555941741914,-0.00875110179186,-2.52881979942,0.0195617061108,2.56906461716,0.746714174747,0.0653120651841,-0.00223383144476,3.19285609294e-05,0.000473952328321,3.40811093338e-05,-0.000117812065582,-7.30380197638e-05,9.53539056354e-05,0.468345817271,-0.0122489368385,0.169639736705,-0.0132103267493,0.922559076392,-0.385136410555,0.0194982763866
-0.0192732997239,-0.00556252757087,-0.00874912180007,-2.52882027626,0.0195617582649,2.56906509399,0.746712803841,0.065311409533,-6.26611872576e-05,0.00072559225373,-0.000258866552031,4.96556604048e-05,-5.11477446707e-05,6.19754428044e-05,-0.000155516128871,0.468346167891,-0.0122453449268,0.169641403084,-0.0132112007425,0.922560369678,-0.385133199653,0.0194999149233
-0.0192709192634,-0.00556273153052,-0.00874535273761,-2.52881908417,0.0195614211261,2.56906533241,0.746713578701,0.065311409533,0.00014364188246,-0.000355255440809,-1.46199488427e-06,-0.00010373351688,-0.000114632421173,4.00721037295e-05,0.000621753162704,0.468346898664,-0.0122425025223,0.169641984129,-0.0132114625418,0.922561442883,-0.385130581683,0.0195006691452
-0.0192716028541,-0.00556340254843,-0.00874580815434,-2.52882003784,0.0195612162352,2.56906485558,0.746713459492,0.065311409533,-0.000143312223372,-0.000358371326001,-0.000385592866223,-0.000287639704766,1.30907510538e-05,3.93615264329e-05,1.18273574117e-05,0.468346434238,-0.0122430289454,0.169641881897,-0.0132112676425,0.922561287679,-0.385130976794,0.0195003404966
-0.0192774571478,-0.00555872730911,-0.00875138770789,-2.52882027626,0.0195619631559,2.56906414032,0.74671459198,0.065311409533,0.000107605010271,0.000417263887357,0.000428900471888,1.33080748128e-05,-8.18390219592e-07,-2.68773692369e-05,0.00051551888464,0.468345264417,-0.0122483200184,0.169639529371,-0.0132103532851,0.922558803032,-0.385137093196,0.019497708635
-0.0192731134593,-0.00555890891701,-0.00874707382172,-2.52882432938,0.0195621680468,2.56906509399,0.746714174747,0.0652089715004,6.56062693452e-05,0.000134018220706,8.47787305247e-05,-5.2525610954e-05,0.000147577608004,-9.23011903069e-05,-0.000241189001827,0.468343661006,-0.0122442161602,0.169638136365,-0.0132099458104,0.922560543663,-0.385133009971,0.0194962796554
-0.0192757491022,-0.00556222349405,-0.00874888338149,-2.52882432938,0.0195613857359,2.56906366348,0.746713101864,0.0652089715004,-0.000322545645759,-0.000395190727431,0.000265696842689,-0.000158149938216,3.33465795848e-05,7.4466021033e-05,5.86085989198e-05,0.468343839606,-0.0122463266441,0.169639548731,-0.0132100540309,0.922560004845,-0.385134247279,0.019497261056
-0.0192789882421,-0.0055607939139,-0.00875185336918,-2.52882409096,0.0195610616356,2.56906533241,0.746714711189,0.0652089715004,-0.0002297967294,-0.00054466095753,-0.000110863948066,-0.000230443038163,0.000166795914993,3.67481334251e-05,-0.000172943691723,0.468344001807,-0.0122492627179,0.169639134617,-0.013209999117,0.922558543347,-0.385137735408,0.0194975503023
-0.019279781729,-0.00556120835245,-0.00875259842724,-2.52882480621,0.0195623952895,2.56906437874,0.746712565422,0.0652089715004,9.01286621229e-05,-0.000720090174582,-0.000281333137536,0.000257822684944,-0.000113792040793,2.10091184272e-05,-0.000378249562345,0.468343505671,-0.0122499046879,0.169638958722,-0.0132100988203,0.922558459628,-0.385137967797,0.0194968536216
-0.0192714538425,-0.00556007400155,-0.00874753016979,-2.52882885933,0.0195611156523,2.56906437874,0.746715426445,0.0652089715004,0.000103574471723,0.000374463910703,0.000269604031928,-4.03432204621e-05,2.00211452466e-05,4.74053922517e-05,-6.92454432283e-06,0.468341537869,-0.0122436343131,0.169636855091,-0.0132089722172,0.922560744112,-0.38513265533,0.0194944596314
-0.0192722249776,-0.00555792124942,-0.00874654389918,-2.5288271904,0.0195612031966,2.56906318665,0.746714472771,0.0652089715004,-0.000495621468872,0.000398943840992,-3.16196710628e-05,0.00213297340088,-6.87940482749e-05,-0.000107768290036,-0.000131649881951,0.46834173381,-0.012243533662,0.169636377037,-0.0132086847732,0.922560973747,-0.385132154824,0.0194936750939
-0.019275188446,-0.00556115340441,-0.00875108782202,-2.52882790565,0.0195615664124,2.56906437874,0.746714353561,0.0652089715004,-0.000593771866988,0.000353026989615,-8.79331637407e-05,-0.000286215770757,0.000207566248719,-6.50929541735e-06,-0.000307151523884,0.46834208323,-0.0122470424435,0.169637730743,-0.013209387655,0.922559454309,-0.385135682429,0.019495413449
-0.0192787963897,-0.00555980484933,-0.00875061843544,-2.52882647514,0.019561752677,2.56906509399,0.746713042259,0.0652089715004,0.000392233429011,0.000749187136535,0.000114667949674,-4.80083472212e-05,-2.97720762319e-05,-2.22345024667e-05,-0.000161115516676,0.468342664416,-0.0122485270429,0.169637723784,-0.013209524186,0.922559063443,-0.385136594413,0.0194958010052
-0.0192709993571,-0.00556285353377,-0.00874721165746,-2.52882838249,0.0195618849248,2.56906509399,0.746714711189,0.0652089715004,-8.24577582534e-05,-0.000466472061817,0.00015891752264,-4.94287087349e-05,-0.000199134199647,1.38002160384e-05,-0.000133334324346,0.468342384946,-0.0122432609585,0.169638412601,-0.0132098929392,0.922560867313,-0.385132238813,0.0194962339885
-0.0192773099989,-0.00556272407994,-0.00874992646277,-2.52883076668,0.0195616595447,2.56906557083,0.746713757515,0.0652089715004,-0.000422500801506,-0.000393261463614,-0.000226942182053,0.000327979767462,-7.61025730753e-05,-4.28277016908e-05,-0.000196143024368,0.468341211646,-0.0122474680517,0.169637473984,-0.0132093736477,0.922559367632,-0.385135892695,0.0194953707819
-0.0192785616964,-0.00556280836463,-0.00875209178776,-2.52882933617,0.0195631869137,2.56906509399,0.746715307236,0.0652089715004,0.000203849747777,0.000163193937624,3.2876188925e-05,0.00021541530441,-4.99037705595e-05,5.55466140213e-05,-0.000127844323288,0.468341770432,-0.0122490127288,0.169638022218,-0.0132099522641,0.922558156417,-0.385138756884,0.0194957128237
-0.0192694086581,-0.00556412898004,-0.00874506123364,-2.52883172035,0.0195609461516,2.5690639019,0.746713876724,0.0636644884944,0.000562676636036,0.000108510241262,0.000347796303686,-0.000441449315986,-5.99766717642e-05,0.000157617760124,-0.000312432093779,0.468340780561,-0.0122414992152,0.169637598693,-0.0132090991439,0.92256193308,-0.385129786346,0.0194947860413
-0.0192708987743,-0.00556474039331,-0.00874511431903,-2.52883005142,0.0195614229888,2.56906580925,0.746713221073,0.0636644884944,-0.000638348632492,-0.000415061833337,-0.00033107897616,-6.58379431115e-05,-3.10731011268e-05,1.71712563315e-05,0.000727659149561,0.468342072048,-0.0122422451396,0.169638719265,-0.0132099430065,0.922561641393,-0.38513035866,0.019496711427
-0.0192797668278,-0.00556084979326,-0.00875142589211,-2.52883172035,0.0195621605963,2.56906580925,0.746712803841,0.0636644884944,-0.000372936745407,-0.000313984724926,-0.000579082639888,-0.000237441490754,-4.69136539323e-05,0.000126240876853,-5.38732601854e-05,0.468340451797,-0.0122492809647,0.169636249675,-0.013208986737,0.922558733135,-0.385137487745,0.0194941478602
-0.0192841682583,-0.00556107936427,-0.00875389669091,-2.52883124352,0.0195627938956,2.56906509399,0.746713042259,0.0636644884944,0.000426310842158,-0.000347761815647,-0.000182917254278,-0.00034420209704,5.57234488952e-05,-0.000104635997559,0.000330163544277,0.468340312213,-0.0122524522651,0.169636344371,-0.0132090199579,0.922557189614,-0.385141197489,0.0194938801328
-0.0192757304758,-0.00556220766157,-0.00875000376254,-2.52883052826,0.0195606723428,2.56906533241,0.746713876724,0.0636644884944,0.000227931872359,0.000185414508451,-6.14880045759e-05,4.98360277561e-05,4.68273683509e-05,-2.92782769975e-05,-0.000274646037724,0.468341206972,-0.0122468075566,0.16963730065,-0.0132090375203,0.922559798254,-0.385134880505,0.0194952166914
-0.0192717835307,-0.0055614314042,-0.00874897371978,-2.52883243561,0.0195619389415,2.56906461716,0.746714293957,0.0620996542275,-0.000238090899074,-0.000185919940122,0.000318944599712,-0.000480559276184,-1.49272264025e-05,3.04334553221e-05,-0.000627717119642,0.468340075362,-0.0122443853732,0.169636128024,-0.0132088118084,0.922560506595,-0.385133279844,0.0194934707167
-0.0192766860127,-0.00556221464649,-0.00875084381551,-2.52883410454,0.0195610523224,2.56906437874,0.746711969376,0.0620996542275,0.000380414829124,-0.000372432928998,-0.000376244628569,0.000273862067843,2.83875015157e-05,9.88748142845e-05,-0.000277426996036,0.46833926704,-0.0122475725798,0.169635823997,-0.0132082984211,0.922559803857,-0.385135000072,0.0194930901049
-0.0192740764469,-0.00555917620659,-0.00874807778746,-2.52883291245,0.0195618066937,2.56906557083,0.746712446213,0.0620996542275,7.01857425156e-05,0.000240919049247,0.000162034062669,0.0029395443853,-6.95997368894e-05,6.27375484328e-05,-0.000431321794167,0.468339665483,-0.0122450429026,0.169634979912,-0.0132084074049,0.922560629858,-0.385133038325,0.0194926828204
-0.0192693062127,-0.00556275621057,-0.00874496623874,-2.52883195877,0.0195609182119,2.56906580925,0.746712982655,0.0620996542275,-5.68212817598e-06,0.000398364791181,0.000430687825428,-0.00262542255223,-1.95437460206e-05,2.92771019303e-05,-0.000192638355657,0.468340853466,-0.0122414206725,0.169637049847,-0.0132091179066,0.922562141049,-0.385129279766,0.0194949392664
-0.0192710533738,-0.00556273991242,-0.00874609965831,-2.52883458138,0.0195625070482,2.56906557083,0.746713936329,0.0620996542275,-0.000703802099451,0.000344225962181,-0.000423072982812,-0.000113134599815,-0.000111280540295,-9.06327186385e-05,0.00027186126681,0.468339509664,-0.0122426599479,0.16963600272,-0.0132090041325,0.92256117505,-0.385131673,0.0194934510671
-0.019279403612,-0.00556226447225,-0.00875136815012,-2.52883648872,0.0195612497628,2.56906557083,0.746714055538,0.0620996542275,-5.00786663906e-05,-0.000472803745652,0.000886245747097,-0.000168872997165,3.0749499274e-05,-2.4719918656e-05,-4.33223285654e-05,0.468338348039,-0.012249062243,0.16963503966,-0.0132081263893,0.922558754505,-0.38513754703,0.0194925481624
-0.0192738119513,-0.00556062022224,-0.00874992180616,-2.52883672714,0.0195611789823,2.56906461716,0.746712625027,0.0620996542275,0.000717580493074,0.000379890901968,0.000450515275588,0.00423898827285,-0.000230576799368,-1.46276597661e-05,-0.00011027718574,0.468337692435,-0.01224605241,0.16963413532,-0.0132076512879,0.922560300056,-0.385133928667,0.0194912128932
-0.0192703213543,-0.00556223466992,-0.00874640420079,-2.52883338928,0.0195616167039,2.56906533241,0.746712803841,0.0620996542275,0.000708399224095,-6.50464353384e-05,0.000195757049369,-4.7969588195e-06,6.18895282969e-05,1.11941117211e-05,0.000195622065803,0.468339951254,-0.0122425111419,0.169636204461,-0.0132088446397,0.922561614918,-0.385130609525,0.0194937526276
-0.0192707367241,-0.00556399580091,-0.00874649919569,-2.52883601189,0.0195618234575,2.56906485558,0.746712327003,0.0620996542275,-0.000304084183881,-0.00044587595039,-0.000612881209236,-0.000357017386705,6.71951102049e-06,-1.55094257934e-05,0.000195046261069,0.468338872909,-0.0122427060634,0.169635966013,-0.0132086600004,0.922561588896,-0.385130710712,0.0194931101682
-0.0192734058946,-0.00556046376005,-0.00874951481819,-2.52883577347,0.0195633191615,2.56906485558,0.746712446213,0.0620996542275,6.46528424113e-05,0.000419825839344,2.00906724785e-05,0.000121142766147,-1.74717060872e-05,-0.000118933712656,-0.00422915117815,0.468338343743,-0.0122452910436,0.169634404451,-0.0132084003058,0.922560262168,-0.385133980962,0.0194914653342
-0.0192732680589,-0.00556065700948,-0.00874837674201,-2.52883815765,0.0195627547801,2.56906461716,0.746712088585,0.0600712113082,-3.70343041141e-05,0.000215026782826,6.27442786936e-05,0.000250250828685,-2.08370911423e-05,-1.40530055432e-05,0.000268987991149,0.468337243567,-0.0122445774965,0.169633441093,-0.0132079262188,0.922560656842,-0.385133113599,0.0194902443343
-0.019273256883,-0.00556219974533,-0.00874833855778,-2.52883672714,0.0195611380041,2.56906533241,0.746714413166,0.0600712113082,-0.000111437955638,8.80839652382e-05,-0.00030527843046,0.000338364741765,-0.00019938882906,-6.52313246974e-05,-2.08578148886e-05,0.468338284083,-0.0122447664525,0.169634893542,-0.0132080864393,0.922560476466,-0.385133438874,0.019492246115
-0.0192760527134,-0.00556426029652,-0.00874947290868,-2.52883601189,0.0195618849248,2.56906509399,0.746713161469,0.0600712113082,-7.74229556555e-05,0.00112261890899,0.000201426330023,0.000460728537291,-0.000100370991277,2.60560937022e-05,0.000181633746251,0.468338865918,-0.0122465863342,0.169636113247,-0.0132087007395,0.922559816576,-0.385134940874,0.0194933851633
-0.0192753989249,-0.00556345423684,-0.00874894391745,-2.52883625031,0.0195608753711,2.56906652451,0.746714293957,0.0600712113082,0.000273220211966,0.000200290654902,0.000161535775987,-0.000841358560137,-0.000254590966506,-2.12640770769e-05,0.000267546798568,0.468338939239,-0.0122460872824,0.169635782722,-0.0132085121576,0.922559982098,-0.385134537162,0.0194936555187
-0.0192725434899,-0.00555834639817,-0.00874873436987,-2.52883911133,0.0195613000542,2.56906485558,0.746714293957,0.0600712113082,0.000307786802296,-0.000568597111851,0.000493152881972,-0.00461082486436,-8.85863555595e-05,3.50403098537e-07,0.000192000705283,0.468336413096,-0.0122445608628,0.169632117212,-0.0132069141642,0.922560599901,-0.385133342565,0.0194891009492
-0.0192729644477,-0.00556217785925,-0.00874740444124,-2.52883863449,0.0195618420839,2.56906723976,0.746712803841,0.0600712113082,4.01838660764e-05,0.000501383503433,-0.000133555091452,0.000604682776611,9.02001556824e-05,0.000114654285426,0.000134973684908,0.468337791186,-0.0122441558225,0.169634330819,-0.0132082466094,0.922560905567,-0.385132409081,0.0194921753423
-0.0192754399031,-0.00555825280026,-0.00874909479171,-2.52883577347,0.0195613764226,2.56906628609,0.746712446213,0.0600712113082,9.30998503463e-05,0.000195848566364,0.000172830666997,-0.000186745470273,-3.44663494616e-05,6.68910479362e-06,0.000327506219037,0.46833809839,-0.0122460795366,0.169633258613,-0.0132076005441,0.922560249412,-0.38513406011,0.0194910471481
-0.0192718952894,-0.00556284096092,-0.00874728616327,-2.52883887291,0.0195610653609,2.56906652451,0.746713042259,0.0600712113082,0.00185128184967,-0.000287960778223,-0.000831877114251,6.58466669847e-05,2.99106486636e-05,3.43892788806e-05,3.73953371309e-05,0.468337542634,-0.0122431853129,0.169634276715,-0.0132078548966,0.922561429713,-0.385131184449,0.0194918296197
-0.0192727465183,-0.00556142767891,-0.00874812249094,-2.52883911133,0.0195609051734,2.56906700134,0.746712386608,0.0600712113082,-0.000174765853444,0.000463918957394,0.000582161999773,-0.000183449519682,-7.86800665082e-05,7.23667326383e-05,-0.000237217522226,0.468337379924,-0.0122444023875,0.16963376704,-0.0132076717534,0.922561067482,-0.3851320697,0.0194916070076
-0.0192758087069,-0.00555997435004,-0.00875166244805,-2.52883934975,0.0195627901703,2.56906604767,0.746713161469,0.055737208575,0.000600956613198,0.000182228308404,0.000205966367503,0.000326420820784,-3.87286763726e-06,2.04166135518e-05,6.75136034261e-05,0.468336747481,-0.0122474067181,0.169632904855,-0.0132077026111,0.922559358248,-0.385136233972,0.0194902043477
-0.0192734431475,-0.00556389288977,-0.00874785799533,-2.52883887291,0.019560854882,2.56906676292,0.746712267399,0.055737208575,9.77661984507e-05,0.000229868805036,-0.000245434173848,-0.000138384231832,-8.44087771839e-05,-2.66560232376e-06,2.95922964142e-05,0.468337841333,-0.0122446332358,0.169634994645,-0.0132081644938,0.922560979507,-0.385132205979,0.0194927443475
-0.0192733854055,-0.00555651308969,-0.00874839443713,-2.52883911133,0.0195607561618,2.56906652451,0.746713340282,0.055737208575,-0.000283091765596,-0.000221862719627,-0.000113746449642,-0.000554275233299,0.000101957150036,-0.000128208412207,0.00299346307293,0.468336464405,-0.0122448323835,0.16963142146,-0.0132067067133,0.922560772612,-0.385132936233,0.0194890955881
-0.01927847974,-0.00556083675474,-0.00874911062419,-2.528840065,0.0195619463921,2.56906557083,0.746712505817,0.055737208575,-0.000159934468684,0.000153598040924,6.06011708442e-05,0.000210710830288,-1.09836946649e-05,4.66854326078e-05,-0.000532424601261,0.468336439842,-0.0122474905961,0.169632984467,-0.0132074149329,0.9225596015,-0.385135664463,0.0194901388458
-0.0192756392062,-0.0055627967231,-0.00874936114997,-2.52884054184,0.019562561065,2.56906652451,0.746712982655,0.055737208575,-0.000235229817918,-0.000444795528892,-0.00019217938825,0.00103150273208,-3.39650687238e-05,-5.49123396922e-05,0.00137199938763,0.468336867078,-0.0122460632175,0.169633966674,-0.0132080509506,0.922559931883,-0.385134793097,0.0194912878869
-0.0192712172866,-0.00556216062978,-0.00874647777528,-2.52883934975,0.0195610299706,2.56906676292,0.746713101864,0.055737208575,0.000365315005183,0.000137459952384,0.000355367461452,-0.000301649997709,-3.27390007442e-05,-9.43646682572e-07,-0.00435790466145,0.468337457954,-0.0122431336599,0.16963401888,-0.0132078011602,0.92256143757,-0.385131172271,0.0194917347713
-0.0192716494203,-0.00556196505204,-0.00874663330615,-2.52883982658,0.0195611398667,2.56906652451,0.746713638306,0.055737208575,6.35790784145e-05,-3.51931303157e-05,-2.614144978e-05,-0.000264172354946,-8.87447604327e-05,-7.38884136808e-06,-0.000962229096331,0.468337055393,-0.0122431865779,0.16963369851,-0.0132077126197,0.922561281388,-0.385131574705,0.0194912354293
-0.0192749518901,-0.00556447776034,-0.00875042472035,-2.52884054184,0.0195616036654,2.56906580925,0.746712982655,0.055737208575,-3.46507913491e-05,-0.00248050037771,-0.000861559878103,-0.00038240160211,1.83186402865e-05,-0.000215306834434,0.000176213958184,0.468336883445,-0.012246475468,0.169634528475,-0.0132079786168,0.922559957846,-0.385134710717,0.0194917357538
-0.0192719306797,-0.00556106306612,-0.00874899514019,-2.52884221077,0.0195621419698,2.56906533241,0.746714413166,0.055737208575,0.000370001187548,6.76581839798e-05,0.000337456935085,0.000368676817743,-5.4596184782e-05,-1.28686160679e-05,-0.000385911524063,0.468335726712,-0.0122440326007,0.16963245397,-0.0132071690889,0.922560717375,-0.385133040044,0.0194893455489
-0.0192686934024,-0.00556270638481,-0.00874684005976,-2.5288412571,0.0195613764226,2.56906700134,0.746712744236,0.055737208575,7.10496315151e-05,0.000656420190353,-0.000318328122376,0.00069774815347,0.000406026112614,8.45399190439e-05,-0.00239407434128,0.468336626766,-0.0122418763586,0.169633537928,-0.0132077545969,0.922561945906,-0.385129988263,0.0194911007362
-0.0192566812038,-0.0055639129132,-0.00873439013958,-2.52883768082,0.0195618718863,2.56906962395,0.746712625027,0.055737208575,0.000707305851392,-0.000420786993345,0.000438114628196,0.000879724510014,-0.00035105709685,1.08048734546e-05,2.22249345825e-05,0.468339401738,-0.0122304886815,0.16963574714,-0.0132094045142,0.922566523714,-0.38511880039,0.0194943639
-0.0192599426955,-0.00556420255452,-0.00873821787536,-2.52883982658,0.019563421607,2.56906890869,0.746712327003,0.055737208575,-0.00155558937695,-0.000505462463479,-0.00115392985754,-0.000204974901862,0.000298536615446,-8.74333200045e-05,0.000244506343734,0.468338182846,-0.0122337006784,0.169634981488,-0.0132092940038,0.922564992593,-0.385122538332,0.0194930537502
-0.019265435636,-0.0055612642318,-0.00874432735145,-2.5288476944,0.0195646453649,2.56906533241,0.74671381712,0.0557253882289,0.00279383012094,0.000129532796564,0.00171624077484,-0.000673687900417,-0.00201696483418,0.000407546234783,-0.000510894111358,0.468333022691,-0.0122389214662,0.169630204533,-0.0132069649348,0.92256241948,-0.385129124927,0.0194862786555
-0.0192539617419,-0.00556048797444,-0.00873321760446,-2.52884817123,0.019561983645,2.56906461716,0.746712207794,0.0557253882289,-0.00064627348911,-0.000303808395984,-0.000373742455849,0.0002052038908,0.000288888550131,-3.78970689781e-05,0.000100658937299,0.468332784631,-0.0122284573732,0.169629584795,-0.0132060907742,0.922567527104,-0.385116959192,0.0194854952633
-0.0192636121064,-0.00556433480233,-0.00873885396868,-2.5288412571,0.0195676758885,2.56906414032,0.746712386608,0.0557253882289,-2.35397201322e-05,0.000710733467713,-0.000319357321132,0.000137985334732,0.000147858081618,-0.000132585933898,-0.000593083212152,0.468336451221,-0.0122354575238,0.169634024055,-0.0132093181441,0.922563535434,-0.385126191925,0.019489817293
-0.0192641839385,-0.00556289544329,-0.00873755663633,-2.52884793282,0.0195631701499,2.56906509399,0.74671202898,0.0557253882289,-0.000252380414167,-0.000728360144421,1.54377482886e-06,-0.000251218705671,9.17720535654e-05,2.91671640298e-05,-0.00454086018726,0.468333218794,-0.0122352357573,0.169630852308,-0.0132068367247,0.922564535596,-0.38512402749,0.0194869252869
-0.0192608200014,-0.00555917341262,-0.00873694103211,-2.52884459496,0.0195644013584,2.56906557083,0.74671292305,0.0557253882289,0.000392900110455,0.000544475507922,0.000203293631785,-0.00156006461475,-0.000338801677572,6.16684847046e-05,-0.000686583458446,0.468334365166,-0.012233355834,0.169630450182,-0.0132072036393,0.922564929979,-0.385123075354,0.0194868226715
-0.0192603040487,-0.00556075759232,-0.00873521063477,-2.52884817123,0.0195654351264,2.56906557083,0.746711730957,0.0557253882289,-0.00044332514517,-0.000463260163087,-0.000487885932671,0.000278225110378,8.89632065082e-05,9.90863554762e-05,-0.000517747132108,0.468332938094,-0.0122322161196,0.169629806195,-0.0132071294783,0.922565444794,-0.385121897225,0.0194857836016
-0.019264087081,-0.00555925490335,-0.00873978249729,-2.52884697914,0.0195639375597,2.56906461716,0.746712505817,0.0557253882289,-0.000301901833154,0.000511911464855,0.000693872454576,-0.000249822216574,-0.000138059593155,4.75425840705e-05,-0.000566032889765,0.468332954781,-0.0122361928947,0.169629470235,-0.0132064484846,0.922563941687,-0.385125541355,0.019485386734
-0.0192623641342,-0.00556377135217,-0.00873968098313,-2.52884364128,0.019564891234,2.56906437874,0.746714234352,0.0557253882289,0.000166721176356,-8.82308959262e-05,-0.000252834783169,-0.000266261893557,1.32812147058e-05,-8.92057141755e-05,-2.25819621846e-05,0.468335129303,-0.0122353729754,0.169632701709,-0.0132079974792,0.922563843262,-0.385125558262,0.0194886624576
-0.0192570909858,-0.00556286191568,-0.00873530749232,-2.5288476944,0.0195662975311,2.56906557083,0.746712207794,0.0557253882289,0.000172290005139,0.000126322396682,0.000510484096594,-0.00018427730538,-0.000129261970869,-0.000110894376121,0.00021708177519,0.46833355033,-0.012230731151,0.169630977364,-0.0132078631507,0.922565789482,-0.385120991117,0.0194868753837
-0.019254853949,-0.00555969588459,-0.00873292423785,-2.52884674072,0.0195629186928,2.56906604767,0.74671202898,0.0509757213295,-0.000684897124302,0.000447732920293,-0.000607854337431,-0.000664740975481,-9.80155382422e-05,-0.000168010126799,0.000191561979591,0.468333642721,-0.0122287281931,0.16962990893,-0.0132066853111,0.922567273081,-0.38511750262,0.019486378852
-0.019263567403,-0.00556166796014,-0.00873752962798,-2.52884697914,0.0195652656257,2.56906557083,0.746713519096,0.0509757213295,-0.00049389078049,0.000179183160071,-0.000266847055173,0.00062096765032,-5.14535640832e-05,-8.71084121172e-05,0.00507032359019,0.468333589979,-0.0122348548602,0.169630694793,-0.0132074352681,0.922564032558,-0.385125218208,0.0194868023608
-0.0192664656788,-0.00556166283786,-0.00873805116862,-2.52884507179,0.01956564188,2.56906557083,0.746711492538,0.0509757213295,0.000116615032312,0.000584191409871,-0.000384914805181,-0.000178584261448,4.9803264119e-05,-1.86851721082e-05,-0.000364509178326,0.468334462876,-0.0122364648503,0.169631432153,-0.0132078238652,0.922563685519,-0.385125991394,0.0194876880317
-0.0192529708147,-0.00556280557066,-0.00873031653464,-2.52884292603,0.0195670239627,2.56906723976,0.746714949608,0.0509757213295,-0.000364873121725,-0.000545214512385,0.000327976391418,0.000655973446555,6.83254693286e-05,6.31147704553e-05,-8.03478469606e-05,0.46833629893,-0.0122265177795,0.169632963772,-0.0132092893766,0.922566834763,-0.385118294657,0.0194897119868
-0.019249137491,-0.00556126330048,-0.0087256738916,-2.528840065,0.0195665564388,2.56906747818,0.746713757515,0.0509757213295,-0.000695224443916,-0.00028048173408,-0.000447209633421,5.31989207957e-05,-0.000214270839933,-1.18036532513e-05,-0.000393895723391,0.468337573016,-0.0122226094103,0.169633373802,-0.0132094972029,0.922568756495,-0.385113646845,0.0194904443107
-0.0192620698363,-0.00556219788268,-0.00873350724578,-2.5288438797,0.0195645857602,2.56906747818,0.746713638306,0.0509757213295,-0.000928478082642,-0.000753780943342,-0.000567588838749,0.000275526545011,-0.000115120630653,-0.000116474046081,-0.000250058888923,0.468335638374,-0.0122323671806,0.169632331333,-0.0132082833152,0.922565125126,-0.385122439228,0.0194894237772
-0.019273461774,-0.00555866165087,-0.00874290429056,-2.52884578705,0.0195680353791,2.56906723976,0.746714234352,0.0509757213295,0.000279116909951,0.00066589290509,0.00024572541588,-0.000194997541257,-4.62348216388e-05,-0.000327524408931,0.000273978919722,0.468333847342,-0.0122419015102,0.169629913334,-0.0132079833243,0.922560506796,-0.385133657434,0.0194865612861
-0.0192474015057,-0.00556223327294,-0.00872337073088,-2.52884554863,0.0195639505982,2.56906723976,0.746712625027,0.0509757213295,-0.00053756806301,-3.80809360649e-05,0.000147145983647,-0.000330206821673,-5.48180796613e-05,-5.96337958996e-05,0.000159643808729,0.468335094393,-0.0122207629855,0.169631677296,-0.0132079880274,0.92257021756,-0.385110298628,0.0194884657334
-0.0192582793534,-0.00556282233447,-0.00872864574194,-2.5288476944,0.0195673424751,2.56906700134,0.746714293957,0.0509757213295,-0.00038026200491,0.000848740863148,-0.000676531053614,0.000500237103552,-0.000140445612487,6.01248648309e-05,-0.000424139434472,0.468334019576,-0.0122288152526,0.1696309651,-0.0132084164572,0.922566015571,-0.385120409869,0.0194872838605
-0.0192622672766,-0.00556400045753,-0.00873318780214,-2.52884459496,0.0195647068322,2.56906700134,0.746713876724,0.0509757213295,-5.51753328182e-05,-0.000210974365473,0.00015843694564,0.000223177470616,-1.63428339874e-05,-6.80337598169e-06,-0.000179378082976,0.468335489186,-0.0122322959539,0.169632851851,-0.013208438351,0.922565078298,-0.385122532598,0.0194896903376
-0.0192503836006,-0.00555804371834,-0.00872496794909,-2.52884435654,0.0195663683116,2.56906604767,0.746712982655,0.0509757213295,0.00317621533759,0.00125596811995,0.000842957291752,-0.000289980525849,-0.000222765287617,3.71807545889e-05,-0.000245696428465,0.468335172691,-0.0122231020237,0.169630804975,-0.0132081059151,0.9225687649,-0.385113843088,0.0194871114587
-0.0192510355264,-0.00556189566851,-0.00872514024377,-2.52884721756,0.0195671580732,2.56906676292,0.74671202898,0.0509757213295,0.000266621122137,-0.000541759713087,0.0007398094167,0.00040445025661,-2.95600239042e-05,3.72745962522e-05,0.000122416109662,0.468334076774,-0.0122231203541,0.169630826919,-0.0132083322536,0.922568800494,-0.385113754303,0.0194870275778
-0.0192572213709,-0.0055609960109,-0.00872870814055,-2.52884316444,0.019566366449,2.56906652451,0.746714115143,0.0469871275127,0.000181925206562,-0.000238412569161,-0.000132156113978,-0.000326446606778,7.13871559128e-05,-0.00119112501852,-3.70074048988e-05,0.468335701965,-0.0122277695782,0.16963195324,-0.0132085806238,0.922566620524,-0.385118892843,0.0194885133157
-0.0192569326609,-0.00556412292644,-0.00872899591923,-2.52884626389,0.0195655431598,2.56906700134,0.746713995934,0.0469871275127,-0.000266307237325,2.07555713132e-05,-2.36709711317e-05,-0.000550888362341,-0.000136932794703,-7.29693929316e-05,-0.00034265339491,0.468334826792,-0.0122277788153,0.169632262592,-0.0132084637954,0.92256677014,-0.385118522577,0.0194888267431
-0.0192465521395,-0.0055616311729,-0.00872168689966,-2.52884840965,0.0195645168424,2.56906700134,0.746713459492,0.0469871275127,-5.65095760976e-05,0.000651435577311,-0.000301862222841,0.000145583049743,1.19397391245e-05,-8.27978728921e-05,-0.000102819729364,0.468333604697,-0.0122195100206,0.169630262831,-0.0132074997438,0.922570489543,-0.385109755041,0.0194866628503
-0.0192511100322,-0.00556000461802,-0.0087250508368,-2.52884936333,0.0195669513196,2.56906700134,0.74671202898,0.0469871275127,-0.000352797098458,0.0034180409275,-0.000476458080811,0.000171214880538,-1.77585006895e-05,9.56683943514e-05,0.000195843909751,0.468332679567,-0.0122233429657,0.169628835371,-0.0132075047602,0.922568713712,-0.385114094527,0.0194849730918
-0.019256465137,-0.00556274596602,-0.00872689019889,-2.52884483337,0.0195659808815,2.56906676292,0.74671214819,0.0469871275127,-0.000140377000207,0.000544013339095,-7.18520532246e-05,0.000354926247383,-9.67566520558e-05,4.91166501888e-05,0.00030128940125,0.468335269149,-0.0122265684545,0.169632149112,-0.0132085433145,0.922567553419,-0.385116650078,0.0194886961519
-0.0192585550249,-0.00556134013459,-0.00872791931033,-2.52884578705,0.0195678472519,2.56906652451,0.746713638306,0.0469871275127,4.33101376984e-05,0.00126551219728,0.00240988424048,-0.000385485822335,-8.26653849799e-05,5.5938391597e-05,-0.000184981283383,0.468334496512,-0.0122279251904,0.169631098303,-0.0132085495168,0.922566390984,-0.385119504609,0.0194873112325
-0.0192493777722,-0.00556098623201,-0.00872262567282,-2.52884888649,0.0195661373436,2.56906700134,0.746713459492,0.0469871275127,-0.00027872089413,-7.14406414772e-05,5.85427478654e-05,-0.000518888991792,-4.05593091273e-05,-6.07208239671e-05,0.000247100193519,0.468333054792,-0.0122212163782,0.169629753422,-0.013207694846,0.922569459879,-0.385112252043,0.0194859309108
-0.0192526783794,-0.00556096993387,-0.00872350391001,-2.52884674072,0.0195654500276,2.56906723976,0.746711671352,0.0469871275127,-0.000255258317338,-0.000781777896918,-0.000178697315278,-7.92506252765e-05,-9.83984791674e-05,-5.41960544069e-05,-0.000546925060917,0.468334253093,-0.0122232096633,0.169630623967,-0.0132078738258,0.922569141759,-0.385112942956,0.0194872161493
-0.0192531272769,-0.00556072872132,-0.00872377306223,-2.52884793282,0.0195642188191,2.56906652451,0.746712207794,0.0469871275127,-8.38705018396e-05,-0.000646630011033,-0.000137400609674,0.000160409690579,-0.000123974663438,-0.000125596663565,-9.95677837636e-05,0.468333477317,-0.0122235763326,0.16962997807,-0.0132071682227,0.922569120323,-0.385113063108,0.0194863346928
-0.0192426275462,-0.00556224118918,-0.00871490035206,-2.52884364128,0.0195645093918,2.56906652451,0.74671381712,0.0469897538424,-0.00012683524983,-0.000226855059736,-0.000241689864197,-0.000109098902612,-0.000122011944768,5.82694010518e-05,0.000108143947728,0.468336019856,-0.0122145611188,0.169632350992,-0.0132084744082,0.92257243866,-0.385104939989,0.0194888816174
-0.0192491840571,-0.0055587310344,-0.00871729943901,-2.52884435654,0.0195668768138,2.56906676292,0.746713221073,0.0469897538424,-0.00149412162136,-0.000403643905884,-9.0881534561e-05,-0.000111603338155,-0.000200787661015,7.3142698966e-05,-0.000397385301767,0.46833504987,-0.0122186293536,0.169630453703,-0.0132082768403,0.922570485841,-0.385109727544,0.0194868548537
-0.0192499849945,-0.00556229008362,-0.00872038770467,-2.52884435654,0.0195663310587,2.56906700134,0.74671125412,0.0469897538424,-0.000691996712703,-5.45168040844e-05,-0.000121726181533,-8.88074464456e-06,7.88099077909e-06,-2.54051724369e-06,-0.000387962587411,0.468335633799,-0.0122204860405,0.16963214407,-0.0132087791176,0.922570166406,-0.385110381639,0.0194887107814
-0.0192531775683,-0.00556142069399,-0.00872273836285,-2.52884411812,0.0195664633065,2.56906723976,0.746712386608,0.0469897538424,0.000447559199529,-0.00140114489477,-0.000457323592855,0.00059191940818,1.04519258457e-05,7.513086166e-05,-0.000437753915321,0.468335589841,-0.012223077062,0.16963185259,-0.0132087010927,0.922568862902,-0.385113515446,0.0194885433879
-0.0192469935864,-0.00556170148775,-0.0087157599628,-2.52884364128,0.0195653196424,2.56906676292,0.74671381712,0.0469897538424,-0.000531228084583,0.000509112956934,-5.59721556783e-05,0.000417905801442,0.000116590752441,9.45460560615e-05,-0.000103766848042,0.468335920611,-0.0122169723451,0.16963212189,-0.0132085802632,0.92257130447,-0.385107662838,0.0194886962404
-0.0192496404052,-0.00556254340336,-0.00871666427702,-2.52884292603,0.0195667110384,2.56906700134,0.746711313725,0.0469897538424,4.47027014161e-05,-0.000232959617279,-0.000345453503542,0.000161564501468,-6.77884163451e-05,-0.000298342230963,7.06822393113e-05,0.468336411685,-0.0122185873105,0.169632817692,-0.0132092128486,0.922570861121,-0.385108665855,0.0194894348972
-0.0192536823452,-0.00556138530374,-0.0087214531377,-2.52884435654,0.0195665955544,2.56906628609,0.74671202898,0.0469897538424,0.000199215966859,-0.000149473373313,-0.000171683452209,-0.000237917891354,3.64917323168e-05,6.42157829134e-05,-1.92105471797e-05,0.468335274924,-0.0122226934545,0.169631650283,-0.0132085232574,0.922569074532,-0.385113044415,0.0194879535818
-0.0192534886301,-0.00556009169668,-0.00872083380818,-2.5288465023,0.0195664893836,2.56906676292,0.746714115143,0.0469897538424,0.000492992228828,-0.00179329153616,5.13945124112e-05,0.000159297866048,-9.44702551351e-05,3.50521389691e-07,1.4919764908e-05,0.468334146441,-0.0122222901027,0.169630258867,-0.0132079811624,0.9225688739,-0.385113613801,0.0194865669625
-0.0192433558404,-0.00556091452017,-0.00871351826936,-2.52884721756,0.0195658076555,2.56906652451,0.746712327003,0.0469897538424,-0.000225391951972,-0.000978717813268,0.000787348486483,-0.000338643149007,2.8170294172e-05,2.89127401629e-05,5.04007512063e-05,0.46833409836,-0.0122141460434,0.169630343445,-0.0132079175573,0.92257268961,-0.38510447967,0.0194864752998
-0.0192423630506,-0.00556406797841,-0.00871268007904,-2.52884745598,0.0195659212768,2.56906652451,0.746712625027,0.0469897538424,0.000402936217142,0.00379897886887,-0.000173669919604,-0.000141141266795,-8.55933540151e-05,-0.0023842996452,2.22646031034e-05,0.468334521659,-0.0122132909398,0.169631728411,-0.0132085022412,0.922572938494,-0.385103796057,0.0194878057199
-0.0192503798753,-0.00556077854708,-0.00871592666954,-2.52884459496,0.0195657555014,2.56906676292,0.746713459492,0.0469897538424,-0.00120500067715,5.27188312844e-05,-0.000355992029654,8.83877874003e-05,4.60477240267e-05,-0.000629530404694,0.00376504962333,0.468335269893,-0.012218601019,0.169631319936,-0.0132083162328,0.922570637054,-0.385109315871,0.0194878049035
-0.0192533321679,-0.00555927399546,-0.00871904287487,-2.52884721756,0.0195651743561,2.56906723976,0.746713101864,0.0469897538424,0.000405778730055,-0.000168425540323,-9.29235920921e-06,-0.000545344257262,-7.52570413169e-05,0.00479297200218,-0.000531516736373,0.468333793285,-0.012221431245,0.169629644494,-0.0132074439037,0.922569664788,-0.385111756033,0.0194862024403
-0.0192388463765,-0.00556623982266,-0.00870940741152,-2.52884364128,0.0195640362799,2.56906676292,0.746711373329,0.0469897538424,0.000212345126783,0.000347952503944,0.00012752119801,0.000169584876858,-3.68050459656e-05,0.000124699188746,0.000270224176347,0.468336924662,-0.0122100019139,0.169634246234,-0.0132091299736,0.922574854889,-0.385099027075,0.0194908963642
-0.0192409493029,-0.00556520512328,-0.00870989076793,-2.52883934975,0.0195659380406,2.56906700134,0.746714949608,0.0469897538424,-3.26414119627e-05,4.5860913815e-05,1.08108145014e-06,0.000317682075547,0.000123577236081,2.58908512478e-05,-0.000341120437952,0.468338749002,-0.0122114417615,0.169635451119,-0.013210309624,0.92257320357,-0.385102871694,0.0194922977271
-0.0192442815751,-0.00556015223265,-0.00871176272631,-2.52884292603,0.019564723596,2.56906700134,0.746711492538,0.0469897538424,-0.00189783005044,-0.000830801145639,0.000218816901906,-0.000331511691911,-0.000163472257555,4.07897350669e-05,-0.00038392393617,0.468336022961,-0.0122138299474,0.169631822309,-0.0132083738624,0.922573281547,-0.385102941246,0.0194885443828
-0.0192490257323,-0.00556133128703,-0.00871430430561,-2.5288438797,0.0195656232536,2.56906628609,0.746714651585,0.0469897538424,-0.00262084323913,0.000479526963318,-0.000611863099039,-0.000126075305161,8.05798845249e-05,-1.91367253137e-05,-0.000222181522986,0.468335637037,-0.0122172207247,0.169631809505,-0.0132084658832,0.922570995378,-0.38510843442,0.0194881589212
-0.0192437879741,-0.0055635413155,-0.00871028099209,-2.52884531021,0.0195663608611,2.56906628609,0.746710896492,0.0469897538424,5.70584270463e-05,-0.000523777678609,-0.000697625393514,-0.000301039661281,-6.20945575065e-05,9.57052179729e-05,-0.000435316644143,0.468335426395,-0.0122128419331,0.16963229063,-0.0132088516746,0.922573375577,-0.385102706192,0.0194884139802
-0.0192428883165,-0.00556481722742,-0.00870946608484,-2.52884435654,0.0195658020675,2.56906700134,0.746712863445,0.0469897538424,-0.000275330879958,-0.00150480784941,-3.88289481634e-05,-2.42255282501e-05,4.3040879973e-05,-0.000105178609374,-5.93618242419e-05,0.468336265461,-0.0122120889831,0.169633327922,-0.013209267378,0.922573387195,-0.385102592975,0.0194898194238
-0.0192445479333,-0.00556002464145,-0.00870982278138,-2.52884483337,0.0195660423487,2.56906628609,0.746713042259,0.0410278774798,-0.00291026569903,-0.000484771851916,-0.00064695184119,-0.000106350213173,4.81847710034e-05,0.000193876563571,-0.000321473082295,0.468335076378,-0.0122129932365,0.169630827866,-0.0132082246936,0.922572984817,-0.385103734302,0.0194870212324
-0.0192458610982,-0.00556326564401,-0.00870992150158,-2.52884459496,0.0195645354688,2.56906676292,0.746711969376,0.0410278774798,6.91570357958e-06,0.000398164644139,0.000302666099742,0.000450048217317,-0.000156272755703,-7.21237593098e-05,0.000865906069521,0.468335802194,-0.012213740053,0.169632484587,-0.0132085252533,0.922573122983,-0.385103291438,0.0194890281015
-0.019247142598,-0.00556399067864,-0.00871262513101,-2.52884411812,0.0195643734187,2.56906652451,0.746713399887,0.0410278774798,-0.000525012321305,0.00055038969731,0.000163657590747,0.00351105071604,9.37507229537e-06,-6.84152037138e-05,0.00261345249601,0.468336109229,-0.0122157605104,0.169632809008,-0.013208652757,0.922571943961,-0.385106091589,0.0194894230848
-0.0192457009107,-0.00556254107505,-0.00871000997722,-2.52884316444,0.0195657238364,2.56906676292,0.746712446213,0.0406476669014,6.86000275891e-05,0.000227496304433,0.000229533019592,-0.000388235610444,-4.16334005422e-05,-6.20615128355e-06,0.00502401124686,0.468336607522,-0.0122137209767,0.169633141079,-0.0132090476486,0.922572908082,-0.385103752726,0.0194897319715
-0.019245525822,-0.00556307751685,-0.00871140882373,-2.52884364128,0.0195669494569,2.56906652451,0.746713101864,0.0406476669014,-8.18671614979e-05,0.000121791556012,-0.000130687840283,-0.000172630258021,-0.000266381422989,5.22189657204e-05,-0.00028984763776,0.468335828539,-0.0122137109656,0.16963267797,-0.0132090809176,0.922572661169,-0.38510438338,0.0194889360768
-0.0192397665232,-0.0055628544651,-0.00870540458709,-2.52884411812,0.0195671394467,2.56906628609,0.746711671352,0.0406476669014,-0.000124250989757,0.00020558257529,3.532595656e-05,-6.7272936576e-05,9.95772425085e-05,-9.26610118768e-06,-2.35981115111e-05,0.468335996065,-0.0122086583143,0.169632431572,-0.0132092256078,0.922574809772,-0.3850992524,0.0194885149818
-0.0192425046116,-0.00556292803958,-0.00870636012405,-2.52884507179,0.0195664670318,2.56906652451,0.746712386608,0.0406476669014,-0.000223511437071,-0.000717386661563,-0.000369964254787,0.000363368162652,-4.34832872998e-05,2.57644915109e-05,-0.000609191250987,0.468335555409,-0.0122104072461,0.169632119233,-0.0132089058321,0.92257407463,-0.385101035342,0.0194883012933
-0.0192412603647,-0.00556341465563,-0.00870569050312,-2.52884149551,0.0195670966059,2.5690677166,0.746712088585,0.0406476669014,0.00056543329265,0.00322814728133,0.000382431695471,0.000666369334795,-0.000111638451926,1.28865667648e-05,0.00140512513462,0.468337630483,-0.0122095455354,0.169633850967,-0.0132100217303,0.922574346502,-0.385100225207,0.0194906831588
-0.0192366670817,-0.00556395296007,-0.00870276708156,-2.52884221077,0.0195682812482,2.56906700134,0.746711671352,0.0401479415596,-1.2327168406e-05,0.00039354650653,0.000342864863342,-0.000199995134608,0.00013555730402,-4.3128420657e-05,0.000388089625631,0.46833731596,-0.01220595954,0.169633756438,-0.0132102416499,0.922575693677,-0.385097019608,0.0194901031953
-0.0192394442856,-0.00556425657123,-0.00870131701231,-2.52884268761,0.0195677056909,2.56906628609,0.746714532375,0.0401479415596,-0.000107396313979,7.58901587687e-05,0.000103150719951,-0.000314749137033,0.000128409534227,2.05300693779e-05,0.000137101887958,0.468336966072,-0.0122065951207,0.169633643485,-0.013209948882,0.922574989867,-0.385098734428,0.0194897343912
-0.0192332789302,-0.00556337600574,-0.00869878660887,-2.52884554863,0.01956708543,2.56906700134,0.746712803841,0.0401479415596,0.000371039524907,0.00120262987912,0.00307837803848,0.000212817671127,-4.86289027322e-05,-0.000122867262689,3.10923824145e-05,0.468335667734,-0.0122022966199,0.169631822664,-0.0132091865514,0.922577272285,-0.385093381062,0.0194879860209
-0.0192295126617,-0.00556420208886,-0.0086959451437,-2.52884459496,0.0195662938058,2.56906700134,0.746710836887,0.0401479415596,-0.00040384058957,-0.000339896738296,0.00021303104586,-0.000252256839303,7.6124437328e-05,-5.17277658219e-05,0.000259579566773,0.468336379652,-0.0121994776369,0.169632947782,-0.0132094480298,0.922578885845,-0.385089443814,0.0194892232297
-0.0192311815917,-0.00556098949164,-0.00869477726519,-2.52884316444,0.0195673387498,2.56906676292,0.74671202898,0.0401479415596,-0.000139373121783,-0.000210336991586,0.000408941297792,0.000622027378995,0.000288779468974,-0.000167763020727,-3.03235847241e-05,0.468336485811,-0.0121996733184,0.169631974626,-0.0132093519308,0.922578411749,-0.385090635794,0.0194881785417
-0.0192304421216,-0.00556293316185,-0.00869115162641,-2.52884507179,0.0195689741522,2.56906652451,0.746712446213,0.0401479415596,0.000468420679681,-0.000769633974414,0.000327433459461,0.00345819327049,-7.82621646067e-05,0.000128771876916,-0.00348963961005,0.468335893704,-0.0121975373162,0.169632123179,-0.0132097917572,0.922578911243,-0.385089438588,0.0194878911591
-0.0192266386002,-0.00556141929701,-0.00868589617312,-2.52884674072,0.0195668134838,2.56906700134,0.746712744236,0.0401479415596,0.000338437472237,-0.000233436352573,-0.0003201936197,-0.00362647417933,-1.11709341581e-05,0.000186660763575,-1.9011533368e-05,0.468335054388,-0.0121933738065,0.169630812506,-0.0132088065504,0.922580970869,-0.385084593742,0.0194867895282
-0.019228508696,-0.00556191708893,-0.00868707709014,-2.52884531021,0.0195675641298,2.56906628609,0.74671381712,0.0401479415596,8.63368550199e-05,-0.000709678977728,-0.000183061230928,0.000214688814594,6.36478725937e-05,0.000122530153021,-2.12934064621e-05,0.468335632687,-0.0121947813357,0.169631530731,-0.0132092126321,0.922580045892,-0.385086770511,0.0194872903137
-0.0192274507135,-0.00556301884353,-0.00868444889784,-2.52884435654,0.0195680800825,2.56906604767,0.746711850166,0.0401479415596,-8.4292361862e-05,0.000112616580736,-0.00241667823866,-0.000296204641927,0.000208653786103,-2.56244711636e-05,-0.000157616086653,0.468336264834,-0.0121930480859,0.169632393641,-0.013209690588,0.922581034505,-0.38508434586,0.019488075889
-0.0192245114595,-0.00556368054822,-0.00868117716163,-2.52884459496,0.0195669252425,2.56906652451,0.746713757515,0.039759196341,0.000347121589584,-0.000429373641964,0.00101200048812,0.00059899239568,7.63467687648e-05,4.46154590463e-05,-0.000187206547707,0.468336434243,-0.0121901976949,0.169632657347,-0.0132096188552,0.922582039407,-0.385081916287,0.0194885598486
-0.0192224066705,-0.00556396692991,-0.00867619179189,-2.52884364128,0.0195692349225,2.56906676292,0.746713161469,0.039759196341,0.000451079453342,-0.000862531829625,0.00036260439083,-8.00624547992e-06,1.12887410069e-05,3.49712877323e-06,0.000351870956365,0.468337080428,-0.0121867947876,0.16963318591,-0.0132105403036,0.922583133258,-0.385079242548,0.0194889839008
-0.019217018038,-0.00556626124308,-0.00867168512195,-2.52883911133,0.0195693746209,2.56906628609,0.746713399887,0.039759196341,0.000536351464689,-0.000668288383167,0.000586649286561,-0.000218189088628,-4.50296101917e-05,3.46947417711e-05,6.66651103529e-05,0.468339609326,-0.0121815379251,0.169636048977,-0.0132118893595,0.922585175977,-0.38507415465,0.0194918996103
-0.0192024149001,-0.00557638937607,-0.00865270011127,-2.5288374424,0.0195699799806,2.56906747818,0.746711671352,0.039759196341,0.000543757691048,-0.000430952437455,0.000985014718026,0.000169273815118,-9.74311478785e-05,-6.34996395092e-05,-1.21196862892e-05,0.468342766536,-0.012166547574,0.169641480164,-0.0132146018907,0.922591486064,-0.385058651496,0.0194976595826
-0.0191869474947,-0.00558610772714,-0.00862197391689,-2.52883052826,0.0195710863918,2.56906723976,0.746712982655,0.039759196341,0.000904602871742,0.000638344034087,-0.000335706979968,-1.23491799968e-05,-1.69881077454e-05,3.65521955246e-05,-0.000583303335588,0.468348365186,-0.0121457054116,0.169649033295,-0.0132183767765,0.92259941181,-0.385039146036,0.0195052696797
-0.0191788803786,-0.00558165321127,-0.00859858840704,-2.52883315086,0.0195699911565,2.56906652451,0.746712863445,0.039759196341,0.00156939472072,-0.000414491689298,1.64993998624e-05,-0.000408854626585,-2.63382989942e-05,-0.000149428655277,-0.000689737789799,0.468346422376,-0.0121302954136,0.16964551792,-0.0132168064933,0.922606124527,-0.385023321511,0.0195011944861
-0.0191666595638,-0.005583436694,-0.00856739468873,-2.52883386612,0.0195711050183,2.56906604767,0.74671369791,0.039759196341,0.000467048957944,-0.000659033074044,0.00209924741648,-0.000305073801428,8.13699170976e-06,-2.52201107287e-06,-0.000919226789847,0.46834679614,-0.0121099323618,0.169646030541,-0.0132175662957,0.922614138648,-0.385004096154,0.0195010957609
-0.0191557481885,-0.00558015191928,-0.00853928085417,-2.52883052826,0.0195700321347,2.56906676292,0.746712684631,0.039759196341,0.00132426200435,-0.00119704997633,0.000356306351023,0.000363650848158,-2.73232253676e-05,0.000143140670843,-0.00514290714636,0.468348483647,-0.0120917703791,0.169645855938,-0.0132177019102,0.922622010819,-0.384985213662,0.0195013448791
-0.019139399752,-0.005583552178,-0.0085063483566,-2.52883410454,0.0195686053485,2.56906652451,0.746713936329,0.039759196341,0.00219060736708,0.000306658272166,0.000724498706404,-0.000400381482905,5.04111267219e-05,-6.5360654844e-05,0.000846897251904,0.468347864543,-0.0120687442839,0.169646038672,-0.0132176755582,0.922631490737,-0.384962513198,0.019500986338
-0.0191199295223,-0.00558070419356,-0.00846671592444,-2.52883219719,0.0195691660047,2.56906700134,0.746712505817,0.039759196341,-0.000218721528654,0.000149092273205,0.000308897782816,3.5169232433e-05,-4.4360593165e-05,2.69119846052e-05,-0.000943220918998,0.468349129362,-0.012041096436,0.169645491676,-0.0132181839637,0.922643056629,-0.384934805566,0.019500379836
-0.0191116239876,-0.00558021664619,-0.0084520233795,-2.52883315086,0.0195691343397,2.56906652451,0.746714234352,0.0379999876022,0.00139165238943,7.66498123994e-06,0.000502948649228,0.000231432073633,-0.000141186043038,-0.000164571698406,0.000685142993461,0.468348766523,-0.0120303210785,0.169644847008,-0.0132180356884,0.922647175249,-0.384924991376,0.0194993393043
-0.0191061478108,-0.00558176077902,-0.00843231286854,-2.52883648872,0.0195696093142,2.56906676292,0.746713340282,0.0379999876022,-1.13443475129e-05,7.5983160059e-05,0.00360348448157,-0.000187401776202,9.73853166215e-05,2.63045058091e-05,-0.000324312772136,0.46834766206,-0.0120176849936,0.16964416017,-0.0132180837644,0.922652422461,-0.384912468178,0.0194982335797
-0.0190988071263,-0.0055824406445,-0.00841006822884,-2.52883577347,0.0195691399276,2.56906652451,0.74671292305,0.0379999876022,1.33472376547e-05,0.00053960387595,0.00174597534351,-0.00041989114834,8.99077567738e-05,-0.00129034556448,4.93337392982e-05,0.468348529378,-0.0120046792293,0.169644872698,-0.0132183866096,0.922657973096,-0.384899121713,0.0194988390869
-0.0190905611962,-0.00558262923732,-0.00837775412947,-2.52883791924,0.0195690728724,2.56906580925,0.746712982655,0.0379999876022,-0.000597466132604,1.67370199051e-05,0.000202704759431,2.64231584879e-05,-6.94298942108e-05,-0.00010654819198,1.97577664949e-05,0.468347863412,-0.0119856804895,0.16964405948,-0.013218207087,0.922665806161,-0.384880425222,0.0194973615027
-0.0190875977278,-0.00557941989973,-0.0083632580936,-2.52883768082,0.0195702798665,2.56906628609,0.74671369791,0.0379999876022,0.000430937012425,-0.000386574916774,0.00254172435962,-0.000187852885574,4.56739962829e-06,0.00402803998441,0.000271339406027,0.468347958896,-0.0119720373968,0.169642354221,-0.013218296584,0.922670994405,-0.384868057205,0.0194959212474
-0.0190716255456,-0.00558073073626,-0.00832086242735,-2.52883315086,0.0195690412074,2.56906628609,0.746713340282,0.0379586182535,-0.000133395427838,-0.000629449787084,0.000735984358471,0.000360510282917,-4.56689522252e-05,8.28962365631e-05,-0.000513191684149,0.468350849112,-0.0119502823809,0.169645066695,-0.0132193842806,0.922680303058,-0.384845572934,0.0194984846818
-0.0190591346473,-0.00558185018599,-0.00829259585589,-2.52883553505,0.0195693802088,2.56906652451,0.746710538864,0.0379586182535,0.000175721885171,0.000517834036145,0.000298080180073,5.71738564759e-05,9.76851006271e-05,-0.000111788889626,5.94921693846e-05,0.468350426392,-0.011931179054,0.169644690633,-0.0132195880036,0.922688640325,-0.384825613691,0.0194977495498
-0.0190545395017,-0.0055825682357,-0.00828343443573,-2.52883648872,0.0195689741522,2.56906604767,0.746712744236,0.0379586182535,-5.81385902478e-05,0.00130590167828,2.01247203222e-05,0.000344333675457,-0.000145380341564,-8.49452553666e-05,-0.00403216667473,0.468350147117,-0.0119247474496,0.16964461049,-0.0132194916122,0.922690936282,-0.384820131784,0.0194973588025
-0.0190540608019,-0.00557821337134,-0.00827138405293,-2.52883529663,0.019568534568,2.56906676292,0.746712505817,0.0379586182535,-0.000407519866712,0.00418406398967,0.00217844126746,0.000238899330725,7.205025031e-05,6.15450335317e-05,-0.000147470491356,0.468350266781,-0.0119197856839,0.169643760165,-0.0132194220729,0.92269294748,-0.384815352734,0.0194965518495
-0.0190519411117,-0.00558353215456,-0.00825805682689,-2.52883601189,0.01956859231,2.56906604767,0.74671125412,0.0379586182535,0.000443168479251,0.000161371790455,0.000883876811713,-8.07488249848e-05,-2.77197323157e-05,8.82086112597e-07,-0.000312061980367,0.468350865496,-0.0119116945042,0.16964524721,-0.0132198463943,0.922696654193,-0.384806381025,0.0194979180471
-0.0190475936979,-0.00557975517586,-0.00824248045683,-2.52883720398,0.0195686239749,2.56906604767,0.746712863445,0.0379586182535,1.02521407825e-05,-0.000894908793271,0.000740563380532,-8.22185684228e-05,7.78239191277e-05,0.000163929609698,4.07782645198e-05,0.46834991387,-0.0119023487053,0.169643015747,-0.01321911656,0.922700221117,-0.384797976848,0.019495476492
-0.0190457589924,-0.00558209698647,-0.0082319593057,-2.52883529663,0.01956859231,2.56906604767,0.746711194515,0.0379586182535,0.000468066253234,-0.000559465377592,0.00149533746298,-0.000260002532741,9.2388727353e-05,2.5569815989e-05,0.000431035732618,0.468351357959,-0.0118966051981,0.169644852631,-0.0132199578531,0.922702884118,-0.384791464953,0.0194973981855
-0.0190438982099,-0.00557879311964,-0.00821907259524,-2.52883815765,0.0195690058172,2.56906604767,0.746713638306,0.0379586182535,-0.000127732535475,-0.000342664192431,0.000947530206759,0.000362506078091,-3.87638938264e-05,-6.3669285737e-05,0.000429174455348,0.468349622073,-0.0118896438261,0.169642195814,-0.0132190797611,0.92270524443,-0.384785987809,0.019494386361
-0.0190411079675,-0.00558053702116,-0.00820145756006,-2.52884030342,0.0195690598339,2.56906604767,0.746713042259,0.0379586182535,0.000367282424122,-0.000666767999064,6.26243127044e-05,0.000439304159954,1.71801129909e-05,-2.1993111659e-05,-0.000249866076047,0.468349341515,-0.0118796464274,0.169642548736,-0.0132193797468,0.922709487363,-0.384775800171,0.0194944406054
-0.0190397724509,-0.00558040430769,-0.00819409359246,-2.52884078026,0.0195678602904,2.56906628609,0.746710777283,0.0379586182535,-4.86939607072e-05,0.000781718816143,-0.000161697913427,-0.000563958019484,-7.37136142561e-05,3.68604632968e-05,-0.00052273523761,0.468349021674,-0.0118760598623,0.169641956864,-0.0132188355477,0.922711586148,-0.384770808707,0.0194939894324
-0.0190344899893,-0.00558131607249,-0.00818359665573,-2.52884054184,0.0195693187416,2.56906604767,0.746712327003,0.0379586182535,-0.000234076942434,0.000304111716105,0.0018932177918,-1.20599306683e-05,7.00480741216e-05,-3.60770027328e-05,8.37241896079e-05,0.468349348255,-0.0118682898127,0.169642213999,-0.0132193935002,0.922714340746,-0.384764186147,0.0194939416035
-0.0190324559808,-0.00557900313288,-0.00816061720252,-2.52884173393,0.0195692609996,2.56906533241,0.74671381712,0.0379586182535,3.35994081979e-05,0.000441966054495,-0.000447639118647,-5.0519938668e-05,-7.16057693353e-05,0.000232050864724,-3.35887089022e-05,0.468348617021,-0.0118568960843,0.169640838518,-0.0132189506624,0.922718658841,-0.384753941591,0.0194920517736
-0.0190344713628,-0.00557980220765,-0.00815645325929,-2.52884173393,0.0195672679693,2.56906557083,0.746711313725,0.0379678085446,0.000203715942916,0.000586114765611,-0.000137671580887,-0.000283075118205,-1.6370209778e-05,-0.000172496511368,0.000332395924488,0.468348820236,-0.0118559875472,0.169641235274,-0.0132186011134,0.922719863811,-0.384751029018,0.0194927387676
-0.0190341994166,-0.00557951815426,-0.00815349072218,-2.52884364128,0.0195685215294,2.56906533241,0.74671292305,0.0379678085446,0.000104997568997,-0.00196012598462,5.54877478862e-05,5.95021774643e-05,2.70317887043e-05,-0.00385003443807,-0.000451025902294,0.468347848574,-0.0118543911829,0.169640339944,-0.0132185335396,0.922719998822,-0.384750772726,0.0194914523172
-0.0190286990255,-0.00557892769575,-0.00814059376717,-2.52883911133,0.0195676777512,2.56906437874,0.746710836887,0.0379678085446,0.000126410115627,-0.000329971633619,0.00154202699196,0.000295667472528,-3.32213276124e-05,-0.000172081228811,0.000299697305309,0.468349936461,-0.011845871732,0.169641726274,-0.0132189793592,0.922724048796,-0.384740974612,0.0194928319126
-0.0190313234925,-0.00557773048058,-0.00813618768007,-2.52883863449,0.0195701867342,2.56906437874,0.746711850166,0.0379678085446,-9.70338733168e-05,-0.000856660481077,-7.62551571825e-05,0.00128164619673,0.000110844164738,-8.06989555713e-05,0.000313814292895,0.46835064821,-0.0118448695521,0.169642040167,-0.0132198498975,0.922723754834,-0.38474164095,0.0194930047784
-0.0190256629139,-0.00559503538534,-0.00812571309507,-2.52881336212,0.0195708721876,2.56906604767,0.746711015701,0.0379960462451,0.000457806774648,-0.00193178781774,0.00210356339812,0.0024343568366,-1.22916962937e-05,0.000152617591084,1.38283603519e-05,0.468365493249,-0.0118377547068,0.169659422832,-0.0132278283802,0.922726527038,-0.384733720013,0.0195126939295
-0.019015211612,-0.00564202852547,-0.00810081232339,-2.52879238129,0.0195717643946,2.56906962395,0.746710479259,0.0379960462451,9.91189590422e-05,-0.00380433700047,0.000993235153146,-5.78269900871e-05,-4.24804893555e-05,8.23240843602e-05,3.19222090184e-05,0.468384416157,-0.0118216363971,0.16968992728,-0.0132413507963,0.922732592338,-0.384717031613,0.0195457140053
-0.0189974941313,-0.00570699805394,-0.00802503060549,-2.52878475189,0.0195720158517,2.56907343864,0.74671214819,0.0379960462451,0.00198540231213,-0.00442466512322,5.66504604649e-05,0.00124989112373,-9.5289426099e-05,-0.000212601255043,-1.89126039913e-05,0.468400602854,-0.0117782419378,0.169723701532,-0.0132561011503,0.92274947291,-0.38467425461,0.0195806932636
-0.0189882852137,-0.00572688225657,-0.00794619228691,-2.52878761292,0.0195723306388,2.56907367706,0.746712684631,0.0379960462451,-0.000113280046207,-0.000319757848047,0.00047721984447,-0.000739008421078,-8.91096206033e-05,-0.000196323890123,-0.000264433940174,0.468404204018,-0.0117410277263,0.169732530486,-0.0132602245572,0.922764526595,-0.38463758408,0.0195888615794
-0.0189601648599,-0.00569758890197,-0.00783393718302,-2.52880787849,0.019571095705,2.56907200813,0.746709048748,0.0379960462451,-0.000119296986668,-3.49014153471e-05,0.00364820309915,-5.17074586242e-05,7.98032269813e-05,1.17420825063e-06,5.57163257326e-05,0.468390342036,-0.0116711273713,0.169710186006,-0.0132514260819,0.922794481601,-0.384567298878,0.0195636588915
-0.0189316626638,-0.00570196565241,-0.00776062672958,-2.52879738808,0.0195719301701,2.56907176971,0.746713161469,0.0379960462451,8.47408955451e-05,-0.00205813674256,0.000602843298111,0.00115635676775,9.52092523221e-05,9.69234315562e-05,0.000312945398036,0.468396305411,-0.0116243597733,0.169714884422,-0.0132545040257,0.922812814152,-0.384522963199,0.0195683063704
-0.0189249441028,-0.00572316488251,-0.00774085847661,-2.52878093719,0.019572256133,2.56907272339,0.746712684631,0.0379960462451,0.00187979266047,-0.00130766863003,0.000839588115923,0.000993245048448,-9.22131657717e-05,0.000101524776255,0.000567476905417,0.468409085146,-0.0116114999801,0.169732690562,-0.0132624370138,0.922817752999,-0.384509856458,0.0195875594183
-0.018918145448,-0.00573398545384,-0.00772568117827,-2.52878642082,0.0195721555501,2.56907320023,0.746712982655,0.0379960462451,0.000369093264453,-0.00113168021198,0.000363678263966,-0.000684724422172,-0.000103590668004,-8.88019640115e-05,0.000205609889235,0.468408348009,-0.0116004793283,0.169735675572,-0.0132636551563,0.922822185956,-0.384499047591,0.0195900649108
-0.0189129896462,-0.00573110999539,-0.0077118454501,-2.52879405022,0.0195715352893,2.56907129288,0.746711790562,0.0379960462451,5.73546130909e-05,0.000684448110405,0.000594991084654,0.000566972244997,1.9323784727e-05,-2.22562503041e-05,-7.56747394917e-05,0.468404260138,-0.0115922120996,0.169731187123,-0.0132614154689,0.922825983805,-0.384490303174,0.0195843029518
-0.0189003348351,-0.00572992302477,-0.00769127113745,-2.52878308296,0.0195724088699,2.56907439232,0.746713399887,0.0379960462451,0.000637325283606,-0.000217071326915,0.00132560741622,3.20919134538e-05,0.000127421692014,0.000196240274818,-8.63695968292e-05,0.468410376908,-0.0115767960199,0.169735189127,-0.0132642203645,0.922831792576,-0.384475972851,0.0195900243124
-0.0188862271607,-0.00572741543874,-0.00767228472978,-2.52878761292,0.0195711068809,2.56907367706,0.746712088585,0.0379960462451,0.00113714835607,-0.000855773687363,0.000159528615768,-0.000110979744932,-5.25016548636e-05,-1.18271955216e-05,8.33129597595e-05,0.468408021817,-0.0115612975762,0.169732186782,-0.013262741076,0.92283869245,-0.384459649463,0.0195863481449
-0.0188723821193,-0.00572961149737,-0.00765408622101,-2.52878785133,0.0195714272559,2.56907320023,0.746712565422,0.0353365465999,0.00047949355212,-2.48778778769e-05,0.00221412978135,-0.000379271514248,4.57786263723e-05,9.66173247434e-05,-8.27609474072e-05,0.468408534193,-0.0115462898186,0.169733076994,-0.0132633730248,0.92284469624,-0.384445192801,0.0195868060869
-0.0188613776118,-0.00572998309508,-0.00764126284048,-2.52878570557,0.0195712298155,2.56907296181,0.746712088585,0.0353365465999,0.000112885471026,-0.000896216894034,0.000372885639081,0.000203755407711,-3.72518770746e-05,3.9771432057e-05,-0.000319783866871,0.468409954171,-0.0115343409901,0.169734308035,-0.0132640727343,0.922849640262,-0.384433241318,0.019587968121
-0.01883931458,-0.00572675187141,-0.00763396313414,-2.52879071236,0.0195712056011,2.56907296181,0.746711730957,0.0353365465999,0.000418199808337,-0.000806040188763,-4.78357869724e-05,0.00015623345098,-9.43114646361e-05,-3.93363334297e-05,-0.000556416052859,0.468407372956,-0.0115211585036,0.169730923287,-0.0132628158838,0.922855354231,-0.384419767682,0.0195840440127
-0.0188305173069,-0.00573122734204,-0.00762738566846,-2.52878856659,0.0195713080466,2.56907320023,0.746708095074,0.0353365465999,0.00225313217379,-0.000297788326861,0.000518025131896,-0.000207218152354,-3.71794412786e-05,1.44293726407e-05,-3.57508797606e-05,0.468409244821,-0.0115141995659,0.169733557018,-0.0132640660905,0.922858746104,-0.384411439378,0.0195868386399
-0.0188178382814,-0.00572760449722,-0.00762378890067,-2.52878880501,0.0195717271417,2.56907343864,0.74671381712,0.0353365465999,0.000259302731138,-0.00059443153441,0.000146168444189,-0.000279636267805,-3.05640787701e-05,-4.82909999846e-05,0.000407030631322,0.468408778304,-0.0115065487967,0.16973179071,-0.0132637153678,0.922860741936,-0.384406755186,0.0195849712459
-0.0188047662377,-0.00572730135173,-0.00761858234182,-2.52878832817,0.0195723306388,2.56907343864,0.746711671352,0.0353365465999,-0.000313369586365,0.000437150534708,0.00114322721492,-0.000223380164243,0.000197473433218,-3.32242016157e-05,0.000282685592538,0.468409168789,-0.01149797003,0.169731834007,-0.0132640480314,0.922864569137,-0.384397559528,0.0195848914318
-0.0187753997743,-0.00572558352724,-0.00760472891852,-2.52879238129,0.0195705462247,2.56907296181,0.746711552143,0.0350259430707,0.000994044821709,0.0010224354919,0.000386789382901,-0.000412898720242,-3.12114607368e-05,-1.10175924419e-05,0.00040079196333,0.468407335228,-0.0114777566443,0.169729409695,-0.0132628381729,0.922873246848,-0.384376920317,0.0195818841096
-0.0187578648329,-0.00572705361992,-0.00759691512212,-2.52879595757,0.0195699259639,2.56907248497,0.746711850166,0.0350259430707,0.000153858272824,-0.0001789797534,0.00065224757418,-0.00376448617317,-1.7503502022e-05,0.000124882601085,0.000391970825149,0.468406047338,-0.0114658725228,0.169728664503,-0.0132624496929,0.922878186884,-0.384365139343,0.0195805756566
-0.0187493786216,-0.0057257306762,-0.00759562943131,-2.52879595757,0.0195713248104,2.56907224655,0.746710598469,0.0350259430707,0.000249774981057,-0.000463271513581,-0.000641571707092,-0.000481099035824,5.10055433551e-05,-1.10561522888e-05,-0.000359131663572,0.468405894878,-0.0114612276008,0.169728022031,-0.0132626129147,0.92288009642,-0.384360595691,0.0195796550952
-0.0187422558665,-0.00572523195297,-0.00759412162006,-2.52879309654,0.0195709709078,2.56907320023,0.746710777283,0.0350259430707,0.000581802800298,-0.000801799760666,0.000333021685947,0.000134247384267,1.06665429485e-05,-4.44419238192e-05,-0.000115196788101,0.468407488291,-0.011457246594,0.169728991283,-0.0132631900214,0.922881743698,-0.384356542667,0.0195811830726
-0.0187277793884,-0.0057099275291,-0.00759568344802,-2.52880549431,0.0195699054748,2.56907224655,0.746711909771,0.0352708809078,0.000165129764355,-0.000516481115483,0.000296819838695,-0.000189728569239,0.000119613032439,4.39489449491e-05,0.000314621807775,0.468398985573,-0.0114510300893,0.169716918158,-0.0132578482159,0.922884457218,-0.384350890547,0.0195678487257
-0.0187315884978,-0.00570156564936,-0.00759770767763,-2.52881002426,0.0195709317923,2.56907248497,0.746711492538,0.0352708809078,-0.000386943196645,0.00136472366285,-0.000705007638317,-0.000533276994247,2.67842860922e-05,-0.000162531752721,-0.000237776243011,0.468394977368,-0.0114540622558,0.16971045819,-0.0132554215007,0.922883261443,-0.38435419102,0.0195610602372
-0.0187352076173,-0.00568814296275,-0.0075989025645,-2.52881622314,0.019570177421,2.56907081604,0.746711492538,0.0352708809078,0.000177316862391,0.000657122349367,0.000387466046959,-0.000658284232486,-0.000117433584819,5.02553921251e-05,-0.00019191262254,0.468389855342,-0.0114557852008,0.16970241046,-0.0132516450529,0.922882777576,-0.38435593957,0.0195520883253
-0.0187292024493,-0.00567661877722,-0.00759726529941,-2.52882790565,0.0195694603026,2.56906962395,0.746710538864,0.0352708809078,-0.000212766535697,-0.00076952483505,0.000314912962494,-0.000274517835351,2.26578467846e-05,-6.02539912506e-05,-0.000440519390395,0.468382201267,-0.0114520439774,0.169692363342,-0.0132470953401,0.922884782044,-0.384351859979,0.0195407510249
-0.0187288112938,-0.00567135727033,-0.00759890070185,-2.52882933617,0.0195691920817,2.56906843185,0.746710062027,0.0352708809078,0.000344038475305,0.00193271762691,-0.00018272268062,-0.00172569788992,-1.48531034938e-05,1.25080941871e-05,5.66096496186e-05,0.468380385652,-0.0114525908749,0.169689226574,-0.0132455840381,0.922884755959,-0.384352159566,0.0195371144373
-0.0187296904624,-0.00566446315497,-0.00759992795065,-2.52883386612,0.0195695031434,2.56906795502,0.746712565422,0.0352708809078,-0.00102507090196,1.90513728739e-05,-0.000707177387085,-0.00407135067508,4.76233726658e-05,-0.000180340415682,0.000492896360811,0.468376963831,-0.0114533857223,0.169684193289,-0.0132435117049,0.922883974022,-0.384354391987,0.0195315369076
-0.0187318082899,-0.0056634102948,-0.00760113913566,-2.52883028984,0.019569946453,2.56906795502,0.746710121632,0.0352708809078,-0.00156432844233,0.000284553709207,-7.97569809947e-05,0.00014480878599,-3.40582955687e-05,7.08017760189e-05,-0.000235460160184,0.468378469862,-0.0114549660548,0.16968508713,-0.0132440252324,0.922883708506,-0.384354952304,0.0195327082386
-0.0187325831503,-0.00566100608557,-0.00760192610323,-2.52883124352,0.0195694286376,2.56906795502,0.746710896492,0.0352708809078,0.000132717686938,0.00084327836521,-0.000499514455441,5.26257135789e-05,0.000616285309661,-3.35178265232e-05,-0.000207605145988,0.468377601038,-0.0114557005415,0.169683590615,-0.0132432709468,0.922883374895,-0.384355855916,0.0195312012708
-0.01872994937,-0.00566097488627,-0.00759725971147,-2.52883243561,0.0195681583136,2.56906962395,0.746712386608,0.0352708809078,0.000312063668389,0.000393305817852,-1.61704047059e-05,0.000136496586492,3.77380201826e-05,2.02423580049e-05,0.000457199959783,0.468377463327,-0.0114523441866,0.169683276558,-0.0132430786119,0.92288468787,-0.38435269544,0.0195314862438
-0.0187260452658,-0.00566140934825,-0.00759745156392,-2.52883529663,0.0195678211749,2.56906700134,0.746712505817,0.0352708809078,0.000246394163696,0.000687974970788,-9.46956279222e-05,-0.000202115857974,-0.000102906931716,5.24805436726e-05,0.000430562882684,0.468375444153,-0.0114504644899,0.169681765523,-0.0132420796983,0.92288547861,-0.384350961879,0.0195289139976
-0.0187258180231,-0.00565870199353,-0.00759728066623,-2.52883625031,0.0195694137365,2.56906628609,0.746711134911,0.0352708809078,0.000162160256878,-0.000111728702905,-0.00243806745857,-6.61686717649e-05,0.000104982544144,8.06556454336e-06,0.000436130474554,0.468374596069,-0.0114502737242,0.169680406097,-0.0132417570315,0.922885614193,-0.384350747673,0.019526941196
-0.0187268201262,-0.00565668893978,-0.00759829068556,-2.52883601189,0.0195685364306,2.5690677166,0.746711134911,0.0352708809078,0.000212821556488,-0.000525165174622,-0.000275486556347,-0.00011346127576,9.81069606496e-05,-0.000140071118949,6.78406868246e-05,0.468374663873,-0.0114512658023,0.169679695051,-0.0132414299448,0.922885368776,-0.384351350995,0.0195268866673
-0.0187291707844,-0.0056595033966,-0.00759882340208,-2.52883195877,0.0195684358478,2.56906747818,0.74671125412,0.0362768918276,-0.000407195824664,2.38356660702e-05,0.000790948863141,0.000266655290034,-8.70683870744e-05,0.000168643848156,-0.000431818829384,0.468376983035,-0.0114526777334,0.169682562056,-0.0132425827279,0.922884744648,-0.384352651653,0.0195300012515
-0.0187315419316,-0.00565945217386,-0.00759966159239,-2.52883386612,0.0195701681077,2.56906676292,0.746710181236,0.0362768918276,-0.000381780380849,0.000169126215042,6.44904901037e-07,0.000140080781421,-6.30988870398e-05,1.89265483641e-06,0.000250978424447,0.468375872985,-0.0114540712434,0.169681729202,-0.0132425217155,0.922884083029,-0.384354313162,0.019528608432
-0.0187327675521,-0.00565907685086,-0.00760114938021,-2.52883696556,0.019568439573,2.56906676292,0.746711313725,0.0362768918276,0.000328075984726,0.00010559464863,-0.000339575053658,0.000275662896456,3.37782112183e-05,9.91653796518e-05,-7.20923635527e-05,0.468374290844,-0.01145537755,0.169680350483,-0.0132414299808,0.92288365479,-0.384355452189,0.0195271684877
-0.018729865551,-0.00565809756517,-0.00760082295164,-2.52883672714,0.0195685531944,2.56906795502,0.746713101864,0.0362768918276,8.17795444163e-05,-0.000994335045107,-0.000295924081001,0.000265545357252,3.68301407434e-05,8.32027435536e-05,-0.000409990287153,0.468374538181,-0.0114538728364,0.169680100942,-0.0132415766159,0.922883906596,-0.384354833828,0.0195273395517
-0.018728043884,-0.00565965753049,-0.00760037777945,-2.52883887291,0.0195690207183,2.56906723976,0.74671202898,0.0362768918276,2.03602285183e-05,0.000204553696676,-0.000164369208505,-0.000516504806001,-8.92369425856e-05,1.85597145901e-05,-5.72877106606e-05,0.468373637181,-0.011452760999,0.169679929863,-0.0132414865813,0.922884487253,-0.384353476464,0.0195266749113
-0.0187246408314,-0.00565345305949,-0.00759883597493,-2.52883768082,0.0195689424872,2.56906747818,0.746711969376,0.0362768918276,0.00014182155428,0.000662362610456,0.00161721347831,0.000364465318853,2.93298307952e-05,8.94695840543e-05,-0.000614985998254,0.468373303377,-0.0114504484162,0.169677508659,-0.0132406267916,0.922885507184,-0.384351170881,0.0195244348659
-0.0187246073037,-0.00565723702312,-0.00759771745652,-2.52883672714,0.0195695441216,2.56906676292,0.746711850166,0.0362768918276,6.3867722929e-05,-0.000304174493067,0.000688880798407,-5.39842803846e-05,-3.04566992781e-06,1.44417263073e-05,-0.000260476081166,0.468374239551,-0.0114498993581,0.169679581585,-0.0132415344934,0.92288561765,-0.384350782755,0.019526238189
-0.0187252722681,-0.00565377529711,-0.00759983761236,-2.52884435654,0.0195678472519,2.56906700134,0.746710240841,0.0364167615771,-0.000675101066008,0.000144026707858,-0.000184193326277,-0.000101885358163,0.000181340510608,-0.00012538023293,0.000351437483914,0.468370031165,-0.0114511729669,0.169675023526,-0.0132390847779,0.922885767846,-0.384350753414,0.0195213773898
-0.01873168163,-0.00565328635275,-0.00760221527889,-2.52884173393,0.0195691566914,2.56906747818,0.746710777283,0.0364167615771,-0.000184048578376,-0.000833769503515,0.00175150530413,-2.56707680819e-05,0.000143185083289,1.41164055094e-05,0.000201669667149,0.468371285389,-0.0114555976976,0.169676212085,-0.0132399540378,0.922883573898,-0.384355920584,0.0195227723569
-0.0187319219112,-0.005655313842,-0.00760490773246,-2.52884101868,0.0195674113929,2.56906676292,0.746709764004,0.0364167615771,-3.83482365578e-05,-0.000234439939959,-0.000244396738708,0.000360588397598,-3.49881629518e-05,-3.83256192436e-05,-0.000288510462269,0.468371888848,-0.0114570340634,0.169677227379,-0.013239844408,0.922883440868,-0.384356182946,0.0195239700137
-0.0187321100384,-0.00565172033384,-0.00760296080261,-2.52883934975,0.0195702631027,2.56906628609,0.746710658073,0.0364167615771,0.000180621078471,-0.000522340007592,3.63813887816e-05,6.63417813485e-05,-2.41962206928e-05,-1.2779752069e-05,0.00037091851118,0.468371834053,-0.0114557774057,0.169675933531,-0.0132400343831,0.922883365487,-0.384356445169,0.0195222420768
-0.0187193062156,-0.00565518718213,-0.00759500265121,-2.52884364128,0.0195682626218,2.56906557083,0.746708512306,0.0364167615771,4.79093905597e-05,-8.02030353952e-06,0.000461751100374,-0.000351083464921,-9.62050035014e-05,8.54519166751e-05,0.000297526246868,0.468370196805,-0.0114459119738,0.169675634357,-0.0132393144023,0.922888115465,-0.384345108549,0.0195213756108
-0.0187203139067,-0.00565518625081,-0.00759623385966,-2.52884221077,0.0195682998747,2.56906485558,0.746708631516,0.0364167615771,-0.000203375515412,0.000286574591883,-0.000493475352414,0.000375736737624,-4.95406493428e-05,0.000123952399008,0.00178929837421,0.468371262565,-0.0114474648556,0.169676577593,-0.0132396197231,0.922887492557,-0.384346547569,0.019522284835
-0.0187250375748,-0.00565116293728,-0.00759873352945,-2.52883863449,0.0195687953383,2.56906580925,0.746709048748,0.0364167615771,0.00121766678058,-0.000467870617285,0.000279348460026,0.000233453189139,-0.000164284661878,5.01016875205e-05,1.9056680685e-05,0.468372110372,-0.0114505568546,0.169675902386,-0.0132396769668,0.922886086208,-0.384349927902,0.0195221782067
-0.0187278166413,-0.00565563095734,-0.00760102365166,-2.52883172035,0.0195697713643,2.56906867027,0.746710836887,0.0365290530026,1.38062832775e-05,0.000172078594915,0.000105257531686,0.000392454705434,-2.2234800781e-05,1.02747098936e-05,0.00021922965243,0.468376823295,-0.011452934236,0.169681031024,-0.0132424563396,0.922884565603,-0.384353144218,0.0195288538824
-0.0187234822661,-0.00565463211387,-0.0075985873118,-2.52883410454,0.0195685513318,2.56906700134,0.74671214819,0.0365290530026,0.000356078089681,3.7862577301e-05,0.000109709653771,-0.000193537998712,1.48609133248e-05,3.57891112799e-05,-0.000193853571545,0.468374887367,-0.011449652878,0.169679302225,-0.013241306212,0.922885856801,-0.384350218227,0.0195262018343
-0.0187164060771,-0.00565420137718,-0.00759351765737,-2.52883887291,0.0195693410933,2.56906700134,0.746709704399,0.0365290530026,5.24457682332e-05,-0.000390444794903,-0.0025399425067,-0.000300813408103,-8.04255614639e-05,0.000194757638383,0.000147222206579,0.468372907346,-0.0114440700405,0.169677350544,-0.0132406681819,0.922888492968,-0.384344027507,0.0195238944957
-0.0187161173671,-0.0056538307108,-0.00759537285194,-2.52883982658,0.0195681266487,2.56906652451,0.746710062027,0.0365290530026,-0.000489040336106,-0.000489528814796,0.000369224726455,0.000304410350509,5.19650129718e-05,-6.79395134284e-06,0.000416117341956,0.468372266949,-0.0114448381759,0.16967675971,-0.0132400207481,0.922888336422,-0.384344462005,0.0195231799378
-0.0187290105969,-0.00565124629065,-0.00760486908257,-2.52883934975,0.0195693578571,2.56906747818,0.746710002422,0.0365290530026,-0.000144008328789,0.000318955309922,6.92233079462e-05,0.000179409165867,1.50005953401e-05,-7.1414076956e-05,-0.00073835864896,0.468372024321,-0.0114552688276,0.169675827686,-0.0132399255974,0.922883856361,-0.384355248787,0.0195226650442
-0.0187257416546,-0.005650697276,-0.00760328676552,-2.52883815765,0.0195689219981,2.56906533241,0.746711909771,0.0365290530026,0.000826450646855,0.000108536332846,0.00052148924442,-0.000174359229277,5.54634352739e-05,-7.83524228609e-05,0.000191073253518,0.468372100861,-0.0114530090932,0.169675822439,-0.0132396169405,0.922884511033,-0.384353723334,0.0195219589391
-0.0187193714082,-0.00565252033994,-0.00759882899001,-2.52883958817,0.0195696782321,2.56906747818,0.746709465981,0.0365612283349,2.65869493887e-05,-0.000250647455687,0.00405472656712,0.000590706244111,-0.000141406941111,9.49833411141e-05,-0.000216259257286,0.46837229807,-0.0114479172896,0.16967633238,-0.0132403324891,0.922886911412,-0.384347881081,0.0195230205578
-0.0187254287302,-0.00565157318488,-0.00760210910812,-2.52883982658,0.0195696558803,2.56906533241,0.746712565422,0.0365612283349,-0.000320116203511,-0.000491693266667,8.44195819809e-05,-1.91654635273e-05,7.5269395893e-05,-4.1080340452e-05,0.000387694541132,0.468371461879,-0.011452260857,0.16967558599,-0.0132396877497,0.922884561256,-0.384353623495,0.0195215023034
-0.0187240503728,-0.00565293850377,-0.00760469539091,-2.5288374424,0.0195686239749,2.56906628609,0.746711075306,0.0365612283349,0.000370922236471,-0.000429378967965,-0.000277323764749,-0.000376685668016,-1.72657291841e-05,-6.03124244662e-05,-0.000190266087884,0.468373017157,-0.0114529143138,0.169677243057,-0.0132402414425,0.922884733945,-0.384353072369,0.0195238137165
-0.0187239702791,-0.0056532449089,-0.00760089745745,-2.52883720398,0.0195698030293,2.56906676292,0.746709108353,0.0365612283349,-0.000335535500199,0.0004534314794,-8.39902859298e-05,-6.7807501182e-05,-6.4128557824e-06,2.95987174468e-05,0.000167129008332,0.468373330395,-0.0114510576679,0.169677526421,-0.0132407408245,0.922885657222,-0.384350820361,0.0195241657144
-0.0187137126923,-0.00565054267645,-0.00759609602392,-2.52884340286,0.0195687189698,2.56906652451,0.74671125412,0.0365612283349,0.00033251332934,0.000496058666613,0.00307569629513,-3.77611431759e-05,9.62752237683e-05,-0.000132739995024,0.000270067364909,0.468370035147,-0.0114439682485,0.169673832674,-0.0132389591458,0.922888401323,-0.384344509076,0.0195199049856
