imanlab/tactile_prediction_flat_dataset/train/data_sample_2021-11-24-15-56-17/robot_state.csv
position_panda_joint1,position_panda_joint2,position_panda_joint3,position_panda_joint4,position_panda_joint5,position_panda_joint6,position_panda_joint7,position_panda_finger,velocity_panda_joint1,velocity_panda_joint2,velocity_panda_joint3,velocity_panda_joint4,velocity_panda_joint5,velocity_panda_joint6,velocity_panda_joint7,ee_state_position_x,ee_state_position_y,ee_state_position_z,ee_state_orientation_x,ee_state_orientation_y,ee_state_orientation_z,ee_state_orientation_w
0.0074817808345,-0.0457410812378,-0.0600343085825,-2.51150608063,0.138012707233,2.49334645271,-0.94935297966,0.0636907592416,0.00012243258243,-0.00224696611986,-0.000354745687218,7.07118451828e-05,-1.66955815075e-05,7.07527124177e-06,-0.00555127719417,0.466819210062,-0.0155759099077,0.188321035779,-0.0318257577072,0.922433063406,0.383427819226,0.0329768374537
0.00748361367732,-0.045736014843,-0.0600320994854,-2.51150655746,0.138012334704,2.49334812164,-0.949348032475,0.0636907592416,0.000317635305692,-0.000796865904704,-0.000210420839721,4.38368297182e-05,7.19422814655e-06,-2.18825789489e-05,6.58324861433e-05,0.466818767653,-0.0155739419752,0.188318927888,-0.0318262669864,0.92243320263,0.38342759524,0.0329750558202
0.00748371612281,-0.0457357950509,-0.0600318312645,-2.51150178909,0.138012543321,2.49335050583,-0.949341654778,0.0636907592416,9.49501190917e-05,-0.000357494602213,6.61205776851e-05,-0.000261053821305,6.35148899164e-06,0.000167377467733,8.5857054728e-06,0.466821461055,-0.0155739817275,0.18832094993,-0.0318248137497,0.922434323112,0.383424763996,0.0329780352823
0.0074811372906,-0.0457397736609,-0.0600338540971,-2.5114979744,0.13801188767,2.49335765839,-0.949336290359,0.0636907592416,-0.00071826542262,-0.000566271308344,-0.00043154967716,0.000420033873525,0.000127227191115,-1.39854421377e-06,0.000181949260877,0.466825542441,-0.015576907611,0.188325302341,-0.0318210519034,0.922436250276,0.383419842505,0.0329849797533
0.0074798730202,-0.0457406453788,-0.0600374229252,-2.51148819923,0.138012006879,2.49336338043,-0.949330806732,0.0636907592416,0.00063548295293,-0.000910732254852,0.00315547245555,0.0008841145318,0.000168325699633,0.00256395153701,0.000622105377261,0.46683104877,-0.0155792708153,0.18832981975,-0.0318175759189,0.922437888757,0.383415601119,0.0329918133732
0.00748206395656,-0.0457409918308,-0.0600354596972,-2.51148080826,0.138012558222,2.49336743355,-0.949328064919,0.0636907592416,-0.000274674646789,0.000470722210594,0.000302218861179,0.000185444412637,0.000106398540083,-2.15111031139e-05,-0.000192633349798,0.466835457043,-0.0155776730032,0.188333310444,-0.0318150698337,0.922437592546,0.383416077274,0.0329969780294
0.00748305162415,-0.0457367971539,-0.060035739094,-2.51146626472,0.138012051582,2.49336981773,-0.949324309826,0.0636907592416,-0.00032777202432,0.000513478473295,0.000566960487049,0.00333229661919,-0.000109089851321,-5.31802397745e-05,0.0007453719154,0.466842783777,-0.0155777878281,0.188337848242,-0.0318116931049,0.922437958423,0.383414953493,0.0330030629213
0.00748113263398,-0.0457242652774,-0.0600383915007,-2.51142072678,0.138013526797,2.49337315559,-0.949320435524,0.0636907592416,-0.00208058557473,0.000233284852584,0.00030278461054,0.000501033093315,-2.84076559183e-05,-5.66683957004e-05,-3.07888512907e-05,0.466862047726,-0.0155811883666,0.18835001047,-0.031804138014,0.922439316358,0.383410954387,0.0330188458411
0.00748005136847,-0.0457212738693,-0.0600379407406,-2.51138424873,0.138012766838,2.49337482452,-0.949317276478,0.0636907592416,5.11929138156e-05,2.79793457594e-05,6.00191924605e-05,0.00500607071444,-4.26084989158e-05,4.03550693591e-05,-0.000235501269344,0.466878857083,-0.0155825351704,0.188363321402,-0.0317962212812,0.922439440872,0.383409967248,0.0330344507162
0.00747920572758,-0.0457230433822,-0.0600387714803,-2.51134443283,0.138013079762,2.49337601662,-0.94931435585,0.0636907592416,0.000145575599163,7.97842876636e-05,-0.000116706694826,0.000552971032448,-1.9413400878e-05,-6.79558361298e-05,-0.000252062425716,0.466897793971,-0.0155843550706,0.188380147813,-0.0317871089249,0.922439736613,0.383408348159,0.0330537481761
0.00748034287244,-0.0457238182425,-0.060038305819,-2.5112991333,0.138012677431,2.49337744713,-0.949310898781,0.0636907592416,-0.000232871432672,-0.000374540220946,0.000421245960752,0.000462064723251,-5.22106529388e-05,-0.000209965088288,0.00118570099585,0.466919222076,-0.0155848475551,0.188398718507,-0.0317767812555,0.922439342073,0.3834083224,0.0330749809654
0.00747962249443,-0.045724209398,-0.0600400231779,-2.51125049591,0.138013198972,2.49338054657,-0.94930678606,0.0636907592416,-1.01508612715e-05,0.000165563847986,-0.0023420220241,0.00165295659099,7.14287307346e-05,0.00011087396706,-0.000183782060049,0.466942441705,-0.0155873115278,0.188418601039,-0.031765605554,0.922439935049,0.383405796005,0.0330984562089
0.00748026138172,-0.0457218810916,-0.0600413642824,-2.51118206978,0.138013064861,2.49338006973,-0.949303984642,0.0636907592416,-2.04558018595e-05,0.000867136754096,0.000112224945042,0.000494237348903,1.57491231221e-05,-7.95874366304e-05,0.000464236683911,0.466973695232,-0.0155893611445,0.188444779287,-0.0317514379223,0.922439585733,0.383405261347,0.0331279657751
0.00747901247814,-0.0457183532417,-0.0600403733552,-2.51114630699,0.138013258576,2.49338150024,-0.949302911758,0.0636907592416,4.5269371185e-05,0.000142987832078,0.000530203047674,0.00205263542011,3.07977388729e-05,2.96706912195e-05,1.19773858387e-06,0.466991031248,-0.0155905347321,0.188458338641,-0.0317435899718,0.922439266748,0.383405295694,0.0331439673923
0.00748380413279,-0.0457098446786,-0.0600383579731,-2.51111268997,0.138013586402,2.49338078499,-0.949300646782,0.0636907592416,2.43228356567e-07,-0.000582506065257,9.13056646823e-05,0.0024678260088,3.37824640155e-05,-8.92987081897e-05,-0.000372699345462,0.467004359131,-0.0155881009432,0.188466925595,-0.0317387919746,0.92243819484,0.383407416973,0.0331538546328
0.00748104881495,-0.0456981137395,-0.0600404143333,-2.51107907295,0.138013124466,2.49338078499,-0.949296891689,0.0636907592416,-0.000431069172919,0.00202167103998,-0.000382850412279,8.72272503329e-05,-7.26334765204e-05,0.000122322468087,9.44833936956e-06,0.467018669893,-0.0155918073677,0.188475001613,-0.0317335462056,0.922439715305,0.383403333258,0.0331637965675
0.00748028000817,-0.045692589134,-0.0600420832634,-2.51106357574,0.138012826443,2.49338364601,-0.949294388294,0.0636907592416,-7.00601522112e-05,8.08558179415e-05,-0.000332742114551,0.000542120833416,6.29183841738e-06,-3.05781832139e-05,-0.000579621642828,0.467025760474,-0.0155936497054,0.188478307675,-0.031730470197,0.922440579375,0.383401074648,0.0331688170357
0.00747906882316,-0.0456792525947,-0.0600416362286,-2.51105093956,0.138012394309,2.49338197708,-0.949292898178,0.0636907592416,-0.000137802984682,2.1877569452e-05,0.000673665723298,-0.000152235734276,-0.000200547117856,0.00011848082795,4.29757237725e-05,0.467028662963,-0.0155935478933,0.188477393335,-0.0317306620408,0.922440623787,0.383401032292,0.0331678879856
0.00748043460771,-0.0455495081842,-0.0600406862795,-2.51100993156,0.138012453914,2.49338579178,-0.949287056923,0.0636907592416,-0.000117208117445,0.0025928618852,-0.00202944292687,-0.000278746214462,-0.00017144739104,-0.000241391724558,-7.55056171329e-05,0.467029757197,-0.0155938162302,0.188433539462,-0.0317453675872,0.922442863841,0.383397888833,0.0331278297843
0.00747929234058,-0.0454960726202,-0.0600423254073,-2.51099777222,0.13801215589,2.49338531494,-0.949285209179,0.0636907592416,0.000544214504771,0.00464271567762,1.37968936542e-05,0.00144954072312,4.55121735286e-05,-4.981235179e-05,0.0001148172596,0.467027262427,-0.0155949064732,0.188418686467,-0.0317511248374,0.922444311958,0.383395191969,0.0331131977444
0.00748018128797,-0.0453910119832,-0.0600436851382,-2.51097726822,0.138013958931,2.49338698387,-0.949282586575,0.0636907592416,7.85517695476e-05,0.00664236070588,8.48709387355e-05,0.00196480192244,1.09247096702e-07,5.44350041309e-05,0.000199298970983,0.467022191844,-0.0155962754208,0.188372690935,-0.0317683332036,0.922446701009,0.383391751024,0.0330699520984
0.00748168490827,-0.0452957898378,-0.0600443072617,-2.51097154617,0.138013705611,2.49338459969,-0.949280917645,0.0636907592416,6.69289656798e-05,0.00797307305038,0.000232168706134,0.00211012782529,0.00010998918151,0.000379048316972,-1.30693051688e-05,0.467010573776,-0.0155960213648,0.188330293821,-0.0317856385132,0.92244830638,0.383390122845,0.033027392091
0.00747578497976,-0.0451028682292,-0.060046132654,-2.51095294952,0.138012781739,2.4933860302,-0.949275553226,0.0636907592416,-0.00044228322804,0.00534472521394,-0.000468785030534,-0.000731987180188,-4.22258817707e-05,-9.72420457401e-05,-0.000337277771905,0.466991449868,-0.0156004157791,0.188247770268,-0.0318173164767,0.922453613861,0.383381638544,0.0329470417168
0.00747821573168,-0.0450222715735,-0.0600464753807,-2.51095342636,0.138012245297,2.49338579178,-0.949275910854,0.0636907592416,0.000562887173146,0.00497626326978,0.000284932146315,0.000657872995362,8.29769705888e-05,6.28058987786e-05,0.000183048920007,0.46697835795,-0.0155990320367,0.18820501862,-0.0318345186899,0.922454417745,0.383381928605,0.0329045149555
0.00747984461486,-0.0449555814266,-0.0600464120507,-2.5109474659,0.138012453914,2.49338579178,-0.949274122715,0.0636907592416,8.20276836748e-05,0.00228807865642,0.00046862848103,0.00405528768897,1.55022298713e-05,-0.000161572927027,-0.000165119185112,0.466970845685,-0.0155990132868,0.188175184279,-0.0318465987318,0.922455694905,0.38338037796,0.0328750751192
0.00748006720096,-0.044863332063,-0.06004313007,-2.51094341278,0.138012349606,2.4933860302,-0.949270367622,0.0636907592416,7.28470040485e-05,0.0079938294366,-5.80098967475e-05,0.00018452614313,4.74559892609e-05,4.1752391553e-05,-0.000332482450176,0.466961294425,-0.0155975632651,0.188139748178,-0.0318603751112,0.922456978333,0.383379131613,0.0328402306276
0.00748164812103,-0.0447876192629,-0.0600441507995,-2.51093935966,0.138012349606,2.49338555336,-0.949269235134,0.0636907592416,0.000324991851812,0.00226834556088,6.97181603755e-05,0.000646409520414,-1.34736046675e-05,-0.000133474153699,-0.000156396650709,0.466952111809,-0.0155974593133,0.188105975005,-0.0318739271859,0.922458276118,0.383377744065,0.0328068075922
0.00747942645103,-0.0446694530547,-0.0600469857454,-2.51092720032,0.138012081385,2.49338650703,-0.949266195297,0.0636907592416,0.000362167222193,0.00452933646739,2.59011630988e-05,0.000108531567093,0.000117913412396,4.40550902567e-05,0.000189295766177,0.466940746394,-0.0156002953685,0.188055746559,-0.03189324965,0.922461559813,0.38337240631,0.0327580380562
0.00747738359496,-0.0446033962071,-0.0600509904325,-2.51092338562,0.138012945652,2.4933860302,-0.949266076088,0.0636907592416,0.000150765641592,0.00569013459608,0.000216793909203,-9.3271220976e-05,6.41125370748e-05,-4.53734392067e-05,0.00025722628925,0.466932752345,-0.0156031869104,0.188026389198,-0.031905204841,0.922463889035,0.383368265975,0.0327292477278
0.00747772026807,-0.0445354320109,-0.0600496456027,-2.5109205246,0.138012632728,2.4933848381,-0.949264645576,0.0636907592416,-3.96307623305e-05,0.000437042588601,0.000538872845937,-2.2529279704e-06,1.64263747138e-05,3.93271075154e-05,-0.0002211566607,0.466923994525,-0.0156025256117,0.187995693636,-0.0319176335285,0.922464871363,0.383367493187,0.0326984804071
0.00747859943658,-0.0444679781795,-0.060048982501,-2.51091599464,0.138012498617,2.49338579178,-0.949262082577,0.0636907592416,0.00323058059439,0.00390436430462,-2.80573949567e-05,-0.000357411394361,3.31343253492e-05,0.00286882347427,0.000189050653717,0.466916539043,-0.0156020474736,0.187966100918,-0.0319291194649,0.92246609479,0.383366052741,0.0326696278193
0.00748312566429,-0.044318318367,-0.0600488968194,-2.51090359688,0.138012260199,2.49338459969,-0.949258863926,0.0636901035905,0.000598638202064,0.00536510441452,0.000269516953267,-0.000364344974514,-0.000122807236039,-0.00486418651417,-0.000171761465026,0.466900394133,-0.0156003360092,0.187901074036,-0.0319549914391,0.922468065225,0.383364631683,0.0326053066067
0.00748181575909,-0.0442815162241,-0.0600492283702,-2.51090145111,0.138012900949,2.4933860302,-0.949254095554,0.0636901035905,4.1520474042e-05,0.00161032914184,-0.000267959694611,0.000383533275453,2.64343925664e-05,4.16421207774e-05,0.000840245571453,0.466896334493,-0.0156012167845,0.187884886695,-0.0319613092769,0.922469959945,0.383360855833,0.0325899003507
0.00748062087223,-0.0442631728947,-0.0600508823991,-2.51089882851,0.138012483716,2.49338579178,-0.949254393578,0.0636901035905,8.95684715942e-05,0.00353293260559,-0.0001918310154,0.00195939699188,0.000699332624208,2.41245561483e-05,0.000474980275612,0.466894789528,-0.0156026374326,0.187877344338,-0.0319641294081,0.922470650439,0.383359588464,0.0325824972192
0.00747897243127,-0.0442435070872,-0.0600515082479,-2.51089787483,0.138012573123,2.49338579178,-0.949253320694,0.0636901035905,0.000241942732828,0.000410870852647,0.00288706808351,-0.000334204116371,-1.47701375681e-05,0.000101194906165,-0.00015740552044,0.466892483147,-0.0156039770622,0.187868758696,-0.0319675525692,0.922471711517,0.383357462694,0.0325741080214
0.00747878197581,-0.0442323498428,-0.0600542239845,-2.51088929176,0.138012617826,2.49338626862,-0.949250400066,0.0636901035905,1.28921528812e-05,-0.000434914749349,0.000319174374454,0.0010254457593,0.000128002197016,-0.000247073505307,-0.000348942383425,0.466894761326,-0.0156053214728,0.18786680054,-0.0319678338933,0.922472789734,0.383354955642,0.0325728025196
0.0074799451977,-0.0442245639861,-0.0600543059409,-2.51088762283,0.13801266253,2.49338555336,-0.949249446392,0.0636901035905,-1.53497403517e-05,0.000120355362014,-0.00138588959817,0.000169348539202,4.43950193585e-05,-0.000169306396856,-0.000163471951964,0.466894270411,-0.0156048336314,0.187863765715,-0.0319691746578,0.922472871747,0.38335491659,0.0325696234583
0.00747683737427,-0.0442179664969,-0.0600539781153,-2.51088404655,0.138013467193,2.49338579178,-0.949249088764,0.0636901035905,-0.000419010437327,0.000241526999162,0.000249255041126,0.000122467114124,-4.74277003377e-05,4.18051313318e-05,-0.000505118921865,0.466894986915,-0.0156061930828,0.187862138443,-0.0319697528505,0.922473641169,0.383353117664,0.0325684373601
0.00747732259333,-0.0442081689835,-0.0600563511252,-2.51087927818,0.138012602925,2.49338626862,-0.949245929718,0.0636901035905,0.00169346912298,0.0003029157524,-0.000511788937729,0.00152125733439,-8.02867652965e-05,0.000106635408883,-1.26591712615e-05,0.466895839966,-0.0156072632789,0.18785950322,-0.0319702795835,0.922474577392,0.383351017027,0.0325661283437
0.0074785980396,-0.0441711172462,-0.0600543320179,-2.51087212563,0.138012886047,2.49338650703,-0.949241816998,0.0636901035905,-0.000211610866245,-0.000353951181751,-0.000350557820639,0.000452882959507,5.62943314435e-05,-0.000216452041059,0.000191880739294,0.466893884587,-0.0156059540333,0.187845084934,-0.031975803648,0.92247527721,0.383350053886,0.0325522162899
0.00747786462307,-0.0441677011549,-0.0600534081459,-2.51086807251,0.138012543321,2.49338626862,-0.949241936207,0.0636907592416,7.25435820641e-05,-0.000833496684209,-6.78604119457e-05,0.00017359132471,-2.15175023186e-05,-0.000113536480058,-0.000569517025724,0.466895217465,-0.015605988976,0.187845082775,-0.0319755253067,0.922475165722,0.383350338107,0.0325523019473
0.00747755961493,-0.0441625267267,-0.0600550174713,-2.51086688042,0.138012751937,2.49338746071,-0.949239611626,0.0636907592416,0.00310192559846,0.000125620208564,-0.000213677907595,-0.000406445527915,-2.28571152547e-05,1.83305146493e-05,-3.59233199561e-05,0.466895407666,-0.015607052736,0.187843387412,-0.0319758335375,0.922476048891,0.383348281968,0.0325511856585
0.00747906882316,-0.0441575013101,-0.0600558668375,-2.51086401939,0.138012573123,2.49338674545,-0.949237942696,0.0636907592416,7.79134134063e-05,-0.000301404099446,-0.00079559115693,0.000411802815506,-5.2597890317e-05,-7.29410239728e-05,0.000168254962773,0.466895699801,-0.0156068585305,0.187841882932,-0.0319766083267,0.922476363083,0.383347610702,0.0325494258818
0.0074770306237,-0.0441498532891,-0.0600590147078,-2.51086115837,0.138013526797,2.4933860302,-0.949236690998,0.0636907592416,0.000484537595185,-0.000509620644152,0.000296932470519,0.000147225597175,3.13682976412e-05,-1.77491601789e-05,-0.00277747330256,0.466895691902,-0.0156090826015,0.187839486462,-0.0319778161807,0.922477726191,0.383344412994,0.0325472681254
0.00747880572453,-0.0441471748054,-0.0600597150624,-2.51086163521,0.138012707233,2.49338626862,-0.949236214161,0.0636907592416,0.000476972636534,0.000371230911696,-0.000284782465314,1.06401748781e-05,1.60863437486e-05,0.000133377980092,-0.000431624212069,0.466895306952,-0.0156087682255,0.187838348146,-0.0319780669042,0.922477629132,0.383344726112,0.0325460847454
0.00747825438157,-0.0441482625902,-0.0600601024926,-2.51085710526,0.138013020158,2.4933860302,-0.949233472347,0.0636907592416,0.00389841897413,-0.000254618556937,-8.05479576229e-05,0.000128465049784,7.72309795138e-05,-5.27562588104e-06,-0.000170697938302,0.466897337976,-0.0156091474158,0.187840355734,-0.0319771818931,0.92247821124,0.383343216192,0.0325482397121
0.00747869769111,-0.0441444516182,-0.0600581727922,-2.51085424423,0.138012573123,2.49338769913,-0.949232935905,0.0636907592416,0.000514844723511,5.77711180085e-05,-6.23317610007e-05,-0.000435772322817,-6.16302058916e-05,-1.52351713041e-05,0.000364069070201,0.466898499837,-0.0156082283547,0.187839870526,-0.0319767302025,0.922477824421,0.38334417568,0.0325483460567
0.00747735239565,-0.0441395938396,-0.0600575357676,-2.51084637642,0.138012617826,2.49338722229,-0.949229836464,0.0636907592416,6.87268911861e-05,-1.89710990526e-05,-0.00023628998315,-6.13237352809e-05,0.000152710999828,-3.01985292026e-05,-0.000327696383465,0.466901331777,-0.0156087457031,0.187840695705,-0.0319761112338,0.922478521727,0.38334245946,0.0325494043052
0.00747926766053,-0.0441255234182,-0.0600578710437,-2.51084637642,0.138012871146,2.49338626862,-0.949228167534,0.0636907592416,0.000227357159019,-0.000170752347913,2.50869088632e-05,0.000107771469629,-0.000121969278553,-5.59317086299e-05,0.000246542942477,0.466899134078,-0.0156078276709,0.18783395426,-0.0319790786397,0.922478793178,0.383342150726,0.0325424311424
0.00747911212966,-0.0441253371537,-0.0600585751235,-2.51083898544,0.138012990355,2.49338793755,-0.949226021767,0.0636907592416,-8.22392903501e-05,-0.000134556335979,0.000339668156812,-0.000305950117763,3.38179888786e-05,-6.7899680289e-05,-0.000151015643496,0.466902857561,-0.0156086136115,0.18783705415,-0.03197720757,0.922479291817,0.38334076716,0.0325464327004
0.00747804390267,-0.0441204458475,-0.0600604116917,-2.51084184647,0.138013243675,2.49338722229,-0.949223875999,0.0635147690773,0.000179333379492,0.000420673604822,4.17969167756e-05,7.46778168832e-05,0.000757200468797,0.000254913844401,6.81625679135e-05,0.46690062534,-0.0156098437163,0.187833564497,-0.0319790269248,0.92248041378,0.383338237334,0.0325426414058
0.0074804732576,-0.0441196300089,-0.0600603744388,-2.51083779335,0.138013660908,2.49338746071,-0.94922286272,0.0635147690773,-7.28521263227e-05,2.46300623985e-05,-0.000547771167476,0.000957191106863,-2.66769675363e-05,1.48979615915e-05,0.000229352459428,0.466902480219,-0.0156087810483,0.187834823474,-0.0319784117713,0.922480147138,0.383338798291,0.0325441964729
0.00747959548607,-0.0441185198724,-0.0600606761873,-2.51083254814,0.138012871146,2.4933886528,-0.949220001698,0.0635147690773,0.00199482263997,-0.000372077018255,0.000571984739508,-0.000349231850123,-8.37439438328e-05,0.00013854764984,8.41234359541e-05,0.466904979503,-0.0156095635782,0.187836501375,-0.0319769964899,0.92248075562,0.383337263953,0.0325464122945
0.00747637404129,-0.0441133864224,-0.0600632429123,-2.51083254814,0.138013824821,2.4933860302,-0.949218928814,0.0635147690773,-0.000553026620764,-0.000278988445643,-0.000309850525809,-0.000237592656049,1.97399749595e-05,-8.43435409479e-05,4.15014910686e-05,0.466903594861,-0.0156120835938,0.187833866079,-0.0319788857832,0.92248227603,0.38333372363,0.0325431603359
0.00748177710921,-0.0441096015275,-0.0600590668619,-2.51083087921,0.138012573123,2.49338793755,-0.949216723442,0.0635147690773,-0.000609324953984,-9.03751570149e-05,8.03201328381e-05,0.000105230486952,-2.95637273666e-05,1.24091206999e-06,-5.88855982642e-05,0.466904362958,-0.0156078443098,0.187832937359,-0.0319785054242,0.922480736092,0.383337511734,0.0325425646037
0.0074752648361,-0.0441047288477,-0.0600660517812,-2.5108230114,0.13801291585,2.49338960648,-0.949215888977,0.0635147690773,0.000352697155904,-0.000139393669087,-0.00013065818348,-0.00016042162315,-2.84369907604e-05,3.97535131924e-06,0.00129963154905,0.466907452698,-0.015614354336,0.187833948906,-0.0319773150383,0.922483493008,0.383330780535,0.0325448740588
0.00747770210728,-0.0440872199833,-0.0600659400225,-2.51082491875,0.138012930751,2.49338793755,-0.949215114117,0.0585254170001,0.000434455985669,-0.000706565566361,0.00016168570437,0.000692936533596,-0.000253406265983,0.000110706561827,0.000162511991221,0.466903710898,-0.0156130630597,0.187824862034,-0.0319815170936,0.922483464627,0.38333132341,0.0325351537584
0.00747784320265,-0.0440834313631,-0.0600629970431,-2.51082277298,0.138013750315,2.49338722229,-0.94921040535,0.0585254170001,0.00050802109763,0.000429159466876,0.000595087360125,0.000372406851966,3.93364280171e-05,0.000292122014798,-8.26888281154e-05,0.466904039336,-0.015611935487,0.187824117709,-0.0319821597235,0.922483999576,0.383330057658,0.0325342675431
0.00747988605872,-0.0440830849111,-0.0600659027696,-2.51081895828,0.138014599681,2.49338984489,-0.949211716652,0.0585254170001,-0.000322914449498,-5.62869317946e-05,-0.000162240627105,0.000164106648299,-5.457799125e-05,-7.37526570447e-05,0.000112123067083,0.46690633255,-0.0156121621603,0.187825492844,-0.0319810475339,0.922483908079,0.383330148075,0.0325368897317
0.00747883971781,-0.0440849475563,-0.0600646287203,-2.51080751419,0.138014644384,2.49340724945,-0.949207663536,0.0585254170001,-0.00267982156947,-0.00104648654815,0.000259184773313,0.00186636950821,0.000224070783588,-0.00167592021171,0.00049153866712,0.466915621091,-0.0156130960879,0.187832532244,-0.0319737010039,0.922484508855,0.383328183264,0.0325502222057
0.00747716007754,-0.0441052280366,-0.0600718669593,-2.51045417786,0.138019695878,2.49347782135,-0.949200093746,0.0585254170001,0.00399101385847,-0.000729079998564,-0.000268956413493,0.00948955211788,7.29709208827e-05,9.01199382497e-05,-0.000105388804513,0.467097355979,-0.0156288912097,0.187989406692,-0.0318765838575,0.922482992095,0.383322941042,0.0327495839649
0.00747852912173,-0.0440983697772,-0.0600719228387,-2.51024580002,0.138019070029,2.49347090721,-0.949198961258,0.0585254170001,-2.97809074254e-05,0.000279794767266,-0.000608171103522,0.00713215535507,0.000197058136109,-0.000584399269428,-0.000188118458027,0.467191512839,-0.0156333273462,0.18806866321,-0.0318346292251,0.922479828098,0.383326543112,0.0328372374291
0.00747864414006,-0.0439674891531,-0.060071632266,-2.5100004673,0.138020083308,2.49346137047,-0.949195027351,0.0465931259096,-0.000377759512048,0.00131459010299,0.00024221658532,-0.000280239677522,0.000108694875962,-3.84879494959e-05,0.000181313778739,0.467284259807,-0.015639050663,0.188104509135,-0.0318092029982,0.922479083345,0.383326501295,0.032883255368
0.00747782364488,-0.0439109951258,-0.0600733011961,-2.51000523567,0.138019442558,2.49345874786,-0.949195861816,0.0465931259096,0.00011735685257,0.0029144147411,-0.000173464330146,0.000101002588053,-4.61630042992e-05,9.33967749006e-05,0.000160487921676,0.467273259526,-0.0156400693282,0.188075968423,-0.0318213614175,0.9224803081,0.38332506795,0.032853829145
0.00747257424518,-0.0438959263265,-0.0600774772465,-2.50999212265,0.138019919395,2.49346137047,-0.949196100235,0.0465931259096,-0.000608850445133,0.000401197059546,-0.000517902721185,0.00080733752111,9.96213348117e-05,9.30885944399e-05,-0.00102305365726,0.467277569874,-0.0156448781626,0.188074401266,-0.0318207333586,0.922482192206,0.383320559539,0.0328541368621
0.00747211556882,-0.0438790135086,-0.0600813739002,-2.50996947289,0.138018742204,2.49346113205,-0.949196279049,0.0465931259096,-0.000354940188117,-0.000650436093565,-5.95234560024e-05,-0.000563897425309,-0.00325167318806,-0.000116697112389,0.000374579889467,0.467285487763,-0.0156475428205,0.188075503042,-0.0318187821647,0.9224827633,0.38331915759,0.032856348294
0.0074735507369,-0.0438793189824,-0.0600809492171,-2.5099670887,0.138018667698,2.4934592247,-0.949193835258,0.0465931259096,0.000193822314031,-4.48812897957e-05,-6.81214150973e-05,0.000161245305208,-2.01351539886e-07,-0.000103631122329,-2.36251889874e-05,0.467286259603,-0.0156466598254,0.188076420247,-0.0318187548061,0.922482817829,0.383319000927,0.032856671525
0.00747458217666,-0.0438809655607,-0.0600822381675,-2.50996112823,0.138019546866,2.49346089363,-0.949193954468,0.0465931259096,-0.000582600245252,0.000348500034306,0.000308678252622,0.000253775739111,-5.59597367555e-07,6.53998140479e-05,-0.000253807025729,0.467289621128,-0.0156469390102,0.188079725107,-0.031816976691,0.922482854099,0.383318692546,0.0328609725337
0.00747066084296,-0.0438660718501,-0.060087967664,-2.5099439621,0.138019785285,2.49346041679,-0.949192225933,0.0465931259096,0.000269934273092,0.000534015940502,0.000650929636322,-0.000187788740732,0.000112221256131,-2.84818688669e-05,0.000189422513358,0.467295376945,-0.0156514829328,0.188079671185,-0.0318162213336,0.92248491762,0.383313705173,0.0328619526688
0.00747840385884,-0.0438708811998,-0.0600838363171,-2.50993204117,0.138019889593,2.4934592247,-0.949191570282,0.0465931259096,0.000845558883157,-0.000212341168663,0.000522397225723,0.000413703353843,3.099942478e-05,2.93330849672e-05,-0.000286929775029,0.46730132603,-0.0156465474387,0.188086462597,-0.0318132415861,0.922482654143,0.383318821691,0.0328686945929
0.00748436618596,-0.0438752658665,-0.0600788779557,-2.5099260807,0.138018831611,2.49345779419,-0.949192285538,0.0465931259096,-0.000658426899463,-0.000242169830017,-0.000442417309387,0.000168743848917,1.03526826933e-05,-8.54273093864e-05,0.000244888884481,0.467304580397,-0.0156416280454,0.188090754577,-0.0318112897524,0.922480113903,0.383324775381,0.0328724437779
0.00746201630682,-0.0438699200749,-0.0601042509079,-2.50992631912,0.138019710779,2.49345612526,-0.949191391468,0.0465931259096,-0.00199071085081,0.000556630315259,-0.000198532448849,0.00041688294732,0.000170072220499,2.97125316138e-05,0.000343993131537,0.467302600854,-0.0156636310555,0.188087991193,-0.0318127691685,0.922489618217,0.383301968666,0.0328702372909
0.00746434135363,-0.0438605137169,-0.0601126626134,-2.5099196434,0.138020098209,2.4934566021,-0.949190735817,0.0462017543614,0.000728329527192,-0.000392675807234,0.000530603865627,0.000588147551753,7.05559214111e-05,-0.000145176119986,-0.0001208392423,0.467304596465,-0.0156663661421,0.188086570759,-0.0318130310694,0.922490859293,0.383299014645,0.032869600395
0.00746403634548,-0.0438626818359,-0.0601172111928,-2.50990462303,0.138019859791,2.49345636368,-0.949190378189,0.0462017543614,-0.000152136621182,-0.000426267361036,-0.000283844652586,0.00274234591052,7.26157522877e-05,-3.0520418477e-06,0.000116419789265,0.467311489491,-0.015669216495,0.188093276096,-0.0318095294866,0.922491712081,0.383296613767,0.0328770517623
0.00746688107029,-0.0438666678965,-0.0601180307567,-2.50987839699,0.138019979,2.49345636368,-0.949189722538,0.0462017543614,0.000124141137348,0.000307906651869,-0.000195883170818,-0.000623369473033,0.000106814193714,-0.000151990432641,-0.000265250360826,0.467324256622,-0.0156689205049,0.1881056,-0.0318032158603,0.922491004032,0.383297671338,0.0328906942795
0.00746954930946,-0.0438685975969,-0.0601205937564,-2.50981354713,0.138020306826,2.49345374107,-0.949187219143,0.0462017543614,-1.41139671541e-05,-2.54496262642e-06,-0.000987331848592,7.32811240596e-05,-0.000140637290315,-0.000129959604237,0.000113668051199,0.467354041661,-0.0156703701079,0.188132128922,-0.0317897402316,0.922490487728,0.383297539912,0.0329197212498
0.00746938865632,-0.0438654646277,-0.0601198263466,-2.50981616974,0.138019666076,2.49345183372,-0.949187040329,0.0462017543614,0.00024911496439,0.000281727930997,-0.000170931307366,-0.000500077498145,5.5384184634e-06,0.00016304566816,0.000182546966244,0.467351969422,-0.0156699858175,0.188129439486,-0.0317912225683,0.922490402406,0.383297927469,0.032916168016
0.00746927130967,-0.0438681915402,-0.0601258389652,-2.50981092453,0.138019427657,2.49345254898,-0.949186861515,0.0462017543614,-0.000386556901503,0.000254117156146,-0.000506060721818,0.000229924393352,6.78863307257e-06,3.39946273016e-05,-8.77419734024e-06,0.467354849257,-0.015672985513,0.188132865915,-0.0317893496633,0.92249145104,0.383295212257,0.0329202058038
0.00746325589716,-0.0438631810248,-0.0601316392422,-2.50979685783,0.138018965721,2.49345421791,-0.949187159538,0.0462017543614,0.00101776386146,0.00107371632475,-0.000131322725792,0.00162131246179,9.51480251388e-05,5.29638873559e-06,0.00032024999382,0.467360808598,-0.0156789313947,0.18813628373,-0.0317866131875,0.922493465277,0.383290170465,0.0329251066915
0.00746409827843,-0.0438506938517,-0.0601331740618,-2.50979065895,0.138019487262,2.4934527874,-0.949186444283,0.0462017543614,7.57191301091e-05,0.000153897010023,0.000208206532989,-0.000237840213231,-3.24456887029e-05,2.29433753702e-05,-6.71494562994e-05,0.467361562618,-0.0156793228167,0.188132791556,-0.0317881750214,0.922493914938,0.383289259586,0.0329216038396
0.00747062033042,-0.0438571386039,-0.0601314976811,-2.50979399681,0.138019651175,2.49345064163,-0.949185311794,0.0462017543614,0.000256423198152,0.00030258949846,7.15632850188e-05,-0.000262832822045,4.00655480917e-05,-0.000191419181647,0.000774582324084,0.467360622587,-0.0156753087448,0.188134274869,-0.0317884108739,0.922492521441,0.383292557004,0.0329220328605
0.00747908884659,-0.0438638180494,-0.0601290948689,-2.50979709625,0.138018772006,2.49344778061,-0.94918602705,0.045003335923,-0.000230122168432,0.000840983586386,-0.000232975828112,0.000563079142012,6.63557366352e-05,9.43800114328e-06,5.15081956109e-05,0.467359706373,-0.0156700892619,0.188135891627,-0.0317884573939,0.922490107208,0.38329834899,0.0329222026045
0.00746577931568,-0.043846257031,-0.0601403005421,-2.50979208946,0.138019546866,2.4934489727,-0.94918525219,0.045003335923,-0.000259549677139,0.000238372595049,-0.000775540072937,-0.000258649059106,-5.03946066601e-05,1.06674606286e-05,0.000231174723012,0.467359359824,-0.0156816207139,0.188129789189,-0.0317904138826,0.922495271456,0.383286168157,0.0329174225796
0.00746039720252,-0.0438327454031,-0.0601449012756,-2.5097887516,0.138019949198,2.49345040321,-0.949186086655,0.045003335923,0.000217040171265,0.0020675258711,0.000115391718282,0.000752147927415,-6.31757502561e-05,8.91498857527e-05,0.00011486953008,0.467359294343,-0.0156865636461,0.188124912239,-0.0317918255743,0.922497292095,0.383281511839,0.0329136486661
0.00746460584924,-0.04383572191,-0.0601449348032,-2.50977754593,0.138019666076,2.49345064163,-0.949184536934,0.045003335923,0.000798118649982,-0.00244256854057,0.00041627563769,-0.000640223093797,2.74635567621e-05,0.000178331669304,-0.000151903150254,0.467364727345,-0.0156842767696,0.188130667905,-0.0317889511445,0.922496322144,0.383283559569,0.032919764025
0.00747383013368,-0.0438458770514,-0.0601377636194,-2.50977396965,0.138019368052,2.49345231056,-0.949181318283,0.045003335923,0.000521018286236,0.000373574352125,0.000863651919644,-0.000558363040909,-2.3341674023e-05,0.000167603415321,-0.000388953252696,0.467368578102,-0.01567730524,0.18813715049,-0.031785837686,0.922493717502,0.383289503762,0.0329265497742
0.00748050725088,-0.0438510291278,-0.0601329654455,-2.50977706909,0.138019889593,2.49344801903,-0.949183881283,0.045003335923,6.66648775223e-05,-8.22027359391e-05,1.18439356811e-05,0.000328032037942,-0.00415068492293,0.000245901319431,-0.000178984293598,0.467367159549,-0.015671674601,0.188137930977,-0.0317868566052,0.922491050938,0.383295917699,0.0329256107647
0.00747452769428,-0.0438440740108,-0.060136936605,-2.509765625,0.138019606471,2.49344849586,-0.94918358326,0.045003335923,-0.00427368888631,0.000255019491306,0.000519172346685,0.00043891830137,-4.15741633333e-05,-9.83336285572e-05,2.23288748202e-06,0.467371398921,-0.0156766347952,0.188139286139,-0.0317854171528,0.922492916324,0.383291351215,0.0329278963126
0.00747622456402,-0.043830357492,-0.0601361989975,-2.50973248482,0.138019934297,2.49344730377,-0.949181556702,0.045003335923,0.000490895181429,0.00130908587016,0.000381018064218,0.00254018325359,-2.20354668272e-05,-0.000585086585488,-0.000241819390794,0.467384559848,-0.015676289401,0.188145990721,-0.0317813117152,0.922492607397,0.383291743432,0.032935947261
0.00748978881165,-0.0438132882118,-0.0601250194013,-2.5096449852,0.138018712401,2.49343204498,-0.949182212353,0.045003335923,0.000140758391353,-0.000170659841388,-7.23306293366e-05,0.00335958995856,0.000177380323294,-4.98195004184e-05,-4.33289314969e-05,0.467419769456,-0.0156664664109,0.188171515402,-0.0317695122085,0.922486489675,0.383305347954,0.0329603454689
0.00748439924791,-0.0437818318605,-0.0601274557412,-2.50907754898,0.138018846512,2.49334311485,-0.949182391167,0.045003335923,0.00071437144652,0.00230998313054,-0.00076493807137,0.0272419843823,-0.000113108188089,-0.0116317793727,0.000173454231117,0.467659094135,-0.0156807614036,0.188375042531,-0.0316764241104,0.922479596771,0.383312084363,0.033163886379
0.00748530169949,-0.0437404997647,-0.0601277910173,-2.50836706161,0.138016834855,2.49277043343,-0.949182152748,0.045003335923,-0.000631679198705,-0.000105768252979,-0.00163647776935,0.0494342409074,1.48542512761e-05,-0.0591085255146,0.000280956621282,0.467860301032,-0.015674209404,0.188586344558,-0.031681252637,0.922467279713,0.383336335124,0.0332215283419
0.00746516184881,-0.0437250621617,-0.0601441971958,-2.50748419762,0.138017788529,2.49157142639,-0.949182510376,0.0445804446936,-0.000983847305179,-0.000179052571184,-0.000692729256116,0.0764462277293,-3.8028824747e-06,-0.117741137743,-0.00013836355356,0.468011038634,-0.0156622747419,0.188820729721,-0.0318094365042,0.922457261055,0.383359982789,0.0331041470946
0.00744678545743,-0.0437148697674,-0.0601800382137,-2.50524568558,0.138015761971,2.48779392242,-0.949181973934,0.0445804446936,-0.00265508727171,-0.00150234857574,-0.0049732606858,0.135605081916,5.20123976457e-05,-0.252017229795,0.000147530474351,0.468239832138,-0.0155827790917,0.189361411221,-0.0323223243387,0.922420811005,0.38345600302,0.0325055103761
0.00743110105395,-0.0439637601376,-0.0602493621409,-2.50027346611,0.138011679053,2.47775578499,-0.94917178154,0.0445804446936,-0.00322636263445,-0.0220170468092,-0.00232677301392,0.217837542295,-1.88558515219e-05,-0.470552653074,0.00379018951207,0.468427241507,-0.015331660568,0.190490741234,-0.0337704886412,0.922324814506,0.383711440943,0.0306923511055
0.00738444644958,-0.0445754230022,-0.0602961108088,-2.4960360527,0.13801202178,2.46845412254,-0.949047863483,0.0445804446936,-0.00116233748849,-0.0456307753921,-0.00185094785411,0.288979947567,-9.53059934545e-05,-0.623077690601,0.0249313507229,0.468484571811,-0.0150559181229,0.191763872269,-0.0353544917878,0.922243610456,0.383915890907,0.0287292755785
0.00730050355196,-0.0455781370401,-0.0603300780058,-2.49053502083,0.138006746769,2.45667243004,-0.948490560055,0.0445804446936,-0.00470446795225,-0.0763040035963,-0.00363498809747,0.356986165047,1.55434190674e-05,-0.771999955177,0.0370772704482,0.468621607857,-0.0147635175363,0.193299826345,-0.036986144994,0.922214853261,0.38397272188,0.0267719636553
0.0071287592873,-0.0476208738983,-0.060379602015,-2.48280310631,0.138000443578,2.43929791451,-0.947460472584,0.0445804446936,-0.00707668904215,-0.12759719789,0.000542077352293,0.429934233427,-0.000479720707517,-0.960825026035,0.0617073215544,0.468706037222,-0.0143216114437,0.195824582786,-0.0395000786236,0.922200765562,0.383951890184,0.0237999473162
0.00651512900367,-0.0565505176783,-0.0606647394598,-2.45853447914,0.137988641858,2.38464903831,-0.941265702248,0.0444629006088,-0.0182442832738,-0.258083999157,-0.0112906033173,0.640009701252,-0.000256631086813,-1.39171183109,0.193562343717,0.469033658008,-0.0130343039024,0.205143411316,-0.0469086713818,0.922631809569,0.38250529261,0.0154861657437
0.00616990076378,-0.0616840720177,-0.0608563534915,-2.4465944767,0.137983232737,2.358263731,-0.937327504158,0.0444629006088,-0.021387103945,-0.307895541191,-0.00990616902709,0.695824861526,-0.000254325685091,-1.52929329872,0.238925412297,0.469246507858,-0.0124735727404,0.210238395257,-0.0502459054524,0.922981095224,0.381365372822,0.0119037363912
0.00562499184161,-0.0696206241846,-0.061124779284,-2.43072295189,0.137981370091,2.3242726326,-0.93184530735,0.0444629006088,-0.024169716984,-0.413459330797,-0.0155228143558,0.813946604729,-0.00104593799915,-1.67058515549,0.275689929724,0.46973140669,-0.0118282027169,0.217736551294,-0.0541486211523,0.923480211443,0.379719475279,0.00808366727968
0.00406718766317,-0.0902010351419,-0.0618162751198,-2.39226031303,0.137972339988,2.24670004845,-0.918601036072,0.0444629006088,-0.0493426136672,-0.556317925453,-0.0149198044091,0.980957746506,-0.0019959716592,-1.87077891827,0.346923232079,0.471250907995,-0.0106403592907,0.237409920876,-0.0619175135982,0.924670996118,0.375696528974,0.00137413504445
0.00315260770731,-0.101387508214,-0.0621795505285,-2.37270784378,0.137962281704,2.21098637581,-0.911888659,0.0444629006088,-0.0523897334933,-0.589316785336,-0.0223510582,1.04651129246,0.000244866620051,-1.87044787407,0.356684118509,0.472426331138,-0.0102790759034,0.248268068058,-0.0646887226295,0.925322897173,0.373621301993,-0.000165866535957
0.0020751086995,-0.113189205527,-0.0626437291503,-2.35192751884,0.137918770313,2.17547082901,-0.904934942722,0.0444629006088,-0.0623609423637,-0.641424357891,-0.0241233147681,1.14579629898,0.00349198072217,-1.85154891014,0.371214538813,0.473833267532,-0.0101030758517,0.260096614366,-0.0669700334201,0.926045364747,0.371422018943,-0.000824974367557
0.000957767886575,-0.125866428018,-0.063277028501,-2.33001255989,0.137535586953,2.14092540741,-0.897796213627,0.0444629006088,-0.0570502132177,-0.694843053818,-0.0406893342733,1.18518424034,-0.0343185700476,-1.78617823124,0.374727249146,0.475547844626,-0.0101580997253,0.27303810428,-0.0684375274392,0.92681666628,0.369225014775,-0.00024513751895
-0.00103481207043,-0.145366564393,-0.0645473375916,-2.29606199265,0.135861426592,2.09354400635,-0.887423872948,0.044575188309,-0.08668512851,-0.699569642544,-0.0434032715857,1.21755754948,-0.0879624560475,-1.59460639954,0.350336521864,0.4786526644,-0.0109493632843,0.293720086046,-0.0687351865572,0.928032529231,0.366090107226,0.00302190221429
-0.00279310368933,-0.158236518502,-0.0653744116426,-2.27383542061,0.133480891585,2.06610131264,-0.881447613239,0.044575188309,-0.104024648666,-0.726105451584,-0.0449604615569,1.24273574352,-0.161733955145,-1.4491301775,0.316866934299,0.480730160172,-0.0119752089958,0.306910949349,-0.0675875559865,0.928714197707,0.364530412209,0.00628008848381
-0.00448620412499,-0.169091776013,-0.0661565437913,-2.25543355942,0.130220964551,2.04536175728,-0.877021968365,0.044575188309,-0.12285336107,-0.724945306778,-0.0550612956285,1.22603273392,-0.255293548107,-1.31077253819,0.287049114704,0.482738385527,-0.013429281432,0.319604660698,-0.0653725387559,0.929278004473,0.363409513896,0.0101166433685
-0.00697324611247,-0.183626189828,-0.0674548819661,-2.23123979568,0.124394007027,2.02094435692,-0.871726095676,0.044575188309,-0.125211745501,-0.7380412817,-0.0794217735529,1.20205116272,-0.339718043804,-1.11984789371,0.247795626521,0.485277235116,-0.0158972193447,0.335677756424,-0.0611972982597,0.929941216556,0.362230591043,0.0159129831565
-0.0111214257777,-0.205652102828,-0.070176936686,-2.19725513458,0.11205278337,1.99136757851,-0.865412414074,0.044575188309,-0.155966088176,-0.727896511555,-0.106500141323,1.08505249023,-0.495208233595,-0.841591596603,0.176490828395,0.48869032683,-0.0210768747592,0.359565385914,-0.0521098194215,0.93078889868,0.360885009809,0.0260499941094
-0.0140818590298,-0.218595281243,-0.0723200365901,-2.1786506176,0.101918846369,1.97790694237,-0.862543642521,0.044575188309,-0.176414385438,-0.71773058176,-0.129227533937,0.996437966824,-0.627668678761,-0.666757285595,0.127185702324,0.49045497838,-0.0252911184707,0.373362516914,-0.0448722166743,0.931231209279,0.360189848331,0.0325298613591
-0.0211744084954,-0.243122443557,-0.0772681459785,-2.14753508568,0.0759619772434,1.96015441418,-0.860280692577,0.044575188309,-0.22266754508,-0.673908531666,-0.157086282969,0.789393424988,-0.84213835001,-0.350084453821,0.00296393153258,0.492948021371,-0.0358757260461,0.398359982262,-0.0271705743951,0.93164184665,0.359566095777,0.044916054049
-0.033862888813,-0.273580491543,-0.0886717364192,-2.1151638031,0.0280136093497,1.95245063305,-0.861258089542,0.044575188309,-0.289840131998,-0.516180574894,-0.29404810071,0.528623819351,-1.02666974068,0.0175426751375,-0.0750480741262,0.494696315028,-0.0567559056529,0.428038834269,0.00357789827218,0.932121070346,0.357083024021,0.0602430286551
-0.0394919663668,-0.282032608986,-0.0945722386241,-2.10623979568,0.00942168571055,1.95297551155,-0.863329648972,0.044575188309,-0.334597498178,-0.41827327013,-0.367832928896,0.476050376892,-1.01879227161,0.0410757996142,-0.153726637363,0.494853965317,-0.0659988436168,0.43660012796,0.0149091722729,0.932374969139,0.35539780165,0.0643974826611
-0.044881105423,-0.287549555302,-0.100613281131,-2.09923648834,-0.00563289411366,1.95401549339,-0.866120457649,0.044575188309,-0.373420923948,-0.316134124994,-0.426460146904,0.464655220509,-0.975362896919,0.0945573970675,-0.223025918007,0.494845661369,-0.0745674190636,0.442870150478,0.0238970726586,0.932725482012,0.353455595731,0.0672402160554
-0.0530327335,-0.292564481497,-0.110371947289,-2.08979320526,-0.025719081983,1.95671927929,-0.872442543507,0.044575188309,-0.409323632717,-0.164568781853,-0.522315502167,0.430587559938,-0.917537629604,0.167656540871,-0.377489924431,0.494853059452,-0.0874246700192,0.450318570939,0.0357727080913,0.933155198914,0.350697004104,0.0703796781296
-0.0660674870014,-0.293829351664,-0.127359583974,-2.07715630531,-0.0498295910656,1.96275091171,-0.886567056179,0.044575188309,-0.488212257624,0.0614792332053,-0.659790933132,0.442234754562,-0.737587809563,0.252637207508,-0.575801491737,0.494850886792,-0.107398940242,0.45788962352,0.050013999278,0.933910165169,0.346320534343,0.0732972744851
-0.0746324807405,-0.291704326868,-0.139396473765,-2.06924271584,-0.0614328272641,1.96729028225,-0.897540330887,0.044575188309,-0.507975459099,0.206989496946,-0.735964298248,0.478062927723,-0.615979671478,0.284306973219,-0.691508471966,0.494845678672,-0.120342016177,0.461258415502,0.0571294531466,0.934531782829,0.343241948977,0.0746427264624
-0.0852898657322,-0.285349428654,-0.155211865902,-2.05916190147,-0.0724064484239,1.97340679169,-0.91276538372,0.044586353004,-0.544986724854,0.409268528223,-0.852306246758,0.535688698292,-0.487039446831,0.317036122084,-0.813827633858,0.4949992559,-0.136446216298,0.463734053997,0.0640822893764,0.93544442906,0.339325582933,0.0754674021087
-0.0937510356307,-0.278169155121,-0.168547704816,-2.05081391335,-0.0789082944393,1.97818338871,-0.925354659557,0.044586353004,-0.577509760857,0.528113365173,-0.916846930981,0.580606222153,-0.388691961765,0.312957286835,-0.864878296852,0.495057806627,-0.149380461927,0.464745500867,0.0683914183458,0.936393295509,0.335815451633,0.0756187288475
-0.123991549015,-0.241386845708,-0.218881234527,-2.0173637867,-0.0887034237385,1.99280416965,-0.970902681351,0.044586353004,-0.635651648045,0.946866989136,-1.10810601711,0.804030418396,-0.018640043214,0.250477164984,-0.968267679214,0.494333627214,-0.196637745608,0.463823429853,0.0773254857142,0.941317942568,0.320132097497,0.0738697509001
-0.134269714355,-0.225292980671,-0.236949518323,-2.00484132767,-0.0886098071933,1.99653375149,-0.986648321152,0.044586353004,-0.652500092983,1.04982864857,-1.15788412094,0.775686919689,0.0131449950859,0.199650138617,-1.00654637814,0.493580757063,-0.211592822519,0.462077182544,0.0784533372112,0.943239004389,0.314515137196,0.0722874999072
-0.146765232086,-0.204316481948,-0.259330809116,-1.98953258991,-0.0879353061318,2.00005102158,-1.00592565536,0.044586353004,-0.666365742683,1.15146410465,-1.19274806976,0.830541551113,0.076448328793,0.166501224041,-1.02689611912,0.491876769808,-0.231153026246,0.45895321871,0.07939015511,0.945848053841,0.30704850359,0.0692089477523
-0.159914895892,-0.180298298597,-0.283199936152,-1.97340643406,-0.0855551213026,2.002794981,-1.02665865421,0.044586353004,-0.660918235779,1.23902237415,-1.19191467762,0.791279435158,0.155805841088,0.101449392736,-1.0342912674,0.489334328756,-0.251673602296,0.454454226854,0.0793491126072,0.948710614504,0.29904870252,0.0649750834194
-0.17918625474,-0.143843725324,-0.317815303802,-1.95101189613,-0.0793924555182,2.00459694862,-1.05621981621,0.044586353004,-0.65889197588,1.29175984859,-1.18416404724,0.718325555325,0.262110233307,0.0132382791489,-1.00866317749,0.483852980161,-0.280877665651,0.446192558215,0.0774405304075,0.953137773201,0.286764665432,0.0574227820476
-0.19010810554,-0.121993929148,-0.337455183268,-1.93908834457,-0.0747277215123,2.00461053848,-1.07341134548,0.0446060523391,-0.648489058018,1.27417457104,-1.1416451931,0.687682390213,0.284503757954,-0.017911048606,-1.01113140583,0.479832706168,-0.297051386111,0.440340227368,0.0753420561073,0.955652744946,0.279870600782,0.052190537139
-0.200383141637,-0.101534053683,-0.355493724346,-1.92886340618,-0.0700848847628,2.00432491302,-1.08947241306,0.0446060523391,-0.643527746201,1.27371251583,-1.10773396492,0.589391231537,0.288784831762,-0.0168742742389,-0.997479557991,0.475434527796,-0.311781592194,0.434356507938,0.0729944986151,0.957945786337,0.273520208166,0.0468867681467
-0.212926208973,-0.0767549648881,-0.376643896103,-1.91821300983,-0.0644422098994,2.00350594521,-1.1091183424,0.0446060523391,-0.612713396549,1.21873259544,-1.01387882233,0.494501143694,0.277845650911,-0.0464661046863,-0.953754067421,0.468916945946,-0.329726120864,0.425797130157,0.0693128174503,0.960702660028,0.265898401207,0.0392959575478
-0.241921678185,-0.0228034369648,-0.419495970011,-1.9007679224,-0.0544940121472,1.99791955948,-1.15182769299,0.0446060523391,-0.57477504015,1.01708698273,-0.758548259735,0.232644155622,0.141725048423,-0.183399155736,-0.839059650898,0.451892735635,-0.363767426307,0.405434053501,0.0592515148219,0.965819107291,0.251561235991,0.0199913537149
-0.251427441835,-0.00622398452833,-0.431943118572,-1.8974698782,-0.0522541962564,1.99435150623,-1.16564083099,0.0446060523391,-0.540040016174,0.942873418331,-0.68794220686,0.160814985633,0.116682380438,-0.225365594029,-0.790486991405,0.445157437055,-0.373693875081,0.397927565461,0.0547772323621,0.967236412907,0.247583695403,0.0124695559223
-0.260335057974,0.00892650336027,-0.442740619183,-1.89529287815,-0.0508568994701,1.9899405241,-1.1787391901,0.0446060523391,-0.502184808254,0.858478486538,-0.573402583599,0.0951789841056,0.0541640892625,-0.280228316784,-0.745785534382,0.438441223996,-0.38224850243,0.390603277313,0.0500028656331,0.968360771234,0.244446121912,0.004819059949
-0.270406097174,0.0254015978426,-0.453807413578,-1.89392340183,-0.0500980988145,1.98357343674,-1.19358789921,0.0446060523391,-0.454230040312,0.749576091766,-0.481741398573,0.035588093102,0.0266851298511,-0.32225805521,-0.675472140312,0.430417239442,-0.390949808734,0.382080886652,0.0438506946745,0.969382939203,0.241565917125,-0.00444309982771
-0.281554698944,0.043901219964,-0.465618938208,-1.8937959671,-0.0491267926991,1.97372996807,-1.21150052547,0.0446224696934,-0.354242384434,0.598218500614,-0.367592215538,-0.0135694202036,0.0393815115094,-0.376419007778,-0.613035857677,0.420637117934,-0.399481862701,0.371696645128,0.0350091835823,0.970208314836,0.239208822767,-0.0157899237624
-0.287165105343,0.0538031049073,-0.471277952194,-1.89401710033,-0.0484857037663,1.96653938293,-1.22232592106,0.0446224696934,-0.275450617075,0.503982305527,-0.272447049618,-0.0123065738007,0.0259137004614,-0.416868150234,-0.580285012722,0.415301888858,-0.403152240544,0.365888172049,0.0292040713039,0.970334006452,0.238957861076,-0.0223199118534
-0.291383206844,0.0616783313453,-0.475453317165,-1.89418172836,-0.0481202155352,1.95928239822,-1.23192870617,0.0446224696934,-0.214227721095,0.429105162621,-0.22407028079,-0.00751773966476,0.0165685843676,-0.424559086561,-0.542170584202,0.410956802398,-0.405568353237,0.361180006386,0.0239060359675,0.970202377795,0.239492014259,-0.0279181368419
-0.29474067688,0.0689152479172,-0.478930026293,-1.894302845,-0.0478649064898,1.95145821571,-1.24184238911,0.0446224696934,-0.140838652849,0.334539979696,-0.14174105227,-0.00937836617231,0.0155004113913,-0.40777271986,-0.506135821342,0.407081638496,-0.407223804722,0.356806806374,0.0185095406781,0.96979929449,0.240906807995,-0.0333261888944
-0.297623932362,0.0793027728796,-0.481452196836,-1.89461815357,-0.0466616824269,1.9344792366,-1.26375758648,0.0446224696934,0.0234550759196,0.122534185648,0.019166059792,-0.00090610497864,0.0310038607568,-0.306914925575,-0.413515925407,0.402363390839,-0.406764805801,0.350016257389,0.00780085596661,0.967689213731,0.248476098634,-0.0421468904606
-0.296859234571,0.0806919932365,-0.480695039034,-1.89460134506,-0.0461196787655,1.92941761017,-1.27055442333,0.0446224696934,0.0652143582702,0.050478938967,0.0703561604023,0.0029671730008,0.0304462406784,-0.293104529381,-0.39112085104,0.402233083286,-0.405346732142,0.348895186592,0.0050297328695,0.966639322031,0.252308877722,-0.0438560464045
-0.295164018869,0.0808750316501,-0.479000300169,-1.89449226856,-0.0455622151494,1.92472732067,-1.27735006809,0.0446224696934,0.118258953094,-0.0135638071224,0.113196730614,0.0091799562797,0.0316023975611,-0.24069032073,-0.371506631374,0.402915854318,-0.403243036536,0.348439352032,0.00276994354217,0.965355909983,0.257031805916,-0.0448881377936
-0.292066186666,0.080146715045,-0.476143062115,-1.89412736893,-0.0448302775621,1.92049622536,-1.28487670422,0.0446868240833,0.17389343679,-0.0678939893842,0.156853541732,0.0243212413043,0.0313278920949,-0.176294565201,-0.35545450449,0.404755769073,-0.400193971332,0.348573461728,0.00101315472943,0.963648887544,0.263311007875,-0.0452449762645
-0.286123126745,0.0772254243493,-0.471157371998,-1.89277863503,-0.0438022986054,1.91596233845,-1.29465544224,0.0446868240833,0.224570661783,-0.103168435395,0.192184686661,0.0708900466561,0.040777631104,-0.134940877557,-0.333402365446,0.408873369044,-0.395023858598,0.350271383624,4.26212482963e-05,0.960898514777,0.273335999538,-0.0442885259637
-0.282312959433,0.075406871736,-0.467819541693,-1.89147257805,-0.0430317372084,1.91398239136,-1.29976940155,0.0446868240833,0.249428540468,-0.126274734735,0.228738591075,0.0912081152201,0.0566831864417,-0.115796141326,-0.30808275938,0.411537828382,-0.392131972161,0.35149256212,1.23858880819e-05,0.959399744893,0.278693983335,-0.043379634503
-0.277775257826,0.0730281174183,-0.463621109724,-1.8896753788,-0.0420499928296,1.91220963001,-1.30472886562,0.0446868240833,0.280052363873,-0.147839054465,0.263347387314,0.119370959699,0.0589528530836,-0.0911480262876,-0.276479780674,0.415114016794,-0.388467983763,0.353297687736,0.00038043215322,0.957596937824,0.285047238188,-0.0419050311229
-0.272243410349,0.0700876712799,-0.458655029535,-1.88723468781,-0.0410223267972,1.91069471836,-1.30977141857,0.0446868240833,0.299416512251,-0.154068887234,0.259088039398,0.13326177001,0.0544739253819,-0.0660365819931,-0.250821083784,0.419509495108,-0.384176083893,0.355700551378,0.00128665942561,0.955501962509,0.292267087407,-0.0399286045227
-0.257202863693,0.0620400197804,-0.445686906576,-1.88010060787,-0.0384991839528,1.9095300436,-1.32094240189,0.0446868240833,0.341154366732,-0.174761891365,0.274904578924,0.171827882528,0.0353984460235,-0.00863917823881,-0.230977833271,0.431841050616,-0.372747684186,0.362967994557,0.00545274197769,0.949849026858,0.310851139313,-0.033595574985
-0.251227527857,0.0590122900903,-0.440831929445,-1.87717139721,-0.0379688292742,1.90949308872,-1.32483100891,0.0446868240833,0.358921289444,-0.183053076267,0.300537347794,0.176530510187,0.0351475700736,-0.000886037014425,-0.232504546642,0.436198601701,-0.368702261737,0.365654706473,0.00725289775774,0.947767482086,0.317331172313,-0.0313866554659
-0.244318068027,0.0555940009654,-0.435136348009,-1.87375628948,-0.0373379923403,1.90948951244,-1.32906150818,0.0447183437645,0.368174344301,-0.168997526169,0.284517168999,0.179321274161,0.0399019792676,0.00129255990032,-0.205815553665,0.441521046972,-0.363637221923,0.368942436116,0.00945989125536,0.945173823767,0.325168727804,-0.028674927537
-0.226539343596,0.0467617325485,-0.421326696873,-1.86522638798,-0.0346758030355,1.90950131416,-1.3380587101,0.0447183437645,0.344785749912,-0.16821976006,0.282425522804,0.17227512598,0.0494368635118,0.000177903886652,-0.156069591641,0.454610012468,-0.350421110865,0.377388444777,0.0147814795218,0.938694109025,0.343775081043,-0.0212972037146
-0.220731809735,0.0438980795443,-0.416626095772,-1.86243402958,-0.0337935723364,1.90949976444,-1.34066212177,0.0447183437645,0.336407423019,-0.166924446821,0.265803694725,0.154192700982,0.055802244693,-0.000136566057336,-0.146903946996,0.458839804855,-0.345904278684,0.380162761027,0.0164980123494,0.936507722619,0.349749873092,-0.0188713280347
-0.215456515551,0.0412768498063,-0.41248729825,-1.86005818844,-0.032871671021,1.90950751305,-1.34292411804,0.0447183437645,0.32945394516,-0.159640625119,0.249145388603,0.134886547923,0.0575780533254,3.11074727506e-05,-0.125493317842,0.462564229466,-0.341773237349,0.382628407253,0.0179630548266,0.934531637813,0.355036274552,-0.0166490247943
-0.209137320518,0.0381293594837,-0.407535463572,-1.85741078854,-0.0318045914173,1.90950798988,-1.34521210194,0.0447183437645,0.298709690571,-0.144784674048,0.241180747747,0.126553416252,0.041621197015,-0.000390012661228,-0.110346354544,0.466911194287,-0.336745656986,0.385503047002,0.0196371708558,0.932191745099,0.361158791119,-0.0140448984106
-0.203425690532,0.0353941321373,-0.402967005968,-1.85497581959,-0.0312294531614,1.90951240063,-1.34726417065,0.0447183437645,0.270515888929,-0.131915211678,0.225910514593,0.117054365575,0.0252571254969,-0.00025284482399,-0.0986024513841,0.470787907713,-0.332170915867,0.388078126887,0.0212324165568,0.929993205587,0.366770981669,-0.0118688137118
-0.198049634695,0.0327221043408,-0.398157685995,-1.85283923149,-0.0306664332747,1.90952146053,-1.34942090511,0.0447183437645,0.251836150885,-0.125341892242,0.22553139925,0.0922561809421,0.0274018868804,-0.000315551937092,-0.0870943590999,0.474515566212,-0.327554643035,0.390484555041,0.0226801939363,0.927752942383,0.372376232301,-0.00979938790384
-0.191007658839,0.02948419936,-0.392206460238,-1.85054993629,-0.0292614605278,1.90952503681,-1.35191953182,0.0447229407728,0.220967322588,-0.0916540399194,0.164848849177,0.0588974654675,0.0555744729936,-0.000117522446089,-0.0786634683609,0.47917100807,-0.321439413214,0.393261707536,0.0241075426306,0.924935168415,0.379293623903,-0.00707864161209
-0.18737372756,0.0279341060668,-0.389640182257,-1.84971952438,-0.0283567924052,1.90952062607,-1.35314798355,0.0447229407728,0.204388603568,-0.0980677679181,0.142548501492,0.0395727790892,0.0452574975789,-6.97828509146e-05,-0.065462641418,0.481324762887,-0.318424979105,0.394466759439,0.0246151166195,0.923579908834,0.382571604268,-0.0057632735695
-0.184439137578,0.0265984740108,-0.387506395578,-1.84928178787,-0.0276403483003,1.90952312946,-1.35406255722,0.0447229407728,0.175550222397,-0.0736198052764,0.127751246095,0.0218914467841,0.0477641448379,0.000113977432193,-0.0617926046252,0.483324218825,-0.315448262665,0.395526266307,0.0250058041454,0.922270746449,0.385708020316,-0.00455002734515
-0.181280881166,0.0254443660378,-0.385357528925,-1.84905159473,-0.0267324652523,1.90952217579,-1.35505020618,0.0447229407728,0.169288530946,-0.0617381855845,0.0987503379583,0.00176170025952,0.0512950308621,-0.000645443971734,-0.0493901334703,0.484744639312,-0.313237543549,0.396082621427,0.0251061319483,0.921323846063,0.387966360908,-0.00376235302431
-0.174620106816,0.0236081704497,-0.381354391575,-1.84913277626,-0.0250694826245,1.90950131416,-1.35595154762,0.0447268784046,0.104961961508,-0.00884339679033,0.0598448105156,-0.00345408869907,0.0287032928318,-0.000366364431102,-0.014195795171,0.488073219857,-0.307773018112,0.396989479261,0.0250877536175,0.919181060822,0.393029031468,-0.00222758841853
-0.172915905714,0.0235451515764,-0.380406230688,-1.8492552042,-0.0245775897056,1.90949785709,-1.35612690449,0.0447268784046,0.088942296803,-6.26197943348e-05,0.0452288836241,-0.0123626608402,0.0258319340646,0.000374100753106,-0.00982404965907,0.488901811275,-0.306387703333,0.396955416346,0.0249122624492,0.918659596869,0.394258653781,-0.00200944287928
-0.171658232808,0.0236042700708,-0.379832446575,-1.84950661659,-0.0239994842559,1.90950036049,-1.35620582104,0.0447268784046,0.0712755471468,0.00391015037894,0.0305023994297,-0.0236984826624,0.046234510839,0.000152644031914,-0.00379356439225,0.489465003696,-0.305373926939,0.396795282305,0.0246320799304,0.91832458098,0.395056677846,-0.00185622632061
-0.170271232724,0.0236952435225,-0.37950566411,-1.85027706623,-0.0225753225386,1.90950405598,-1.35622155666,0.0447268784046,0.0593780726194,0.00650673452765,0.00917661376297,-0.0495402775705,0.0846460685134,0.000165620673215,-0.000852194905747,0.48995794774,-0.304222374716,0.39636202088,0.0239017681195,0.91808666747,0.395655408906,-0.00154064236134
-0.168824538589,0.0238725207746,-0.379440963268,-1.8522605896,-0.0194136295468,1.90950608253,-1.35622406006,0.0447268784046,0.038558781147,-0.000328529247781,-0.00127759994939,-0.0873343721032,0.129653006792,2.47515654337e-05,-2.21577806769e-06,0.490287684701,-0.302751098729,0.395285037125,0.022177259732,0.918018659349,0.39591541696,-0.000944739224454
-0.168362081051,0.0238794498146,-0.379448890686,-1.85384893417,-0.017332566902,1.90950286388,-1.35622572899,0.0447268784046,0.0204022489488,0.000468376383651,-0.000612372939941,-0.10963217169,0.138169407845,-3.45614280377e-05,-0.000108088592242,0.490269843178,-0.302009165501,0.394498588113,0.0209549807693,0.91808169528,0.395836497008,-0.000597402524581
-0.167955234647,0.0238753538579,-0.379472881556,-1.85612761974,-0.0143402628601,1.90949618816,-1.35622572899,0.0447268784046,0.0157070774585,0.00158138584811,-0.00137783307582,-0.13559243083,0.181620299816,0.000231154219364,0.000197854693397,0.490160100979,-0.301074501046,0.393380069848,0.0192028890762,0.918224783301,0.395593840867,-9.55640389496e-05
-0.1676787287,0.0238402448595,-0.379505306482,-1.85868239403,-0.0105756726116,1.90949559212,-1.35622382164,0.0447268784046,0.0135158654302,0.000839985150378,-0.00132313347422,-0.149932175875,0.226030141115,4.22032208007e-05,-0.000276312581263,0.490015757256,-0.300054427231,0.392144972759,0.0171376817901,0.918447357772,0.395171285789,0.000636736587914
-0.167316183448,0.0237894169986,-0.37954172492,-1.8639806509,-0.0023115426302,1.90948855877,-1.35622215271,0.0447268784046,0.0137091530487,-0.0024075480178,-0.000499809219036,-0.189455151558,0.293246001005,-0.00148739479482,-0.000701517157722,0.489697226886,-0.297953631636,0.389583121028,0.0127229207831,0.918964998909,0.394127012216,0.00231430110913
