imanlab/tactile_prediction_flat_dataset/test/data_sample_2021-11-25-13-23-10/robot_state.csv
position_panda_joint1,position_panda_joint2,position_panda_joint3,position_panda_joint4,position_panda_joint5,position_panda_joint6,position_panda_joint7,position_panda_finger,velocity_panda_joint1,velocity_panda_joint2,velocity_panda_joint3,velocity_panda_joint4,velocity_panda_joint5,velocity_panda_joint6,velocity_panda_joint7,ee_state_position_x,ee_state_position_y,ee_state_position_z,ee_state_orientation_x,ee_state_orientation_y,ee_state_orientation_z,ee_state_orientation_w
-0.0190054792911,-0.0135299572721,0.00845041591674,-2.52711367607,0.059073984623,2.55571699142,-0.821563065052,0.0628797709942,1.2708518625e-05,-0.000298437778838,-0.00019787097699,0.000475800043205,6.4679326897e-05,1.75119239429e-05,-0.000269155949354,0.467806777637,-0.00213630790435,0.172776069107,-0.00684442638648,0.927868910131,0.371932880416,0.0260455675565
-0.0190070271492,-0.0135316029191,0.00845120288432,-2.52711319923,0.0590740889311,2.55571651459,-0.821561396122,0.0628797709942,-8.23911905172e-05,-6.37795455987e-05,0.000173194741365,0.000636697048321,-2.67983377853e-05,8.572229126e-05,0.000155106710736,0.467807237702,-0.00213642910114,0.172777072684,-0.00684422850574,0.927869426854,0.371931537473,0.0260463886605
-0.0190087854862,-0.0135327549651,0.00845071300864,-2.52711367607,0.0590731017292,2.55571699142,-0.82156085968,0.0628797709942,-6.8912981078e-05,0.000153043132741,-0.000259714957792,-0.000105649247416,-7.22466720617e-05,-1.43905099321e-05,4.60568735434e-05,0.46780703002,-0.00213772387652,0.172777195456,-0.00684378163257,0.92786979033,0.371930632656,0.0260464780981
-0.0190096329898,-0.0135303642601,0.00844988320023,-2.52711367607,0.0590730495751,2.55571699142,-0.821559965611,0.0628797709942,-0.000332364143105,-0.000175633802428,-0.000240292662056,-0.000118317475426,2.2411777536e-05,-0.000142530261655,0.000260428118054,0.467806643346,-0.00213850190483,0.172776077162,-0.00684422858704,0.927870291696,0.371929450797,0.0260453764893
-0.0190057121217,-0.0135290250182,0.00845143944025,-2.52711367607,0.0590733811259,2.55571675301,-0.821561038494,0.0628797709942,0.000223610404646,0.000697385461535,-0.000594681827351,0.00014195132826,-0.000129401727463,-6.19550701231e-06,3.31279006787e-05,0.467806390201,-0.00213591944696,0.172775428015,-0.00684467434318,0.927869141794,0.37193236069,0.026044671153
-0.0190037637949,-0.0135285137221,0.0084513053298,-2.52711629868,0.0590733401477,2.55571651459,-0.821561276913,0.0628797709942,0.000157230126206,-0.00054570438806,9.65965373325e-05,-0.000305375637254,0.0039323810488,2.31442409131e-05,7.23513949197e-05,0.467805009159,-0.00213505396024,0.172774143964,-0.00684533590273,0.927868796234,0.371933320135,0.0260431067451
-0.0190034341067,-0.013529766351,0.00845489837229,-2.52711629868,0.059073779732,2.55571627617,-0.82156252861,0.0628797709942,-0.000163683231222,0.000385464023566,0.000468374841148,1.07096775537e-05,-4.06837316405e-05,-7.73204860138e-08,-0.000240307897911,0.467805168104,-0.00213320590111,0.172774707187,-0.00684526981469,0.927867884721,0.371935560251,0.0260436074717
-0.0190060753375,-0.0135310161859,0.00845361035317,-2.52711462975,0.0590739995241,2.55571818352,-0.821562886238,0.0628797709942,-0.00022761967557,0.000433093315223,-8.07776814327e-05,-7.80839109211e-05,7.99757763161e-05,-9.50414323597e-06,-0.000314825563692,0.467806572892,-0.00213507554682,0.172776145019,-0.00684434584725,0.927868548719,0.371933760528,0.0260458958855
-0.0190081428736,-0.0135308792815,0.00845185667276,-2.52711582184,0.0590735375881,2.55571699142,-0.821563065052,0.0628804266453,0.000263140507741,-4.71772909805e-05,0.00180738710333,0.000174728309503,1.12371526484e-05,0.000158229435328,0.000189118945855,0.467805710389,-0.00213685357111,0.172775482736,-0.00684465755906,0.927869164985,0.371932303085,0.0260446719844
-0.0190068334341,-0.0135314287618,0.00845170672983,-2.52711868286,0.0590749643743,2.55571746826,-0.821562051773,0.0628804266453,0.000332668336341,-4.08404703194e-05,0.000239010725636,0.00345092546195,7.8264863987e-05,4.60307965113e-05,-0.000134130503284,0.467804541683,-0.00213623779175,0.172774673731,-0.00684539640239,0.927869376565,0.371931810399,0.0260439758413
-0.0190043486655,-0.0135287605226,0.00845308322459,-2.52712011337,0.0590733475983,2.55571651459,-0.821560680866,0.0628804266453,-0.000116743547551,-0.000313952361466,0.000410953012761,9.87278763205e-05,4.77604262414e-05,-1.13293399409e-05,-9.18951627682e-05,0.467803187473,-0.00213420362511,0.172772770053,-0.00684608208705,0.927868606223,0.371933902718,0.0260413601422
-0.0190044343472,-0.0135324522853,0.0084528811276,-2.52711844444,0.0590733624995,2.55571722984,-0.821561992168,0.0628804266453,0.000178160771611,-0.000826731033158,-0.000602999993134,-0.000136980073876,3.50385344063e-05,-0.000141547454405,-0.000872511474881,0.467804771393,-0.00213464555222,0.172775219521,-0.00684482450186,0.927868470632,0.371934061801,0.0260442496682
-0.0190061721951,-0.0135305365548,0.00845204107463,-2.5271191597,0.0590736493468,2.55571627617,-0.821561336517,0.0628804266453,4.45249461336e-05,-0.000779736379627,0.000567244831473,0.000157125206897,3.46548040397e-05,1.74005472218e-05,0.000198684982024,0.467803913772,-0.00213581140958,0.172773952896,-0.00684559229483,0.927869154662,0.37193245336,0.0260426479839
-0.019007736817,-0.0135297412053,0.0084512475878,-2.52712440491,0.0590741448104,2.55571651459,-0.821562945843,0.0628804266453,0.000608795380685,-0.000159339557285,0.00233129039407,-0.000436047877884,-0.000103147474874,-7.8292330727e-05,-0.000408921885537,0.467801730832,-0.00213695081334,0.17277188611,-0.00684663271076,0.927869582794,0.371931515207,0.0260405189449
-0.0190064143389,-0.0135301137343,0.0084515651688,-2.52712273598,0.0590733513236,2.55571699142,-0.821561574936,0.0628797709942,4.54674191133e-05,0.000533542362973,0.000616702833213,0.000366030668374,0.00284819654189,6.74814873491e-05,0.000169378647115,0.467802290286,-0.0021361526942,0.172772430729,-0.00684611756839,0.927869247039,0.371932321976,0.026041094976
-0.0190046448261,-0.0135301239789,0.00845599547029,-2.52712273598,0.0590733513236,2.55571746826,-0.82156085968,0.0628797709942,3.24871034536e-05,-0.00023725045321,-0.000231586527661,-0.000131255728775,0.000115836395707,-0.00022661863477,-0.000349109468516,0.467802407316,-0.00213326981172,0.172772481325,-0.00684607642956,0.927868224222,0.371934861419,0.0260412799475
-0.0190027076751,-0.0135286673903,0.00845536217093,-2.52712512016,0.0590728633106,2.5557179451,-0.821561276913,0.0628797709942,0.000341193430359,9.20633538044e-05,-0.000163505494129,0.000499870628119,-6.44453757559e-05,1.22531878333e-06,-8.74172328622e-05,0.467801139812,-0.00213267297385,0.172770916623,-0.0068466017263,0.927867878535,0.371935827118,0.026039666229
-0.0190061442554,-0.0135319437832,0.00845281872898,-2.52712655067,0.0590741597116,2.55571866035,-0.821562707424,0.0628797709942,-0.000324403081322,-0.000144521094626,-0.000433709938079,-0.00015369670291,0.000435837951954,2.89981089736e-05,-6.97824871168e-05,0.467801126382,-0.00213541723878,0.172771963568,-0.00684634181006,0.927868888417,0.371933217894,0.0260410180666
-0.0190025009215,-0.0135321784765,0.00845439266413,-2.52712678909,0.0590736530721,2.55571961403,-0.821562826633,0.0628797709942,-0.000170124258148,0.000698693096638,0.000381672492949,2.26796892093e-05,-1.77059246198e-05,2.8316211683e-05,-0.000256420025835,0.467801399849,-0.00213317910174,0.172772356749,-0.00684595122017,0.927867887096,0.371935684391,0.026041570794
-0.0190051272511,-0.0135313849896,0.00845448113978,-2.5271282196,0.0590741224587,2.55571746826,-0.82156252861,0.0628797709942,-0.000520446221344,4.80936832901e-05,-4.8866328143e-05,-0.000352441566065,-6.17408149992e-05,-0.000116567149234,0.00017194612883,0.467799888442,-0.00213423610836,0.172770767935,-0.00684712242375,0.927868472678,0.371934369956,0.0260391715296
-0.0190083608031,-0.013529792428,0.00845299568027,-2.52713060379,0.059073228389,2.55572080612,-0.821560144424,0.0628797709942,-8.22849106044e-05,0.000454672815977,-0.000362261082046,-0.000334088195814,0.000115489267046,-5.91261741647e-05,-4.14736678067e-05,0.467800015613,-0.00213595966552,0.172770721549,-0.00684639920878,0.927869214777,0.371932470144,0.0260400542031
-0.0190072301775,-0.0135313123465,0.00845345202833,-2.52712798119,0.059074562043,2.55571937561,-0.821561276913,0.0628797709942,0.000106430801679,-0.000121962388221,0.000189609621884,0.000295987789286,0.000105030347186,7.71664781496e-05,-0.000217297740164,0.467800633773,-0.00213509157736,0.17277146103,-0.00684670372994,0.927869112459,0.37193267663,0.0260406707093
-0.0190042052418,-0.0135296788067,0.00845314003527,-2.52712726593,0.0590733587742,2.55571961403,-0.821561217308,0.0628797709942,0.000274146237643,-8.0844743934e-05,0.000137093054946,4.65855446237e-05,-0.000167095247889,7.6030868513e-05,-0.000119319374789,0.467800823097,-0.00213440281701,0.172770917902,-0.00684635047037,0.927868570865,0.371934064232,0.0260402425664
-0.0190031863749,-0.0135292252526,0.00845653470606,-2.52712917328,0.059073690325,2.55571937561,-0.82156085968,0.0628797709942,-0.000265963521088,-0.000385369930882,-4.25166144851e-05,0.00172513874713,1.03700522232e-05,-0.000114816873975,-7.24520359654e-05,0.467799605417,-0.00213231579359,0.172769738444,-0.00684718475365,0.92786798628,0.371935609242,0.0260387856629
-0.0190086644143,-0.0135309724137,0.00845352280885,-2.52713060379,0.0590731166303,2.55572009087,-0.821560144424,0.0628797709942,-0.000279362662695,-0.000214739950025,-0.000265237234998,-0.000249211676419,-0.000139535142807,-2.92811614599e-06,0.000249161268584,0.46779953972,-0.00213645387521,0.172770309525,-0.00684667567217,0.927869706839,0.371931281919,0.0260394196565
-0.0190095901489,-0.0135303204879,0.00845339335501,-2.52713179588,0.0590733364224,2.55571889877,-0.821561038494,0.0628797709942,0.000803753442597,0.00120234978385,-7.74746658863e-05,-0.000324688648107,-3.07527661789e-05,9.37872464419e-05,-1.28611309265e-05,0.467798405561,-0.00213677357743,0.17276918253,-0.00684737422053,0.927869698327,0.371931399232,0.0260378636066
-0.019008109346,-0.0135303502902,0.00845311116427,-2.52713298798,0.0590746998787,2.55572032928,-0.821562230587,0.0628797709942,0.000334733282216,0.000557747029234,-1.10885321192e-05,0.000521301466506,2.5099805498e-05,-4.31725820818e-05,-0.000150915424456,0.467798154743,-0.00213616415144,0.172768872962,-0.00684764867171,0.927869462062,0.371931964886,0.0260381308787
-0.019003180787,-0.0135303745046,0.00845956802368,-2.52713561058,0.0590733624995,2.55572009087,-0.821561336517,0.0628797709942,-0.000567179406062,0.000320946361171,7.13304234523e-06,-4.12144727306e-05,4.24195459345e-05,0.000134456786327,0.000259060703684,0.467796876003,-0.00213089928134,0.172767836679,-0.00684796605927,0.927867348291,0.371937338757,0.0260366099475
-0.0190077722073,-0.013529593125,0.00845639780164,-2.52713465691,0.0590732954443,2.55572080612,-0.821560800076,0.0628797709942,-0.000171779189259,-0.000152789725689,-0.000370581750758,-3.18870525007e-06,0.000104301630927,6.23785017524e-05,-0.000109348067781,0.467797251459,-0.00213481417977,0.172767761192,-0.00684774335475,0.927868962876,0.371933289416,0.0260369746937
-0.019009873271,-0.0135306762531,0.00845716800541,-2.52713370323,0.0590731687844,2.55571961403,-0.821561634541,0.0628797709942,0.000260478584096,0.00141473743133,9.19826959489e-07,0.000153736327775,0.000104096550785,-1.93679297809e-05,-0.000349180656485,0.467797712535,-0.00213515951223,0.172768674572,-0.00684748703043,0.927868929197,0.371933346241,0.0260374305501
-0.0190048534423,-0.0135310217738,0.00845759548247,-2.52713513374,0.0590734966099,2.55571961403,-0.821562230587,0.0628797709942,0.000509281817358,0.000215329753701,0.000356806820491,-0.000159007846378,5.54422549612e-05,-8.61817752593e-05,-0.000192646024516,0.467797097635,-0.00213259051047,0.172768279399,-0.00684783876003,0.927867868133,0.371936020541,0.0260369487246
-0.0190098397434,-0.0135299237445,0.00845587346703,-2.52713704109,0.0590734779835,2.55572271347,-0.821563780308,0.0628797709942,0.000600335886702,0.000223710943828,-0.000342043756973,3.90011809941e-05,-6.99358788552e-05,3.12319098157e-05,5.30875149707e-05,0.467796662264,-0.0021357621385,0.172767323219,-0.00684765467883,0.927868843895,0.371933586502,0.0260369942527
-0.0190065614879,-0.0135289402679,0.00845653470606,-2.52713632584,0.0590732768178,2.5557217598,-0.821564137936,0.0628804266453,-0.0002983934246,8.41329310788e-05,-4.72792489745e-05,0.00307495170273,-4.09568165196e-05,-0.000109830150905,-0.000559024629183,0.46779664924,-0.00213391571609,0.172767049031,-0.00684790291369,0.927868024465,0.371935667517,0.0260364036272
-0.0190075188875,-0.0135308103636,0.0084593789652,-2.52713680267,0.0590729638934,2.55572485924,-0.821565210819,0.0628804266453,-6.76283380017e-05,-0.000490208563861,8.85410408955e-05,9.18989826459e-05,-0.00439911102876,0.000270838994766,-0.000254741113167,0.467797507478,-0.00213321865398,0.172768257527,-0.00684672961337,0.927867373138,0.371937153425,0.0260386970741
-0.0190092101693,-0.0135300979018,0.00845784600824,-2.52713823318,0.0590742751956,2.55572676659,-0.821565270424,0.0628804266453,-0.000192995124962,0.000785132637247,-6.66584965074e-05,-0.000501982169226,0.00130719679873,-0.00019808865909,0.000348671223037,0.467796998754,-0.00213457027198,0.172767334185,-0.00684719493662,0.927868188775,0.371935128162,0.0260384389519
-0.019004566595,-0.0135303139687,0.00845982320607,-2.52713799477,0.0590735152364,2.5557308197,-0.821564257145,0.0628804266453,0.000430545100244,-0.000216449829168,-5.3618226957e-05,0.000349191279383,7.07731533112e-06,-0.000182810603292,0.000787837663665,0.467798028962,-0.00213157996895,0.172767919478,-0.00684613272483,0.927867001637,0.371937974597,0.0260403624399
-0.0190013516694,-0.0135324345902,0.00846237130463,-2.52713990211,0.0590751171112,2.55573010445,-0.82156586647,0.0628804266453,0.000322795996908,-0.000544905429706,5.13716986461e-05,-0.000225235373364,-0.000450138468295,0.000184335644008,-0.000102753932879,0.467797321452,-0.002128798908,0.172768101444,-0.00684669217448,0.927865870372,0.371940790995,0.0260402972915
-0.019006324932,-0.0135304378346,0.00846124812961,-2.52714109421,0.0590734928846,2.55573439598,-0.821566224098,0.0628804266453,0.000186261400813,0.00119751831517,0.000509627512656,0.00126224744599,-0.000144562742207,2.94439541904e-05,-0.000148822262418,0.467797336164,-0.00213178192748,0.172767116351,-0.00684589358505,0.92786671058,0.371938688025,0.0260406062222
-0.0190044604242,-0.0135303419083,0.0084623247385,-2.5271396637,0.0590732581913,2.55573534966,-0.821566402912,0.0628804266453,0.000243162648985,-0.0002636089921,0.000298451981507,-0.000148523016833,0.00011958086543,-5.32099729753e-05,-0.00034356105607,0.467798213816,-0.00213044164932,0.172767720709,-0.00684540412622,0.927866072183,0.371940219008,0.0260416148151
-0.0190042480826,-0.0135300299153,0.00846338272095,-2.52714323997,0.0590735636652,2.55573701859,-0.821565687656,0.0628804266453,-8.05048039183e-05,0.000354306248482,0.000222070608288,0.000622269464657,0.000136124479468,7.53601671022e-06,-5.72621611354e-05,0.467796818593,-0.00212984292373,0.172766343681,-0.00684589081582,0.927866054293,0.371940325783,0.0260405992738
-0.0190066155046,-0.0135308429599,0.00846087001264,-2.52714467049,0.0590740814805,2.5557384491,-0.821565687656,0.0612794756889,-0.000553203513846,0.00091422587866,-3.15485194733e-05,-0.000639232224785,0.00497562345117,-0.000105304083263,-0.000612385163549,0.467796564231,-0.0021321136867,0.172766306406,-0.00684578791138,0.927867037495,0.371937843888,0.0260410423489
-0.0190077703446,-0.0135310748592,0.00845895335078,-2.52714252472,0.059073228389,2.55573916435,-0.821565330029,0.0612794756889,-0.000213042949326,0.000282233348116,0.0016847049119,0.000390874629375,-0.000101167010143,5.79902589379e-05,-0.0004622094566,0.467797770203,-0.00213360972796,0.1727673189,-0.0068449349294,0.927867513021,0.371936579639,0.026042380006
-0.0190064534545,-0.0135315181687,0.00845965836197,-2.52714180946,0.0590733028948,2.55573916435,-0.821565330029,0.0612794756889,0.00058175844606,-1.02868780232e-05,0.000192249222891,0.00300341565162,-1.64356188179e-05,0.000157903574291,-0.000781994487625,0.467798187101,-0.0021326668141,0.172767804966,-0.00684475345719,0.927867133069,0.371937493431,0.0260429142638
-0.0190021786839,-0.0135305160657,0.00846210401505,-2.52714109421,0.0590736791492,2.55574154854,-0.821567296982,0.0612794756889,1.80716779141e-05,-0.000702077697497,9.70299442997e-05,0.000123582096421,-9.82508754532e-06,0.000378859345801,6.66835185257e-05,0.467798894904,-0.00212954890861,0.172767846325,-0.00684444899561,0.927865561987,0.371941350612,0.0260438819176
-0.0190042220056,-0.0135307041928,0.00846250075847,-2.52714252472,0.059073176235,2.55574560165,-0.821566283703,0.0612794756889,-0.000140062518767,-0.000150079737068,-6.7736764322e-05,-0.000409332191339,-0.000102367986983,-1.58611746883e-05,-0.000227285810979,0.467799107214,-0.00213040189398,0.17276776895,-0.00684367999977,0.927865972414,0.37194025674,0.0260450836017
-0.019006146118,-0.0135286198929,0.00846183951944,-2.52714538574,0.059073664248,2.55574607849,-0.821568131447,0.0612794756889,7.65397198847e-05,7.08627485437e-05,0.000155501271365,0.000116525559861,-4.45710320491e-05,0.000206715063541,-0.000295311096124,0.467797505965,-0.00213157356448,0.172765726497,-0.00684460404935,0.927866243142,0.371939703878,0.0260430911312
-0.0190077479929,-0.0135321877897,0.00846090354025,-2.52714705467,0.0590741038322,2.55574774742,-0.82156842947,0.0612794756889,-7.20638927305e-05,-0.000389917200664,-0.000118404088425,0.000388633925468,0.00107937888242,-0.000200539434445,0.000139502270031,0.46779763502,-0.00213276682474,0.172766907765,-0.0068439557206,0.92786668972,0.371938483497,0.0260447798225
-0.0190068781376,-0.0135317770764,0.00845906045288,-2.52714514732,0.0590731874108,2.55575060844,-0.821567356586,0.0612794756889,4.10479478887e-05,-0.000181065042852,-0.00015860745043,-1.7586922695e-05,-3.11099647661e-05,0.00014499478857,9.93625581032e-05,0.46779908906,-0.00213331545078,0.172767734634,-0.00684283591587,0.92786689642,0.371937856462,0.0260466646285
-0.0190065763891,-0.0135303363204,0.00846273358911,-2.52714681625,0.059074729681,2.55575037003,-0.821566462517,0.0612794756889,0.000340313126799,-0.00046423310414,2.47921270784e-05,2.84088728222e-05,8.44953683554e-05,-1.25297628983e-05,-0.000358569202945,0.467798023125,-0.00213137413067,0.172766389641,-0.0068439286298,0.927866594489,0.371938686988,0.0260452736007
-0.0190019980073,-0.0135307582095,0.00846305582672,-2.52714800835,0.0590729862452,2.5557539463,-0.821568965912,0.0599589198828,0.000299996259855,0.000458582449937,-0.000247387186391,-0.00085983122699,0.000150576117449,4.44282450189e-05,0.000209680394619,0.467798294836,-0.00212921761261,0.172766466242,-0.00684288654158,0.92786494614,0.37194274463,0.0260463246701
-0.0190049298108,-0.013530915603,0.00846333149821,-2.52714776993,0.0590736120939,2.55575633049,-0.821568071842,0.0599589198828,-0.000440456904471,-0.00079118629219,-0.000122178622405,0.000128828920424,7.53262838771e-06,0.000220767164137,-0.000137128517963,0.467798941607,-0.00213047050807,0.172766864811,-0.00684244104429,0.927865678953,0.371940831026,0.0260476624859
-0.0190067738295,-0.0135321347043,0.00846183951944,-2.52714753151,0.0590731725097,2.55575633049,-0.821567773819,0.0599589198828,0.000231104655541,-0.000516542699188,-0.000143934841617,4.547518256e-05,-6.87402352924e-05,-0.000106805448013,7.07473882358e-05,0.467799242436,-0.00213205363373,0.172767527345,-0.00684201318492,0.927866270542,0.371939318603,0.0260482975925
-0.0190065987408,-0.0135310860351,0.0084614334628,-2.52714705467,0.0590735450387,2.55576109886,-0.821570813656,0.0599589198828,-0.000232544989558,-0.000187748737517,-0.000735449779313,-0.000423378922278,0.000103219106677,2.99413950415e-05,0.00058336078655,0.467800003994,-0.00213228942289,0.172767337931,-0.0068413011405,0.92786590119,0.371940138438,0.0260499349406
-0.0190079659224,-0.0135291675106,0.00846164114773,-2.52714896202,0.0590735524893,2.55576181412,-0.821569442749,0.0599589198828,-0.000315627345117,0.000253572041402,-0.000215662657865,-0.000313198310323,0.000315721787047,0.00217590434477,0.000162506461493,0.467799259281,-0.00213275656031,0.172766114207,-0.00684175634246,0.927866297279,0.371939221093,0.0260488049736
-0.0190063174814,-0.013529876247,0.00846123322845,-2.52714920044,0.0590735822916,2.55576372147,-0.821569979191,0.0599589198828,0.000151322106831,0.000215349718928,-2.84970465145e-05,0.000849019968882,2.31266840274e-05,-5.58346910111e-05,0.000130565749714,0.467799671121,-0.00213220521775,0.172766537773,-0.00684127695874,0.927865952989,0.371940013119,0.0260498855634
-0.0190029833466,-0.0135290343314,0.00846350379288,-2.52715086937,0.0590737313032,2.5557641983,-0.821570217609,0.0599589198828,6.84220185576e-06,-0.000549539108761,-0.000298879342154,0.000549378222786,-7.53999192966e-05,-9.58089294727e-05,-0.000223321956582,0.46779917341,-0.00212958083878,0.172765967213,-0.00684137652641,0.927864897751,0.371942658127,0.026049680177
-0.0190002843738,-0.013530372642,0.00846493151039,-2.52714967728,0.0590731501579,2.55576658249,-0.821571290493,0.0514938309789,-0.000143395271152,0.000605010194704,-0.000654664938338,0.00201277411543,-0.000142873788718,0.000269614334684,-0.000196847235202,0.467800156446,-0.00212772625706,0.172766860419,-0.00684063569832,0.927863817039,0.371945268351,0.0260510991664
-0.0190045870841,-0.0135312052444,0.00846377015114,-2.52714848518,0.0590747445822,2.55576658249,-0.821569681168,0.0514938309789,-0.00052516249707,-0.000234537001234,-0.00360577856191,-0.000194553314941,0.00404578540474,-0.000134348112624,0.000129221225507,0.467800851665,-0.00213021229464,0.172767717028,-0.00684061894638,0.927865342728,0.371941383228,0.0260522326103
-0.0190093666315,-0.0135301062837,0.00846290402114,-2.52715134621,0.0590745471418,2.55576753616,-0.821571290493,0.0514938309789,0.000574840116315,0.00062232039636,0.000200986978598,0.000404507125495,-7.99003028078e-05,-8.71126303537e-06,0.000227250056923,0.4677995311,-0.00213253623144,0.172766147888,-0.00684108657168,0.927866055085,0.371939702521,0.0260507337238
-0.0190051738173,-0.0135268876329,0.00846502743661,-2.52715277672,0.0590737238526,2.55576825142,-0.821570217609,0.0514938309789,0.000498000590596,0.000828958698548,0.00398916983977,-0.000672626134474,-1.86094803212e-05,-1.81859486474e-05,-4.8726269597e-05,0.467798468348,-0.00212994200763,0.172764185493,-0.00684165097833,0.927865068023,0.371942283218,0.0260488961972
-0.019002456218,-0.0135291703045,0.00846326258034,-2.52715206146,0.059073112905,2.55576920509,-0.821571052074,0.0514938309789,0.000903602631297,-0.000347222434357,-7.24144047126e-05,0.000288459297735,2.86692866212e-05,0.000137815994094,0.000134302725201,0.467799380509,-0.00212954720277,0.172765623448,-0.00684071991824,0.927864599916,0.371943345791,0.0260506425755
-0.0190082099289,-0.0135314222425,0.0084619494155,-2.52715086937,0.0590745136142,2.55577087402,-0.821570694447,0.0514938309789,-0.000276109873084,-0.000121425633552,7.14941488695e-05,9.26015927689e-05,8.69521318236e-05,5.87848735449e-05,-5.03794944962e-05,0.467800489366,-0.0021329146988,0.172767056344,-0.00684006148374,0.927866189985,0.371939233558,0.0260528936204
-0.0190065633506,-0.0135306473821,0.00846224650741,-2.52715158463,0.059073459357,2.55577111244,-0.821569502354,0.0514938309789,9.6543073596e-05,0.000427919061622,0.00013540686632,0.000464515964268,-0.000214529587538,-0.000136462418595,3.86043502658e-05,0.467800244173,-0.00213196228443,0.17276668564,-0.00683998505648,0.927865854743,0.371940101661,0.0260524598813
-0.0190046131611,-0.0135290781036,0.0084641110152,-2.5271525383,0.0590731389821,2.5557706356,-0.821571230888,0.0514938309789,-2.64514055743e-05,0.000193834202946,-3.08050584863e-05,-1.87623518286e-05,0.000121866134577,-0.000109281223558,-0.000104673446913,0.467799442407,-0.00213018003863,0.172765533157,-0.0068405062683,0.927864812224,0.371942792778,0.0260510325054
-0.0190061721951,-0.0135284150019,0.00846468936652,-2.52715277672,0.0590744018555,2.5557718277,-0.821569919586,0.0514938309789,2.6253712349e-05,-0.00040185652324,-0.000313165626721,-0.000437630689703,-3.14154021908e-05,3.56336240657e-05,0.00056314637186,0.467799479623,-0.0021305956541,0.172765247667,-0.00684075705665,0.927865430021,0.371941228339,0.0260512986248
-0.0189999341965,-0.0135301789269,0.00846493802965,-2.52715134621,0.0590731166303,2.55577468872,-0.821570158005,0.051226567477,0.000436124188127,0.000757883826736,0.000837992760353,0.000188854523003,0.000677312375046,-4.92511026096e-05,0.000119596916193,0.467801100783,-0.00212737165302,0.172766867168,-0.00683924539377,0.927863840008,0.371945038156,0.0260539325881
-0.0190035142004,-0.0135310580954,0.00846617575735,-2.52715206146,0.0590742565691,2.55577468872,-0.8215700984,0.051226567477,-0.000141088719829,0.000338714919053,7.50823601265e-05,0.000169772203662,4.70078930448e-06,-1.34134998007e-05,-0.000342372833984,0.467800866827,-0.00212872421718,0.172767039539,-0.00683950079068,0.927864542794,0.371943268183,0.0260541051024
-0.0190073307604,-0.0135313095525,0.00846440531313,-2.52715229988,0.0590731315315,2.55577421188,-0.821571052074,0.051226567477,0.000345950742485,0.000515962019563,0.000578427338041,-3.6337722122e-05,0.000118535594083,4.1571456677e-05,-0.000292761222227,0.46780067602,-0.00213137950606,0.172767016368,-0.00683923127891,0.927865240265,0.371941555068,0.0260537928415
-0.019004330039,-0.0135319409892,0.00846312195063,-2.52715110779,0.0590738020837,2.5557756424,-0.821570754051,0.051226567477,-0.000278305029497,-0.000241630172241,8.13986771391e-05,0.000159521208843,5.53366844542e-05,0.000105709747004,0.000307949463604,0.467801658746,-0.00213057195026,0.172767916007,-0.00683878519151,0.92786504293,0.371941946156,0.0260553545388
-0.0190053023398,-0.013528464362,0.00846494361758,-2.52715301514,0.059073690325,2.55577683449,-0.821569800377,0.051226567477,-1.31309643621e-05,-8.49401931191e-06,0.00239719473757,0.000874166784342,-1.50165215018e-05,-0.000137244205689,1.21287239381e-05,0.467800652864,-0.00213031968645,0.172765767887,-0.00683941144608,0.927865075143,0.371941971363,0.0260536831076
-0.0190061442554,-0.0135301500559,0.00846548937261,-2.52715229988,0.0590734258294,2.55577945709,-0.821571350098,0.051226567477,-0.000493451254442,-0.000783975701779,-0.000124535159557,-0.000353964976966,-7.61204282753e-05,5.02210423292e-05,0.000396710558562,0.467801541254,-0.00213050025619,0.172767230326,-0.00683824954927,0.927864630363,0.371942952023,0.0260558282984
-0.0190069153905,-0.0135337812826,0.00846476946026,-2.52715325356,0.059073407203,2.55578041077,-0.821571707726,0.051226567477,0.000108644264401,-9.6992123872e-05,0.000167364036315,-0.000323458574712,3.1699633837e-05,2.18228051381e-05,0.000322978623444,0.467801943467,-0.00213082720873,0.172768507088,-0.00683768700455,0.927864961615,0.371942030589,0.0260573331031
-0.0190067924559,-0.0135301239789,0.00846423767507,-2.52715325356,0.0590732805431,2.55578184128,-0.821571469307,0.051226567477,0.000423416524427,0.000606332265306,0.000248442986049,-2.21458521992e-05,5.54561047466e-05,-7.25615827832e-05,-0.000161060685059,0.467801669497,-0.00213131156753,0.172766829945,-0.00683805812427,0.927865095024,0.371941765165,0.0260562738588
-0.0190027486533,-0.0135293267667,0.00846660789102,-2.52715349197,0.0590734183788,2.55578160286,-0.821571707726,0.0476188398898,0.000399070355343,0.000432890810771,-0.000307405134663,0.000255800841842,5.53606441827e-05,-2.00093636522e-05,0.000267367722699,0.467801290321,-0.00212822284314,0.172766285737,-0.00683845646918,0.927863830978,0.371944957571,0.0260556116073
-0.0190036650747,-0.0135318785906,0.00846691057086,-2.52715468407,0.0590736307204,2.55578160286,-0.82157087326,0.0476188398898,0.000339984631864,-0.000335657794494,0.00195385562256,1.67662074091e-05,4.77956091345e-05,-6.62487000227e-05,0.000239589018747,0.467801229869,-0.00212858183394,0.172767070605,-0.00683819823047,0.927864176723,0.371944049892,0.0260563242491
-0.0190037861466,-0.013529705815,0.00846715178341,-2.52715492249,0.0590735562146,2.5557820797,-0.821571946144,0.0476188398898,0.000325901404722,-0.000552355370019,-0.00055928848451,-0.000146522754221,0.000118788935652,6.74084440107e-05,8.51750737638e-05,0.467800870359,-0.00212852949107,0.172766007458,-0.00683853195693,0.927863972039,0.371944617461,0.0260554236101
-0.0190074872226,-0.0135298836976,0.00846473127604,-2.52715611458,0.0590736716986,2.55578160286,-0.821573019028,0.0476188398898,-0.000247239076998,0.000687917636242,-0.000200651047635,0.000229407829465,0.000170236060512,-5.89836017753e-05,-0.000286991591565,0.467800214923,-0.00213136933559,0.172765580448,-0.00683877788241,0.927864944174,0.371942232656,0.0260547834617
-0.0190044827759,-0.0135283209383,0.00846723094583,-2.5271551609,0.0590732134879,2.55578279495,-0.821571826935,0.0476188398898,0.000370044872398,-0.00055845733732,-8.35716273286e-05,-0.000125250051497,1.52609973156e-05,-6.78365977365e-05,0.000222724454943,0.467800685931,-0.0021288408112,0.172765335537,-0.00683859841422,0.927864074679,0.371944392561,0.0260549614968
-0.0190031006932,-0.0135298622772,0.00846771057695,-2.52715611458,0.0590730085969,2.55578374863,-0.821572780609,0.0476188398898,-0.000721959397197,-0.000376294512535,0.000156811307534,0.000108146203274,4.37998714915e-05,1.02597041405e-05,-0.000143130033393,0.467800685723,-0.0021279958218,0.17276577702,-0.00683823246912,0.927863507078,0.371945768148,0.0260556337303
-0.0190056525171,-0.0135301565751,0.00846636947244,-2.52715778351,0.0590735264122,2.55578517914,-0.821571886539,0.0457131937146,0.000699188618455,-8.92776079127e-05,0.000355655647581,-0.000380343524739,5.36217448825e-05,1.17848640002e-05,-2.05367141461e-05,0.467800236517,-0.00212980461892,0.172765404116,-0.00683829326133,0.927864482874,0.371943326854,0.0260557183411
-0.018999427557,-0.0135301928967,0.00847134273499,-2.52715778351,0.0590726919472,2.55578327179,-0.821572721004,0.0457131937146,0.000286053109448,-0.000194912427105,-2.71642747975e-05,-2.29285487876e-05,-0.00205846247263,-0.000118072515761,-0.000321179832099,0.467799887415,-0.00212477902706,0.172765207439,-0.00683854581149,0.927862250989,0.371948955166,0.0260547868096
-0.0189996082336,-0.0135302422568,0.0084719453007,-2.52715468407,0.0590741448104,2.55578660965,-0.821572184563,0.0457131937146,-0.000404553808039,0.00121807656251,-0.000371960137272,0.000784498348366,1.24693087855e-05,1.35156169563e-05,-0.00130481924862,0.467802062807,-0.00212439002778,0.172766790827,-0.00683765437282,0.927862308012,0.371948614437,0.0260578540279
-0.0190062429756,-0.0135313216597,0.00846907589585,-2.52715539932,0.0590734109282,2.55578780174,-0.821572721004,0.0457131937146,0.000140534495586,-0.00013889199181,-0.00399757223204,0.000335673772497,0.00552078289911,-0.000161642979947,0.000127116029034,0.467802128049,-0.00212888338069,0.172767131662,-0.0068370223316,0.927863854387,0.371944722,0.0260585170167
-0.0190077181906,-0.0135298222303,0.00846804212779,-2.527156353,0.0590739771724,2.55578708649,-0.821571409702,0.0457131937146,0.000302141619613,-0.000585833564401,0.00247631594539,-0.000171172185219,6.91197783453e-05,5.48982279724e-05,9.83458157862e-05,0.467801275423,-0.00213000713332,0.172765990467,-0.00683778726992,0.927864685217,0.371942732156,0.0260571347643
-0.0190017223358,-0.0135298715904,0.00846971478313,-2.52715826035,0.0590734854341,2.55578732491,-0.821571409702,0.0457131937146,0.000299700070173,-0.000744534772821,5.76335478399e-05,-0.000663144164719,8.40067150421e-05,-0.00010105259571,1.08865685888e-06,0.467800439012,-0.00212644135501,0.172765292633,-0.00683805210715,0.927863208885,0.371946468877,0.0260562970495
-0.018999081105,-0.0135293584317,0.00847143586725,-2.52715945244,0.0590743459761,2.55578660965,-0.821572721004,0.0457131937146,0.000319664919516,0.000129060135805,0.000277972198091,-0.000194216569071,6.16224497207e-05,3.07868249365e-05,-8.58524872456e-05,0.467799645911,-0.00212434459979,0.172764520128,-0.00683878541645,0.927862308282,0.371948773942,0.0260552706917
-0.0190056432039,-0.013529907912,0.00846862047911,-2.52715849876,0.0590733774006,2.55578613281,-0.821572601795,0.0457131937146,0.0006441095029,0.000258834072156,-0.000149361556396,-3.3613134292e-05,1.71696901816e-05,0.0023964010179,-9.59374883678e-05,0.467800064269,-0.00212877015356,0.172765101128,-0.00683824226611,0.927863913993,0.371944749887,0.0260556763252
-0.0190081354231,-0.0135294562206,0.00846928078681,-2.52715849876,0.0590737201273,2.55578660965,-0.821572184563,0.0457131937146,-0.000549297314137,-0.000506191747263,0.000375428935513,0.000263300462393,4.83349358547e-05,0.000252791971434,0.000138317060191,0.467800091268,-0.00212961845837,0.172764936565,-0.00683829550171,0.927864385993,0.371943567925,0.0260557264922
-0.0190013777465,-0.0135295260698,0.00847176183015,-2.52716064453,0.059073343873,2.55578613281,-0.821572601795,0.0457131937146,0.000199660789804,0.000783791125286,0.000569277501199,-0.000557623920031,-8.20889108581e-05,6.76568597555e-05,-0.000460516894236,0.46779899446,-0.00212530193677,0.172764086231,-0.00683879432844,0.927862564628,0.371948190255,0.0260544718729
-0.0190061554313,-0.013531784527,0.00847099814564,-2.52716207504,0.0590734258294,2.55578637123,-0.821571588516,0.0457131937146,0.000292250799248,-0.000589506758843,0.000687520427164,-0.000102576690551,6.95557246218e-05,8.14554005046e-05,9.48730012169e-05,0.467798713145,-0.00212789212894,0.172764608651,-0.00683854384438,0.927863783555,0.371945118138,0.0260549853662
-0.0190011449158,-0.0135286888108,0.0084724612534,-2.52715992928,0.0590743198991,2.55578517914,-0.821571171284,0.0457131937146,-0.000142258708365,8.00954876468e-06,-0.000160283438163,-0.000532990612555,0.00298409699462,-5.53066529392e-05,-0.000245271425229,0.46779900171,-0.00212480673005,0.172763882369,-0.00683930505538,0.927862809802,0.371947596146,0.0260540879387
-0.0190036930144,-0.013530372642,0.00847287476063,-2.52716183662,0.0590736120939,2.55578565598,-0.821571648121,0.0420378297567,0.000256800238276,-0.000322180363582,-0.00263208243996,0.000301802152535,-3.0338882425e-05,0.000147726837895,-0.000152734530275,0.467798456913,-0.00212584312896,0.172763971934,-0.0068390183348,0.927863013045,0.371947091877,0.0260541240251
-0.0190035812557,-0.0135299405083,0.00847362540662,-2.52716326714,0.0590735003352,2.55578613281,-0.821572124958,0.0420378297567,-0.000102307945781,-0.000689601060003,-4.88518853672e-05,-0.000885653891601,-7.00671444065e-05,2.0002709789e-05,1.27237572087e-05,0.467798439531,-0.00212520195397,0.172763886981,-0.00683887765161,0.927862748879,0.371947739826,0.0260543185696
-0.0189997125417,-0.0135302431881,0.00847417954355,-2.52716612816,0.0590744949877,2.55578708649,-0.821571588516,0.0420378297567,0.000105221573904,-0.00014254967391,0.00363507843576,-0.000523682858329,-0.00550840701908,-8.6383020971e-05,0.000167783437064,0.467796708475,-0.00212333248969,0.172762379476,-0.00683984960624,0.927862220729,0.371949145251,0.026052808528
-0.0190037414432,-0.0135309081525,0.00847547315061,-2.5271627903,0.0590734966099,2.55578684807,-0.821570575237,0.0420378297567,1.12177622213e-05,-0.000328959693434,-0.000580754480325,-0.000258663116256,1.27046450871e-05,0.00013906028471,0.000303175358567,0.467798348351,-0.0021246773358,0.172763965995,-0.0068388429742,0.927862719259,0.371947806095,0.0260544364709
-0.0190051924437,-0.0135307665914,0.00847319327295,-2.52716612816,0.0590735599399,2.55578637123,-0.821571707726,0.0420378297567,0.000428642262705,-0.000418519426603,-4.51827072538e-05,0.00050202512648,7.14835114195e-05,-3.71112510038e-05,-6.13349911873e-05,0.467796622523,-0.00212638993471,0.172762553527,-0.00683957651659,0.927863260039,0.371946569149,0.0260526437118
-0.0189982242882,-0.0135300103575,0.00847547221929,-2.52716422081,0.0590733401477,2.55578684807,-0.821572124958,0.0420378297567,0.000421988224844,-9.13725234568e-05,0.000613679934759,-0.000188826626982,0.000116430863272,5.97185789957e-05,2.69749057225e-06,0.467797533015,-0.002122094453,0.172762988495,-0.00683930169962,0.927861412201,0.371951135685,0.0260533308388
-0.0189985763282,-0.0135292122141,0.00847890600562,-2.52716588974,0.0590732395649,2.55578684807,-0.821571111679,0.0420378297567,-0.00030880921986,-0.000645617954433,-9.94245128823e-05,0.000161452917382,-4.03058365919e-05,1.82104504347e-05,-0.000256192666711,0.467796541139,-0.00212073032839,0.172761989437,-0.00683980313905,0.927861040107,0.371952135362,0.0260521789526
-0.0190090443939,-0.0135278813541,0.00847254972905,-2.52716612816,0.0590745434165,2.55578637123,-0.821572065353,0.0420378297567,-0.000287478062091,0.000199954229174,-0.000460823415779,-0.000576002581511,0.00555759994313,9.42686019698e-05,0.00013392456458,0.467796153481,-0.00212843584686,0.172761205633,-0.00684033574846,0.927864212867,0.371944262067,0.0260514469252
-0.0190078429878,-0.0135300969705,0.00847500376403,-2.52716708183,0.0590733997524,2.55578660965,-0.821571946144,0.0414218753576,0.000103931699414,-0.000606592162512,-4.6771223424e-05,-5.62384993827e-05,-0.000521882902831,6.37558550807e-05,0.000228822231293,0.467796108917,-0.00212679154063,0.172761891458,-0.00683977103629,0.927863367843,0.371946342906,0.0260519832362
-0.0190051849931,-0.0135314818472,0.00847598351538,-2.52716779709,0.0590738356113,2.55578708649,-0.821571171284,0.0414218753576,0.000552726211026,-2.58730487985e-05,0.000296942016575,3.81232857762e-05,-0.00496884528548,-0.000154488821863,-0.000457824469777,0.467796100639,-0.00212507945177,0.172762307433,-0.00683970130401,0.927862888494,0.371947501097,0.0260525383244
-0.0190009661019,-0.0135320043191,0.00847669690847,-2.52716684341,0.0590740628541,2.55578684807,-0.821571171284,0.0414218753576,-8.26055620564e-05,-0.000278669322142,0.000475737120723,-0.000161060423125,0.00289604230784,1.51627991727e-05,-0.000153397006216,0.467796599441,-0.00212276544867,0.172762900552,-0.00683958741353,0.927861987326,0.371949710574,0.0260531189432
-0.0190013572574,-0.0135307013988,0.00847717188299,-2.52716898918,0.0590744949877,2.55578684807,-0.821570694447,0.0414218753576,-0.000251473742537,0.000202061128221,-0.000216309039388,1.68358951669e-06,-0.000131247172249,-1.8168987026e-06,-0.000183770098374,0.46779536789,-0.00212269205025,0.17276145584,-0.00684036773391,0.927862169383,0.371949350247,0.0260515744559
-0.019001673907,-0.0135300736874,0.00847687665373,-2.52716898918,0.0590731240809,2.55578780174,-0.821572303772,0.0414218753576,4.44417710241e-05,-6.40363214188e-05,-1.57819813467e-05,-0.000608973496128,-0.00351960514672,-0.000138307048474,9.82506680884e-05,0.467795466896,-0.00212305619115,0.172761252416,-0.00683990214857,0.927861782475,0.371950324472,0.0260515675242
-0.0190020352602,-0.0135299479589,0.00847924686968,-2.52717065811,0.059074409306,2.55578589439,-0.821571290493,0.0414218753576,0.00361517467536,1.73155003722e-05,-0.000191139493836,-3.05649664369e-05,0.00140172673855,-0.000114618931548,4.62906536995e-05,0.467794248568,-0.00212202145554,0.172760360491,-0.00684101130428,0.9278618237,0.371950310501,0.0260500074265
-0.0190044734627,-0.0135317863896,0.00847584754229,-2.5271756649,0.0590727739036,2.55578517914,-0.821571946144,0.0414218753576,-0.00022846153297,0.000110173903522,-4.17024921262e-06,0.000163755947142,0.00205395231023,0.000140589589137,-0.000240735127591,0.467791983046,-0.00212479190695,0.172759198201,-0.00684127120279,0.927862590335,0.371948529621,0.0260480606164
-0.0189997199923,-0.0135280620307,0.00847985502332,-2.52718138695,0.0590736865997,2.55578708649,-0.821572601795,0.0414218753576,0.000238769585849,0.000181482115295,2.98479590128e-05,-0.00013162655523,3.08003473037e-05,4.85608616145e-05,0.000130724423798,0.46778908552,-0.0021206494788,0.172755412994,-0.00684300089617,0.927861085341,0.371952492234,0.0260446319656
-0.0189959909767,-0.0135283293203,0.00848536659032,-2.52718114853,0.0590737052262,2.55578589439,-0.821570575237,0.0414218753576,0.000251057557762,-0.000142109347507,-0.00228614476509,-1.77119727596e-05,-0.00017309942632,3.53935720341e-05,-0.000132510685944,0.467789005698,-0.00211632118355,0.172755514897,-0.00684327454966,0.927859747851,0.371955848621,0.026044275211
-0.0189987812191,-0.013530078344,0.00848498661071,-2.52718639374,0.0590742081404,2.55578684807,-0.821570754051,0.0414218753576,0.00234641530551,0.000170522136614,-0.000453452899819,-0.000559123349376,-5.84268418606e-05,-0.000229954443057,0.000162945725606,0.467786981729,-0.00211777376961,0.172754382918,-0.00684382169282,0.927860418293,0.371954244277,0.0260431587515
-0.0190136358142,-0.0135320620611,0.00847584288567,-2.52718925476,0.0590736679733,2.55578732491,-0.821572721004,0.0407658666372,-0.00165450398345,-0.000361683749361,-0.000594341719989,0.000313472002745,-5.15674546477e-05,6.3592720835e-05,3.05966859742e-05,0.467785984224,-0.00212900475327,0.172754242386,-0.00684345774259,0.927864443274,0.371944220227,0.0260430166985
-0.0190103389323,-0.0135320508853,0.00847720820457,-2.52718830109,0.0590733252466,2.55578613281,-0.821571230888,0.0407658666372,0.000351766357198,0.000601748470217,0.000237544882111,0.000293184595648,6.66556734359e-05,4.33613095083e-05,-8.00992638688e-05,0.467786393584,-0.00212524314117,0.172754193843,-0.0068434170779,0.927863143781,0.371947466415,0.0260429638507
-0.0190028715879,-0.0135265216231,0.00848210789263,-2.52719378471,0.0590739957988,2.55578589439,-0.821572363377,0.0407658666372,0.000758007750846,0.000317838304909,0.000488244404551,-0.000312965392368,1.46040401887e-05,6.16940014879e-05,0.000212577491766,0.46778266418,-0.0021209747939,0.172749747535,-0.00684597893411,0.927861531633,0.371951810243,0.0260376886361
-0.0189927164465,-0.0135437669232,0.00849433615804,-2.5272128582,0.0590736605227,2.55578327179,-0.821572959423,0.0407658666372,0.000598073704168,-0.000411544635426,0.000358769000741,-0.00107993418351,-2.74940121017e-05,-0.000417941017076,-0.000182378062163,0.467775806304,-0.00211046330058,0.172750127674,-0.00684693899636,0.927857250352,0.371962626635,0.0260354847491
-0.0189938619733,-0.0135462936014,0.00849707238376,-2.52721357346,0.0590731501579,2.55578374863,-0.821572542191,0.0407658666372,0.000403490412282,4.80950257042e-05,8.46486800583e-05,-0.000327869784087,-0.00238486286253,-8.07822943898e-05,-3.53450559487e-05,0.467775973892,-0.00210976129446,0.172751075962,-0.00684635778093,0.927856930093,0.371963367935,0.0260364602538
-0.0189994163811,-0.013543673791,0.0084933442995,-2.52721452713,0.0590741634369,2.55578374863,-0.8215726614,0.0393284223974,-6.52008238831e-05,0.000363435363397,9.71991903498e-05,-0.000352513772668,0.00296715344302,0.00101094588172,4.11925611843e-05,0.467775082313,-0.002114034179,0.172749481097,-0.00684721516288,0.927858830747,0.37195871512,0.0260349722447
-0.0189920123667,-0.0135451238602,0.00849918462336,-2.52721691132,0.0590738132596,2.55578279495,-0.821572422981,0.0393284223974,0.00038419131306,0.00235853274353,0.000418823823566,-0.000357666402124,0.00065242825076,-9.88568572211e-05,-0.00547086261213,0.467773998708,-0.00210784583991,0.172749137028,-0.00684763866353,0.927856378598,0.371964891876,0.0260340053446
-0.0189882256091,-0.0135473813862,0.00850355811417,-2.52722120285,0.0590737871826,2.55578327179,-0.821572184563,0.0393284223974,-0.000252437224844,0.000724103767425,-0.000349298323272,0.00011266364163,0.000150560794282,2.35675270233e-05,-1.89651618712e-05,0.467772431276,-0.00210403276652,0.172748566902,-0.0068479916439,0.927854925223,0.371968564725,0.0260332343444
-0.0189914852381,-0.0135457776487,0.00850642565638,-2.52722620964,0.059074241668,2.55578351021,-0.821572184563,0.0393284223974,-0.000367369852029,-0.00150586012751,2.81377742795e-06,-0.00168442795984,2.64904756477e-05,4.38416936959e-05,0.000420319178374,0.467769835992,-0.00210417493995,0.17274588996,-0.00684930423345,0.927855150131,0.3719681823,0.0260303370402
-0.0189928859472,-0.0135436234996,0.00850439444184,-2.52723169327,0.0590743720531,2.55578374863,-0.821572124958,0.0393284223974,-2.29673150898e-05,-0.000411446701037,-0.000183831885806,0.000290015159408,-0.000217719294596,-0.000137230861583,0.000198612411623,0.467766917798,-0.00210573960461,0.172742769759,-0.00685072225324,0.927855916371,0.371966481709,0.0260269519827
-0.0189985465258,-0.0135469529778,0.00850386824459,-2.5272526741,0.0590736754239,2.55578398705,-0.821572482586,0.0393284223974,-0.00394482305273,-0.000352310977178,-0.000170047860593,0.000238067179453,0.000100238270534,-1.1599073332e-05,-0.000605643843301,0.467757884214,-0.00210838831912,0.172736417177,-0.00685363265323,0.927857088793,0.371964049454,0.0260191485841
-0.0190000105649,-0.0135509865358,0.00850325729698,-2.52727508545,0.0590734928846,2.55578446388,-0.821572303772,0.0393284223974,-0.000107535946881,-0.000375334435375,-3.66402709915e-05,-0.00146632036194,-0.00493069039658,0.00560290273279,0.000193042404135,0.467749233305,-0.00210929404524,0.172730439294,-0.00685649984634,0.927857607854,0.371963216201,0.0260117941511
-0.0189951192588,-0.0135529441759,0.00850617606193,-2.52731585503,0.0590734928846,2.55578517914,-0.821572422981,0.0393284223974,0.00150879751891,-0.00271565746516,-0.000158817172633,-0.0013754456304,-0.00574205489829,4.86724820803e-05,-1.49655470523e-05,0.467728541658,-0.00210563017617,0.172714482315,-0.00686441328794,0.927856778157,0.371966460191,0.0259929073982
-0.0189942345023,-0.0135525716469,0.00850916281343,-2.5273501873,0.0590736754239,2.55578494072,-0.82157355547,0.0393284223974,-0.000238618740696,0.000412370776758,0.00018127358635,-0.00191123411059,0.00203325320035,2.38285447267e-05,0.000109450629679,0.467712050625,-0.00210364204474,0.172700912372,-0.006871153077,0.927856326648,0.371968589209,0.0259767719489
-0.0189921669662,-0.0135521311313,0.00851309299469,-2.52736210823,0.0590730272233,2.55578589439,-0.821571588516,0.0393284223974,-1.00009592643e-05,5.12097249157e-05,-0.000117111500003,-0.000520509318449,-0.00563511252403,-0.00547026004642,0.000162094336702,0.467706504729,-0.0021008311315,0.17269615417,-0.00687322052344,0.927855635332,0.371970651882,0.0259713812478
-0.0189952924848,-0.0135526340455,0.00851352326572,-2.52736735344,0.0590733028948,2.55578517914,-0.821572721004,0.0385666899383,-0.00136972428299,-0.00017783610383,-0.000176497051143,-0.00143037410453,-2.60562883341e-05,0.00393196195364,5.9252633946e-06,0.46770374371,-0.00210193605237,0.172694231231,-0.00687434402202,0.927856054153,0.371969764591,0.0259688290241
-0.0189972668886,-0.013553227298,0.00851064641029,-2.52737474442,0.0590746253729,2.55578565598,-0.821572184563,0.0385666899383,9.18185760383e-05,-0.000218992601731,-0.000363584433217,-5.89971132285e-05,0.00137293199077,-2.76910959656e-05,-0.000203692849027,0.467700356489,-0.00210429141541,0.172691536305,-0.00687584345436,0.927857346585,0.371966716278,0.0259659167123
-0.018994031474,-0.0135522726923,0.00851298030466,-2.5273809433,0.0590737275779,2.55578494072,-0.821571290493,0.0385666899383,0.00122519361321,-0.00078226759797,-0.000272298668278,-7.28594895918e-05,-5.21105866937e-05,2.29220167967e-05,-8.9412475063e-05,0.46769732922,-0.00210161414282,0.172688793118,-0.006877152065,0.927856410892,0.371969271543,0.0259624008418
-0.0189935546368,-0.0135530279949,0.00851340312511,-2.52738642693,0.0590736009181,2.55578541756,-0.821572363377,0.0385666899383,0.000337409583153,0.00015418890689,0.000231844504015,-0.000248335651122,2.71838234767e-05,4.38684855908e-06,0.000672132533509,0.467694936403,-0.00210118302972,0.172687056504,-0.00687791193343,0.927856083587,0.371970212476,0.025960415866
-0.0189934335649,-0.0135530466214,0.0085154203698,-2.52738833427,0.0590731389821,2.55578446388,-0.821573317051,0.0385666899383,-0.00038676863187,7.55494183977e-05,-6.81021847413e-05,-0.000196575914742,1.87195710168e-05,6.42004088149e-05,-0.000185367287486,0.467693827296,-0.00210018487795,0.172686229008,-0.00687835777246,0.92785547061,0.371971828608,0.0259590496516
-0.0189938731492,-0.013552185148,0.00851663947105,-2.52739191055,0.0590738430619,2.55578565598,-0.821572422981,0.0385666899383,-5.73253746552e-05,-0.000351572176442,0.0011818294879,1.82498370123e-05,-2.89407598757e-05,-0.000107103296614,0.000107514017145,0.46769224139,-0.00209978804426,0.172684549784,-0.00687915182486,0.927855646451,0.371971475632,0.0259576119694
-0.0189964659512,-0.0135533623397,0.00851521920413,-2.52740049362,0.0590738542378,2.55578589439,-0.821572184563,0.0385666899383,-0.000177979367436,-0.000147089682287,0.000470591185149,-0.000228806384257,6.98083476891e-06,0.000139233889058,-0.00012931197125,0.467688375529,-0.00210162605462,0.172681780632,-0.00688047250368,0.927856533283,0.371969469143,0.0259543146874
-0.0189954303205,-0.0135540030897,0.00851560663432,-2.52740049362,0.0590738765895,2.55578565598,-0.821572482586,0.0385666899383,-0.00340182241052,2.32397287618e-05,0.00367240398191,-0.000616646895651,-0.00018452227232,-5.23200687894e-05,-0.00015216783504,0.467688430097,-0.00210095846278,0.172682057181,-0.00688041651014,0.927856209766,0.371970264277,0.0259544995068
-0.0189947430044,-0.013552851975,0.00851599499583,-2.52740168571,0.0590743348002,2.55578613281,-0.821572005749,0.0385666899383,-3.67279426428e-05,4.95624990435e-05,0.000197229805053,5.62872774026e-05,0.00384299783036,7.92002974777e-05,-0.000316526915412,0.467687782368,-0.00210043257037,0.172681101491,-0.00688090384173,0.927856193726,0.371970352397,0.0259536808326
-0.0189942792058,-0.013552159071,0.00851547159255,-2.52740311623,0.0590736605227,2.55578589439,-0.821572124958,0.0385666899383,0.00418791593984,-0.000567732786294,-4.91230048283e-06,-0.000145727215568,-4.14279093093e-05,6.15054595983e-05,4.70547129225e-05,0.467686935249,-0.00210047842138,0.172680196153,-0.00688118767356,0.927856111517,0.371970633361,0.0259525177659
-0.0189950149506,-0.0135540859774,0.00851639173925,-2.5274002552,0.0590737164021,2.55578589439,-0.821572065353,0.0386251322925,0.000643544539344,-0.000277231883956,1.83500906132e-05,-2.55570885201e-05,0.000930955575313,-1.26448239826e-05,0.000104613922304,0.467688610417,-0.00210041160737,0.17268221156,-0.00688027839667,0.927856034704,0.371970687461,0.0259547295555
-0.0189958084375,-0.0135521329939,0.008514855057,-2.52740335464,0.0590736195445,2.55578589439,-0.821572780609,0.0386251322925,-5.72619464947e-05,-0.000570239673834,0.000117197756481,-0.000784761621617,1.13068781502e-05,2.43987014983e-05,0.000125151258544,0.467686812655,-0.00210148129347,0.17268009109,-0.00688119505918,0.927856385959,0.371969956709,0.025952402181
-0.0189913697541,-0.0135515891016,0.00852069631219,-2.52740478516,0.0590737424791,2.55578565598,-0.821571052074,0.0386251322925,0.000417447503423,-0.000308989256155,0.000470354396384,-0.000175587585545,1.28831261463e-05,5.16306172358e-05,4.60341725557e-05,0.467686013076,-0.00209666805446,0.172679256169,-0.00688177620766,0.927854841224,0.371973873248,0.0259513405833
-0.0189888160676,-0.0135530205444,0.00852241925895,-2.52740573883,0.0590741150081,2.55578732491,-0.821571648121,0.0386251322925,8.80464813235e-06,0.000112930938485,-0.00016849275562,0.000441885524197,7.09342202754e-06,1.58360817295e-05,-4.24417203249e-06,0.467686155398,-0.00209468014317,0.172679716264,-0.00688145804626,0.927853973714,0.371975973383,0.0259523391429
-0.0189955532551,-0.0135527588427,0.00851911958307,-2.52741336823,0.0590735338628,2.55578732491,-0.821572601795,0.0386251322925,-0.000767962599639,-0.000227523734793,-0.000196904235054,-2.67559735221e-05,3.6569283111e-05,0.00151253119111,0.000435677211499,0.467682088932,-0.00210022797824,0.172676553244,-0.00688283477231,0.927856342883,0.37197031388,0.0259483878789
-0.0189958773553,-0.013554930687,0.00851613562554,-2.52742791176,0.0590730123222,2.55578684807,-0.821572363377,0.0386251322925,0.00010550688603,-0.000438950228272,-0.000782656250522,-0.00145512120798,1.91856397578e-05,0.000135914946441,2.03041945497e-05,0.467675743364,-0.00210084828919,0.172671926448,-0.00688498817153,0.927856424258,0.371970467906,0.0259426982014
-0.0189922079444,-0.0135529879481,0.00852075591683,-2.52743792534,0.0590736530721,2.55578684807,-0.821572959423,0.0386251322925,0.000296602986054,0.000354410120053,-0.00379634206183,-0.00127058418002,9.97493698378e-05,2.0085442884e-05,-0.000116610950499,0.467670670511,-0.00209689557901,0.172667118712,-0.00688751554117,0.927855021836,0.371974301862,0.0259372130682
-0.0189899653196,-0.0135575970635,0.00852337293327,-2.5274746418,0.0590739548206,2.55578804016,-0.821572065353,0.0386251322925,-0.000401106924983,-5.5911434174e-05,-0.000297515653074,3.47094901372e-05,0.000568334653508,0.000125733349705,5.7121644204e-05,0.467654147671,-0.0020944654241,0.172655090531,-0.00689350757442,0.927854737758,0.371975895804,0.0259229203151
-0.0189955886453,-0.0135636758059,0.0085209524259,-2.52751660347,0.0590737871826,2.55578994751,-0.821571588516,0.0386251322925,1.26491686387e-05,-0.000830686592963,0.000783037918154,-2.68050425802e-05,-0.0037948563695,-0.00384950148873,-0.000463372911327,0.46763548127,-0.00209807061433,0.172641776344,-0.00689979836155,0.927856750153,0.371971853974,0.0259072096823
-0.0189986918122,-0.0135833183303,0.0085200285539,-2.52771759033,0.0590740554035,2.55579614639,-0.821572184563,0.0386251322925,-0.00219686306082,8.3990416897e-06,-2.54314836639e-05,-0.00385749340057,-7.11824327482e-07,0.000253124395385,0.000249629258178,0.46754399158,-0.00209910067643,0.172573300083,-0.00693302327122,0.927859732739,0.371969425761,0.0258262566408
-0.0190046839416,-0.0135968280956,0.00851831771433,-2.52783966064,0.059074126184,2.55580353737,-0.821570575237,0.0386251322925,-0.00177385727875,-0.00151944381651,0.000318602775224,-0.00575750973076,-7.85835727584e-05,0.000220726113184,0.00037238697405,0.46748245803,-0.00210181568107,0.172527738492,-0.00695456340184,0.92786290819,0.371964767177,0.0257734226852
-0.018999107182,-0.0136081203818,0.00851935148239,-2.52798128128,0.0590733550489,2.55581378937,-0.821571946144,0.0386251322925,-0.000331692426698,-1.05321885258e-06,0.000420212367317,-0.00606871908531,-0.000149077139213,0.000457048241515,7.69058096921e-05,0.467425831803,-0.00209869129184,0.172483949181,-0.00697456622248,0.927862842567,0.371967994043,0.0257237614211
-0.01900649257,-0.0136281223968,0.00851956102997,-2.52850437164,0.059073921293,2.55717968941,-0.821572899818,0.0386257916689,0.000985729973763,-4.29609863204e-05,0.000788421311881,-0.0114685986191,-2.73904224741e-05,0.0351049005985,-0.000624708132818,0.467472374086,-0.00212118609768,0.172421977275,-0.0067795501361,0.927861980712,0.371946907563,0.0261090039509
-0.0189985409379,-0.0136323347688,0.00852639786899,-2.52873730659,0.0590737611055,2.55768036842,-0.82157176733,0.0386257916689,-0.000269296753686,-0.000265103648417,0.000160977171618,-0.00939565803856,-3.92747897422e-05,0.0213665384799,-9.56572766881e-05,0.467469255386,-0.00212110848988,0.172381822437,-0.00671663987648,0.927859182488,0.371946542744,0.0262296253439
-0.0190031901002,-0.0136546706781,0.00852611940354,-2.52891159058,0.0590741410851,2.5579264164,-0.821572542191,0.0386257916689,-0.000488991558086,-0.00183624983765,0.00549505418167,-0.0091150039807,4.76065943076e-05,0.0170347802341,-0.00577105116099,0.467442371463,-0.00212650678427,0.172348290159,-0.00669315505513,0.927860409099,0.371941006793,0.026270707118
-0.0190108269453,-0.013689882122,0.00852194987237,-2.52905654907,0.0590737648308,2.55817055702,-0.821572601795,0.0386257916689,0.000125351405586,-0.000929234200157,0.000371436268324,-0.00681834015995,-0.00144928239752,0.0154642658308,-6.36028853478e-05,0.467431132673,-0.00213530173344,0.172332012476,-0.00666171901368,0.927862391165,0.371932409482,0.0263303441225
-0.0190044697374,-0.0139726391062,0.00852537062019,-2.52925443649,0.0590740069747,2.55848860741,-0.821572065353,0.0386257916689,0.000337228470016,-0.00830913800746,0.000162297976203,-0.00165954255499,4.37547496404e-05,0.00149533641525,-0.000167859645444,0.467450263147,-0.00213566309648,0.172418013965,-0.00657683211953,0.927857512472,0.371933124523,0.0265128722384
-0.0190010070801,-0.0140844546258,0.0085274996236,-2.52930164337,0.0590743497014,2.55848956108,-0.821572482586,0.0386257916689,-6.07411348028e-05,-0.0162669308484,-0.000578038569074,-0.00800398923457,-8.70366129675e-05,0.000116446804896,7.14220441296e-05,0.467445694056,-0.00213334057384,0.17245574118,-0.0065625754451,0.927855579287,0.371935811144,0.0265463493119
-0.0190067794174,-0.0143802184612,0.00852283835411,-2.52939295769,0.059073664248,2.55848622322,-0.821572422981,0.0386257916689,-0.000548160402104,-0.0122614735737,-0.000520109431818,-0.00312721007504,-7.16559225111e-05,4.32596743849e-06,0.00011233616533,0.467448293368,-0.00213806495419,0.172549554583,-0.00652615443359,0.927854729222,0.371932522556,0.0266309804143
-0.0190122891217,-0.0156317297369,0.0085175158456,-2.52987527847,0.059073060751,2.55834293365,-0.821572899818,0.0386257916689,-0.000168744183611,-0.037355158478,-0.00045852427138,-0.01606971398,-2.08035926335e-05,-0.00814906135201,7.10992098902e-05,0.467388484653,-0.00214267707805,0.172937385225,-0.00640281314634,0.927847339409,0.3719320148,0.0269238701843
-0.019021127373,-0.0162954032421,0.00850807782263,-2.53009438515,0.059072945267,2.55805659294,-0.8215726614,0.0386257916689,-0.00166133849416,-0.0531069599092,-0.00061578938039,-0.0140227349475,3.4382508602e-05,-0.0243464708328,-0.000403199199354,0.467328632784,-0.00214758056826,0.173134223132,-0.00637616944369,0.92784677065,0.371928462873,0.0269987563959
-0.0190386362374,-0.0175364911556,0.00849249958992,-2.53037786484,0.0590733774006,2.55719161034,-0.821572363377,0.0386257916689,-0.00179816468153,-0.0810672566295,-0.000875961326528,-0.0164614468813,-1.90444243344e-05,-0.0657286271453,0.00502132484689,0.467206019925,-0.00215159060809,0.173519269792,-0.00637262143617,0.927846120455,0.371926553246,0.0270482000848
-0.0190497115254,-0.0281049478799,0.00848081056029,-2.53061079979,0.0590712465346,2.54424881935,-0.821572780609,0.0386271029711,-0.000119021875435,-0.250255823135,-0.00177531002555,0.00587842008099,-4.02410551033e-05,-0.345712631941,-0.000157077563927,0.465984824305,-0.0019873407644,0.177102034487,-0.00711430595892,0.927798562218,0.37210974813,0.0259528346781
-0.0190501268953,-0.0318947769701,0.00847803428769,-2.53048205376,0.0590721145272,2.53876018524,-0.821572303772,0.0386271029711,0.000456919311546,-0.29148671031,-0.000354690273525,0.0125152710825,-2.72119496003e-06,-0.433922380209,1.98447332878e-06,0.465455471217,-0.00191360887605,0.178386910062,-0.00752016611609,0.927782629345,0.372188153716,0.0252748433208
-0.0190519727767,-0.0387572012842,0.00846008677036,-2.52995252609,0.0590687356889,2.52815842628,-0.821572244167,0.0386271029711,-0.002680554986,-0.362847447395,-0.00222291634418,0.0334048047662,-0.00108590826858,-0.561980426311,-7.20673187971e-06,0.464479045808,-0.00177773421622,0.18076658401,-0.00833750432758,0.927753471163,0.372335293482,0.023883292885
-0.0190348289907,-0.049105592072,0.00835164356977,-2.52869701385,0.0590661689639,2.51180529594,-0.821567475796,0.0386271029711,0.000277453800663,-0.457732766867,-0.00977351143956,0.0840262770653,0.000210109530599,-0.741144895554,0.000248809432378,0.462769610427,-0.00155239680647,0.185553998455,-0.00989200682349,0.927702302216,0.372582527265,0.0212801955788
-0.0190504547209,-0.0603497773409,0.00821527373046,-2.52637863159,0.0590622350574,2.49289774895,-0.821552157402,0.0386271029711,-0.000168921236764,-0.528082728386,-0.0065737743862,0.122405275702,9.46924337768e-05,-0.902680337429,-0.000270217831712,0.461747660921,-0.00141088352274,0.188843050289,-0.0109460410923,0.927666446526,0.37273840282,0.0195251356248
-0.0190480258316,-0.0710459426045,0.00802209693938,-2.52364563942,0.0590575225651,2.47468447685,-0.821532785892,0.0386271029711,-0.0029397085309,-0.585078835487,-0.0108818830922,0.16772788763,3.62836799468e-05,-0.998355090618,0.000469549937407,0.460590700164,-0.00125296304185,0.193171889615,-0.012210539771,0.927619221585,0.372918478548,0.0174725643682
-0.0190531201661,-0.0968724414706,0.0075111319311,-2.51350641251,0.0590475723147,2.43021011353,-0.821008503437,0.0386271029711,-0.00337698217481,-0.701228737831,-0.0146699873731,0.324045747519,0.000544217415154,-1.1980663538,0.0315011069179,0.459019465784,-0.000902877784936,0.205068316488,-0.0146866434638,0.927550749902,0.373148974645,0.0139194563608
-0.0190677382052,-0.113523691893,0.00713902246207,-2.50485610962,0.0590403117239,2.40173125267,-0.820289254189,0.0386271029711,0.00153793254867,-0.734056711197,-0.0160788670182,0.416360676289,-0.000861302309204,-1.25455641747,0.0276185311377,0.458746468224,-0.000712712338886,0.213681939347,-0.0158309021806,0.927559303077,0.373124881336,0.0126863872998
-0.0190994199365,-0.146032914519,0.00652670161799,-2.4833817482,0.0590318925679,2.3465321064,-0.818701922894,0.0386277586222,0.000351786613464,-0.782065451145,-0.0181413032115,0.61096906662,-2.06825516216e-05,-1.34132111073,0.0403440482914,0.459617837493,-0.000317264310137,0.232632328991,-0.0170701686001,0.92754187787,0.373117821601,0.0125604549153
-0.0191216506064,-0.162026375532,0.0062423706986,-2.47043943405,0.059028968215,2.31947040558,-0.81799352169,0.0386277586222,-0.0012668579584,-0.828418374062,-0.0108663244173,0.676921963692,0.0022683525458,-1.35458707809,0.0260344240814,0.460685078371,-0.000130082658531,0.243084647469,-0.0171865239652,0.927494015743,0.373193862704,0.0136313857733
-0.0191471856087,-0.175119608641,0.00605186168104,-2.45871281624,0.0590297318995,2.29799795151,-0.817542076111,0.0386277586222,-0.00211843894795,-0.839106142521,-0.0150943277404,0.750334203243,6.73748727422e-05,-1.32521760464,0.0297742839903,0.461948980651,2.33697498355e-05,0.252258016134,-0.0169090057365,0.927412162954,0.373343813512,0.0153349967462
-0.0191693268716,-0.189597681165,0.00588247319683,-2.44454789162,0.0590247549117,2.27426338196,-0.817010164261,0.0386277586222,-0.000903071719222,-0.792841553688,-0.00836974661797,0.787368178368,0.00142345484346,-1.29980921745,0.0337590947747,0.46356907704,0.000208403855682,0.26300478597,-0.0163546929509,0.927300336133,0.373538373078,0.0177677840247
-0.0191919375211,-0.226581633091,0.00565787358209,-2.40408325195,0.0590291060507,2.21721482277,-0.815381526947,0.0386277586222,0.000332309951773,-0.76843637228,-0.000282898137812,0.930172801018,-0.000277226004982,-1.16880166531,0.0299108661711,0.46870910612,0.00072446971206,0.293119948378,-0.0133016380301,0.926907558017,0.374040971001,0.0275462704135
-0.0192188266665,-0.240619018674,0.00563326524571,-2.38763713837,0.0590268149972,2.19688510895,-0.814850330353,0.0386277586222,-0.00102210836485,-0.781673312187,-0.00498759513721,0.919588506222,-6.34721291135e-05,-1.08711516857,0.0283369664103,0.470748012232,0.00091826363654,0.305339576115,-0.011627538083,0.926675401719,0.374287583783,0.032346630675
-0.0192148573697,-0.255384325981,0.00560225080699,-2.37008190155,0.0590277612209,2.1770324707,-0.814364492893,0.0386277586222,0.000439961237134,-0.752631366253,-0.00200111139566,0.87649667263,0.000646143744234,-1.02226340771,0.0225657131523,0.472925449182,0.00111553425375,0.318563303156,-0.00948663243292,0.926363567474,0.374567758633,0.0382039073639
-0.0192250646651,-0.290665745735,0.00553496461362,-2.32862877846,0.0590386576951,2.13349485397,-0.812747001648,0.0386277586222,0.000865995651111,-0.711757659912,0.000702625955455,0.799748599529,-0.00201605563052,-0.788971483707,0.0443576611578,0.477149813868,0.00154509566648,0.35070358944,-0.00362518318788,0.925494333733,0.374915560516,0.0537160910904
-0.0192389562726,-0.301129192114,0.005519926548,-2.31707215309,0.0590360015631,2.12217950821,-0.812086522579,0.0386277586222,0.000871597032528,-0.677063345909,-0.00190573604777,0.721917331219,-0.000274924532278,-0.729847311974,0.0398754440248,0.478065554641,0.0016539232189,0.360134690938,-0.00169150921679,0.925209250638,0.374886632515,0.0586940693409
-0.0192698780447,-0.313181191683,0.00547734973952,-2.30441951752,0.0590414665639,2.10997343063,-0.811457693577,0.0386277586222,-0.00113226438407,-0.658208370209,-0.00421701325104,0.68430441618,1.63029035321e-05,-0.623198926449,0.0279677379876,0.478858156709,0.00175516807052,0.370803130523,0.000580560164317,0.924832604018,0.374865383788,0.0645000869444
-0.0198127105832,-0.344309896231,0.00538266357034,-2.27696990967,0.0590413287282,2.08375763893,-0.808559417725,0.0386277586222,-0.0196464695036,-0.553312718868,-0.00427436595783,0.404957175255,6.0969752667e-05,-0.415185958147,0.0871924832463,0.479462546509,0.00175668015951,0.396479177446,0.0065166873983,0.924058749056,0.3738381561,0.0794858088239
-0.0201989319175,-0.352248191833,0.00532828178257,-2.27141284943,0.0590421706438,2.07793617249,-0.807205319405,0.0386277586222,-0.0301744043827,-0.514255821705,-0.00131178670563,0.342679709196,-0.000392971152905,-0.361374765635,0.0907946750522,0.479194669598,0.00161963063924,0.402413824954,0.00790881641114,0.924021014802,0.373131878035,0.0830374379637
-0.0245381537825,-0.378524214029,0.00456830207258,-2.25933933258,0.0577202811837,2.05904388428,-0.802069544792,0.0386277586222,-0.108454160392,-0.283826857805,-0.0303094107658,0.0598850771785,-0.082348048687,-0.223266929388,0.053536221385,0.476337314806,-0.000744758029865,0.418831161863,0.0119579950499,0.924783433067,0.369049488802,0.0918427067193
-0.0266559515148,-0.382830828428,0.00396543974057,-2.25883364677,0.0556434430182,2.05520272255,-0.8013266325,0.0386277586222,-0.139865338802,-0.223999723792,-0.0455661974847,0.00133067660499,-0.15762835741,-0.229240223765,0.0308992508799,0.475300639528,-0.00229177653656,0.42064566198,0.0129806904742,0.925206578716,0.367925375717,0.0919521938913
-0.0297185108066,-0.386086434126,0.00292937015183,-2.25899815559,0.0516063906252,2.05084466934,-0.80096590519,0.0386277586222,-0.180706992745,-0.119480460882,-0.0684274807572,-0.0126493088901,-0.260971337557,-0.242211133242,0.00638310750946,0.47406516998,-0.00478097608529,0.421532839522,0.014395942757,0.925788509748,0.366719036454,0.0906947630024
-0.0455593504012,-0.384616672993,-0.00585633143783,-2.26101541519,0.0303960852325,2.03697991371,-0.801787555218,0.0386284179986,-0.348315119743,0.172445103526,-0.231863379478,-0.0536785945296,-0.443356066942,-0.173136949539,-0.0754423886538,0.470416951894,-0.0197886755799,0.417842978448,0.0194402560389,0.929448119521,0.359865753829,0.0790247332798
-0.0539375022054,-0.379914194345,-0.0116735901684,-2.26213288307,0.0193575825542,2.03340888023,-0.804502546787,0.0386284179986,-0.42274415493,0.237550184131,-0.306029051542,-0.0489524044096,-0.547492325306,-0.15058003366,-0.183593988419,0.469418832499,-0.0277657759158,0.414713162604,0.0217048731113,0.931031097627,0.356871406235,0.0731627831092
-0.061097767204,-0.375531315804,-0.0172454174608,-2.26284098625,0.0101523119956,2.03111886978,-0.808178663254,0.0386284179986,-0.472494363785,0.316719204187,-0.394251525402,-0.0272413529456,-0.599733889103,-0.132961258292,-0.280269891024,0.468581237555,-0.0356214053061,0.411799052145,0.0237863024658,0.93234237739,0.354340059044,0.0679339780897
-0.0777219682932,-0.362741440535,-0.032345764339,-2.26293778419,-0.0102144479752,2.02817177773,-0.821512162685,0.0386284179986,-0.561530470848,0.459003418684,-0.542964696884,0.0187275186181,-0.683441281319,-0.0469007007778,-0.550515174866,0.467288491377,-0.0531037401361,0.40548622983,0.027722204569,0.93455783156,0.350030956005,0.0575453592171
-0.0883655324578,-0.353762924671,-0.0431442372501,-2.26226401329,-0.0228654257953,2.02799773216,-0.832820475101,0.0386284179986,-0.625497639179,0.547580003738,-0.672031521797,0.0617969818413,-0.721946120262,0.00372221274301,-0.70343452692,0.466579281096,-0.0651170053512,0.401512175735,0.0302944118467,0.935635850865,0.347886705426,0.051406644125
-0.0974351763725,-0.345727026463,-0.0530814416707,-2.26100850105,-0.032900467515,2.02801084518,-0.843307256699,0.0386284179986,-0.654155433178,0.609203875065,-0.732533872128,0.118999473751,-0.707829892635,0.00528216455132,-0.800495386124,0.465869659988,-0.0763714780472,0.398051477006,0.0322427417189,0.936596241122,0.345862134963,0.0461223373998
-0.110428631306,-0.333235740662,-0.067901596427,-2.2579305172,-0.0459397919476,2.02822709084,-0.859734535217,0.0386284179986,-0.722222626209,0.700386285782,-0.836341023445,0.206884607673,-0.661123692989,0.0232066903263,-0.923682510853,0.464905038719,-0.0915836587161,0.393589062866,0.0342476079574,0.937779825305,0.343278802775,0.0394431724408
-0.163410484791,-0.275992035866,-0.13634262979,-2.23186445236,-0.0798130333424,2.03226327896,-0.92997521162,0.0386284179986,-0.826149106026,0.959622144699,-1.14296340942,0.568784475327,-0.293250590563,0.0948338508606,-1.12485289574,0.459868075636,-0.154423986434,0.37888096723,0.0360132561486,0.944122721092,0.32699670905,0.0202110083412
-0.17570874095,-0.261477708817,-0.153970628977,-2.22282886505,-0.0836854204535,2.03379106522,-0.94686216116,0.0386284179986,-0.819403648376,0.99146515131,-1.18933188915,0.619837164879,-0.238078698516,0.108804039657,-1.11760926247,0.458238536641,-0.169790530403,0.376136979639,0.0354890682953,0.945993528763,0.321769046277,0.0173623188631
-0.19167239964,-0.241607695818,-0.177915945649,-2.20980215073,-0.087328851223,2.03580641747,-0.968859553337,0.0386284179986,-0.802203059196,0.99778097868,-1.21453142166,0.678976416588,-0.1363530159,0.0954798460007,-1.07808423042,0.455590258827,-0.190241112324,0.372586476516,0.0344958466985,0.948635075907,0.314175408996,0.0139764584112
-0.215355888009,-0.211888581514,-0.21454256773,-2.18817973137,-0.0893424600363,2.03856277466,-1.00057983398,0.0386284179986,-0.77802836895,0.984856307507,-1.21449041367,0.712710618973,-0.0157727282494,0.062299720943,-1.03153789043,0.450428967696,-0.220987819535,0.368062947443,0.032727608394,0.952981409302,0.301081709845,0.0102538217118
-0.228436723351,-0.195884793997,-0.235011577606,-2.17601680756,-0.0894826129079,2.03968501091,-1.01779580116,0.0386284179986,-0.756923139095,0.920730650425,-1.18479597569,0.710004448891,-0.00691345054656,0.0636268854141,-0.990453958511,0.446629351121,-0.237972661985,0.365741970909,0.0316961179981,0.955454485203,0.293311391448,0.00839703203106
-0.238093420863,-0.184281587601,-0.250018328428,-2.16673016548,-0.0895044729114,2.04050993919,-1.03031039238,0.0386284179986,-0.738342285156,0.862414777279,-1.13515472412,0.683863282204,-0.00152867962606,0.0515573471785,-0.925105750561,0.443503954147,-0.250497193253,0.364256299303,0.0311930000277,0.95725457453,0.287470806867,0.00715619873984
-0.254953086376,-0.16537694633,-0.27547198534,-2.15184688568,-0.089522190392,2.04124522209,-1.05071687698,0.0386284179986,-0.716492950916,0.743678748608,-1.06571936607,0.624236106873,0.000374263559934,0.0118256369606,-0.846475303173,0.436894854594,-0.271702427893,0.361596296426,0.0302192776663,0.960412223297,0.27689972842,0.00465797082885
-0.271111220121,-0.149650260806,-0.298330456018,-2.13882470131,-0.0895379856229,2.04132676125,-1.06946313381,0.0386297293007,-0.687589645386,0.62136054039,-0.930837213993,0.496850818396,0.000488355522975,0.00413541542366,-0.791932523251,0.429559469288,-0.290949727142,0.359580482254,0.0295492225077,0.963224023275,0.26705899394,0.00241202896791
-0.296237498522,-0.130607232451,-0.330893397331,-2.12352252007,-0.0895846560597,2.04099607468,-1.09808766842,0.0386297293007,-0.593651413918,0.343518197536,-0.727220773697,0.282921105623,0.00134647008963,-0.0325795561075,-0.681810855865,0.415342236125,-0.31945265567,0.356654824753,0.0283023188466,0.967228517778,0.252322877758,-0.00106686407421
-0.307612031698,-0.124870233238,-0.344537287951,-2.11897587776,-0.0896434113383,2.04011726379,-1.11124753952,0.0386297293007,-0.535298407078,0.231891140342,-0.624740362167,0.18427811563,-0.00135544827208,-0.0532975159585,-0.613697528839,0.408973269861,-0.329393018492,0.355720719571,0.027539003365,0.968573925165,0.247185708608,-0.00231946902305
-0.316098481417,-0.122001536191,-0.354088097811,-2.11661171913,-0.0897416174412,2.03899288177,-1.12150382996,0.0386297293007,-0.469610124826,0.106743305922,-0.516300320625,0.0973978713155,-0.0111544849351,-0.0818114280701,-0.582133054733,0.403363710322,-0.337082053343,0.355117849957,0.0267688794877,0.969545350122,0.243422486889,-0.00327623546306
-0.333443641663,-0.122237607837,-0.372795850039,-2.115473032,-0.0907648727298,2.03407168388,-1.1470130682,0.0386297293007,-0.280361503363,-0.101718597114,-0.298614054918,-0.0101891737431,-0.0298347398639,-0.150066539645,-0.521718800068,0.390987507212,-0.350485260254,0.354803566193,0.0247110229595,0.970795750632,0.238582178514,-0.00484971023272
-0.338118374348,-0.125111162663,-0.377376019955,-2.11563777924,-0.0912405997515,2.03054499626,-1.15689563751,0.0386297293007,-0.195430293679,-0.167500823736,-0.179499283433,-0.00270602316596,-0.0242354962975,-0.195030987263,-0.471952199936,0.386276621253,-0.354247213398,0.355720050323,0.0237446424329,0.970747327247,0.238872104292,-0.0050927480587
-0.340822696686,-0.128086090088,-0.379749715328,-2.11562466621,-0.0914101079106,2.02720355988,-1.16476893425,0.0386297293007,-0.121236555278,-0.182652980089,-0.100368067622,0.00147386128083,-0.0120793003589,-0.183994084597,-0.44953006506,0.383829163175,-0.355758596318,0.356780713736,0.0231271384831,0.970431795482,0.240213161864,-0.00499022476905
-0.339565545321,-0.145146593451,-0.377338320017,-2.11521935463,-0.0915849134326,2.01805400848,-1.19167852402,0.0386330150068,0.135860219598,-0.30387917161,0.167539939284,0.0237685181201,0.00100348086562,-0.102940477431,-0.349080711603,0.383191951091,-0.353085658712,0.364355927319,0.0245286021501,0.966687681206,0.254779009747,-0.000964658246446
-0.336829334497,-0.150140076876,-0.373923957348,-2.11475539207,-0.0915775448084,2.01657319069,-1.1974709034,0.0386330150068,0.185944646597,-0.2867616117,0.222946226597,0.0335223153234,-7.73758729338e-05,-0.0773662030697,-0.343719422817,0.385037888358,-0.35056847647,0.366931136038,0.0257369790709,0.965144873894,0.260446835743,0.000652494847507
-0.332741647959,-0.15588195622,-0.369055241346,-2.11396098137,-0.0915820747614,2.01523566246,-1.203586936,0.0386330150068,0.242644995451,-0.319484353065,0.293778479099,0.0484423711896,-0.000101473291579,-0.0631983950734,-0.320822298527,0.387890504976,-0.347027177592,0.370088263966,0.0274567188181,0.963139173564,0.267585384725,0.00266880342262
-0.318219453096,-0.169849812984,-0.352040708065,-2.11014533043,-0.0915784686804,2.01357269287,-1.21770906448,0.0386330150068,0.339795976877,-0.291791051626,0.396294057369,0.0990272089839,8.20361383376e-05,-0.0332244299352,-0.27703076601,0.398539033541,-0.334969799954,0.379048626921,0.0334244471944,0.956685084456,0.289075920071,0.00845976562094
-0.313005506992,-0.17410543561,-0.345782965422,-2.10856151581,-0.0915713384748,2.01329898834,-1.22166347504,0.0386330150068,0.358002722263,-0.264540910721,0.435084551573,0.110637784004,-0.00026094954228,-0.00863729882985,-0.247297585011,0.402420703147,-0.330571327126,0.382060517498,0.0355855962497,0.95437955265,0.296285874871,0.0103930199953
-0.30495017767,-0.17920923233,-0.335926473141,-2.10586547852,-0.0915703475475,2.01317071915,-1.22687661648,0.0386330150068,0.376678526402,-0.220891237259,0.476494729519,0.132822751999,0.000713953864761,-0.000140556265251,-0.221947789192,0.408528168156,-0.323696478918,0.386176283983,0.0387363275096,0.950813612213,0.307059193158,0.0129469435418
-0.286876171827,-0.188819900155,-0.313967734575,-2.09948801994,-0.0915636271238,2.01313972473,-1.23648512363,0.0386330150068,0.392674088478,-0.162100464106,0.4656047225,0.148764282465,-0.000279017374851,-0.000263785477728,-0.205447494984,0.422161378127,-0.307629301592,0.394922163735,0.0456191104811,0.942524611546,0.330503062173,0.0182750915268
-0.279676437378,-0.191634371877,-0.305346608162,-2.09684872627,-0.0915530025959,2.01314330101,-1.24007105827,0.0386330150068,0.408834844828,-0.16100345552,0.493678987026,0.136311501265,5.78926083108e-05,0.00122762226965,-0.193018838763,0.427041820133,-0.301621109615,0.397738846641,0.0479050573765,0.93938160778,0.338925904234,0.0199131004171
-0.273324131966,-0.194016054273,-0.297641992569,-2.09475326538,-0.091557867825,2.01315736771,-1.24308001995,0.0386330150068,0.381348311901,-0.133210793138,0.468604803085,0.128860235214,-0.00265120738186,0.00351791572757,-0.185121238232,0.431765703521,-0.295509431961,0.400358860976,0.0500485797767,0.936200647655,0.347224088458,0.0214223965184
-0.265284746885,-0.196564525366,-0.288200318813,-2.09236192703,-0.0915470346808,2.01317811012,-1.24698007107,0.0386330150068,0.380017012358,-0.114654950798,0.442695260048,0.106975965202,0.00336637953296,0.00103436061181,-0.185980856419,0.436909923164,-0.288558903005,0.402981743885,0.0522207926861,0.932541598358,0.356531235742,0.022904885254
-0.248648360372,-0.200311511755,-0.269151300192,-2.08814883232,-0.0915244147182,2.01318860054,-1.25448977947,0.0386257916689,0.325696229935,-0.062403652817,0.373073995113,0.0706840753555,0.00262339180335,-0.00457368372008,-0.141525819898,0.446100323419,-0.275373794931,0.407032737048,0.0556912306537,0.925594831881,0.37355489175,0.0250885742244
-0.243111476302,-0.201137810946,-0.262726545334,-2.08718943596,-0.0915271788836,2.01321649551,-1.25708591938,0.0386257916689,0.294840365648,-0.0204729884863,0.334871351719,0.0537542887032,0.00216179247946,0.00624692998827,-0.146436884999,0.450868969733,-0.2679645317,0.408662460502,0.0571823947615,0.921681757697,0.382835876425,0.0258766818178
-0.238066986203,-0.20144353807,-0.257081359625,-2.08643817902,-0.0915264487267,2.01321172714,-1.2594332695,0.0386257916689,0.268875002861,-0.0141136469319,0.297282367945,0.0297568570822,0.00438087061048,0.000852585420944,-0.119739048183,0.453830129492,-0.263197297752,0.409363496888,0.057908753777,0.919143697716,0.38876533601,0.0261333577028
-0.227597355843,-0.201450452209,-0.245946630836,-2.08615422249,-0.0915204137564,2.0131816864,-1.26499164104,0.0386257916689,0.176629900932,0.0126729048789,0.201445698738,-0.00826055370271,-0.000552135286853,0.00191930565052,-0.103114880621,0.459444505946,-0.253303642704,0.409831769737,0.0586931029132,0.913764607684,0.401139103856,0.0260150043529
-0.224767923355,-0.201036512852,-0.242409422994,-2.08634209633,-0.091521166265,2.01314020157,-1.26680243015,0.0386257916689,0.134179577231,0.0238630417734,0.16545599699,-0.00683082826436,0.000164814264281,0.00210754852742,-0.0889016315341,0.461025337022,-0.2503321848,0.409623831473,0.0587063546211,0.912125052875,0.404871743516,0.0256967473848
-0.22102740407,-0.199846312404,-0.23794195056,-2.08679509163,-0.0915223732591,2.01310133934,-1.27022349834,0.03862644732,0.0724438130856,0.0343329682946,0.0787844285369,-0.015956049785,0.000384016108001,-0.00151288940106,-0.0960117951035,0.463041747054,-0.246472401842,0.408914105878,0.0584572465913,0.909780898974,0.410194645373,0.0249362942266
-0.219647705555,-0.198701918125,-0.236619874835,-2.08739161491,-0.0915246233344,2.01303911209,-1.27258479595,0.03862644732,0.0201126616448,0.0378777198493,0.0205737017095,-0.0198085866868,-0.000102338999568,-0.00389992259443,-0.0780749469995,0.463648253471,-0.245149772025,0.408064033854,0.0579626226941,0.908769378385,0.412544425111,0.0242001708525
-0.219531938434,-0.198060572147,-0.23650470376,-2.08776092529,-0.0915238335729,2.01295351982,-1.27380776405,0.03862644732,-0.00528409192339,0.0408574678004,-0.00295216916129,-0.0240162890404,-0.000295152975013,-0.00606129551306,-0.0694660544395,0.463655768846,-0.244997419144,0.407547172895,0.0576167779177,0.908488498707,0.413236283837,0.0237640067985
-0.21983627975,-0.197351753712,-0.236804768443,-2.08817100525,-0.0915271490812,2.0128891468,-1.27501034737,0.03862644732,-0.0218080170453,0.0443946495652,-0.0254667326808,-0.0261880606413,-0.000240874767769,-0.00421613687649,-0.0764304473996,0.46345854496,-0.24523242278,0.406966985204,0.057220628255,0.908384995547,0.413545429661,0.0232954255742
-0.220427587628,-0.196660995483,-0.237588688731,-2.08863711357,-0.0915260389447,2.01277518272,-1.27628874779,0.03862644732,-0.0404609441757,0.040840126574,-0.0522965230048,-0.0276711191982,-7.82067290857e-05,-0.0111604025587,-0.0626674219966,0.463049425452,-0.245814221084,0.406349297372,0.0567596985538,0.908427612166,0.413542572895,0.0228068006776
-0.223867699504,-0.194912284613,-0.241556689143,-2.08990812302,-0.0915283560753,2.01232075691,-1.27827632427,0.03862644732,-0.0873470455408,0.0312820114195,-0.0985996648669,-0.0228869598359,-8.45767644932e-05,-0.00580167537555,-0.0404095314443,0.460984472366,-0.249079256839,0.404669073785,0.0553687964694,0.909608242159,0.411197687386,0.0215314593674
-0.225045025349,-0.194557487965,-0.242893412709,-2.09017252922,-0.0915283709764,2.01219558716,-1.27885210514,0.03862644732,-0.0959074944258,0.0325084663928,-0.102176912129,-0.0153718236834,-5.27789452462e-05,-0.0177222583443,-0.043481785804,0.460302649199,-0.2502035547,0.40430700933,0.0550423370789,0.910020322493,0.41034300193,0.0212596854438
-0.227542966604,-0.193902373314,-0.245360299945,-2.09051585197,-0.0915288329124,2.0119664669,-1.28006160259,0.03862644732,-0.102920874953,0.0250836256891,-0.10122551769,-0.0131092621014,-0.000121240715089,-0.0104220882058,-0.0469158068299,0.45898630554,-0.252442159465,0.403711486718,0.0545004556501,0.910812892996,0.408677437374,0.0207924541095
-0.22903893888,-0.193580687046,-0.246712490916,-2.09065842628,-0.0915304124355,2.01184034348,-1.28068733215,0.0386257916689,-0.121431723237,0.0239420123398,-0.108862534165,-0.00787055213004,1.2060334484e-05,-0.00971881207079,-0.0441133603454,0.458234908139,-0.253729920566,0.403426746763,0.0542329459331,0.911278036254,0.407686497752,0.0205632547828
-0.232842162251,-0.192974284291,-0.250362038612,-2.09088683128,-0.0915309488773,2.01151490211,-1.28219044209,0.0386257916689,-0.117886133492,0.0129689145833,-0.119011379778,-0.0075368587859,0.000139853800647,-0.0174517184496,-0.0514157041907,0.456267740823,-0.257105001955,0.402869923422,0.0536494862722,0.912511575593,0.405018078277,0.0201174794838
-0.234615236521,-0.192769497633,-0.252318799496,-2.09093856812,-0.091531932354,2.01138758659,-1.2830170393,0.0386257916689,-0.108751744032,0.0082013970241,-0.118718251586,-0.00173032179009,-0.00409058015794,-0.00365860085003,-0.0479784794152,0.455287502057,-0.258799092964,0.40267235119,0.0534156001161,0.913107531881,0.40371099467,0.0199710127204
-0.236260727048,-0.192648559809,-0.254185974598,-2.09095191956,-0.0915334224701,2.01127839088,-1.28359079361,0.0386257916689,-0.107081003487,0.00680748932064,-0.125696390867,-0.000128528306959,0.000252290308708,-0.0100898211822,-0.0252132024616,0.454363354264,-0.26039597269,0.402540432312,0.0532310243865,0.913706319071,0.402382749494,0.0198832372134
-0.238732337952,-0.192572876811,-0.256916850805,-2.09095573425,-0.0915330275893,2.01110506058,-1.28408408165,0.0386257916689,-0.111271299422,0.00362928071991,-0.123238548636,0.000698111660313,-6.56485863146e-05,-0.00664400868118,-0.0212393198162,0.453103530383,-0.26254176215,0.402414735952,0.0530090348894,0.914573665759,0.400440514955,0.0198102444156
-0.240686684847,-0.192559957504,-0.259045243263,-2.09094977379,-0.0915341079235,2.01097917557,-1.2845133543,0.0386257916689,-0.106669709086,0.000576397695113,-0.111490130424,0.00135529355612,-9.11293682293e-06,-0.0111520774662,-0.0265850592405,0.451884288644,-0.264600670352,0.402326170228,0.052821958793,0.915394451074,0.398587712101,0.0197655016196
