imanlab/tactile_prediction_flat_dataset/train/data_sample_2021-11-24-15-28-22/robot_state.csv
position_panda_joint1,position_panda_joint2,position_panda_joint3,position_panda_joint4,position_panda_joint5,position_panda_joint6,position_panda_joint7,position_panda_finger,velocity_panda_joint1,velocity_panda_joint2,velocity_panda_joint3,velocity_panda_joint4,velocity_panda_joint5,velocity_panda_joint6,velocity_panda_joint7,ee_state_position_x,ee_state_position_y,ee_state_position_z,ee_state_orientation_x,ee_state_orientation_y,ee_state_orientation_z,ee_state_orientation_w
0.12580499053,-0.00243060081266,-0.123216591775,-2.49229812622,0.000749892264139,2.49996805191,-0.765708446503,0.0739104598761,0.000180801711394,7.08117731847e-05,0.000569971976802,0.00185733078979,-9.08942965907e-05,5.50337863388e-05,0.000175572975422,0.470443760327,0.00131024075552,0.175837241435,0.00152881175241,0.927218389431,0.374486989949,0.00481820287997
0.125807955861,-0.00243306718767,-0.123216599226,-2.49229812622,0.000750365259591,2.49996995926,-0.765708506107,0.0739104598761,0.00013732156367,-0.000605379929766,0.000182100964594,0.000523376918864,-3.07081827486e-05,4.48269602202e-05,0.000297177204629,0.47044496385,0.00131176656979,0.175839048079,0.00152954194016,0.927217835067,0.374488325155,0.00482087556431
0.125807344913,-0.00243467837572,-0.123215354979,-2.49229359627,0.000750086910557,2.49997115135,-0.765705764294,0.0739104598761,0.000243201197009,0.000628003501333,-0.000147687809658,-0.000390006607631,4.37453418272e-05,-7.20298703527e-05,0.000234338847804,0.470447211702,0.00131202810311,0.175841185823,0.00153068417818,0.927218221251,0.374487327414,0.00482374077271
0.12580794096,-0.00243258778937,-0.123215205967,-2.49229884148,0.000750062288716,2.49997210503,-0.765703737736,0.0739104598761,4.37396229245e-05,0.000277355051367,0.0038810276892,0.000103708945971,0.000678818847518,0.000144504883792,-0.000121459044749,0.470444609913,0.00131233036129,0.175838256919,0.00152961967488,0.927218472506,0.374486748336,0.00482073763713
0.12580883503,-0.00242951628752,-0.123216502368,-2.49230027199,0.000750223407522,2.49997115135,-0.765705168247,0.0739104598761,0.000208831013879,-0.000348243978806,-0.000692923786119,-6.54314426356e-05,4.46720878244e-05,-1.70773000718e-05,-0.000124284604681,0.470443246304,0.00131208882837,0.175836180612,0.00152874179603,0.927218316624,0.374487171008,0.00481816343953
0.125806093216,-0.0024307705462,-0.123217009008,-2.49229955673,0.000750281382352,2.49997186661,-0.765701949596,0.0739104598761,-0.000570074247662,8.30318094813e-05,-0.000443222612375,-3.0921491998e-05,-0.000177579495357,-9.67742744251e-06,-7.79303518357e-05,0.470443784875,0.0013102866278,0.175836884968,0.00152910533823,0.92721954073,0.374484125577,0.00481918046595
0.125806421041,-0.00243177101947,-0.123214967549,-2.49229812622,0.000750256702304,2.49997258186,-0.76570135355,0.0739104598761,-0.000422304903623,-0.00066487659933,0.000100456811197,4.19462121499e-05,-5.74926798436e-06,6.24570820946e-05,-0.000453882443253,0.470444760184,0.00131178543988,0.175838188725,0.00152964821701,0.927219116337,0.374485152304,0.00482087783817
0.125805020332,-0.00243206950836,-0.123216167092,-2.49229693413,0.000749882194214,2.49997234344,-0.765700221062,0.0739104598761,0.000111264664156,-0.00330484821461,-0.000135204260005,0.000344717904227,-1.7413551177e-05,0.000168814091012,0.000163955468452,0.470445489028,0.00131048565232,0.175838777706,0.00153000292246,0.927219827076,0.374483383543,0.00482146271447
0.125807091594,-0.00243131746538,-0.123214013875,-2.49229836464,0.000750122766476,2.49997353554,-0.765696585178,0.0739111155272,-0.00032339914469,0.00106726051308,-0.000427360879257,-2.5431107133e-05,-0.00554505782202,-1.04414348243e-05,-0.00017980337725,0.470444949155,0.00131247080964,0.175837978375,0.00152977925812,0.927219755176,0.374483568172,0.00482102068387
0.125807747245,-0.00243218243122,-0.123216234148,-2.49229836464,0.00075050565647,2.49997615814,-0.765695214272,0.0739111155272,-3.12563643092e-05,-0.000548841140699,2.66345850832e-05,-0.000196888373466,-0.000256924511632,8.51178410812e-05,0.000169208346051,0.470445792855,0.00131181537152,0.1758388886,0.00153034914496,0.927220372097,0.374482011826,0.00482308009184
0.125809758902,-0.00243236473761,-0.123215258121,-2.49229645729,0.000750289589632,2.4999756813,-0.765694916248,0.0739111155272,-0.000658960198052,0.000393811031245,0.000389304099372,0.000172245621798,0.00142656581011,-8.45322065288e-05,0.000182040283107,0.470446337426,0.00131313355248,0.175839239279,0.00153050881302,0.927219841257,0.374483325582,0.00482307647574
0.125808775425,-0.0024288687855,-0.123216047883,-2.49230289459,0.000750084756874,2.49997639656,-0.765693724155,0.0739111155272,-6.91980749252e-05,0.00103706528898,0.000198988083866,-0.000253795966273,-2.98594077321e-05,8.57880804688e-05,-0.000140642456245,0.470443047413,0.00131225227016,0.17583533207,0.00152915932808,0.927220360561,0.374482097001,0.00481906032336
0.125806123018,-0.00243121408857,-0.123218752444,-2.4923017025,0.000749924860429,2.49997639656,-0.765691518784,0.0739111155272,0.000372302718461,0.000254463375313,0.000336369645083,0.000383206846891,-0.00281841843389,0.000151453816216,-0.000144527439261,0.4704439843,0.0013097710365,0.175836890057,0.00152972946595,0.927221744476,0.374478646608,0.00482072788148
0.125806897879,-0.00243381550536,-0.123215131462,-2.4922990799,0.000750220788177,2.49997806549,-0.765690207481,0.0739111155272,-0.000257771171164,0.000190831167856,-0.000327427289449,-5.63426983717e-05,-3.02584921883e-05,-0.000106713581772,-7.68527461332e-05,0.470445989716,0.00131191040671,0.175839275137,0.00153076798256,0.927221195182,0.374479960123,0.00482401342353
0.125807702541,-0.00243130838498,-0.123214945197,-2.49229955673,0.000750035280362,2.49997711182,-0.765689790249,0.0739111155272,0.000110820583359,0.00106072588824,8.07336546131e-05,0.000164359764312,-0.000136661838042,1.70539660758e-05,0.000183980577276,0.470445163827,0.00131231495658,0.175837833221,0.00153023040353,0.927221069104,0.374480298906,0.00482211781443
0.12580768764,-0.00242995307781,-0.123216636479,-2.49229979515,0.000750260835048,2.49997735023,-0.765689611435,0.0739111155272,9.61535079114e-06,-0.0006434834213,-0.000133979745442,0.000385570398066,-7.73713109083e-05,5.53558857064e-05,0.000129045685753,0.470444893778,0.00131149969227,0.175837129044,0.00152999617399,0.927221458868,0.374479342916,0.00482148722267
0.125806361437,-0.0024323570542,-0.123215459287,-2.49230122566,0.00075012614252,2.49997758865,-0.765688300133,0.0739111155272,-0.000292841083137,0.000223518087296,-9.32505281526e-05,8.49198659125e-06,2.81308007288e-06,3.86060710298e-05,-0.000560632441193,0.470444528309,0.00131189824435,0.175837643456,0.00153002414812,0.927221678853,0.374478793741,0.00482182673052
0.125805824995,-0.00243040244095,-0.123216249049,-2.49230265617,0.00075043895049,2.49997735023,-0.765687763691,0.0739111155272,-3.29218200932e-05,-0.000233788523474,-0.000438737886725,8.21388166514e-05,5.35830222361e-05,-6.29238129477e-05,-0.000262528221356,0.470443611481,0.00131082201205,0.175836226806,0.00152947099997,0.927222113354,0.37447773857,0.00482039681439
0.1258058846,-0.00243076100014,-0.123215660453,-2.49230146408,0.000750450126361,2.49997758865,-0.765686750412,0.0739111155272,0.000212396393181,-0.000479488575365,-0.00410444056615,-2.60647429968e-05,-0.000102854130091,8.78584978636e-05,0.000266941526206,0.470445160439,0.00131056451845,0.175837604877,0.00153031985163,0.927222479848,0.374476800821,0.00482248020129
0.125807926059,-0.0024305654224,-0.123217128217,-2.49230360985,0.000750123523176,2.49997973442,-0.765684485435,0.0739111155272,-0.000214239276829,-0.000420368742198,-3.29162248818e-05,-2.75473084912e-05,9.21503306017e-06,-5.00634268974e-05,-0.000165368284797,0.470443703848,0.00131138110409,0.175836147126,0.00152983490554,0.927222447745,0.374476899967,0.00482110758132
0.125808984041,-0.00243268697523,-0.123216241598,-2.49230504036,0.00075028964784,2.49997878075,-0.76568621397,0.0739111155272,-0.00013371334353,0.000364259351045,0.00028572397423,0.0004440175544,0.000115675626148,-7.65213917475e-05,-0.000398515287088,0.47044314697,0.00131234555233,0.175836495713,0.00152961584466,0.927221785455,0.374478541519,0.00482104536181
0.125807642937,-0.0024338606745,-0.123216718435,-2.4923017025,0.000750251638237,2.4999806881,-0.765684068203,0.0739111155272,1.98170782824e-05,-0.000528769567609,0.000256136292592,-1.58709062816e-05,-3.85288258258e-05,-2.6255773264e-05,0.000172002110048,0.470445328342,0.00131151574525,0.175838513144,0.00153075120334,0.927222507063,0.374476711545,0.00482404297393
0.125808402896,-0.00242936029099,-0.123217344284,-2.49230384827,0.000750272592995,2.49998164177,-0.765685021877,0.0739111155272,-0.000241085945163,-0.000136148271849,0.00015246415569,-0.000219150882913,4.64305776404e-05,1.6235619114e-05,0.000153881162987,0.470443818708,0.00131148956276,0.175835663816,0.00152995088819,0.927222319739,0.37447721376,0.00482131586978
0.125806838274,-0.0024303002283,-0.123215988278,-2.4923055172,0.000749830564018,2.4999806881,-0.765680909157,0.0739111155272,0.000179254027898,0.000203205185244,3.41994164046e-05,-7.38514281693e-05,0.000135774927912,-0.000127247491037,0.000257147388766,0.470443024721,0.00131136073738,0.175835404589,0.0015297279282,0.927223108306,0.374475270839,0.00482064001394
0.125807523727,-0.0024333933834,-0.123216435313,-2.4923017025,0.000750266422983,2.49998283386,-0.765681147575,0.0739111155272,-0.000266734918114,-0.000322755717207,0.000277096201899,0.000245856499532,-3.53768773493e-05,-2.83411191049e-05,0.000159444258315,0.470445552933,0.0013116075053,0.175838224017,0.00153098069584,0.927223004991,0.374475471422,0.00482453122773
0.125808373094,-0.00243321992457,-0.123215787113,-2.49230384827,0.000751416664571,2.49998259544,-0.76568031311,0.0739111155272,-0.000331622868543,-0.000113307120046,0.000439737283159,-0.000228713965043,-3.66904350813e-06,-9.27204309846e-05,0.000143412689795,0.470444626436,0.00131235327061,0.17583755214,0.00153028789479,0.927223075236,0.374475310298,0.00482375682572
0.125809803605,-0.00243262154981,-0.123215392232,-2.49230265617,0.000750636216253,2.49998307228,-0.765679776669,0.0739111155272,-0.000303420820273,-0.000968429143541,-0.000621068815235,-5.84631379752e-05,8.5086816398e-05,2.8849894079e-05,-0.000226927659241,0.470445199141,0.00131315429633,0.175837779176,0.00153073516045,0.927222714835,0.374476195698,0.00482415621763
0.125807106495,-0.00243344786577,-0.123216696084,-2.49230098724,0.000749966944568,2.49998283386,-0.765679299831,0.0739111155272,-9.23092229641e-05,0.00108413479757,0.00014488735178,-0.000101681733213,4.96962311445e-05,-0.000134538291604,-0.000550576369278,0.470446071252,0.00131125008278,0.175838791986,0.00153130075576,0.92722344802,0.374474365272,0.00482514228179
0.125808537006,-0.00243099266663,-0.12321511656,-2.49230575562,0.00074999948265,2.49998378754,-0.765678882599,0.0739111155272,0.00392131693661,0.000338143086992,-2.57017563854e-05,-0.000334280863171,5.14527664564e-06,-0.000229789118748,3.3006486774e-05,0.470443635401,0.00131261414387,0.175835878413,0.00153026259585,0.927222982105,0.37447556117,0.00482219062927
0.125807449222,-0.00243212562054,-0.123217001557,-2.49230575562,0.000750384118874,2.49998283386,-0.765679359436,0.0739111155272,0.000210264552152,0.000130481479573,-6.31477159914e-05,-0.000116420276754,-2.93078010145e-05,-3.85935491067e-05,-0.000163623510161,0.470443607819,0.00131126162377,0.175836321105,0.00153012801168,0.927223506444,0.374474261541,0.00482233692725
0.125808879733,-0.00243208557367,-0.123214527965,-2.49230313301,0.000749867409468,2.49998497963,-0.76567786932,0.0739111155272,0.000523782044183,0.000451840081951,-0.000179779221071,0.000177010675543,8.91183080967e-05,-4.06699873565e-05,0.000122921614093,0.470445306062,0.00131306896295,0.175837515722,0.00153114496598,0.927222966339,0.374475567169,0.00482447573427
0.125808894634,-0.00243538850918,-0.123216107488,-2.49230456352,0.000750323059037,2.49998569489,-0.765677571297,0.0739111155272,1.43315855894e-05,-0.000169641381945,-0.000514417421073,0.000257538777078,3.70119596482e-05,2.37483650523e-08,7.24717610865e-05,0.47044530183,0.0013124249008,0.175838566101,0.00153130729571,0.927223377299,0.374474531995,0.00482579109115
0.125808671117,-0.00243371538818,-0.123215578496,-2.49230217934,0.000750303268433,2.49998545647,-0.765677332878,0.0739111155272,-0.000478650617879,6.21515209787e-05,-0.000206766388146,0.000165269535501,-9.64235186984e-06,-6.19143029326e-05,-0.000256218685536,0.470446117161,0.00131253677704,0.17583869026,0.00153149779675,0.927223360558,0.374474570282,0.00482597613558
0.125808507204,-0.00243171839975,-0.123217284679,-2.4923055172,0.000750022474676,2.4999859333,-0.765674233437,0.0739111155272,8.45908216434e-05,0.000300227373373,5.81803542445e-05,-0.000259857421042,4.72554202133e-05,-3.05069606839e-05,-0.0001287299674,0.470444332186,0.00131159772764,0.175836503184,0.00153078443785,0.927224260474,0.374472374874,0.00482365285565
0.125807985663,-0.00243456987664,-0.123216591775,-2.49230360985,0.000750336155761,2.49998688698,-0.765675246716,0.0739111155272,-0.000178614151082,0.000218635846977,-2.48943815677e-05,0.000427861872595,-7.19105955795e-05,-0.000168561586179,5.5929467635e-05,0.470445887418,0.00131175577987,0.175838662059,0.00153159589051,0.927224072301,0.374472802178,0.00482639336996
0.125807106495,-0.00243207952008,-0.123217985034,-2.49230384827,0.000750396808144,2.49998760223,-0.765672922134,0.0739111155272,-0.000501644448377,0.000196970780962,-0.00024109838705,-2.93154789688e-05,-2.57107167272e-05,-6.25845350442e-05,0.000184875563718,0.470445545167,0.00131064181821,0.175837470983,0.00153134834383,0.927224946746,0.374470650559,0.00482541791852
0.125805795193,-0.00243231747299,-0.123217046261,-2.4923043251,0.000749979924876,2.49998807907,-0.765671849251,0.0739111155272,2.42059086304e-05,1.55463965257e-06,0.000219328358071,8.86503548827e-05,-0.00013468589168,2.13082603295e-05,0.0001168607414,0.470445461135,0.00131044529496,0.175837439857,0.00153149481776,0.927225154616,0.37447013437,0.0048254864065
0.125809103251,-0.00243278080598,-0.123214304447,-2.49230861664,0.000751392450184,2.49998831749,-0.765669763088,0.0739111155272,-0.000100858393125,7.27216392988e-05,0.000444823934231,4.13891066273e-05,-5.22765585629e-05,-0.000129758147523,0.000169265360455,0.47044354596,0.00131338039034,0.17583600998,0.00153038861006,0.927224631896,0.374471452437,0.00482399308533
0.125808313489,-0.00242996751331,-0.123215615749,-2.49230527878,0.0007518469356,2.49998927116,-0.765666842461,0.0739111155272,-2.99524399452e-05,-9.03413892956e-05,0.000208003970329,-3.13202253892e-05,-8.9358232799e-05,-6.73970644129e-05,0.000467775855213,0.470444897956,0.00131236856479,0.175836079799,0.00153069771264,0.927225636444,0.374468955008,0.00482467658989
0.12580807507,-0.00243421038613,-0.123216472566,-2.49230289459,0.00075259647565,2.49999141693,-0.765664637089,0.0739111155272,-0.000410634791479,0.000294703204418,0.000148762628669,0.000473580468679,-0.000456627836684,1.9420263925e-05,0.000175884953933,0.470447157379,0.00131198614538,0.175839181001,0.00153186906794,0.927226346122,0.374467138343,0.0048289150219
0.125805258751,-0.00243186042644,-0.123216740787,-2.49230647087,0.000751644023694,2.49999332428,-0.765665411949,0.0739111155272,0.000178658068762,-0.000404857739341,0.00296518951654,-0.00295799644664,-7.95607120381e-05,-4.3305624331e-07,-0.000182622185093,0.470445518248,0.0013104278386,0.175836865658,0.00153153463625,0.927226645838,0.374466423624,0.00482689453597
0.125809311867,-0.0024342557881,-0.123214915395,-2.49230933189,0.000751328654587,2.49999189377,-0.765664458275,0.0739111155272,0.000112395937322,-0.000372936046915,-0.000191012528376,-4.40703879576e-05,-8.99528167793e-05,-0.000136608738103,8.51725708344e-05,0.470444199127,0.00131322869331,0.17583668715,0.0015311170261,0.927225609943,0.374469002302,0.0048259656174
0.125809580088,-0.00243117148057,-0.123214334249,-2.49230670929,0.000751931453124,2.49999117851,-0.765663385391,0.0739111155272,0.000456208013929,0.000729890889488,-0.000440151168732,5.47947774976e-06,1.58535294759e-05,3.81824793294e-05,-0.000325957458699,0.470444821231,0.00131359478906,0.175836258107,0.00153090394013,0.927225815526,0.374468500213,0.00482549339885
0.125809162855,-0.00243095192127,-0.1232162714,-2.49230599403,0.000750753097236,2.49999213219,-0.765665769577,0.0739111155272,-0.000650561822113,0.00286434637383,-0.000194067077246,0.00029353419086,0.000141460564919,9.64317514445e-05,-0.00018370700127,0.470445336708,0.00131241336498,0.175836519325,0.0015315253144,0.927225630641,0.374468948597,0.00482602655374
0.125807374716,-0.00243166764267,-0.123216234148,-2.49230337143,0.00075139827095,2.49999189377,-0.765664160252,0.071547113359,-0.000257273466559,0.000469550897833,-0.000149678671733,-0.000226566946367,6.82917598169e-05,-0.000220919013373,0.000350256013917,0.470446639961,0.00131164566952,0.175837851452,0.00153188007936,0.92722634885,0.374467149125,0.00482755129738
0.125807121396,-0.00243172002956,-0.123215973377,-2.49230718613,0.000751039304305,2.49999213219,-0.765662908554,0.071547113359,0.000344630447216,0.000195794011233,-0.000111706096504,-0.00040726174484,-6.65444895276e-05,4.07170628023e-05,-2.83494027826e-05,0.47044489445,0.0013116242182,0.175836414625,0.00153131916818,0.927226536533,0.374466708267,0.00482587749529
0.125808447599,-0.00243252818473,-0.123216733336,-2.49231004715,0.000751788087655,2.49999213219,-0.765661537647,0.071547113359,0.000362128746929,-0.000183657277375,-0.00016138763749,-0.000294468103675,-5.85285561101e-05,6.105437933e-05,2.22757880692e-05,0.470443665293,0.00131194900435,0.175835679768,0.00153067509179,0.92722680389,0.374466059862,0.0048250260694
0.125807657838,-0.00243225763552,-0.1232169047,-2.49230885506,0.000751701183617,2.49999308586,-0.765661120415,0.071547113359,-0.000166357815033,-0.000368418230209,0.000257965555647,7.70247279434e-05,5.1980598073e-05,5.05579373566e-05,-1.40440188261e-05,0.470444270578,0.00131114702754,0.175835990787,0.00153072180578,0.927227460797,0.374464424618,0.0048256827607
0.125807270408,-0.00243417150341,-0.123215690255,-2.49230718613,0.000752049847506,2.49999260902,-0.76566183567,0.071547113359,-0.000373400718672,-0.000457947171526,0.000129270963953,9.56455915002e-05,-4.51460582553e-05,5.35218496225e-05,-0.000249725097092,0.470445514736,0.00131195326944,0.175837760565,0.00153148470129,0.927226824589,0.374465972359,0.00482758178796
0.12580768764,-0.00243281037547,-0.123215608299,-2.49230933189,0.000751710904296,2.49999403954,-0.765660524368,0.0672866627574,-8.62175875227e-05,-0.000774633081164,-0.000266224669758,-0.000136292364914,7.66923130868e-06,-8.27216572361e-05,-4.04924503528e-05,0.470444463444,0.00131212270963,0.175836261756,0.00153121909041,0.927226907064,0.374465784827,0.00482637147456
0.125806823373,-0.00243030185811,-0.123215585947,-2.49231028557,0.000753201544285,2.49999475479,-0.765660643578,0.0672866627574,-0.000109516367957,8.75773985172e-05,5.31258847332e-05,-0.000137218245072,4.60650007881e-05,-3.96964642277e-05,-5.22769441886e-05,0.470444051928,0.00131160542382,0.175834979205,0.00153055606429,0.927227298878,0.374464828075,0.00482553960424
0.125806629658,-0.0024287244305,-0.123216606677,-2.49230980873,0.000752402411308,2.49999475479,-0.765658795834,0.0672866627574,0.000256701518083,-0.000511992548127,0.000209567457205,0.000453420565464,5.19956265634e-05,9.23711486394e-05,5.88454786339e-05,0.470444117795,0.00131143187699,0.175835064044,0.00153092349038,0.927227518965,0.374464283307,0.00482540763502
0.12580960989,-0.00243292958476,-0.123215213418,-2.49230742455,0.000752557418309,2.49999380112,-0.765659272671,0.0672866627574,0.00368540128693,0.000731171865482,-0.00045962628792,0.000354344549123,-3.39837570209e-05,-1.75281711563e-05,0.000264527043328,0.4704454209,0.00131325639162,0.175836953921,0.00153123566668,0.927226956076,0.374465653081,0.00482717205805
0.125806614757,-0.0024289644789,-0.123216629028,-2.49231219292,0.000751357816625,2.49999713898,-0.76566016674,0.0672866627574,8.65384208737e-05,0.000654923613183,-0.000286686612526,-0.000287352217129,-6.69492073939e-05,-5.52968558623e-05,0.000202225885005,0.470443188209,0.00131103890266,0.175833633472,0.00153087536229,0.92722732183,0.374464782276,0.00482458190861
0.125807464123,-0.00243212212808,-0.123214654624,-2.49231052399,0.00075125292642,2.49999785423,-0.765655755997,0.0672866627574,0.000283055822365,-2.06668664759e-05,0.000232332589803,0.000306330010062,-0.000131358552608,0.00159345765132,-0.000305003748508,0.470444622968,0.0013124246106,0.175835821268,0.00153173613957,0.927227590486,0.374464079682,0.00482720803228
0.125809714198,-0.00243095285259,-0.123215958476,-2.49231052399,0.000751683372073,2.49999833107,-0.765654563904,0.0672866627574,0.000425129721407,-8.5002517153e-05,0.000163535383763,-0.000136059650686,-3.28449677909e-05,-1.41696209539e-05,-0.000109065542347,0.470444544052,0.00131277356959,0.175835319606,0.00153147741006,0.927227764828,0.374463652439,0.00482694458102
0.125806078315,-0.00243321224116,-0.123217619956,-2.49230980873,0.000752278254367,2.50000143051,-0.765651226044,0.0672866627574,-0.000235540122958,-3.49376823578e-05,1.92696334125e-05,-0.000223078997806,0.00016934479936,-0.000137446870212,-0.000191795799765,0.470445916939,0.00131046446786,0.1758369305,0.00153238394597,0.927229394102,0.374459577015,0.00482984234181
0.125806614757,-0.00243348092772,-0.123216740787,-2.49231171608,0.000752861145884,2.50000166893,-0.765650272369,0.0672866627574,4.54768232885e-05,0.000318313599564,-0.000617539917585,-0.000522727612406,-7.43220662116e-05,1.46285458413e-06,0.000138095681905,0.470445106085,0.00131116867253,0.175836336199,0.0015319401478,0.92722939799,0.374459576658,0.00482926455546
0.125807240605,-0.00243355846033,-0.123216874897,-2.49231266975,0.000753863656428,2.50000190735,-0.765645503998,0.0672866627574,-0.000342805898981,0.000281975924736,-0.00212825648487,0.000374379829736,-2.87498314719e-05,-6.75627006785e-06,9.04326225282e-05,0.470444717969,0.00131146133336,0.175836023229,0.00153152387057,0.92723034993,0.374457223473,0.00482908652721
0.125809669495,-0.00243234820664,-0.123216114938,-2.49230837822,0.000753489031922,2.50000286102,-0.765645861626,0.0672866627574,0.000194230524357,0.000217538385186,-0.00033073296072,0.000301028165268,-0.000136576360092,-5.83215987717e-05,-2.54658643826e-05,0.4704467646,0.00131291978562,0.175837212456,0.00153244429686,0.927229620485,0.374459002618,0.00483089555725
0.125807449222,-0.00243167742155,-0.123216696084,-2.49231076241,0.000753625354264,2.50000190735,-0.765644192696,0.0663193911314,-0.000662531412672,-0.000232898528338,-0.00039600834134,0.000450248131528,-0.000100728721009,-0.000132887405925,-0.000329577102093,0.47044523343,0.00131180235731,0.175835718867,0.00153167911199,0.92723046659,0.374456935914,0.00482893532529
0.125808224082,-0.00243133096956,-0.123216994107,-2.49231052399,0.000752921623643,2.50000333786,-0.765645027161,0.0663193911314,0.000710983353201,-0.000159159200848,0.00258366577327,0.000131577995489,3.2111616747e-05,7.57873640396e-05,0.000156199545017,0.470446395622,0.00131287968167,0.175837041926,0.00153233070734,0.927230084089,0.374457853418,0.00483102676192
0.125807568431,-0.00243300152943,-0.123217195272,-2.49231290817,0.000752587162424,2.50000429153,-0.765644788742,0.0663193911314,0.000329313043039,-0.00105883309152,-0.000198697089218,-1.41307482409e-05,-1.79068792932e-05,-0.000130789470859,-0.000389205029933,0.470445038391,0.00131137727663,0.175835885498,0.00153220746297,0.927230288264,0.374457365842,0.00482967040482
0.125807538629,-0.00243067112751,-0.123219594359,-2.49231052399,0.000754755106755,2.50000309944,-0.765645205975,0.0663193911314,0.00366970547475,-0.000238754175371,0.000133003122755,-0.000129991633003,-0.000127938081278,-4.13411180489e-05,0.000100798926724,0.470445546423,0.00131032308205,0.175835616435,0.00153152944946,0.927230991087,0.374455632561,0.0048293387864
0.125809937716,-0.00243314658292,-0.123215802014,-2.49231028557,0.000754062784836,2.50000357628,-0.765645265579,0.0516212247312,-0.000446152465884,7.36692818464e-05,-0.00023198130657,6.11479772488e-05,3.02919397654e-05,-6.58307399135e-05,-9.62793419603e-05,0.4704461414,0.0013132416992,0.175836908397,0.00153216168255,0.927229709986,0.374458783473,0.00483079332791
0.125807151198,-0.0024310585577,-0.123215220869,-2.49231362343,0.000753345666453,2.50000333786,-0.765644192696,0.0516212247312,-0.000658510136418,-0.000496579974424,0.00029173961957,0.000414842070313,6.58905219098e-06,4.21268960054e-05,-0.000121008873975,0.470444186828,0.00131211556597,0.175834614598,0.00153143388559,0.927230229894,0.374457534533,0.00482804272019
0.125806778669,-0.00243250071071,-0.123215764761,-2.49231052399,0.000753016560338,2.50000596046,-0.765643537045,0.0516212247312,6.18172680333e-06,0.0004998043878,-2.74079266092e-05,0.000233706712606,0.000110075590783,0.000103358623164,-0.000337830104399,0.470446452051,0.00131169755831,0.175836729201,0.00153277507131,0.927230458508,0.374456920188,0.00483135829226
0.125808045268,-0.00243183062412,-0.123217999935,-2.49231219292,0.000752607127652,2.50000452995,-0.76564258337,0.0516212247312,0.000135919894092,8.29743876238e-05,-5.64914735151e-05,2.49356271524e-05,9.19700905797e-05,-1.36324388222e-05,0.000208225814276,0.470445246783,0.00131120235881,0.175835638234,0.0015322244969,0.927230765999,0.374456184347,0.00482955083645
0.125808909535,-0.00243322690949,-0.123216070235,-2.49231171608,0.00075286696665,2.50000667572,-0.765641987324,0.0516212247312,0.000558723229915,-6.48748173262e-05,6.23546584393e-05,-7.31404215912e-05,4.1000868805e-05,-5.42847301404e-05,0.000114641334221,0.470446154596,0.0013125606226,0.175836669351,0.00153281252812,0.927230384071,0.374457102863,0.00483147389927
0.125806882977,-0.00243373564444,-0.123216286302,-2.49231028557,0.000751946761739,2.50000619888,-0.765641510487,0.0516212247312,-0.00015232777514,0.000291350617772,-0.000614206248429,0.00022212282056,3.8357637095e-05,8.36466915644e-06,0.000227006443311,0.470446810111,0.00131146138586,0.175837419844,0.0015333160225,0.927230752362,0.374456181302,0.00483205804429
0.125806868076,-0.0024334678892,-0.123215503991,-2.49231147766,0.000754311447963,2.50000715256,-0.765640616417,0.0516212247312,0.000352683156962,0.000469931284897,-0.00138542708009,-0.000547548115719,-9.18421646929e-05,3.74443766304e-06,0.00015104317572,0.470446410814,0.00131195907159,0.1758369177,0.00153257347847,0.927231130442,0.3744552478,0.00483208398271
0.125808238983,-0.0024334222544,-0.123217009008,-2.49231290817,0.000753423257265,2.50000667572,-0.765639066696,0.0516212247312,-6.3522088567e-06,-0.000445331912488,6.86039493303e-05,-0.000247236981522,3.92330839531e-05,-7.57761008572e-05,0.00037242542021,0.470445635108,0.00131195594354,0.175836089815,0.00153235923438,0.927231336898,0.374454752694,0.00483090241006
0.125808015466,-0.00243151979521,-0.12321780622,-2.49231100082,0.000753971398808,2.50000810623,-0.765640556812,0.0516212247312,0.000480341783259,0.000322452338878,-2.24279901886e-05,-0.000395400944399,5.89605915593e-05,6.38177516521e-05,-0.000173566557351,0.470446542221,0.001311358525,0.175836279192,0.00153268635085,0.927231308237,0.374454811162,0.00483176773199
0.125807583332,-0.0024328280706,-0.123216323555,-2.49231076241,0.000753929140046,2.50000762939,-0.76564013958,0.0516212247312,-9.76642186288e-05,-0.000454917695606,-0.000207339209737,0.000578868144657,-0.000190996448509,0.000168566271896,0.000338883080985,0.470446908168,0.00131176464187,0.175837156032,0.00153302977624,0.927231154931,0.374455180302,0.00483247080315
0.12580858171,-0.00243119965307,-0.123215302825,-2.49231314659,0.000754727981985,2.50000715256,-0.765640199184,0.0516212247312,-0.000619072117843,0.000949601642787,0.000600910978392,6.61508966004e-05,-0.000117394884001,4.71372986794e-05,-0.000294439290883,0.470445264587,0.00131283844623,0.175835209994,0.00153185177712,0.927230921408,0.374455791883,0.00483026129087
0.12580640614,-0.00243173586205,-0.123216576874,-2.49231362343,0.000752531399485,2.50000739098,-0.765637338161,0.0516212247312,0.000450422754511,0.000261625944404,0.000369020621292,-0.000340891449014,-7.53804415581e-05,0.000110367625894,0.000106064791908,0.470445179206,0.00131109317474,0.175835296222,0.00153249002103,0.927231774278,0.374453678641,0.00483016352468
0.125807344913,-0.00243369140662,-0.123215548694,-2.49231243134,0.000754267326556,2.50000953674,-0.765637099743,0.0512607134879,-3.40514379786e-05,0.000314220582368,-1.48797116708e-05,-0.000159189672559,-6.18587364443e-05,1.05616400106e-05,-8.54878671817e-05,0.470446513658,0.00131216393405,0.175836866423,0.00153287151485,0.927231697679,0.374453832043,0.0048328537664
0.125808179379,-0.0024328364525,-0.123217128217,-2.49231219292,0.000753713829909,2.50000858307,-0.765635609627,0.0512607134879,0.000280981941614,-0.000228545526625,0.000139796509757,0.000127965206048,0.000145243568113,-0.000184191929293,-8.51974036777e-05,0.470446286183,0.00131176356002,0.175836473649,0.00153278023097,0.927232037089,0.374453002366,0.00483204760929
0.125808924437,-0.00242985994555,-0.123216420412,-2.49231290817,0.000753992469981,2.50000977516,-0.765635490417,0.0512607134879,7.45408251532e-05,-0.000500719761476,0.000393509370042,0.000412507361034,8.72731616255e-05,-3.7373694795e-05,0.00214353762567,0.470445794035,0.00131227071473,0.175835069425,0.00153246947058,0.92723187902,0.37445340836,0.00483101616988
0.125809058547,-0.0024309665896,-0.123216770589,-2.49231266975,0.000755400105845,2.50001335144,-0.765631735325,0.0512607134879,-0.000108213105705,0.000311872048769,5.86749047216e-05,-0.000376258889446,7.26215075701e-05,-6.74008731494e-07,0.000112610447104,0.470446807082,0.00131241173707,0.175835845552,0.00153285791099,0.927232777288,0.374451152617,0.00483332765396
0.125809460878,-0.00243153329939,-0.123215958476,-2.49231362343,0.000756234338041,2.50001120567,-0.765631258488,0.0512607134879,-0.000142512697494,-0.000246533192694,4.59582151962e-05,0.000339322228683,2.21596728807e-05,-2.684186029e-06,6.6179127316e-05,0.470445974367,0.00131304261193,0.175835546024,0.00153211664204,0.927232769582,0.37445118854,0.00483225798607
0.125808745623,-0.00243179849349,-0.123215913773,-2.49231076241,0.000755034445319,2.50001263618,-0.765631198883,0.0512607134879,-8.14004670247e-05,0.000691239431035,-0.000109193046228,2.14038500417e-05,0.000133301698952,3.58832767233e-05,0.000189413593034,0.470447567349,0.00131260551649,0.175836453216,0.00153324119757,0.927232737928,0.374451244287,0.00483365514725
0.125807493925,-0.00243382947519,-0.123216129839,-2.49231266975,0.000754282635171,2.50001311302,-0.76563167572,0.0512607134879,0.000977946561761,0.000291003205348,0.000308342569042,0.000165304445545,-0.000138565388625,-2.6830490242e-05,-0.000188101068488,0.470447202846,0.00131196555434,0.175837160746,0.00153349402323,0.927232788506,0.374451107424,0.00483447493691
0.125808313489,-0.00243206531741,-0.123214632273,-2.49231410027,0.000754262029659,2.50001215935,-0.765631079674,0.0512607134879,-0.000247234245762,0.00127236696426,0.000116699891805,0.000948380620684,-0.000104214821476,3.30042275891e-05,0.000209445541259,0.470446098275,0.00131286423132,0.175835490074,0.0015328583144,0.927232498818,0.374451854233,0.0048323933736
0.125809311867,-0.00243327696808,-0.123215101659,-2.49231719971,0.000754938519094,2.50001263618,-0.765632450581,0.0512607134879,-0.000327877118252,-0.000370131368982,-0.000277365325019,0.000361134443665,-0.000116496135888,-7.5580437624e-06,0.000134676301968,0.470444864632,0.00131332772666,0.1758350991,0.00153230483212,0.927232221542,0.374452548705,0.00483195903183
0.125807344913,-0.00243461504579,-0.123217113316,-2.4923145771,0.000754076987505,2.50001311302,-0.765631079674,0.0437274351716,-0.000101767509477,0.00047264326713,-0.000119217133033,-7.50845720177e-05,0.000116904855531,7.45522702346e-05,0.000139638883411,0.470446423933,0.00131143407306,0.175836785966,0.00153329706942,0.927233084117,0.374450383049,0.0048339463557
0.125807732344,-0.00243062712252,-0.123217284679,-2.49231171608,0.000753089087084,2.50001382828,-0.765628874302,0.0437274351716,-7.79153924668e-05,-0.000542134745046,0.000109773725853,-1.48373765114e-05,-0.000105106279079,0.00013832373952,0.000414071284467,0.470447312249,0.00131140075263,0.175836100599,0.00153372397103,0.927233309851,0.374449827194,0.00483356924229
0.125808253884,-0.00243048416451,-0.123215340078,-2.4923145771,0.000753529311623,2.50001358986,-0.76562666893,0.0437274351716,0.000302426808048,-0.000157620888785,0.000116868664918,7.45193683542e-05,-0.000139506082633,-8.67581475177e-05,0.00029906805139,0.470445880467,0.00131258077705,0.175834900528,0.00153299700212,0.927233334379,0.374449788215,0.00483211403708
0.125808298588,-0.00242973165587,-0.123216211796,-2.49231600761,0.000755740504246,2.50001311302,-0.765627682209,0.0437274351716,-0.000307281239657,-0.000990916159935,-4.87501820317e-05,-0.000189342754311,-9.42522892728e-05,-5.72152748646e-05,-0.000357320241164,0.470444982762,0.00131230935238,0.175833950098,0.0015319311999,0.92723363588,0.374449058915,0.00483111184659
0.125809207559,-0.00243566511199,-0.123216360807,-2.49231362343,0.000754852546379,2.50001382828,-0.765627324581,0.0437274351716,-9.05791166588e-05,-0.000719961419236,0.000223285707762,-0.000330456707161,-2.45874271059e-05,-9.5320676337e-05,-0.00261929933913,0.470447191598,0.0013127330747,0.175837711605,0.00153351031734,0.927233407056,0.37444956476,0.00483532007281
0.125806689262,-0.0024315235205,-0.123216152191,-2.49231338501,0.000753787229769,2.50001502037,-0.765627980232,0.0437274351716,-8.8070773927e-05,0.000837437110022,0.000177165624336,-0.000163338816492,0.000110942732135,9.10955568543e-05,0.000113663219963,0.470446921858,0.0013115009243,0.175835978119,0.00153355369943,0.927233563914,0.374449195015,0.00483385983871
0.125807061791,-0.00243311794475,-0.123217396438,-2.49231410027,0.000755204237066,2.50001525879,-0.765628099442,0.0437274351716,-0.00017858670617,-0.000143496785313,4.6752509661e-05,-0.000561977212783,0.000134016241645,-5.2051662351e-05,-0.000449712068075,0.4704468848,0.00131120785213,0.175836465915,0.00153327318343,0.927233913872,0.374448320434,0.0048345678137
0.125810369849,-0.00243159849197,-0.123214557767,-2.49231481552,0.000755523855332,2.50001382828,-0.765626847744,0.0437274351716,1.53917517309e-06,0.000146834587213,0.000407487648772,0.000103253332782,-2.5998710953e-06,-6.63195896777e-05,-9.00248051039e-05,0.470445989347,0.00131408655169,0.175835349832,0.00153257586999,0.927233053559,0.374450475458,0.00483287817276
0.125811681151,-0.00243506371044,-0.123214229941,-2.49231290817,0.000754231354222,2.50001645088,-0.76562666893,0.0437274351716,-0.00223782728426,-0.000307714130031,-0.000277937448118,0.000421805510996,7.44434291846e-05,-7.65178556321e-05,-0.0029335625004,0.470448002514,0.00131485069702,0.175837945704,0.00153421872932,0.927232568707,0.374451622427,0.00483651186833
0.125808626413,-0.0024356956128,-0.123216256499,-2.49231386185,0.000754083739594,2.50001692772,-0.765625357628,0.0429742373526,0.000207794117159,0.000275408994639,-0.000239867338678,0.000238993321545,-0.000128537110868,4.77340036014e-05,0.000115031230962,0.470447779201,0.00131254665368,0.175837970302,0.00153422622428,0.927233685373,0.374448855386,0.0048366561589
0.125805333257,-0.00242880638689,-0.123219192028,-2.49231529236,0.000755159126129,2.50001525879,-0.765624403954,0.0429742373526,-0.000492396880873,0.000458110647742,-0.000217168490053,-0.000167055550264,2.27619184443e-05,-9.01269449969e-05,-0.000162143463967,0.470445461777,0.00130947076955,0.175833662737,0.00153236252943,0.927235279654,0.374444980549,0.00483158933994
0.125806719065,-0.00242928834632,-0.123217560351,-2.49231934547,0.000754621636588,2.5000166893,-0.765624701977,0.0429742373526,0.000184430755326,0.000322139705531,0.00024084575125,0.00076103390893,2.90016996587e-05,7.05772545189e-05,-0.000117570387374,0.470443969014,0.00131068098464,0.175832812364,0.00153212292355,0.927234677418,0.374446481314,0.00483093240115
0.125807642937,-0.00242982013151,-0.1232162714,-2.49231719971,0.000754023669288,2.50001621246,-0.765623271465,0.0429742373526,-0.000279078172753,0.000112959154649,-0.000560044893064,5.5512678955e-05,9.62317280937e-05,-7.0161819167e-05,8.25366441859e-05,0.470445318127,0.00131188186034,0.175834053144,0.0015328677333,0.927234413458,0.374447115321,0.00483221761698
0.125809371471,-0.00243283109739,-0.123214416206,-2.49231338501,0.000754811044317,2.50001692772,-0.765626490116,0.0429742373526,-0.000141283206176,-0.00079447729513,0.000179359834874,8.45615650178e-05,4.22884695581e-05,7.59163958719e-05,0.000218396977289,0.470447535887,0.00131366727895,0.175836760973,0.00153377733802,0.927233161234,0.374450170116,0.00483549573781
0.125805109739,-0.0024290708825,-0.123219132423,-2.49232077599,0.000755389395636,2.50001597404,-0.76562166214,0.0429742373526,1.44182822623e-05,-0.000442604272394,-0.0029823819641,-0.000140353702591,-8.02173890406e-05,3.2644966268e-05,-7.89498080849e-05,0.470443254455,0.00130939775556,0.175832045748,0.00153158785509,0.927235860649,0.374443567204,0.00482986835094
0.125807121396,-0.00243161758408,-0.123216375709,-2.49232459068,0.000755012850277,2.50001621246,-0.765622496605,0.0429742373526,0.000343894964317,0.000791886763182,0.000253808015259,-0.000889855495188,-9.73394198809e-05,5.40583241673e-05,0.000476035493193,0.470441891735,0.00131166322603,0.175831773854,0.00153134656439,0.927234758032,0.374446304637,0.00482939970621
0.125809744,-0.00243275053799,-0.123216293752,-2.49232530594,0.000754833279643,2.50001621246,-0.76562076807,0.0429742373526,-4.8198071454e-05,0.000149187762872,-0.00221621338278,0.000679316639435,5.51294397155e-05,-4.47078818979e-05,-3.30453076458e-05,0.470441726291,0.00131294620662,0.175832024795,0.00153139764461,0.927234547564,0.374446823041,0.00482959871447
0.125809922814,-0.00243616965599,-0.123214147985,-2.49231338501,0.000754805281758,2.50001740456,-0.765622258186,0.0429742373526,0.000133828827529,6.4685002144e-05,-0.00028240296524,-0.00217915815301,0.000110140768811,-0.000149770494318,7.95776941231e-05,0.47044815937,0.00131411840262,0.175838362781,0.00153428178866,0.927233790479,0.374448586131,0.00483733413984
0.125809296966,-0.00243264297023,-0.123215928674,-2.49232912064,0.000754943408538,2.50001645088,-0.765621244907,0.0429742373526,-0.000177737470949,0.000680388242472,0.000204954398214,-0.000788096338511,-0.000116608112876,7.4486619269e-05,0.000383003411116,0.470439615152,0.00131277656474,0.175830093651,0.00153056092278,0.927234636139,0.374446634102,0.00482750662534
0.125807598233,-0.00242925994098,-0.123218744993,-2.49232721329,0.000755058368668,2.50001764297,-0.765621066093,0.0429742373526,0.000273218960501,-0.00059046165552,0.000766546989325,0.000190749677131,-2.42901910497e-06,-6.24254535069e-05,0.000237133208429,0.470440597019,0.00131072771572,0.175829782391,0.00153081004746,0.927235395319,0.374444750488,0.00482771198691
0.125806435943,-0.00242948275991,-0.123218782246,-2.49231958389,0.000755460408982,2.50001740456,-0.765621244907,0.0429742373526,7.41957701393e-05,0.000498831097502,1.44161313074e-05,0.000446777325124,-1.50153900904e-05,3.12219199259e-05,3.92749498133e-05,0.470444192777,0.00131020053194,0.175832830523,0.00153210416048,0.927235628504,0.374444121562,0.0048312939186
0.125809505582,-0.00243138009682,-0.123216383159,-2.49232506752,0.000755209592171,2.5000166893,-0.765620827675,0.0429742373526,0.000131758337375,0.000658421020489,-2.6903961043e-05,0.00044585193973,9.24818014028e-05,-6.63831888232e-05,-0.000184665768757,0.470441729842,0.00131278822072,0.175831520647,0.00153125161215,0.92723465548,0.374446560131,0.0048293099966
0.125809773803,-0.00243388884701,-0.123217090964,-2.49232149124,0.000754968321417,2.50001621246,-0.765619695187,0.041419249028,2.51677442975e-06,-0.000493028492201,-0.000199943286134,-0.000144059595186,9.84838698059e-05,-0.000151900108904,0.00010345858027,0.470443710475,0.00131262035432,0.175834038956,0.00153221303654,0.927234900665,0.374445915186,0.00483193505062
0.125808537006,-0.00243066763505,-0.123215951025,-2.49233078957,0.000755755521823,2.50001811981,-0.765619337559,0.041419249028,-0.00302706402726,0.00042899872642,-6.30909198662e-05,-0.000577451544814,-0.000194976892089,0.000199244910618,-0.000143821685924,0.470438837234,0.0013124520874,0.175828673566,0.0015300653802,0.92723508239,0.374445543471,0.00482654577588
0.125808253884,-0.00243007694371,-0.123216561973,-2.49233078957,0.000755435845349,2.50001764297,-0.765618026257,0.041419249028,-0.000154674227815,-0.000452473061159,0.000316354387905,-0.00045534610399,-9.01126477402e-05,3.84368540836e-05,-0.000275692058494,0.470439209044,0.00131214036551,0.175828826453,0.0015301549304,0.927235571774,0.374444330695,0.00482658862251
0.125807464123,-0.00243257009424,-0.123216383159,-2.4923312664,0.000755238346756,2.50001692772,-0.765618443489,0.041419249028,0.000372623850126,-1.18875150292e-05,0.000368219916709,0.000541317393072,-7.74214640842e-05,-2.55192535406e-05,8.27508338261e-05,0.470439035727,0.00131184624575,0.175829688212,0.00153028584783,0.927235499683,0.374444501795,0.0048271224965
0.125809043646,-0.00243289396167,-0.12321613729,-2.49232816696,0.00075433641905,2.50001788139,-0.765617728233,0.041419249028,5.70057454752e-05,-0.000627182947937,0.00201110541821,0.000152242180775,-3.12743613904e-05,7.75122534833e-05,0.000135112932185,0.470440732875,0.00131323039333,0.175831458807,0.00153123423945,0.927235000307,0.37444570821,0.00482916281042
0.125809505582,-0.00242972257547,-0.123215474188,-2.49232959747,0.000754990614951,2.50001692772,-0.765617072582,0.041419249028,0.000249934382737,0.000618094869424,0.00281784543768,5.15703541168e-05,9.63748880167e-06,-7.36912115826e-05,-0.000124612182844,0.470439377936,0.00131316459289,0.175829007581,0.0015302929544,0.927235169581,0.374445327277,0.00482649568112
0.125808984041,-0.00242628785782,-0.123217299581,-2.49232888222,0.000755925662816,2.50001716614,-0.765616357327,0.041419249028,-0.000116968411021,0.000625135027803,0.000106031606265,0.000109459324449,8.00021662144e-05,-0.000147968152305,0.00529732694849,0.470439235821,0.00131205096873,0.175827703276,0.00152977260512,0.927235888185,0.374443564279,0.00482538189764
0.125809386373,-0.00242921058089,-0.12321574986,-2.49232935905,0.00075544876745,2.50001740456,-0.765616834164,0.041419249028,0.000477977766423,9.82154524536e-05,0.000343440391589,-0.0001678878034,-4.68745856779e-05,-4.3897539399e-06,6.36976255919e-05,0.470439515409,0.00131299701887,0.175828904209,0.00153023277392,0.927235356095,0.37444486391,0.00482663138447
0.125809833407,-0.00242921919562,-0.123215220869,-2.49233055115,0.000755431246944,2.50001645088,-0.765615999699,0.041419249028,8.6643252871e-05,-0.0010081975488,0.000578786013648,0.000662971753627,6.9630004873e-06,-0.000105531704321,1.14516196845e-05,0.470439073121,0.00131377567278,0.175828992961,0.00153000397601,0.927235221939,0.374445202123,0.00482623824544
0.125811770558,-0.00243297661655,-0.123215667903,-2.49233007431,0.000754506094381,2.50001692772,-0.765617787838,0.0402516983449,-0.000399004638894,-0.000366755324649,0.000323285756167,0.000338101555826,5.02024340676e-05,8.46602051752e-05,-0.00019245230942,0.470439776523,0.00131403041249,0.175830564052,0.0015308557597,0.927234592052,0.374446734274,0.00482811124036
0.125808641315,-0.00243055890314,-0.123217463493,-2.49232983589,0.000755571352784,2.50001692772,-0.765616774559,0.0402516983449,0.000159881965374,-0.00129158608615,0.000400537042879,0.00214650970884,-2.48383139478e-06,-6.88390209689e-05,8.07672404335e-05,0.470439399063,0.00131187431513,0.175829305124,0.00153019674233,0.927235844991,0.374443650548,0.0048268531152
0.125809639692,-0.00242930930108,-0.123215094209,-2.49232935905,0.000755543762352,2.5000166893,-0.765616178513,0.0402516983449,-1.46971087815e-05,7.12456021574e-05,-0.000769495207351,-1.23853806144e-05,-1.53231776494e-05,7.51233455958e-05,8.72200180311e-05,0.470439476292,0.00131360681943,0.175828949488,0.00153013076557,0.927235235131,0.374445166403,0.00482643464523
0.125810310245,-0.00243008229882,-0.123215340078,-2.49233222008,0.000754873792175,2.50001597404,-0.765616595745,0.0402516983449,-0.000524511619005,0.000484820076963,0.000171190462424,-0.0018107118085,-6.83136386215e-05,6.99476295267e-05,-0.000355648429831,0.470437983361,0.00131360292976,0.175828070103,0.00152970272559,0.927235073165,0.374445587744,0.00482499788318
0.125810071826,-0.00243244459853,-0.123214356601,-2.49232149124,0.000756734982133,2.50001978874,-0.765615880489,0.0402516983449,0.000305954221403,-0.000488173391204,-0.000200175287318,0.000954119837843,-9.63142883847e-05,-5.0626025768e-05,-8.22677611723e-05,0.4704442612,0.00131412569958,0.175833687731,0.0015321877449,0.927235306123,0.374444896241,0.00483309864018
0.125811234117,-0.00244017783552,-0.123213917017,-2.49231171608,0.00075640657451,2.50002169609,-0.765614390373,0.0402516983449,-0.00045704699005,-0.0012084026821,-0.000821190420538,0.000876373786014,2.89416602754e-05,0.000204114767257,-6.47769556963e-05,0.470451087435,0.00131513241671,0.175842404041,0.00153572407538,0.927235102165,0.37444525411,0.00484336900195
0.125812307,-0.00244421511889,-0.123214490712,-2.49231052399,0.000756632362027,2.50002384186,-0.765614032745,0.0402516983449,0.000173010805156,-0.000309013790684,-8.46716866363e-05,0.00112394732423,-0.000165519260918,-1.92252173292e-05,0.00016660997062,0.470452169111,0.00131535379053,0.175843812082,0.00153650347237,0.927235181124,0.374445024567,0.00484575114541
0.12581320107,-0.00244623771869,-0.123214736581,-2.49231147766,0.000756532768719,2.50002384186,-0.765614628792,0.0402516983449,-9.68308158917e-05,0.000587141897995,-3.30994953401e-05,7.84764051787e-05,4.24620266131e-05,-0.000181302166311,-6.99993825037e-06,0.470452032185,0.00131569162486,0.175844385678,0.00153661152097,0.92723493089,0.374445636992,0.00484627531258
0.125820890069,-0.00244679255411,-0.123209483922,-2.49231171608,0.000755687768105,2.50002408028,-0.765613734722,0.0394623838365,-0.000394764967496,0.000340755679645,0.000101407058537,0.000126737708342,-0.000121605218737,8.34508682601e-06,-0.00036918578553,0.470452041122,0.00132173763441,0.175844574264,0.00153689132993,0.92723254784,0.374451534544,0.00484645778146
0.125821530819,-0.00244686682709,-0.123210608959,-2.49231243134,0.000755924149416,2.5000243187,-0.765613675117,0.0394623838365,-3.21847510349e-05,0.000339697784511,-0.000247483083513,0.00038328190567,0.00013230201148,6.79131480865e-05,0.000216704473132,0.470451766689,0.00132152529855,0.175844352268,0.00153674577431,0.927232685947,0.374451195211,0.00484629888412
0.125817522407,-0.00244627706707,-0.123212583363,-2.49231076241,0.000756786030252,2.50002384186,-0.765613257885,0.0394623838365,2.11507469317e-07,-0.000584645313211,-0.000169389822986,0.000203974806936,-5.4445812566e-05,0.000118992589705,0.000299313804135,0.470452368433,0.00131875367968,0.175844682401,0.00153666230902,0.927234011398,0.374447908721,0.00484666003538
0.125821560621,-0.0024469664786,-0.123209029436,-2.49231052399,0.000756249588449,2.50002551079,-0.765612602234,0.0394623838365,0.000228155069635,0.000195887769223,-1.9038481696e-05,0.000343533902196,0.000317606143653,6.07073798164e-06,0.00017795425083,0.470452942975,0.0013223060547,0.175845248008,0.00153723973144,0.927232626645,0.374451320296,0.00484782343942
0.1258212924,-0.00244429986924,-0.123210139573,-2.49231052399,0.000756123219617,2.50002813339,-0.765612959862,0.0394623838365,0.00022957046167,0.00021500956791,-0.00019697805692,-0.00015311432071,-3.13759264827e-05,1.46260426845e-05,-0.000257279607467,0.470453100979,0.00132159875589,0.175844239408,0.00153742636893,0.927232799059,0.374450893722,0.00484773598784
0.125821441412,-0.00244876230136,-0.123209387064,-2.49231290817,0.000756328750867,2.50002789497,-0.765612483025,0.0394623838365,-6.92456160323e-05,0.00101190782152,-0.000102623147541,-0.00014080524852,0.00471635069698,-0.000108671090857,-8.89883231139e-05,0.470452614989,0.00132212028502,0.175845374737,0.00153744779441,0.927232746119,0.374451012243,0.00484870006653
0.125821620226,-0.00244596158154,-0.123210415244,-2.49231290817,0.000756156514399,2.50002765656,-0.765613257885,0.0394623838365,2.7909716664e-05,-0.000394805741962,-0.000703855243046,-0.000231805126532,-0.000620504724793,0.00266221119091,-9.53230410232e-05,0.470452127417,0.00132165533982,0.175844045421,0.00153709698159,0.927232741361,0.374451044691,0.00484721520887
0.125819414854,-0.00244658300653,-0.123213246465,-2.49231338501,0.000755918212235,2.50002765656,-0.765611767769,0.0394623838365,-0.000434387853602,0.000114489463158,0.000346825283486,0.000439577095676,2.38673364947e-05,-0.000156045789481,-0.000223088136408,0.470452005136,0.00131928423927,0.175844149796,0.00153715943568,0.927233927437,0.374448106749,0.004847265776
0.125819474459,-0.00244442094117,-0.123209923506,-2.49231553078,0.000756411696784,2.50002717972,-0.76561242342,0.0385857336223,0.000495317392051,-0.000529907469172,-0.000139013340231,-0.000111097113404,6.68730863254e-05,7.47724625398e-05,-0.000224171904847,0.470450543968,0.00132085897035,0.175842263702,0.00153625498545,0.927233256217,0.374449801128,0.00484505980786
0.125820368528,-0.00244462653063,-0.123208045959,-2.49231410027,0.000756013672799,2.50002837181,-0.765613377094,0.0385857336223,-6.89742046234e-06,0.000520764791872,0.000503751914948,-0.000162962387549,0.000160691546625,0.00127047405113,0.000187755256775,0.47045150963,0.00132214415468,0.175843023551,0.00153687849737,0.927232492736,0.37445167267,0.00484633241646
0.125823199749,-0.00244878325611,-0.123207896948,-2.49230265617,0.000756478693802,2.5000295639,-0.765611708164,0.0385857336223,-4.19331954618e-05,-0.000333866395522,0.0002334654273,0.00128905870952,9.14156917133e-05,0.000245399569394,0.000172444488271,0.47045783079,0.00132366956356,0.175849520518,0.00153961847181,0.927232277259,0.374452092274,0.00485426199696
0.125823989511,-0.00249469210394,-0.123207718134,-2.49227499962,0.000757592555601,2.50003933907,-0.765611290932,0.0385857336223,0.000101477096905,0.000248926167842,-9.10416274564e-05,0.000120992379379,7.7228716691e-05,0.00011676986469,-0.000111364897748,0.470480208855,0.00132513251206,0.175882589553,0.00155212577853,0.927232145629,0.374451849936,0.00489395346146
0.125826463103,-0.00250676856376,-0.123207755387,-2.49227786064,0.000757393136155,2.50004148483,-0.765612721443,0.0385857336223,-1.53724813572e-05,-0.0011961258715,-0.000401811324991,-0.000461429997813,3.46654887835e-05,-0.000141936921864,-0.000221491587581,0.470481201831,0.00132650240368,0.175887309733,0.00155358712979,0.927231365611,0.374453703661,0.00489943802454
0.125822335482,-0.00250289891846,-0.123210199177,-2.49229001999,0.000757067289669,2.50004386902,-0.765611886978,0.0385857336223,-3.12149495585e-05,0.000909929280169,-0.000216672036913,-0.000270733697107,6.59682118567e-05,-0.000179768394446,-6.03766166023e-05,0.470475669489,0.00132325580932,0.175881390509,0.00155154436864,0.927232766989,0.374450320602,0.00489342598095
0.125822514296,-0.00249350001104,-0.123210079968,-2.4922876358,0.000757387373596,2.50004410744,-0.765610873699,0.0385857336223,-0.000121333017887,-0.000441601878265,0.000451607018476,6.91136956448e-05,-2.7116648198e-05,0.000105925915705,-0.000105116268969,0.470475214204,0.00132304180815,0.175877684154,0.00155057437625,0.927233085521,0.374449582231,0.00488987576377
0.125829145312,-0.00252499198541,-0.123205147684,-2.49226522446,0.00075731711695,2.50005412102,-0.765609323978,0.037551485002,0.00131145690102,-0.00334437377751,0.000557115650736,0.00136167416349,6.07161418884e-05,0.00029469493893,0.000359423167538,0.470492771882,0.00132936375416,0.175901872268,0.00156061940341,0.927230897891,0.374454563348,0.00491997307878
0.125830247998,-0.0026048165746,-0.123205579817,-2.4922349453,0.000758031674195,2.50006651878,-0.76560997963,0.037551485002,-0.000127250561491,-0.0106597431004,7.03981640982e-05,0.00032099566306,-3.09265260512e-06,-0.00011467209697,-8.07537726359e-05,0.470522244249,0.00133133472768,0.175952038716,0.00157854361714,0.927230466233,0.374454784205,0.00497844943993
0.125834345818,-0.00271863094531,-0.123202323914,-2.49222826958,0.000758160371333,2.50010991096,-0.765609622002,0.037551485002,0.00153597444296,-0.00288035022095,0.000147047569044,-0.000777445035055,1.58155035024e-05,0.015050670132,0.000215885738726,0.470552585659,0.00133706771926,0.176011702852,0.00160233637003,0.927228784933,0.374457797538,0.0050567239342
0.125832825899,-0.00278957141563,-0.123204037547,-2.49224448204,0.000757798319682,2.50040745735,-0.765607953072,0.037551485002,-0.000366789521649,-0.00552095053717,-0.00381320924498,0.000371167931007,0.000256166356849,0.00581721682101,0.000161160220159,0.470620842517,0.00133701442126,0.176065411661,0.00166390286773,0.927228796195,0.374455239534,0.00522151355723
0.125834316015,-0.00283339456655,-0.123202703893,-2.49226284027,0.000759661314078,2.50043845177,-0.765607476234,0.037551485002,-9.56927106017e-05,0.00055504910415,0.000433361885371,0.000637087970972,-3.21480388266e-06,6.46842236165e-05,4.71194143756e-05,0.47062573242,0.00133930955645,0.176081540703,0.00167132445301,0.927228496168,0.374455568322,0.00524877181439
0.125832572579,-0.00283080572262,-0.123205758631,-2.49225020409,0.000760778610129,2.5004427433,-0.765608847141,0.037551485002,0.000447150669061,0.000573239696678,0.000559727428481,0.00089446810307,-0.000119678617921,0.000520394300111,0.000533543701749,0.470632249907,0.00133708491538,0.176085634756,0.00167384371091,0.927229268214,0.374453550989,0.00525549718612
0.125832110643,-0.00283678574488,-0.123204477131,-2.49224352837,0.000759813934565,2.50045108795,-0.765607357025,0.037551485002,-0.000167439706274,0.000434932881035,0.000302013329929,-0.00069657684071,-5.17029820912e-06,-1.16652636279e-05,-0.000346340588294,0.470638157749,0.00133753996344,0.176091779517,0.00167766823959,0.927229196961,0.374453573279,0.00526525162328
0.125838026404,-0.00283349887468,-0.123202495277,-2.49224853516,0.000761973147746,2.50046491623,-0.765607237816,0.037551485002,-0.000367540691514,0.000367434200598,0.000152191278175,0.000115235117846,0.000129149237182,-6.35842006886e-05,0.000243867267272,0.470638281235,0.00134132136644,0.176089547112,0.00167827155166,0.927228049828,0.374456372416,0.00526800317426
0.125834017992,-0.00283734081313,-0.123204521835,-2.49225664139,0.000760938681196,2.500467062,-0.765606760979,0.037551485002,-3.69940171367e-05,-0.00039919745177,0.00373215205036,-0.000334624462994,-0.000252941856161,7.341082528e-05,0.000246536714258,0.470635519834,0.00133848689386,0.176088381681,0.00167795467423,0.927229120405,0.374453737341,0.00526697413357
0.125834688544,-0.00283954874612,-0.123204924166,-2.49225926399,0.000760720518883,2.50046920776,-0.765607833862,0.037551485002,-5.35580375072e-06,0.000398652802687,-0.00173663208261,0.00053305667825,5.093398795e-05,7.87276876508e-05,0.000199060799787,0.470635227899,0.00133865033768,0.176088754274,0.00167821824446,0.927228864868,0.374454354406,0.00526800618326
0.125830695033,-0.00283552706242,-0.123206496239,-2.49225258827,0.00076293409802,2.50047564507,-0.765606343746,0.0352702215314,-0.000327294983435,0.00045774524915,0.000349298643414,-0.000126969593111,6.59504221403e-05,-6.56527163301e-07,0.000132533736178,0.470639033154,0.00133608719567,0.17608988706,0.00167952835239,0.927230461129,0.374450337066,0.00527218111381
0.125836551189,-0.00283428071998,-0.123204536736,-2.49225378036,0.000760355324019,2.50048065186,-0.765605568886,0.0352702215314,0.00054078863468,0.000142218326801,-0.000103519785625,0.000175289867911,0.000333965494065,-3.70666130038e-05,-0.000172995190951,0.470639356633,0.0013395847584,0.176089294018,0.00168078146128,0.927228751604,0.37445455216,0.00527306587765
0.125836357474,-0.00283409189433,-0.123203776777,-2.49225187302,0.000762387993746,2.50048542023,-0.765605926514,0.0352702215314,0.000258097483311,-0.000260304746917,-0.00302607798949,-0.000370005960576,-4.94178602821e-05,0.000155753383297,5.15720275871e-05,0.470641268291,0.00133997396036,0.176090379185,0.00168143256374,0.927228865873,0.374454220724,0.00527630003182
0.125838562846,-0.00283557688817,-0.123201824725,-2.49226474762,0.000760846305639,2.50048708916,-0.765604794025,0.0352702215314,2.1507827114e-05,0.000344010593835,-8.17643667688e-05,-0.00140261638444,-3.85973253287e-05,-9.44973799051e-05,0.000409073458286,0.47063576653,0.00134185209184,0.176086215336,0.0016799579488,0.92722809452,0.374456202892,0.00527164807426
0.125836417079,-0.00282714236528,-0.123201526701,-2.4922709465,0.000760106137022,2.50048828125,-0.765604317188,0.0352702215314,-0.000106563144072,0.000998973031528,-0.000316858204314,1.26055983856e-05,0.000111457367893,0.000182926378329,-0.000100536708487,0.470631722983,0.00134033996031,0.176079654082,0.0016780710561,0.927228612441,0.374455023267,0.0052649389824
0.125831469893,-0.0028401275631,-0.123207576573,-2.49224543571,0.000762377982028,2.50049996376,-0.765602469444,0.0352702215314,0.000561434833799,-0.00198163604364,0.000835195533,0.000641616177745,-0.00010334738181,0.00072130310582,0.000158638315042,0.470648435651,0.001336017706,0.176097017095,0.00168612057414,0.927231070214,0.374448562723,0.00528894947204
0.125836446881,-0.00286988518201,-0.123203247786,-2.49224567413,0.000761769770179,2.50050616264,-0.765602588654,0.0352702215314,-0.000286843394861,-6.16687248112e-05,-0.000188768812222,-2.83432545984e-05,-2.93117409456e-05,-4.40058611275e-05,3.51605594915e-05,0.470654294061,0.00134094674805,0.176111385272,0.00169117861632,0.927229124896,0.37445311521,0.00530603927823
0.125838816166,-0.00288393348455,-0.123198926449,-2.49224853516,0.000762205047067,2.50050926208,-0.765603363514,0.0352702215314,0.000160378374858,-0.000262323534116,0.00131031207275,0.00030326488195,-4.04039838031e-06,0.000213201594306,0.000116661030916,0.470655768935,0.00134429789708,0.17611728503,0.00169290670965,0.927227845946,0.37445617343,0.00531315658768
0.125841110945,-0.00287746754475,-0.123203091323,-2.49224686623,0.000763187126722,2.50051355362,-0.765603542328,0.0352702215314,-0.000291490927339,0.00140787928831,-0.000636393553577,-0.000152624590555,-7.4944262451e-05,7.0379312092e-05,0.000212526880205,0.470656514882,0.00134345186338,0.176115131669,0.00169289455712,0.927228220885,0.374455250928,0.00531274313297
0.125838205218,-0.00288987811655,-0.123204357922,-2.49224948883,0.000762248469982,2.50052261353,-0.765604376793,0.035318158567,-0.000477252498968,5.53395057068e-06,-7.75350054028e-06,0.000186240838957,3.89147789974e-05,8.41570872581e-05,-0.000119508316857,0.470659186452,0.00134167675223,0.176120727393,0.00169595159357,0.927228658363,0.374454027749,0.00532162055644
0.125832557678,-0.00288485921919,-0.123206116259,-2.49225091934,0.000763437536079,2.50052380562,-0.765602529049,0.035318158567,-0.000431531399954,0.000697347044479,-0.000638922560029,-0.000376690819394,0.000179882277735,8.09255434433e-05,-8.50054057082e-05,0.470657998075,0.0013381638171,0.176117934047,0.00169494721172,0.927230581864,0.374449303473,0.00531921261951
0.125836029649,-0.00287157669663,-0.123205378652,-2.49225687981,0.000762540847063,2.50052690506,-0.765601694584,0.035318158567,-0.000151367115905,-2.76367336483e-05,-4.24358477176e-05,-0.000753166968934,2.68197018158e-05,-9.41376856645e-05,-0.000268624571618,0.47065378091,0.00133982356421,0.176109691128,0.00169295995469,0.927229857349,0.374451217913,0.0053113665528
0.125834971666,-0.00286018708721,-0.123204983771,-2.49227762222,0.000761917966884,2.50052595139,-0.765602707863,0.035318158567,-0.000152422886458,0.000791130005382,-0.00200577173382,-0.000334682001267,4.98996196256e-05,-0.00010499398195,-0.00114933773875,0.470640234774,0.0013382998439,0.176093517821,0.00168669998723,0.927230100047,0.37445090705,0.00529287293482
0.125831276178,-0.00284478301182,-0.123207911849,-2.49228549004,0.000762255687732,2.50052666664,-0.765603601933,0.035318158567,-8.87059577508e-05,0.000481319788378,0.000831817218568,-0.000389599852497,-2.3659242288e-05,-4.39441391791e-05,0.000455835834146,0.470636031364,0.00133581867366,0.17608602341,0.00168427661592,0.927230963938,0.374448890154,0.00528498565258
0.125831365585,-0.00283452845179,-0.123207584023,-2.4922850132,0.00076249014819,2.50052547455,-0.76560240984,0.035318158567,-7.90584672359e-05,-0.00114641303662,0.000406353792641,0.000851176911965,-0.000130331958644,-0.00122683844529,0.000325652043102,0.47063530048,0.00133581634517,0.176082515126,0.00168326352745,0.927231303973,0.374448105815,0.00528122065044
0.125835433602,-0.00285727740265,-0.123203121126,-2.49225282669,0.000762437470257,2.50053143501,-0.765600860119,0.035318158567,6.27140689176e-05,-0.00174979364965,-0.00143572245724,0.000911001639906,-6.60690784571e-05,0.0002063466236,2.20604670176e-05,0.470654458303,0.00134032288385,0.176104998806,0.00169275912375,0.927229701401,0.37445164668,0.00530842624488
0.125839695334,-0.0029615983367,-0.123201847076,-2.4922451973,0.000762245443184,2.50054955482,-0.765602529049,0.035318158567,-0.000834960141219,-0.0061590494588,-1.66605495906e-05,-0.00279374211095,7.4936877354e-05,0.00253104628064,0.000156955502462,0.470678245879,0.0013449851868,0.176158335956,0.00171090605922,0.927227993234,0.374454904719,0.00537078944471
0.125838473439,-0.00299054943025,-0.123203530908,-2.49225902557,0.000762642652262,2.50054788589,-0.765600323677,0.035318158567,-0.00020369196136,-0.000359775585821,-0.000204286785447,0.000455264962511,0.00385287264362,-4.70920986118e-06,-0.000205236035981,0.470675912655,0.0013440906152,0.176166161787,0.00171156459069,0.927228976969,0.374452370822,0.00537740508798
0.12583835423,-0.00298084155656,-0.123204246163,-2.49224710464,0.000763405754697,2.50055074692,-0.765599668026,0.035318158567,0.000113385278382,0.000468392303446,-0.000599470280576,7.99746339908e-05,-9.45352367125e-05,0.000256193830865,-0.000124600701383,0.470680602364,0.0013436731162,0.176166690277,0.00171290245651,0.927229355143,0.374451392554,0.00537989064372
0.125840395689,-0.00298146577552,-0.123202458024,-2.49224758148,0.000762903073337,2.50055360794,-0.7656006217,0.035318158567,3.72538343072e-05,0.000122135679703,-0.000231484533288,-0.000304474553559,-2.97649567074e-05,-0.000295419740723,6.88149884809e-05,0.470681092614,0.00134545723191,0.176167055415,0.00171356176712,0.927228376931,0.374453792365,0.00538124404827
0.12584015727,-0.00298539130017,-0.123203411698,-2.49225926399,0.000762740091886,2.50055384636,-0.765600085258,0.035318158567,-0.000116407987662,-0.000688142492436,-0.000473692634841,-7.9249846749e-05,-5.34220598638e-05,3.81121353712e-05,-0.000234842751524,0.47067623023,0.00134495117923,0.176164364665,0.00171197988535,0.927228696164,0.374453058416,0.00537781206236
0.125834941864,-0.00299115781672,-0.123206473887,-2.49225234985,0.000762806273997,2.50055599213,-0.765600562096,0.0358211658895,-0.000108768588689,-2.97838669212e-05,0.00270995078608,0.000286604306893,-2.85996738967e-05,8.14312297734e-05,-0.000118684605695,0.470680877058,0.00134118243942,0.176169942351,0.0017144018758,0.927230128233,0.374449400689,0.0053848054639
0.125840321183,-0.00298601062968,-0.123200967908,-2.49225234985,0.000762535724789,2.50055980682,-0.765598773956,0.0358211658895,-0.000373305287212,-0.000867207476404,0.000279640808003,0.00147022027522,0.000139704017784,0.000126817525597,0.000338617770467,0.470681015304,0.00134586874081,0.176168112337,0.00171458041323,0.92722856662,0.374453272614,0.00538440063175
0.125838264823,-0.00298629049212,-0.123204909265,-2.49224925041,0.00076282635564,2.50056314468,-0.765600383282,0.0358211658895,0.000273537531029,0.000209353485843,-0.000294486002531,0.000753148633521,1.08852218546e-05,0.000139312003739,-0.000415704562329,0.470683138751,0.00134339365128,0.176169522058,0.00171567295586,0.927229235844,0.374451569973,0.00538721556974
0.125838235021,-0.00298539968207,-0.123204611242,-2.49225354195,0.000763793184888,2.50056290627,-0.765599012375,0.0358211658895,5.99479699304e-06,0.000431970518548,-0.00265381648205,-0.000328839261783,3.01176987705e-05,7.86798264016e-05,0.000278105319012,0.470680917503,0.00134355583393,0.176167414542,0.00171444232153,0.927229600794,0.374450706764,0.00538479222454
0.125838026404,-0.00298313237727,-0.123203657568,-2.49225449562,0.000762642826885,2.50056672096,-0.765597760677,0.0358211658895,0.000295190606266,-0.000445009733085,0.00334665831178,-0.000127105595311,-0.000131507884362,-0.000158838898642,-0.000394101283746,0.470680944344,0.0013437922699,0.176166329524,0.00171500402828,0.927229522526,0.37445089651,0.0053848958934
0.125839158893,-0.00298696057871,-0.123203769326,-2.49226236343,0.000762384268455,2.50056672096,-0.76559817791,0.0358211658895,-0.000153232671437,0.00035374626168,5.13845443493e-05,-0.000462150230305,-0.00246118218638,-4.34574831161e-05,-0.00023417439661,0.470677816568,0.00134432379956,0.176165056239,0.00171409941757,0.927229225507,0.374451662442,0.00538306670307
0.125838771462,-0.00298608699813,-0.123205855489,-2.4922606945,0.000762921117712,2.50056838989,-0.765597164631,0.0358211658895,-0.000780575210229,0.000714881287422,-0.0014666368952,0.000664812338073,-0.00058077822905,5.15771062055e-05,-0.000566090107895,0.470678837128,0.00134317821053,0.17616544822,0.00171446011081,0.927229952136,0.374449844426,0.00538425302361
0.125838875771,-0.00298285088502,-0.123202838004,-2.49225354195,0.000763247313444,2.50057172775,-0.765597522259,0.0345275327563,-0.000415506889112,0.000931449234486,-0.000440383038949,-0.000178554953891,-2.17881224671e-05,-0.000117527117254,-0.000195360436919,0.470682440883,0.00134461130617,0.176167022227,0.00171590521637,0.927229330476,0.374451329122,0.00538759460877
0.125839784741,-0.0029824541416,-0.123202167451,-2.49225378036,0.000762878393289,2.50057268143,-0.765598118305,0.0345275327563,0.000235635394347,0.00303975306451,-0.000398767879233,-0.000223545081099,4.68399302918e-05,-0.000104109611129,4.3515006837e-05,0.470682472218,0.00134532442983,0.176166830494,0.00171608939795,0.927228867291,0.374452473804,0.0053876938877
0.125838294625,-0.00298848003149,-0.123203754425,-2.49225854874,0.000762336829212,2.50057339668,-0.765595257282,0.0345275327563,0.000558972649742,0.000903278589249,0.000110556902655,-0.0003214130993,7.9641584307e-05,0.000266851275228,0.000369662855519,0.470681314038,0.0013439577184,0.176167854295,0.0017162540884,0.927229893436,0.374449918088,0.00538866564308
0.125837355852,-0.00298533518799,-0.123203441501,-2.49225878716,0.000762707320973,2.5005736351,-0.765595734119,0.0345275327563,-0.000173208361957,0.000354450312443,0.000482591072796,0.000248194934102,5.30592114956e-05,6.8348395871e-05,-0.000127530831378,0.470680764721,0.00134362331038,0.176166314118,0.00171575282645,0.92722998474,0.37444971559,0.00538718571383
0.125839009881,-0.00298238848336,-0.123203508556,-2.49225378036,0.000763438816648,2.50057387352,-0.76559484005,0.0345196537673,-0.000459753209725,-0.000211347214645,0.000231464975514,-2.49174936471e-05,0.000112725698273,-0.000203818679438,-9.03184336494e-05,0.470682724568,0.00134436212146,0.176166907462,0.0017161413151,0.927229958053,0.374449764154,0.00538827959311
0.125838905573,-0.00298660784028,-0.1232034266,-2.49225640297,0.000763102725614,2.5005736351,-0.765595316887,0.0345196537673,-0.000141250711749,-0.00072363729123,0.00357841164805,-0.000418673909735,-9.90156877378e-06,6.23678279226e-05,3.06851761707e-05,0.470682088484,0.00134441131982,0.176167836367,0.00171624274457,0.92722981944,0.37445009723,0.00538895350485
0.125839486718,-0.00298451259732,-0.123203620315,-2.49225687981,0.000762642361224,2.50057458878,-0.765593707561,0.0345196537673,-0.000184323478607,-0.000132295419462,0.000514070794452,2.39214159592e-06,-0.000100677832961,-3.85499915865e-05,3.37538731401e-05,0.470681744319,0.00134452452687,0.176166758289,0.00171618751705,0.927229983678,0.3744497029,0.00538811194634
0.125839650631,-0.00298280129209,-0.123203925788,-2.49225711823,0.000762402371038,2.50057482719,-0.765593588352,0.0345196537673,-0.000551798089873,-0.000200642010896,-1.93243395188e-05,3.09945899062e-05,4.90229249408e-05,-0.000115351809654,0.000136681308504,0.470681417437,0.00134440967495,0.17616588762,0.00171603602382,0.927230001078,0.374449672797,0.00538725779056
0.125835448503,-0.00298258615658,-0.12320510298,-2.4922516346,0.000763745687436,2.50057554245,-0.765592992306,0.0345196537673,-5.1979044656e-05,-0.000310876435833,-0.000200725276954,-0.000237367130467,0.000246081122896,1.80060142156e-05,-3.08537673845e-05,0.470684141041,0.00134196152959,0.176167985485,0.00171679735242,0.927231304737,0.374446399092,0.00539017755811
0.1258341223,-0.00298277498223,-0.123205132782,-2.49225568771,0.000762629555538,2.50057482719,-0.765594422817,0.0345196537673,-3.77740143449e-05,-0.000142485587276,-0.00474876398221,-0.000732588872779,-4.87419856654e-05,3.04139903164e-05,7.54132997827e-05,0.470681654245,0.00134168538255,0.176166083485,0.00171601885657,0.927230972351,0.374447263771,0.00538753483136
0.125842124224,-0.00298243900761,-0.123200118542,-2.49225473404,0.000762646261137,2.50057506561,-0.765594005585,0.0345196537673,0.000456826062873,-0.00079687818652,0.000620339706074,-3.18473175867e-05,5.45147595403e-05,-2.03232211788e-05,0.000207367091207,0.470682532681,0.00134737451068,0.176166668356,0.00171639918371,0.927228777504,0.374452685554,0.00538833070721
0.125844746828,-0.00298188929446,-0.123198524117,-2.49225735664,0.0007634711219,2.50057601929,-0.765593528748,0.0345196537673,0.000252725876635,0.000543135858607,0.000276712758932,0.000358540681191,0.00015568305389,-9.09544760361e-05,-2.92696331599e-05,0.470681589799,0.00134945458567,0.176165664706,0.00171572160717,0.927228270654,0.374453954769,0.0053875634944
0.125840783119,-0.00298481341451,-0.123200975358,-2.49225139618,0.000762942712754,2.50057578087,-0.765593886375,0.0345196537673,-0.000442073855083,0.00135672371835,-0.000290257419692,0.00133416731842,0.000109649423393,-3.54677940777e-05,-0.000129823572934,0.470684639968,0.00134640899642,0.17616914092,0.00171737761411,0.927229238931,0.374451494413,0.00539139137636
0.125840723515,-0.00297911791131,-0.123199872673,-2.49213838577,0.000762098352425,2.50057053566,-0.765592932701,0.0345196537673,-5.49198266526e-05,-0.00177135795821,-0.000432848552009,0.00365544622764,4.94463129144e-05,-7.42391785025e-05,1.86116812984e-05,0.470738653219,0.00134667281557,0.176212244186,0.00173792091523,0.927228835317,0.374451681939,0.00544097092659
0.12583757937,-0.0029944293201,-0.123203717172,-2.49201178551,0.000761320115998,2.50055742264,-0.765591979027,0.0345196537673,-0.000446963560535,0.000510945334099,-7.61192177379e-06,0.0103023881093,2.38826396526e-05,-2.71546946351e-06,-0.000398490723455,0.470795483754,0.00134396053004,0.176265223181,0.00176021333245,0.927229853808,0.374448214803,0.00549854259658
0.125826179981,-0.00304967607372,-0.123211942613,-2.49188184738,0.000762896903325,2.50052332878,-0.765593230724,0.0345170274377,-0.000504019495565,-0.00103115139063,-0.000260961533058,0.00549033842981,8.84993569343e-05,-0.00195124337915,8.86713314685e-05,0.470858120038,0.00133603635691,0.176338532394,0.00178468312667,0.927233122297,0.374438950612,0.00556989858659
0.125823661685,-0.00316256587394,-0.123214952648,-2.49177312851,0.000762387353461,2.50041174889,-0.765592753887,0.0345170274377,0.000577750790399,-0.00732402317226,0.000272040488198,0.00745855038986,-5.29290773557e-05,-0.0143569540232,0.000320468941936,0.47090275898,0.00133570050755,0.176423513752,0.00179867160726,0.927233867999,0.37443624191,0.00562309910238
0.12582296133,-0.00351810129359,-0.123214177787,-2.49152755737,0.000758942216635,2.49996685982,-0.765592396259,0.0345170274377,-0.000599884602707,-0.015653187409,-0.00062488677213,0.0148347057402,2.15166364796e-05,-0.0384588129818,0.000202522409381,0.470977079413,0.00134261207189,0.176645030761,0.00180778717238,0.927232958733,0.374437254311,0.00570214102022
0.125814497471,-0.00387227744795,-0.123219631612,-2.49125933647,0.000759155140258,2.49911117554,-0.765592753887,0.0345170274377,0.000249172124313,-0.0245262347162,0.000283456436591,0.0221801660955,-0.000339034624631,-0.0630549490452,-0.000647337525152,0.470972261148,0.00134299849051,0.176837578765,0.00174342155218,0.927236110945,0.374431282605,0.00560083301816
0.125821024179,-0.00447231298313,-0.123215541244,-2.49085259438,0.00075726461364,2.49782204628,-0.76559227705,0.0345170274377,-0.000381709163776,-0.0434223935008,-0.000126029321109,0.032840128988,-8.61303851707e-05,-0.0962381213903,-0.000211369682802,0.470976955443,0.00136064924976,0.177183969553,0.00164969359398,0.927234495259,0.374437600553,0.00547286840788
0.125819221139,-0.00560802035034,-0.123214617372,-2.49005055428,0.000756323628593,2.49531316757,-0.765592753887,0.0345170274377,0.00314773758873,-0.0698115974665,-0.00100290484261,0.0477309897542,0.000159960603924,-0.150681912899,-9.38588618737e-06,0.470982773927,0.00137986497761,0.177738956559,0.00149354228549,0.927235676899,0.374438476016,0.005253206515
0.125819534063,-0.0109230289236,-0.123213559389,-2.48637485504,0.000749494065531,2.48298954964,-0.765591919422,0.0345117747784,0.000491431972478,-0.156259298325,2.6050469387e-05,0.107405081391,-0.000416475377278,-0.361919075251,-0.000224782968871,0.47083464217,0.00148330955019,0.18058892115,0.00055082111625,0.92723990702,0.374448192815,0.00379499759673
0.125816017389,-0.0134605113417,-0.123217321932,-2.48458862305,0.0007500074571,2.47699546814,-0.765591740608,0.0345117747784,-0.000177688780241,-0.195400193334,-0.000204984549782,0.145510882139,-0.000760487455409,-0.466296732426,8.71144875418e-05,0.470744676274,0.00152777952516,0.181938854349,8.99966235132e-05,0.927242627855,0.37444849899,0.00306957273087
0.125815272331,-0.0165753122419,-0.123216308653,-2.48213076591,0.00074980937643,2.46922421455,-0.76558893919,0.0345117747784,0.000221292066271,-0.22829964757,-5.90039344388e-05,0.1879658252,-4.46535013907e-05,-0.574372112751,-0.000462446827441,0.470644251425,0.00159848280372,0.184048417033,-0.000631792476148,0.927242999405,0.374454815994,0.00190035672502
0.125829994678,-0.0318518169224,-0.123205222189,-2.46967053413,0.000743248616345,2.43277597427,-0.765588581562,0.0345117747784,0.00127405754756,-0.347792088985,0.000479430833366,0.31588435173,0.00180009764154,-0.811276435852,-0.000182658302947,0.470651897487,0.00187743709304,0.192753026479,-0.00307147813238,0.927219668842,0.374501509767,-0.0016942845794
0.125823751092,-0.0453737191856,-0.12321715802,-2.45726656914,0.000740618386772,2.40279197693,-0.765587866306,0.0345078334212,-1.38427976708e-05,-0.45003375411,0.000222195114475,0.408728659153,-0.00105942855589,-0.94769859314,5.59646287002e-05,0.471487254381,0.00207679047514,0.20094596273,-0.00453249599711,0.927198063886,0.374530147516,-0.00322103892033
0.125820308924,-0.0538049712777,-0.1232213974,-2.44928145409,0.000737008696888,2.38540315628,-0.765584528446,0.0345078334212,0.000224392046221,-0.476778298616,0.000330783659592,0.461167097092,-0.00648823566735,-0.990438401699,0.000145402271301,0.472358733199,0.00220789864047,0.206932325283,-0.00525170706656,0.927181936562,0.374557791536,-0.00354070178401
0.12582243979,-0.0612134411931,-0.123223125935,-2.44201207161,0.000744012300856,2.37037205696,-0.765582680702,0.0345078334212,-0.000285611255094,-0.510520100594,-0.000964137667324,0.51929473877,-0.00301716267131,-1.00198435783,0.000153256885824,0.47318596537,0.00231385639906,0.212090918435,-0.00575563383857,0.92716820381,0.374584204522,-0.0035592035989
0.125823438168,-0.0718482509255,-0.123223029077,-2.43077397346,0.000737823895179,2.34994912148,-0.765580654144,0.0345078334212,-0.000513900013175,-0.550833463669,-0.00025693164207,0.600899457932,-0.000599819759373,-1.03211569786,7.32831394998e-05,0.474848640581,0.00245085227023,0.219980367815,-0.00610905361642,0.927149745606,0.374631615051,-0.00267980864651
0.125836908817,-0.0977062359452,-0.123218938708,-2.40074086189,0.000733931665309,2.30351066589,-0.765570223331,0.0345078334212,6.85848281137e-05,-0.602986633778,-0.00172451464459,0.745600223541,-0.00530051905662,-1.03010225296,0.000463825330371,0.480038067328,0.00271696818136,0.240872675135,-0.00586677688693,0.92710274676,0.374754846594,0.00220964175538
0.125829651952,-0.109706141055,-0.12322486192,-2.38591766357,0.000738046888728,2.28386759758,-0.765563547611,0.0345078334212,-0.000511037535034,-0.639076828957,0.000262375338934,0.815958738327,0.00296302768402,-0.988864302635,-0.000746902893297,0.482850939246,0.00279162339247,0.251267400669,-0.0052360933886,0.927075122219,0.374794533431,0.00577568022732
0.12584450841,-0.121022820473,-0.12321973592,-2.37109470367,0.000735575682484,2.26633381844,-0.765560090542,0.0345078334212,0.00020557915559,-0.624200999737,-7.08092702553e-05,0.805651128292,0.000981913763098,-0.970627844334,0.000142577773659,0.485816247989,0.00285008469833,0.261623387795,-0.00429695965002,0.927025743134,0.374840006975,0.00998882168106
0.125838056207,-0.152151837945,-0.123235590756,-2.32865977287,0.000756339577492,2.2218375206,-0.765538275242,0.0345038920641,-0.00351561326534,-0.650187790394,-0.001739043626,0.925628721714,0.00116258615162,-0.873833239079,0.00163049669936,0.494088023243,0.00284322476111,0.291707143564,-0.000720555444008,0.926774421256,0.374844756996,0.0240844501875
0.125806331635,-0.1631860286,-0.123263463378,-2.31310176849,0.00075497693615,2.2073097229,-0.765525281429,0.0345038920641,-0.000752020045184,-0.646587312222,-0.000894986616913,0.926843643188,0.00866570975631,-0.837426006794,0.00215540453792,0.496977822955,0.00276428702414,0.302906490434,0.000876839786592,0.926628268631,0.37478729898,0.029895871499
0.12583515048,-0.175018414855,-0.123281247914,-2.2965259552,0.000771871185862,2.19272279739,-0.765492618084,0.0345038920641,0.000378115801141,-0.661710619926,0.000228334465646,0.903766214848,0.000370938767446,-0.775293469429,0.00342728686519,0.499944054629,0.00269097485125,0.315068121823,0.00274632731052,0.926413310124,0.374720862833,0.0365391728439
0.125813737512,-0.18817204237,-0.123340688646,-2.27862715721,0.000771880149841,2.17724633217,-0.76528352499,0.0345038920641,0.000862646382302,-0.654908597469,-0.00329850404523,0.893996298313,-0.00275464681908,-0.760102510452,0.00696728331968,0.502847578226,0.0025307485913,0.328529166095,0.00486493708926,0.926167223842,0.374503617608,0.0440187000055
0.125810354948,-0.20757162571,-0.123541101813,-2.2528860569,0.000826421601232,2.1553580761,-0.764969944954,0.0345038920641,0.000822578847874,-0.65498149395,-0.00880921725184,0.823719859123,-0.000202868555789,-0.698029458523,0.0134798297659,0.506412704699,0.00219963974935,0.34835851437,0.00800677491796,0.925718245785,0.374080250048,0.0551868388624
0.125740006566,-0.217898324132,-0.123723246157,-2.23994040489,0.000828372896649,2.1444041729,-0.764590382576,0.0345038920641,-0.00525297410786,-0.632932007313,-0.00773504283279,0.756583094597,-0.00056505104294,-0.677566289902,0.0308468528092,0.507888795041,0.00192256495419,0.358699959147,0.00966642517449,0.925494346342,0.373675710615,0.0611002298935
0.125608980656,-0.229245916009,-0.123942695558,-2.22650337219,0.000857229984831,2.13239336014,-0.763728797436,0.0345038920641,-0.0127171687782,-0.627093911171,-0.0151853235438,0.719007611275,0.00161826447584,-0.660655617714,0.0563087873161,0.509030203375,0.00156918637556,0.369726005974,0.011319871144,0.925328577794,0.372982975349,0.0672501555246
0.125343874097,-0.239766612649,-0.124300584197,-2.2145280838,0.000834956939798,2.12148284912,-0.762561440468,0.0345038920641,-0.0159129109234,-0.609148383141,-0.024840593338,0.659998118877,0.0012678259518,-0.643003642559,0.0662176832557,0.509773231684,0.00106654911573,0.379767556252,0.0127995124386,0.925268572398,0.372035210897,0.0728288606875
0.123268783092,-0.268384426832,-0.125750392675,-2.18563389778,0.000663087063003,2.09262824059,-0.758230686188,0.0345038920641,-0.0647878050804,-0.531059086323,-0.0384018830955,0.465838581324,-0.0174586549401,-0.508710920811,0.0793457850814,0.509961911642,-0.00130555337829,0.405416696272,0.0162773170495,0.925593450724,0.368103444569,0.0866698719656
0.121969357133,-0.277201741934,-0.12647280097,-2.17822408676,0.000278617575532,2.0845580101,-0.757037460804,0.0345038920641,-0.0873140692711,-0.499537497759,-0.0488326773047,0.414307385683,-0.0391860678792,-0.440795689821,0.072148732841,0.509536210941,-0.00256967715937,0.412662967338,0.0173675735925,0.925800715103,0.366590906689,0.0905677101332
0.120313890278,-0.285276472569,-0.127395957708,-2.17171216011,-0.000720929121599,2.07751274109,-0.756063878536,0.0345038920641,-0.113659672439,-0.456535667181,-0.0651701241732,0.344786316156,-0.0761061608791,-0.394177734852,0.0417985133827,0.509048650401,-0.00420182302838,0.419192188467,0.0186583363061,0.926040415631,0.365038599119,0.0940629360641
0.117815420032,-0.293810844421,-0.129076376557,-2.16542315483,-0.00316734891385,2.07008957863,-0.755418777466,0.0344986394048,-0.136284247041,-0.401297003031,-0.102212920785,0.284685194492,-0.169612392783,-0.356221437454,0.0207341555506,0.508290280419,-0.00687781597978,0.425763667894,0.0205049114085,0.926407423639,0.363164331393,0.0972651125588
0.113050960004,-0.3037956357,-0.132478162646,-2.15860581398,-0.0106805590913,2.06085109711,-0.755313098431,0.0344986394048,-0.192480266094,-0.297546088696,-0.143389284611,0.189923644066,-0.320770204067,-0.287210166454,-0.00180357333738,0.50700357007,-0.0123868607988,0.433035681329,0.0244590639012,0.927055519807,0.360591858072,0.0997162422252
0.108926281333,-0.308697670698,-0.135461211205,-2.15544462204,-0.0173040926456,2.05593824387,-0.755342185497,0.0344986394048,-0.236498847604,-0.222162544727,-0.173703938723,0.151499167085,-0.375576645136,-0.235141143203,-0.000298229104374,0.50614519976,-0.0171200274788,0.436413184924,0.0275319749529,0.927757361109,0.358438311684,0.100151114139
0.104899734259,-0.311729222536,-0.138652041554,-2.15323495865,-0.0238396208733,2.05237102509,-0.755531251431,0.0344986394048,-0.266072332859,-0.152669265866,-0.222447216511,0.127058297396,-0.443832665682,-0.21241492033,-0.0229889936745,0.505473941492,-0.0218650978595,0.438525126364,0.0303832285471,0.928524438044,0.356294679757,0.0998665521516
0.0997670665383,-0.313868522644,-0.143035262823,-2.15108895302,-0.0325977653265,2.04853653908,-0.756548285484,0.0344986394048,-0.304159045219,-0.0854414328933,-0.271037131548,0.115321524441,-0.522107005119,-0.212414205074,-0.0856343731284,0.504758863699,-0.0277375398058,0.440021612505,0.0337769796411,0.92941343969,0.353994039443,0.0986812722448
0.0837540850043,-0.313158005476,-0.159980103374,-2.14672756195,-0.0596418902278,2.03970432281,-0.766185998917,0.0344986394048,-0.390114724636,0.120663255453,-0.458369612694,0.0864523947239,-0.634059071541,-0.154076740146,-0.380642324686,0.50260101582,-0.0496457246212,0.440357032001,0.0443703139264,0.932152295397,0.347644721614,0.0909204083138
0.075520157814,-0.309620201588,-0.169871553779,-2.14476299286,-0.0724898502231,2.03680253029,-0.775000452995,0.0344986394048,-0.432366877794,0.221937134862,-0.535639464855,0.106159634888,-0.640484035015,-0.136331811547,-0.501602530479,0.501814790339,-0.0603276112703,0.439038406237,0.0486969736995,0.933090656448,0.345702470364,0.0863726419138
0.0671757087111,-0.305165141821,-0.180416122079,-2.14253354073,-0.0840398445725,2.03434658051,-0.785255968571,0.0344986394048,-0.480985432863,0.277841240168,-0.622019350529,0.145186468959,-0.641416490078,-0.137780383229,-0.615862905979,0.500954559111,-0.0717309604729,0.437391661918,0.0526334467597,0.934027889198,0.343751798856,0.0815862914452
0.0580602958798,-0.299121260643,-0.192340150476,-2.13946437836,-0.0955353602767,2.03198838234,-0.797403931618,0.0344914160669,-0.520099163055,0.391535639763,-0.691652536392,0.197474017739,-0.635229468346,-0.125590920448,-0.718441188335,0.500037831753,-0.0842443959782,0.435363139717,0.0564016585949,0.935015454475,0.341679095787,0.0762912051776
0.0416068285704,-0.284805744886,-0.215439751744,-2.13227748871,-0.112881451845,2.02874970436,-0.821292698383,0.0344914160669,-0.573819816113,0.529846966267,-0.83290207386,0.275643527508,-0.525548696518,-0.0893457978964,-0.869153559208,0.498417700221,-0.107196658329,0.430914734177,0.0615719513082,0.936922019571,0.337560426164,0.06662568896
0.033372733742,-0.276996523142,-0.227637276053,-2.12797117233,-0.119827888906,2.02771496773,-0.833897590637,0.0344914160669,-0.606930494308,0.584069728851,-0.901816666126,0.335096538067,-0.470141589642,-0.0608116611838,-0.926086068153,0.497449296218,-0.119649609848,0.428610726463,0.0636526131462,0.938017297573,0.335011138037,0.061963145266
0.0212023686618,-0.263933837414,-0.246441498399,-2.12036395073,-0.128398448229,2.02706122398,-0.853245913982,0.0344914160669,-0.619211912155,0.706916809082,-0.984848737717,0.413787841797,-0.396406263113,-0.0161495450884,-1.00552880764,0.496212844746,-0.136194314537,0.425516740015,0.0658825149709,0.939519782918,0.3313640951,0.0562130580191
0.0103205759078,-0.251400023699,-0.263992398977,-2.11286067963,-0.134657636285,2.02690219879,-0.870595574379,0.0344914160669,-0.65521556139,0.771622896194,-1.07422459126,0.473133534193,-0.334589064121,-0.000111588175059,-1.02941417694,0.494777987836,-0.151992380585,0.422542284915,0.0674867484837,0.941101935676,0.327363290889,0.0510486132132
-0.00876859668642,-0.227699548006,-0.295730948448,-2.09783148766,-0.142837554216,2.02690505981,-0.900746405125,0.0344914160669,-0.667293190956,0.886939466,-1.13869857788,0.587548136711,-0.236728817225,-0.00185538968071,-1.04757595062,0.491569368263,-0.17997049242,0.417361921393,0.0694344652375,0.944183982764,0.319211169025,0.042422764958
-0.0229368899018,-0.208610713482,-0.320557355881,-2.08502101898,-0.147025540471,2.02691555023,-0.923150539398,0.0344914160669,-0.65805888176,0.924911677837,-1.18551182747,0.618595421314,-0.174553692341,0.00636888155714,-1.07295107841,0.488452431746,-0.201270445246,0.413532699709,0.0703625573653,0.946722693872,0.312178514699,0.0361915194085
-0.0322763770819,-0.195610702038,-0.337313592434,-2.07628750801,-0.149316743016,2.0269985199,-0.938272476196,0.0344914160669,-0.679078638554,0.924634933472,-1.21006584167,0.648049473763,-0.168022364378,0.0230051204562,-1.07399475574,0.485927757419,-0.215466705834,0.410938359629,0.0708714391484,0.948388837967,0.307426374814,0.0320136672375
-0.0465497002006,-0.175713524222,-0.363220661879,-2.06231284142,-0.152159020305,2.02742528915,-0.960601389408,0.0344914160669,-0.666680455208,0.95490115881,-1.2394143343,0.665672719479,-0.0992222353816,0.00314976205118,-1.03992033005,0.481409969153,-0.23727253815,0.407309041221,0.071763998539,0.951045143687,0.299480173099,0.0259747722511
-0.0598625428975,-0.156457871199,-0.387912541628,-2.04901123047,-0.153969183564,2.02752685547,-0.981206417084,0.0344795957208,-0.672083199024,0.944431006908,-1.23327076435,0.672668635845,-0.0867189019918,0.00770733458921,-1.02465546131,0.47625546123,-0.257696102458,0.40368996709,0.072270744497,0.953612118556,0.291548291812,0.0200114983269
-0.0896898508072,-0.114282183349,-0.443818747997,-2.01888108253,-0.157869875431,2.02777457237,-1.02708601952,0.0344795957208,-0.628748834133,0.890328288078,-1.1855083704,0.627062439919,-0.0723818019032,0.00524589279667,-0.960628867149,0.461325935003,-0.303297401218,0.39645701788,0.0740868401415,0.95907103972,0.273226231861,0.00642703688778
-0.100256860256,-0.0999725162983,-0.463486194611,-2.00851917267,-0.15897282958,2.02774977684,-1.04311096668,0.0344795957208,-0.614733278751,0.79801428318,-1.12427353859,0.57860571146,-0.0730223879218,0.00775792822242,-0.930249094963,0.454906794217,-0.319065200793,0.394153537418,0.0747531892617,0.960895782794,0.266624827037,0.00156735532579
-0.112263090909,-0.0844760090113,-0.485168933868,-1.99758398533,-0.160646766424,2.02775812149,-1.0613077879,0.0344795957208,-0.588115632534,0.741794526577,-1.05347406864,0.540954589844,-0.0959307923913,0.00105308322236,-0.898985147476,0.447341139023,-0.335572127521,0.391723268406,0.0755366050573,0.962677326399,0.259868179722,-0.0038878520737
-0.122867815197,-0.0717130228877,-0.503476977348,-1.98833870888,-0.16249319911,2.02763414383,-1.07725477219,0.0344795957208,-0.57342928648,0.66252374649,-0.963842153549,0.473754256964,-0.112980939448,-0.00490808254108,-0.87011474371,0.439029663713,-0.351917803849,0.38960062647,0.0765195295408,0.964294089375,0.253359490253,-0.00952046147552
-0.135739088058,-0.057854603976,-0.524147093296,-1.9782384634,-0.164840862155,2.02753400803,-1.0968490839,0.0344795957208,-0.544383704662,0.557816028595,-0.846640944481,0.408786654472,-0.0879869759083,-0.00386416795664,-0.82924926281,0.429976867557,-0.367892734375,0.38775099828,0.0775354536328,0.965680741332,0.247424771887,-0.0151638121578
-0.14829851687,-0.046117529273,-0.543097674847,-1.96957063675,-0.166889920831,2.02746844292,-1.11590957642,0.0344795957208,-0.512408554554,0.435265153646,-0.739941239357,0.349526554346,-0.0868939086795,-0.00370589294471,-0.758364379406,0.420691401689,-0.382596845682,0.386277612395,0.0783737788156,0.966875307319,0.242068873911,-0.0203064242669
-0.155667871237,-0.0401514023542,-0.553292393684,-1.96473276615,-0.168232306838,2.02730250359,-1.12690746784,0.034457270056,-0.468730896711,0.353242605925,-0.624943733215,0.294603705406,-0.0903711915016,-0.0154784005135,-0.715260148048,0.414594634042,-0.391615120499,0.385700139803,0.0790170251575,0.967531956118,0.238934367776,-0.0234220241298
-0.164720997214,-0.0341171808541,-0.564742743969,-1.95921719074,-0.170203045011,2.02689123154,-1.14087569714,0.034457270056,-0.433341294527,0.265178799629,-0.527631282806,0.263693511486,-0.0936200395226,-0.0254746694118,-0.693629264832,0.40758335094,-0.401313617018,0.385476141484,0.0798474118436,0.968068545392,0.236118448794,-0.0267536927849
-0.176431626081,-0.0280052758753,-0.579148352146,-1.95199322701,-0.172056362033,2.02608704567,-1.16103732586,0.034457270056,-0.323173135519,0.117880791426,-0.388939201832,0.199100002646,-0.0497324690223,-0.0335696041584,-0.616435945034,0.398308612159,-0.413378963355,0.386031122059,0.0809393269886,0.968515456155,0.233476558046,-0.0302544719198
-0.181678369641,-0.0265000779182,-0.585345566273,-1.9486219883,-0.173096656799,2.02544307709,-1.17182981968,0.034457270056,-0.259359687567,0.0547703579068,-0.298570662737,0.183210298419,-0.0658906549215,-0.0371885634959,-0.591453373432,0.39403863648,-0.418612105333,0.386911078242,0.0816405426694,0.968474126716,0.233241025186,-0.0314851002454
-0.185900717974,-0.0259633846581,-0.590187072754,-1.9452009201,-0.174185574055,2.02466678619,-1.18252646923,0.034457270056,-0.197853311896,-0.000887274509296,-0.217465355992,0.179219558835,-0.0562704876065,-0.0480760447681,-0.540286302567,0.390637918402,-0.422856557499,0.388268438311,0.0825664927368,0.968170341594,0.23407044317,-0.0322488955249
-0.188500151038,-0.0262175388634,-0.593286633492,-1.94227468967,-0.174989119172,2.02393984795,-1.19084632397,0.034457270056,-0.135577455163,-0.0299643334001,-0.166152179241,0.185434013605,-0.0501005873084,-0.0448185727,-0.505362808704,0.388529922042,-0.425633847973,0.389760439443,0.0835033249957,0.967781836115,0.235313384626,-0.0324518583389
-0.191297516227,-0.0297096446157,-0.597034454346,-1.93350827694,-0.176335096359,2.0219502449,-1.21265530586,0.034457270056,0.0158787276596,-0.095322728157,0.00147177278996,0.18422703445,-0.00787309091538,-0.0163934454322,-0.438211977482,0.386603107343,-0.429689375991,0.395543871347,0.0869932915662,0.965801602571,0.242291057551,-0.0308945758518
-0.190588280559,-0.0316320843995,-0.59664940834,-1.93033003807,-0.17638027668,2.02178907394,-1.22038340569,0.034457270056,0.0669998005033,-0.113859929144,0.030909717083,0.17183226347,-0.000267703580903,-0.000185449345736,-0.417561322451,0.387405196864,-0.429826783742,0.397877173313,0.0885160876794,0.96474636806,0.246068216501,-0.0296610865763
-0.18915168941,-0.0336203277111,-0.595745563507,-1.92756140232,-0.176388651133,2.02176427841,-1.22683227062,0.034457270056,0.107753671706,-0.128039270639,0.0771148130298,0.174767389894,0.000266655551968,-0.0028836412821,-0.386197477579,0.388816315894,-0.429391121681,0.400340296576,0.0901651170762,0.963546042428,0.250309232693,-0.0281880028718
-0.186656445265,-0.0360528118908,-0.593760609627,-1.92435646057,-0.176389873028,2.02176523209,-1.23383021355,0.034457270056,0.152296304703,-0.127069026232,0.126652106643,0.163084968925,0.000147199520143,0.000308418617351,-0.35011151433,0.39111719924,-0.428193760998,0.403111104642,0.0920574522164,0.962039141294,0.255554562352,-0.0264193387876
-0.182837769389,-0.0390684343874,-0.590374231339,-1.92078375816,-0.176393732429,2.02176260948,-1.24157726765,0.034457270056,0.172671601176,-0.145646929741,0.172536209226,0.144229933619,9.39546225709e-05,-7.47584272176e-05,-0.320260584354,0.394910915889,-0.425728836894,0.406656150562,0.0944856561049,0.959850567731,0.263025286987,-0.0240217924879
-0.179137781262,-0.0417267046869,-0.58640563488,-1.91778838634,-0.176392003894,2.0217833519,-1.24794518948,0.034457270056,0.198490038514,-0.120577305555,0.218293994665,0.152370855212,1.55231846293e-05,-0.000101277510112,-0.314511030912,0.398147386868,-0.423406318802,0.409186718462,0.0962447088511,0.958103959105,0.26884707213,-0.0222488441008
-0.169037178159,-0.0467926301062,-0.574621558189,-1.91160428524,-0.176389425993,2.0218167305,-1.26049232483,0.0344231240451,0.256183326244,-0.101955913007,0.281295835972,0.119947865605,-1.74277211045e-05,-0.000428328989074,-0.251278340816,0.407967010675,-0.415551722926,0.414903358099,0.100339140071,0.953178426798,0.284703977021,-0.0180717684331
-0.164138302207,-0.0485378168523,-0.569026768208,-1.90938174725,-0.176387935877,2.02183318138,-1.26508128643,0.0344231240451,0.270811259747,-0.077672354877,0.303826212883,0.116813540459,5.81742388022e-05,0.00352972536348,-0.229922682047,0.412535420006,-0.411578812606,0.416959154036,0.101848880974,0.950938885432,0.291668081401,-0.0164854966245
-0.159569099545,-0.0497229397297,-0.563814043999,-1.90747988224,-0.176388353109,2.02186274529,-1.26874887943,0.0344231240451,0.266558468342,-0.0660717636347,0.303884655237,0.108899608254,0.000153782457346,-0.000455275352579,-0.208498328924,0.416764418342,-0.407805850466,0.418587275806,0.10309598782,0.948896140418,0.297885939894,-0.0152085008145
-0.146071493626,-0.0520414151251,-0.547871053219,-1.90328633785,-0.176379472017,2.02202606201,-1.27776110172,0.0344231240451,0.276563704014,-0.0207283739001,0.335063546896,0.0660963431001,-0.000989904394373,0.000811238132883,-0.152540072799,0.429126598428,-0.395952307438,0.422142116424,0.10595562977,0.942844545131,0.315705023577,-0.012161661548
-0.142196804285,-0.052229039371,-0.543161571026,-1.90244054794,-0.176377877593,2.02203440666,-1.27971291542,0.0344231240451,0.27943277359,-0.0109019074589,0.332907289267,0.0515233837068,-2.76387836493e-05,5.80509076826e-05,-0.136397570372,0.433134392135,-0.391849430416,0.422825450653,0.106576478949,0.940891500078,0.32129876592,-0.0114778883782
-0.136723950505,-0.0522486008704,-0.536744058132,-1.90151429176,-0.176376774907,2.0220386982,-1.28224551678,0.0344231240451,0.265628278255,0.00200474611484,0.316268742085,0.0342466048896,-0.00138772523496,0.000339898164384,-0.123687058687,0.43742982906,-0.387309241642,0.423345594574,0.107102319033,0.938758785224,0.327326503846,-0.0108809921318
-0.131818667054,-0.0521656982601,-0.530718684196,-1.9011259079,-0.176370501518,2.02205753326,-1.28444969654,0.0344231240451,0.258423745632,0.00702473707497,0.317953050137,0.00774744525552,-0.000147230515722,0.00278205005452,-0.0935654491186,0.441494766788,-0.382793648228,0.423603209673,0.107426525411,0.936676442804,0.333148565358,-0.0104315013042
-0.12504927814,-0.0518283881247,-0.522078692913,-1.90124952793,-0.176368668675,2.0220246315,-1.28689539433,0.034422468394,0.228697091341,0.0223732534796,0.306435704231,-0.00671284087002,-4.26841870649e-05,-0.000346191605786,-0.0687203258276,0.447561328507,-0.375635958794,0.423519272359,0.107560589778,0.933532376778,0.341830175116,-0.0100076020833
-0.120729908347,-0.0513965897262,-0.51607555151,-1.90136194229,-0.176350995898,2.02202701569,-1.2881193161,0.034422468394,0.222377553582,0.0279051903635,0.316409736872,-0.00671501737088,0.00145915371832,0.000347246532328,-0.0577965006232,0.451236172844,-0.371201741266,0.423357141558,0.107592289266,0.93163628922,0.346960291107,-0.00981223614045
-0.117585092783,-0.0509143508971,-0.511452138424,-1.90147030354,-0.176345527172,2.02202343941,-1.28885126114,0.034422468394,0.203722119331,0.0390703082085,0.304564386606,-0.00387476407923,0.00270904251374,-7.96713720774e-06,-0.0431262589991,0.454328359664,-0.367409735168,0.423126094302,0.107573763492,0.930040893798,0.351222645265,-0.00971979465403
-0.108867324889,-0.048835285008,-0.498111665249,-1.9022872448,-0.176100179553,2.02202486992,-1.28960251808,0.0344218090177,0.166531324387,0.0447397194803,0.257447361946,-0.0281787477434,0.0141219310462,0.000301208434394,-0.000746603414882,0.462379434881,-0.357119317381,0.421873128747,0.107090238645,0.925985855423,0.361920289047,-0.0097765230735
-0.105745270848,-0.0478629134595,-0.493163377047,-1.90295958519,-0.175766408443,2.02202510834,-1.28960216045,0.0344218090177,0.147348374128,0.0438778474927,0.242973908782,-0.0366715528071,0.0191893521696,-0.00044602167327,-0.000475983688375,0.465236165642,-0.353228252465,0.421106869953,0.106644069138,0.92455409008,0.3656897398,-0.0098889292353
-0.103622369468,-0.047231644392,-0.489822536707,-1.90364277363,-0.175407856703,2.02202033997,-1.28960120678,0.0344218090177,0.146665394306,0.0399005226791,0.208587437868,-0.0521740652621,0.0260039977729,0.000215704887523,-0.00064955081325,0.46725237914,-0.350331060784,0.420428318557,0.106179053384,0.92352428827,0.368414695138,-0.00997545419866
-0.10113517195,-0.046531252563,-0.486311912537,-1.90468358994,-0.174929201603,2.02202129364,-1.28960049152,0.0344218090177,0.13122586906,0.0429276637733,0.200506538153,-0.0659847632051,0.0254079531878,-3.09775059577e-05,2.39785663325e-06,0.469115517953,-0.347509221574,0.419631364002,0.105598972496,0.922547328996,0.371016297551,-0.0101088775319
-0.0960761383176,-0.0449251495302,-0.477342009544,-1.90896189213,-0.171877831221,2.02198243141,-1.2895731926,0.0344218090177,0.086567081511,0.0293013993651,0.175381407142,-0.111812695861,0.100981540978,-0.000913873722311,0.00409735739231,0.473593928212,-0.33969201094,0.416593439606,0.102789217039,0.920253561998,0.37744242958,-0.0102455124053
-0.0945604518056,-0.0444656535983,-0.474214285612,-1.91100597382,-0.169831678271,2.02195262909,-1.28954482079,0.0344218090177,0.0777407884598,0.023493854329,0.162518233061,-0.118522077799,0.121204815805,-0.000946467975155,0.00236269598827,0.474869416778,-0.337109439948,0.415389310366,0.101446061672,0.919664688177,0.379241387064,-0.0100761059591
-0.093259498477,-0.0441627763212,-0.471483767033,-1.91322159767,-0.16790227592,2.02185297012,-1.28945624828,0.0344218090177,0.0636956766248,0.0120506994426,0.148876070976,-0.133394345641,0.106334380805,-0.00593954557553,0.00868669059128,0.475948869347,-0.334613560505,0.41408380372,0.0999750233454,0.919148870166,0.380881682666,-0.00997460124117
-0.0921382084489,-0.0439615361392,-0.468942970037,-1.91573679447,-0.165641278028,2.02181529999,-1.28929495811,0.0344218090177,0.057401843369,0.00849050004035,0.125191643834,-0.143957808614,0.140526935458,0.000239058295847,0.0122178904712,0.476912784465,-0.33205999751,0.41258373691,0.0982195300357,0.918730138835,0.382351091023,-0.00977234826125
-0.0904495418072,-0.0438231602311,-0.465357095003,-1.92026603222,-0.160467013717,2.02180624008,-1.28894484043,0.0344218090177,0.0575333423913,0.00300335884094,0.109240762889,-0.163758561015,0.188338890672,0.000850803626236,0.0144510669634,0.478109662896,-0.328354304488,0.410229585725,0.0951144612101,0.918396145674,0.383954001841,-0.00900461173009
-0.0895071104169,-0.0438363216817,-0.463553398848,-1.92304158211,-0.156889617443,2.02180790901,-1.28867292404,0.0344218090177,0.0489889644086,0.000283888075501,0.105970032513,-0.16382689774,0.228640645742,-0.000273778074188,0.0190790649503,0.478723535147,-0.326165742082,0.408771996432,0.093043539219,0.91832040555,0.3846566542,-0.00835407810829
