imanlab/tactile_prediction_flat_dataset/test/data_sample_2021-11-25-13-28-45/robot_state.csv
position_panda_joint1,position_panda_joint2,position_panda_joint3,position_panda_joint4,position_panda_joint5,position_panda_joint6,position_panda_joint7,position_panda_finger,velocity_panda_joint1,velocity_panda_joint2,velocity_panda_joint3,velocity_panda_joint4,velocity_panda_joint5,velocity_panda_joint6,velocity_panda_joint7,ee_state_position_x,ee_state_position_y,ee_state_position_z,ee_state_orientation_x,ee_state_orientation_y,ee_state_orientation_z,ee_state_orientation_w
0.398438423872,-0.0217540170997,-0.400274038315,-2.51673269272,-0.0392569229007,2.53971004486,-0.768333792686,0.0593666061759,0.000273246725556,-0.000170477098436,0.000562805333175,-0.00615739636123,-1.53759647219e-05,-6.91318273311e-05,0.0125320991501,0.47027683871,-0.00153175735699,0.17830145604,0.0147937304853,0.92115701472,0.388525978382,0.0172760983544
0.398440063,-0.0217534974217,-0.400275439024,-2.51689434052,-0.039257388562,2.53970956802,-0.768128335476,0.0593659505248,1.70151815837e-05,-0.000262311979895,0.00599129451439,-0.00769133819267,4.10380198446e-05,5.4733860452e-05,0.0125001780689,0.470200314841,-0.00153102601706,0.178237478381,0.0147604428589,0.921197939557,0.388433459249,0.0172027004168
0.398442238569,-0.0217526294291,-0.400273710489,-2.51706457138,-0.0392575785518,2.53971123695,-0.767947673798,0.0593659505248,-0.00013274079538,0.000190506980289,-0.00315525033511,-0.0138350157067,-5.61097258469e-05,-0.000105457336758,0.00634723110124,0.47011511666,-0.00152867848412,0.178165960931,0.0147238869439,0.921235845893,0.388348536309,0.0171212564748
0.398442208767,-0.0217536240816,-0.400275528431,-2.51729440689,-0.0392571538687,2.53970909119,-0.767699658871,0.0593659505248,-0.000370733177988,-0.000261974026216,-0.000203891759156,-0.0134318405762,3.37752790074e-05,-8.64233152242e-05,0.0150375058874,0.47001123674,-0.00152837654229,0.178079883888,0.0146785781077,0.921283587683,0.38824136094,0.0170216259068
0.398446589708,-0.021753160283,-0.400272876024,-2.51772546768,-0.0392576903105,2.53971004486,-0.767176508904,0.0593659505248,-0.000313840660965,-0.000262230343651,-9.79407650448e-06,-0.0149323130026,-6.36069526081e-05,2.48265660048e-05,0.021131567657,0.46980768141,-0.00152333393108,0.177910059232,0.0145904105517,0.921386596192,0.388008637951,0.0168272646599
0.398446798325,-0.0217518620193,-0.400274455547,-2.51793932915,-0.0392573550344,2.53970909119,-0.766928911209,0.0593659505248,-8.10590154288e-06,0.00253959558904,-0.00057170324726,-0.0159990582615,-2.05898941203e-05,-9.42235055845e-06,0.0159207992256,0.46969913838,-0.00152286100303,0.17781933604,0.0145433315603,0.921439579722,0.387889085874,0.016722714216
0.39845085144,-0.0217527952045,-0.400274574757,-2.51823759079,-0.0392565838993,2.53971004486,-0.766687333584,0.0593659505248,-0.000245578004979,0.000247428077273,-0.000423741264967,-0.0166775789112,0.000101233694295,2.71112676273e-05,0.0094125373289,0.469565516827,-0.00151996021966,0.177708362424,0.0144862143984,0.921484596585,0.387789752326,0.0165950450949
0.398452430964,-0.0217498075217,-0.400274574757,-2.51856517792,-0.0392570197582,2.53970885277,-0.766485691071,0.0593659505248,-0.000495112093631,0.000536711537279,0.000573868281208,-0.0177381522954,3.65023297491e-05,-2.76432620012e-05,0.00864073447883,0.469409910651,-0.00151806920003,0.177578108969,0.0144206465027,0.92152551278,0.387701407527,0.0164436167837
0.398455500603,-0.0217532273382,-0.400273859501,-2.5190410614,-0.0392571687698,2.53971004486,-0.766248166561,0.0593659505248,-0.000131248001708,-0.000509640376549,-0.00092928664526,-0.0183498132974,0.000122444296721,0.000271453638561,0.00698971003294,0.46920249291,-0.00151407640793,0.177406451427,0.0143333211451,0.921571757623,0.38760310882,0.0162444197021
0.398460507393,-0.0217533670366,-0.400272995234,-2.51963853836,-0.0392571650445,2.5397105217,-0.766141593456,0.0593659505248,-0.000119527881907,0.000494062958751,-0.000177051857463,-0.0145837897435,1.33785351863e-05,-0.000124739191961,0.000359237747034,0.468902879589,-0.00150886847593,0.177157993307,0.0142091812784,0.92159721807,0.387559181025,0.0159545510476
0.398465752602,-0.021753327921,-0.40027269721,-2.52004337311,-0.0392569489777,2.5397105217,-0.766102850437,0.0593666061759,0.000843475107104,-0.000738198927138,3.58975230483e-05,-0.0187344420701,0.0048757083714,4.67941099487e-05,0.000708225998096,0.468711196027,-0.00150458402019,0.176999022398,0.0141299812007,0.921606236569,0.387548245838,0.0157684869079
0.39847561717,-0.0217515863478,-0.400271177292,-2.52056121826,-0.0392572432756,2.53970932961,-0.766038715839,0.0593666061759,-4.13096095144e-05,0.00102257262915,5.36038933205e-05,-0.0186054501683,-0.00495475064963,5.53064674023e-05,0.000131833992782,0.46845670563,-0.00149724713119,0.176787456796,0.0140249475837,0.921620101866,0.387529103952,0.0155203722636
0.398475468159,-0.0217516403645,-0.400272458792,-2.52086949348,-0.0392569564283,2.53970980644,-0.76600497961,0.0593666061759,4.7764970077e-05,-0.000200449372642,-2.08502933674e-05,-0.0168500132859,-4.78037836729e-05,0.000154818815645,0.00293635926209,0.468319452478,-0.00149661017546,0.17667409839,0.0139682412432,0.921628373366,0.387516770427,0.0153877211705
0.398474246264,-0.0217519383878,-0.400273621082,-2.52112603188,-0.039257325232,2.53970837593,-0.765953838825,0.0593666061759,-0.000136464397656,0.000139059091453,-0.000248652999289,-0.0127751193941,-0.000475829001516,9.83025311143e-05,0.000573552795686,0.468197597175,-0.00149667408874,0.176573497746,0.013917774936,0.921640246753,0.387495027709,0.0152693905917
0.398476958275,-0.0217515341938,-0.400273561478,-2.52137160301,-0.0392568521202,2.53971004486,-0.765921413898,0.0593666061759,0.000559785112273,-0.000685594917741,0.000634761352558,-0.0139512242749,0.00304314401001,7.29499661247e-05,0.0014200238511,0.468081489739,-0.00149434860684,0.176477226763,0.0138698941123,0.921647519542,0.387483851006,0.0151571979933
0.398479819298,-0.0217534694821,-0.400273263454,-2.52178907394,-0.039256580174,2.53970885277,-0.765881478786,0.0593666061759,0.00151727069169,-0.00316821294837,-0.000147579514305,-0.0118131320924,-0.0013289245544,-4.12967856391e-05,-0.000670808076393,0.467883562514,-0.00149102402137,0.17631437436,0.0137880515771,0.92165715495,0.387471295866,0.0149657250399
0.39847895503,-0.0217518564314,-0.400273501873,-2.5219745636,-0.0392578244209,2.53971004486,-0.765850305557,0.0593666061759,-0.000475575419841,-0.000114667083835,-0.000518129265402,-0.0124308634549,3.35963450198e-05,2.34520775848e-05,0.00277602253482,0.46779560966,-0.00149092569036,0.176241142946,0.0137522837548,0.9216642856,0.387458901475,0.0148801442138
0.398481816053,-0.0217510052025,-0.40027281642,-2.52216076851,-0.0392577312887,2.53971004486,-0.76582223177,0.0593666061759,-0.000145471349242,-5.34334794793e-05,0.00016677135136,-0.0127246817574,-1.24784583022e-05,-7.50101753511e-05,0.00245739449747,0.467707163264,-0.00148854719918,0.176167863962,0.0137158018418,0.921670133297,0.387449574967,0.0147942120035
0.398481816053,-0.0217518117279,-0.400271475315,-2.52231693268,-0.0392573624849,2.53970909119,-0.76580375433,0.0593666061759,-0.000318930717185,8.10114070191e-05,0.00066028063884,-0.00552626699209,3.39620874001e-06,-8.00008128863e-05,0.000246986281127,0.467632988054,-0.00148721926829,0.176106985576,0.0136850148835,0.921674415655,0.387443210354,0.014722442984
0.398484617472,-0.0217514745891,-0.400273501873,-2.52258276939,-0.0392575599253,2.53971004486,-0.765766382217,0.0593666061759,-0.000208109617233,-0.000311982294079,5.91977732256e-05,-0.00322984228842,-0.0055841896683,0.00022433619597,0.00237905490212,0.467506999625,-0.00148577667834,0.176002874573,0.0136332172992,0.921682981187,0.387429272197,0.0146005583207
0.398486346006,-0.0217539221048,-0.400269925594,-2.522605896,-0.0392565131187,2.53971076012,-0.765758931637,0.0593666061759,-0.000295583100524,0.000112449219159,0.000337853474775,-0.000302884407574,-0.000110313572804,9.01833573153e-06,2.70636628557e-05,0.46749654364,-0.00148300437334,0.175994959557,0.0136285088765,0.921683677308,0.387428116792,0.0145916665023
0.398490458727,-0.0217516925186,-0.400270909071,-2.52261686325,-0.0392570197582,2.53970956802,-0.765751004219,0.0593666061759,0.000208309429581,-0.000761231756769,-0.000205973905395,0.000284171866952,-8.75034093042e-05,9.33438059292e-05,3.11588064505e-06,0.467490763447,-0.00148166431846,0.175989590388,0.0136262070424,0.92168460918,0.38742623311,0.0145849670422
0.398493289948,-0.0217541139573,-0.400274127722,-2.52261972427,-0.0392571277916,2.53971099854,-0.765715301037,0.0593666061759,0.00101186544634,4.50234911114e-05,0.000184159405762,2.98459235637e-05,6.46167172818e-05,-0.00365432072431,0.000553244259208,0.467490059596,-0.00148166994508,0.175989637377,0.0136256435182,0.921691575555,0.387409649829,0.0145857564585
0.39849126339,-0.0217528864741,-0.400274842978,-2.52261972427,-0.0392574183643,2.53971147537,-0.765703976154,0.059367261827,0.000114894290164,-1.78690133907e-05,0.000283038272755,-0.000148447157699,-3.49323745468e-05,-3.47085006069e-07,0.00261112954468,0.46748998014,-0.00148303536554,0.175989152382,0.0136257377096,0.921694254305,0.387403287105,0.0145853925349
0.398493945599,-0.0217531006783,-0.400271832943,-2.52262043953,-0.0392573513091,2.53971076012,-0.765689432621,0.059367261827,0.000170783416252,-0.000601089792326,-0.000429208739661,0.000269661104539,6.54963223496e-05,-0.000321929604979,-0.000313481286867,0.467489529903,-0.00148037028281,0.175988907879,0.0136253369875,0.921695989361,0.387399188664,0.0145849817143
0.398497015238,-0.0217526145279,-0.400271326303,-2.52262043953,-0.0392575338483,2.53971123695,-0.765672087669,0.059367261827,-9.4721926871e-06,-0.000240762645262,-6.6490349127e-05,0.000331017392455,7.48934689909e-06,-7.59702597861e-05,0.00234898133203,0.467489568532,-0.00147873531889,0.175988746642,0.013625325092,0.921698624344,0.387392916048,0.0145850840473
0.398493587971,-0.0217540599406,-0.400272727013,-2.52262234688,-0.0392568744719,2.53971171379,-0.765664994717,0.059367261827,0.000302014756016,0.000487400393467,-0.00239407946356,-3.35490258294e-05,6.40631242277e-06,-4.72220490337e-05,0.00525090890005,0.467488965226,-0.0014808541998,0.175988661909,0.0136248294567,0.92170103895,0.387387182755,0.014585237035
0.398494452238,-0.0217538680881,-0.400272995234,-2.52262210846,-0.0392567403615,2.53971147537,-0.765653431416,0.059367261827,-0.000234078834183,-0.000855362974107,0.000439831317635,-0.000553247809876,3.57575299859e-05,-0.000120381555462,0.00032829947304,0.467488999566,-0.00148058232862,0.175988648591,0.0136247052251,0.921703186476,0.387382077533,0.0145852369258
0.398496389389,-0.021752262488,-0.400271445513,-2.52262067795,-0.0392552539706,2.53971099854,-0.765645325184,0.0593666061759,-0.000105851315311,0.000405573780881,0.000454083725344,0.000171821026015,2.64959107881e-05,-0.00130189058837,-0.000305892783217,0.467489348314,-0.00147898831933,0.175988476743,0.0136244290895,0.921704321359,0.387379391804,0.0145851091252
0.398496836424,-0.0217539779842,-0.400271952152,-2.52262043953,-0.0392562970519,2.53971076012,-0.765630185604,0.0593666061759,-8.89037110028e-05,0.000506646058057,-4.53801512776e-05,0.000513000937644,1.83887841558e-05,0.00099832599517,-2.90583775495e-05,0.467489659183,-0.00147896651999,0.175989284086,0.0136245983544,0.921707092924,0.387372759423,0.014585955988
0.398498833179,-0.0217519905418,-0.400272518396,-2.52262043953,-0.0392563119531,2.53971147537,-0.765595674515,0.0593666061759,-1.19707729027e-05,-0.000259102816926,-0.000262774439761,0.000200998547371,0.000120080570923,2.98441409541e-05,0.0035748037044,0.467489527076,-0.00147841215497,0.175988495369,0.0136244632921,0.921713498732,0.387357537657,0.0145855393546
0.398499369621,-0.0217525176704,-0.400272607803,-2.52262210846,-0.0392572246492,2.53971028328,-0.765582680702,0.0593666061759,6.56794600218e-06,-0.000380469340598,0.000231954501942,-0.000298121827655,-3.47291315848e-05,0.000254476122791,-1.43239903991e-05,0.467488556411,-0.00147822020585,0.175987954957,0.0136240718077,0.921715802336,0.38735211017,0.014584471877
0.398500829935,-0.0217510275543,-0.400270879269,-2.52262163162,-0.0392570830882,2.53971147537,-0.765573680401,0.0593666061759,-0.00037720031105,0.000365415675333,7.02821344021e-05,-0.00034721911652,-0.00551975844428,-0.00292837060988,0.000183677679161,0.467488830702,-0.00147681118318,0.175987621624,0.0136242709581,0.921716941677,0.387349387202,0.0145846008585
0.398501157761,-0.0217540618032,-0.400272637606,-2.52262043953,-0.0392566658556,2.5397105217,-0.765564739704,0.0593666061759,-3.14414792228e-05,-0.000268795381999,-0.000330699462211,0.000221362861339,0.00442257430404,-0.00015201154747,0.000145846846863,0.467489624976,-0.00147728028497,0.175989294814,0.0136241438293,0.921719007538,0.387344411172,0.0145863176672
0.398502320051,-0.021752871573,-0.400271236897,-2.52262115479,-0.0392572917044,2.53971123695,-0.765539586544,0.0593666061759,0.000333257543389,3.98413103539e-05,0.000361694634194,0.000636987155303,-2.76066621154e-05,-4.87955876451e-05,0.000356425181963,0.467489273997,-0.0014761828096,0.175988577518,0.0136241158107,0.921723284263,0.387334252834,0.014585848595
0.398501127958,-0.0217526312917,-0.400272190571,-2.52262163162,-0.0392567962408,2.53971147537,-0.765535235405,0.0593666061759,-0.000746424775571,-0.00119524355978,-0.000303922744934,0.000642057100777,5.90999370615e-05,0.00564125878736,0.000278227700619,0.467489059104,-0.00147716814438,0.175988306255,0.0136239056996,0.921724622994,0.387331080521,0.0145856883442
0.398503124714,-0.0217537656426,-0.400273501873,-2.52262115479,-0.0392572544515,2.53971123695,-0.765524983406,0.0593666061759,0.000409447500715,0.000383480626624,0.000209581718082,7.10426247679e-05,-7.67977617215e-05,2.53387097473e-05,-0.000965201063082,0.46748925157,-0.00147690338832,0.175988891567,0.0136238816598,0.921726456729,0.387326697003,0.0145862361481
0.398505598307,-0.0217531919479,-0.400270491838,-2.52262187004,-0.0392556078732,2.53971219063,-0.765514552593,0.0593666061759,0.00161073578056,0.000175464330823,0.00316320592538,0.00016497123579,4.29659667134e-05,-0.000655078154523,0.00195375480689,0.467489190721,-0.00147418781634,0.175988528728,0.0136234892962,0.921727615051,0.387323944269,0.0145865029953
0.398506999016,-0.0217527654022,-0.400270611048,-2.52262210846,-0.0392568856478,2.53971266747,-0.765509009361,0.0593666061759,-0.00027161889011,0.000458203459857,0.000131526438054,0.000553203863092,-4.38124588982e-05,-0.000164194789249,0.000295712350635,0.467489122275,-0.00147367531607,0.175988298194,0.0136238228599,0.921728234866,0.387322464741,0.0145863117258
0.398506462574,-0.0217530149966,-0.400269538164,-2.52262187004,-0.0392569489777,2.53971266747,-0.765504300594,0.0593666061759,0.000144398436532,-0.000793530256487,0.00242033484392,-0.000402927544201,-5.04072704643e-06,8.66716218297e-05,-0.000341306847986,0.467489273852,-0.00147341706176,0.175988503203,0.0136238596632,0.921729030246,0.387320560718,0.0145865752188
0.398507207632,-0.0217525102198,-0.400270015001,-2.52262330055,-0.0392576307058,2.53971195221,-0.765499591827,0.0593666061759,-7.26272337488e-05,0.000536390056368,6.10477945884e-05,-0.000301103282254,-8.57363993418e-05,-0.000124263751786,-0.000229395009228,0.467488368615,-0.00147335567654,0.175987656151,0.013623595768,0.921729798802,0.387318789372,0.0145852912342
0.398507505655,-0.021754141897,-0.400270968676,-2.52262187004,-0.0392574891448,2.5397131443,-0.765493392944,0.0593679212034,0.00210638088174,0.000250969169429,-0.00449984846637,0.000375603325665,-0.00241426913999,-7.83576922458e-07,7.77870664024e-05,0.467489538023,-0.00147354889291,0.175989028614,0.0136239985839,0.921731122322,0.387315547053,0.0145873746581
0.398506253958,-0.0217523835599,-0.400272250175,-2.52262043953,-0.0392572879791,2.53971409798,-0.76549077034,0.0593679212034,0.000583983492106,-0.000577950733714,0.000640674144961,-0.00074736145325,-4.4021062422e-06,0.000134976187837,-8.09469565866e-05,0.467489940931,-0.00147443067772,0.175988856417,0.0136242778713,0.921732084692,0.38731323709,0.014587637173
0.398508518934,-0.0217517185956,-0.400271385908,-2.52262210846,-0.0392567850649,2.53971385956,-0.765483498573,0.0593679212034,-0.000489722646307,0.00127019477077,0.0002269505203,0.000638053577859,2.90550833597e-05,-5.63938410778e-05,5.15785941388e-05,0.467489227552,-0.00147337371537,0.175987959093,0.0136238103564,0.921733039497,0.387311022815,0.0145865341683
0.398510754108,-0.0217516664416,-0.400269538164,-2.52262187004,-0.0392568036914,2.53971457481,-0.765479624271,0.0593679212034,-5.91996104049e-05,0.000217188571696,-0.0018496880075,-0.000279892614344,0.0028139129281,-2.73364348686e-05,0.000139736541314,0.467489495747,-0.00147147050472,0.175988106,0.0136239523589,0.921732987569,0.387311123714,0.0145870037545
0.398509383202,-0.0217534247786,-0.400271713734,-2.52262282372,-0.0392567738891,2.5397131443,-0.765475571156,0.0593679212034,-0.000961676472798,-0.000715421570931,0.000331729184836,3.82557955163e-05,0.000113750320452,-1.74291635631e-05,0.000219425870455,0.467488981236,-0.00147302002176,0.175988343341,0.0136234738033,0.921734476856,0.387307604602,0.0145867829317
0.39850962162,-0.0217529367656,-0.400269597769,-2.52262163162,-0.0392567031085,2.53971362114,-0.765471577644,0.0593679212034,-0.000304603163386,-0.000197114713956,0.000163340358995,7.58004534873e-05,0.000135214038892,-8.79482977325e-05,-0.000226980482694,0.467489585262,-0.00147195351204,0.175988654001,0.0136237490931,0.92173479573,0.387306814266,0.0145873611857
0.398511379957,-0.0217528808862,-0.400272190571,-2.52262067795,-0.0392559543252,2.53971505165,-0.765469789505,0.0522910244763,2.1108889996e-05,-0.000920177029911,2.68657859124e-05,0.000225049501751,0.00539674470201,-0.000121382632642,0.000451433821581,0.467490194372,-0.00147241486391,0.175988834421,0.0136239315885,0.921735423379,0.387305279783,0.014588273047
0.398508787155,-0.0217534620315,-0.400272190571,-2.52262187004,-0.0392564497888,2.5397131443,-0.765467762947,0.0522910244763,0.000132249449962,-2.09285262827e-05,-0.000618594582193,-4.13920643041e-05,5.77681021241e-05,-3.04858313029e-05,0.000140809061122,0.467489436515,-0.00147350501366,0.175988730421,0.0136235174004,0.921736242931,0.387303379766,0.0145873213606
0.398508429527,-0.0217521432787,-0.400271356106,-2.52262568474,-0.0392566844821,2.53971338272,-0.765464961529,0.0522910244763,0.000111155975901,-0.000555269827601,3.62837236025e-05,-3.2438114431e-05,-1.85246826732e-05,0.00284285075031,0.000292078155326,0.46748769144,-0.00147295655463,0.175986922341,0.0136229589657,0.921736624962,0.387302563836,0.0145853666526
0.398515015841,-0.0217529349029,-0.400270998478,-2.52262377739,-0.039256233722,2.53971362114,-0.765461087227,0.0522910244763,0.00171436090022,-0.000312283285893,-6.3521647462e-06,-0.000593579432461,8.78708451637e-05,2.06948043342e-05,0.000614619930275,0.467488569945,-0.00147004917665,0.175987807581,0.01362308412,0.921736141133,0.387303667409,0.0145865212371
0.398515582085,-0.0217533614486,-0.400270521641,-2.52262449265,-0.0392571613193,2.5397143364,-0.765459537506,0.0522910244763,4.48272076028e-05,-0.000334123789798,0.000297553371638,-0.00029669329524,-0.00197698478587,-0.000118669893709,-0.000103708363895,0.467488449915,-0.00146957625442,0.175987782519,0.0136233102383,0.921736086355,0.387303784712,0.0145866568592
0.398514091969,-0.021753590554,-0.400271654129,-2.52262306213,-0.0392572470009,2.53971362114,-0.76545882225,0.0522910244763,0.00168275192846,0.00048807245912,-0.000216923988773,-0.000219063062104,-0.00381829985417,-2.49861459451e-05,-0.000150972540723,0.467489002636,-0.00147080055628,0.175988367766,0.0136234845749,0.921736717341,0.387302261187,0.0145870742386
0.398512363434,-0.0217525474727,-0.400270849466,-2.5226213932,-0.039256952703,2.53971409798,-0.765454173088,0.0522910244763,-0.000303857028484,0.000344282801962,-5.73098659515e-05,0.000128925341414,9.62107424129e-06,0.000114294372906,8.96510246093e-05,0.467489839267,-0.00147137877796,0.17598865662,0.013623839885,0.921737915798,0.387299374966,0.014587645457
0.39851513505,-0.021754777059,-0.400269001722,-2.52262330055,-0.0392568185925,2.53971338272,-0.765451490879,0.0522910244763,0.000377601303626,0.00018386929878,0.00107664742973,-0.000208540790481,-2.16456028284e-05,7.73270076024e-05,0.000297876744298,0.467489018104,-0.00146898816905,0.175988772322,0.0136232276287,0.921737488267,0.387300416924,0.0145875674862
0.398516863585,-0.0217528454959,-0.400270223618,-2.52262330055,-0.0392567180097,2.53971457481,-0.765447676182,0.0522910244763,-0.0005464705755,0.00028773926897,-0.000193634812604,-0.000558150873985,5.5546319345e-05,5.91036223341e-05,-2.66306324193e-05,0.467488994403,-0.00146885047544,0.175988050747,0.0136233705554,0.921738141088,0.38729887215,0.0145871982239
0.398517489433,-0.0217532068491,-0.400269150734,-2.52262401581,-0.0392576344311,2.53971362114,-0.76544624567,0.0522910244763,-0.000108843058115,0.000224994742894,-4.10696065956e-06,-0.000222919086809,-0.0048482590355,0.000110067303467,0.000494831765536,0.467488507096,-0.00146808951305,0.175987839718,0.0136232963703,0.921737954871,0.387299343199,0.0145865275734
0.398517876863,-0.0217525288463,-0.40027064085,-2.52262473106,-0.0392572842538,2.53971529007,-0.765444338322,0.0492165088654,-0.00383820175193,-0.000255292397924,0.000209919235203,-0.000191166443983,0.000238449603785,2.48781070695e-05,7.55020982979e-06,0.467488377253,-0.00146850635493,0.175987409534,0.0136232732824,0.92173858323,0.387297846118,0.0145865926756
0.398517757654,-0.021753327921,-0.400273621082,-2.52262401581,-0.0392566919327,2.53971457481,-0.765441417694,0.0492165088654,-0.000294041994493,-0.000769088219386,-1.62213073054e-05,0.000446810561698,6.5923188231e-05,8.87114874786e-05,-2.73033365374e-05,0.467488716545,-0.0014699760411,0.175987964904,0.0136231598997,0.921739844573,0.387294827639,0.0145871383896
0.398516178131,-0.0217535104603,-0.400272518396,-2.52262306213,-0.0392570346594,2.53971457481,-0.765438735485,0.0492165088654,-0.00019381918537,0.000148233215441,-0.000750574981794,0.000296724756481,-7.8289413068e-05,3.19749087794e-05,5.86331952945e-05,0.467489196845,-0.00147021297469,0.175988421291,0.0136234337848,0.921740395322,0.387293488094,0.0145876470189
0.398515105247,-0.0217516440898,-0.400272607803,-2.52262282372,-0.0392565354705,2.53971362114,-0.7654337883,0.0492165088654,1.38584391607e-05,0.000711430679075,0.000499916845001,-0.000519899884239,5.31475925527e-05,2.83742901956e-05,-0.000151500193169,0.467488831848,-0.00147085256469,0.175987619193,0.0136231460569,0.921741673829,0.387290500187,0.0145864582908
0.398521721363,-0.0217520743608,-0.400268256664,-2.52262234688,-0.0392567887902,2.53971457481,-0.765432298183,0.0492165088654,-0.000197586763534,0.000246883137152,0.00501952785999,-0.000150725813,-3.31020492013e-05,-0.000198672190891,6.47266788292e-05,0.467489348141,-0.0014657209374,0.175988100007,0.0136234348732,0.921739783567,0.387294953473,0.0145873955265
0.398522019386,-0.0217532794923,-0.40027064085,-2.52262091637,-0.0392571613193,2.5397143364,-0.765425443649,0.0484271980822,-0.000127605148009,-0.000368568493286,-0.000228567048907,9.42967176343e-07,-3.61885104212e-05,7.81713824836e-05,-0.000379531207727,0.467490414282,-0.00146683975311,0.175989447816,0.0136238512167,0.921741524564,0.387290732886,0.01458905327
0.398519426584,-0.0217549391091,-0.400271654129,-2.52262330055,-0.0392567403615,2.53971529007,-0.765424847603,0.0484271980822,-0.000231818805332,0.000132665227284,-0.00105520966463,-0.000165038058185,0.000101642755908,-7.27878359612e-05,8.71838856256e-05,0.467489451271,-0.00146818434966,0.175989014618,0.0136233140066,0.921742323444,0.387288862294,0.0145887392896
0.398516386747,-0.0217547398061,-0.400274217129,-2.52262425423,-0.0392562821507,2.53971385956,-0.765424370766,0.0484271980822,4.23262717959e-05,1.75326817953e-06,0.000166283338331,0.000289607822197,0.000277058919892,0.0048521286808,3.52316710632e-05,0.467488685113,-0.00147079088006,0.175988384766,0.0136227768947,0.921743549921,0.387286004578,0.0145876135599
0.398518770933,-0.0217535775155,-0.400273352861,-2.52262473106,-0.0392560847104,2.53971338272,-0.765420138836,0.0484271980822,0.000233550323173,0.00027924097958,0.000357854674803,0.000494778098073,0.000154334746185,-0.000145963786053,6.12173898844e-05,0.46748815768,-0.00146933782893,0.175987678522,0.0136224808591,0.921743828724,0.387285389742,0.0145865965563
0.398525595665,-0.0217536035925,-0.400269985199,-2.52262234688,-0.0392565578222,2.53971385956,-0.765420377254,0.0484271980822,0.000476766843349,-0.000164768949617,-0.000232039936236,-0.000127997918753,1.34988131322e-05,5.76062711843e-06,0.000106489453174,0.467489415826,-0.00146461275579,0.175988682275,0.013623121997,0.921741714502,0.387290348163,0.0145879469264
0.398526459932,-0.0217546857893,-0.400269240141,-2.52262377739,-0.0392568707466,2.53971338272,-0.765419721603,0.0484271980822,0.000301403779304,-0.00134173128754,0.000129707172164,0.000582422653679,-4.28473067586e-05,6.30595968687e-05,-0.000257015402894,0.467489054613,-0.00146370257524,0.175988831311,0.0136229332387,0.921741416367,0.387291065331,0.0145879210443
0.398520678282,-0.0217522922903,-0.400272786617,-2.52262306213,-0.0392568260431,2.53971481323,-0.765414714813,0.0484271980822,0.000149445113493,0.000639917212538,0.000269082025625,-0.00021043063316,-6.58974659018e-06,0.000145716636325,-0.000125753809698,0.46748920104,-0.00146836960012,0.17598791354,0.0136233151422,0.921744263872,0.387284293055,0.0145874377036
0.39852103591,-0.0217515900731,-0.400272458792,-2.52262353897,-0.0392565429211,2.53971362114,-0.765413999557,0.0484271980822,-0.000653205264825,0.00024868932087,-0.000258323154412,0.000279787374893,-0.000161516363733,8.74580146046e-05,-0.000377166987164,0.467488493725,-0.00146801160698,0.175987316652,0.0136228219529,0.921744331563,0.387284193003,0.0145862773353
0.398520886898,-0.0217535085976,-0.400272667408,-2.52262330055,-0.0392565131187,2.53971338272,-0.765412092209,0.0484271980822,0.000340536120348,-0.000243460584898,0.000534525839612,-0.000377308460884,-0.000108668988105,0.000147801038111,4.60194132756e-06,0.467488832285,-0.00146806254187,0.175988211714,0.0136228031342,0.921744768147,0.387283117997,0.0145872487244
0.398532271385,-0.0217551160604,-0.400265604258,-2.52262377739,-0.03925704211,2.53971385956,-0.765409827232,0.048376634717,0.00014990370255,-8.06237949291e-05,-0.000219246372581,0.000159115123097,-0.000104005019239,-1.94298881979e-05,0.000158536902745,0.467488978508,-0.00145938504519,0.175988791064,0.0136228641183,0.921741540398,0.387290764345,0.0145881395116
0.39852976799,-0.0217532105744,-0.400268793106,-2.52262473106,-0.039256952703,2.53971505165,-0.765407919884,0.048376634717,0.00071902340278,0.000132274362841,-9.97183233267e-05,0.000245321221882,0.00032491251477,0.000172119529452,-7.08109801053e-05,0.467488494335,-0.00146213392563,0.175987699702,0.0136228623442,0.921743028044,0.387287255914,0.0145872877171
0.398525416851,-0.0217537693679,-0.400273650885,-2.52262353897,-0.039256926626,2.53971338272,-0.765406608582,0.048376634717,-0.000484983145725,-0.000322963693179,-0.000342535000527,-0.000502483686432,2.31256981351e-05,-2.69151337307e-06,-9.51374604483e-05,0.467488761407,-0.00146640579887,0.175988227029,0.0136227918179,0.921745077728,0.387282380163,0.0145872864114
0.398523569107,-0.0217532161623,-0.400273323059,-2.52262306213,-0.0392562896013,2.53971385956,-0.765405893326,0.048376634717,0.000510904239491,-8.26548348414e-05,0.000260810687905,0.000242043694016,5.53869831492e-05,-8.09540142654e-06,-0.000265764596406,0.467489007616,-0.00146711656218,0.175988222197,0.0136228077784,0.921745606923,0.387281111495,0.0145875147798
0.398530244827,-0.0217525921762,-0.400269478559,-2.52262330055,-0.0392558351159,2.53971552849,-0.765403747559,0.048376634717,0.000362589897122,-0.000533551094122,-6.56887787045e-05,-9.21992250369e-05,1.57979575306e-05,-1.82982803381e-05,-7.49636019464e-05,0.467489183552,-0.00146221153408,0.175988035616,0.0136228881614,0.921744044444,0.387284808886,0.0145880066973
0.398532003164,-0.0217528231442,-0.400267452002,-2.52262163162,-0.0392568930984,2.53971481323,-0.765401005745,0.048376634717,0.000689808162861,0.000197386369109,0.000668378022965,-2.99219609587e-05,-5.8486337366e-05,-1.72069812834e-05,-0.000332177150995,0.467489864758,-0.00146050155189,0.175988728271,0.0136233443373,0.921743670108,0.387285665637,0.014588487903
0.398533135653,-0.0217512138188,-0.400268286467,-2.52262282372,-0.0392571724951,2.53971481323,-0.765401959419,0.048376634717,-0.000323505082633,3.23399872286e-05,-0.000567253970075,-0.000166948680999,1.80276729225e-05,5.71358468733e-05,0.000263651629211,0.467489176137,-0.00146005464111,0.175987647002,0.0136232330722,0.921743210018,0.387286813177,0.0145871973903
0.398530364037,-0.0217536035925,-0.400268793106,-2.52262210846,-0.0392566844821,2.53971457481,-0.765401005745,0.048376634717,5.67334063817e-05,-2.12320792343e-05,0.000176763089257,0.000396205403376,0.000106614883407,5.97563484916e-07,-0.000399469252443,0.467489693575,-0.00146183204889,0.1759888491,0.0136231592768,0.92174428259,0.387284212117,0.0145885493388
0.398527055979,-0.0217530988157,-0.400271952152,-2.52262282372,-0.0392562299967,2.5397143364,-0.765398144722,0.048392392695,-0.00010253579967,0.000438271759776,-0.00024583490449,-0.000165197430761,0.000601129140705,8.65033653099e-05,0.000101764409919,0.467489215367,-0.00146485138176,0.175988316201,0.0136228467181,0.921746170373,0.387279755307,0.0145878806216
0.398530572653,-0.0217530187219,-0.400271385908,-2.52262353897,-0.039256516844,2.53971481323,-0.765396475792,0.048392392695,0.000130430067657,-0.000160686249728,0.000458344322396,-8.75752884895e-05,-7.40906907595e-05,-4.04566490033e-05,-0.000246713432716,0.467488974232,-0.00146295745249,0.175988050106,0.0136228350267,0.9217456567,0.387280983505,0.0145877420586
0.398534685373,-0.0217526424676,-0.400269001722,-2.52262210846,-0.0392562299967,2.53971362114,-0.765395522118,0.048392392695,-0.000166112018633,0.000181626644917,5.62302448088e-05,-0.000178933245479,-6.39314748696e-07,7.49057435314e-05,0.0015499915462,0.467489354055,-0.00145995140876,0.175988342777,0.0136227932609,0.921744634029,0.387283419113,0.0145877381341
0.398538738489,-0.0217527765781,-0.400267720222,-2.52262210846,-0.0392559058964,2.53971385956,-0.765393614769,0.048392392695,-0.000315559300361,-0.000664476305246,-0.000747923564631,-0.000425650010584,-3.52464866182e-07,-7.46777441236e-05,0.000345514301443,0.467489433812,-0.00145743499058,0.175988428224,0.0136227096064,0.92174401895,0.387284876074,0.0145880005229
0.398534506559,-0.0217532999814,-0.400269418955,-2.52262282372,-0.0392565429211,2.53971457481,-0.765391349792,0.048392392695,-4.72322280984e-05,-0.000704454141669,-0.000298094615573,0.000159489107318,-6.93291440257e-05,5.06268006575e-05,0.00018007014296,0.467489314284,-0.00146019428699,0.175988435967,0.0136228791753,0.921745499377,0.387281340151,0.0145881731207
0.39853361249,-0.0217520277947,-0.40027141571,-2.5226213932,-0.0392558723688,2.53971505165,-0.765390574932,0.048392392695,-0.000114298461995,0.000390036846511,-0.000161978459801,-8.28184201964e-05,6.47327979095e-05,9.62479498412e-06,-0.000169179154909,0.467489903924,-0.00146158435361,0.175988485697,0.0136230560844,0.921746308808,0.387279396037,0.0145884758679
0.398535698652,-0.0217534955591,-0.400270402431,-2.52262234688,-0.0392552502453,2.5397143364,-0.765388786793,0.048392392695,0.00389829697087,-0.000678408658132,0.000116429881018,0.000203709190828,-3.69771150872e-05,-4.37740745838e-05,0.000194056599867,0.467489821496,-0.00145975422808,0.175989231347,0.013622712725,0.921746068482,0.387279958305,0.0145890545987
0.398538053036,-0.0217524264008,-0.400267630816,-2.52262067795,-0.0392563790083,2.53971529007,-0.765387415886,0.0475912615657,-0.00021843558352,-8.47577466629e-05,-0.000550283875782,-0.000409037980717,-2.77122508123e-05,-0.000101200035715,0.000185140030226,0.467490370221,-0.00145775419721,0.175988975441,0.0136233328314,0.921745238292,0.387281909205,0.0145891389032
0.398537427187,-0.0217540394515,-0.400269418955,-2.52262353897,-0.0392569191754,2.5397143364,-0.765386343002,0.0475912615657,0.00049484410556,-4.36575510321e-06,-0.00407174602151,-0.00015181528579,2.11468814086e-05,-1.93606501853e-05,-4.86074386572e-05,0.467489035314,-0.00145880216404,0.175988451646,0.0136227407881,0.921745846731,0.387280520459,0.0145881158101
0.398534804583,-0.0217510033399,-0.400269061327,-2.52262282372,-0.0392571389675,2.53971505165,-0.765383780003,0.0475912615657,2.78712309409e-06,-0.000463181495434,0.00028660899261,-4.52437461718e-06,-6.45390100544e-05,-9.20212987694e-05,-0.000383008038625,0.467489087027,-0.00146005578202,0.175987495428,0.0136230706415,0.921746747697,0.387278397516,0.0145872395241
0.398537367582,-0.0217516161501,-0.400269269943,-2.52262377739,-0.0392564460635,2.53971576691,-0.765381932259,0.0475912615657,-0.000416959956056,0.000643384235445,-3.5239954741e-05,2.58019445027e-05,0.000287095666863,-2.47826592386e-05,-0.000100588164059,0.467488879306,-0.00145887193866,0.175987453244,0.0136227933652,0.921746755928,0.387278376234,0.0145875433833
0.398538649082,-0.0217526610941,-0.400267452002,-2.52262187004,-0.0392553471029,2.53971457481,-0.765381515026,0.0475912615657,7.93646759121e-05,-0.000350938498741,0.00172638462391,7.19345844118e-05,1.98072139028e-05,2.69284628303e-05,0.000186563585885,0.467489684112,-0.00145732591434,0.175988541159,0.01362264692,0.921746408419,0.387279171317,0.0145885298607
0.398540139198,-0.0217534080148,-0.400268316269,-2.52262401581,-0.0392559804022,2.53971457481,-0.765380740166,0.0475912615657,2.45284627454e-05,3.04697878164e-05,3.50354093825e-05,0.000134556146804,-5.22393384017e-05,0.000132029221277,-0.000128860003315,0.46748877459,-0.00145700878986,0.175988019909,0.0136223808457,0.92174634548,0.387279355831,0.0145878567218
0.398539036512,-0.0217528529465,-0.400268286467,-2.52262282372,-0.0392567589879,2.53971481323,-0.765380442142,0.0475912615657,0.000141212149174,-0.000680819561239,1.57253816724e-05,0.000369444373064,9.29784346226e-06,-6.28518682788e-05,-0.00012731651077,0.467489597417,-0.00145744237634,0.175988636135,0.0136229098301,0.921746416398,0.387279140466,0.0145885992312
0.398539990187,-0.0217531081289,-0.400268733501,-2.5226225853,-0.0392569005489,2.539716959,-0.765376746655,0.0453651584685,0.000309463648591,-0.000438320625108,-0.000182408446562,-0.000316539604682,-0.000529714976437,5.92296819377e-05,0.0016952859005,0.467489923809,-0.00145732483193,0.175988678681,0.0136233065033,0.921747051028,0.387277585801,0.0145894023304
0.398540914059,-0.0217506606132,-0.400270164013,-2.52262091637,-0.039255566895,2.53971767426,-0.765374720097,0.0453651584685,8.36848994368e-05,-0.00031757313991,0.000543154368643,0.00183151115198,-0.000134474699735,0.000104179773189,-0.00038525662967,0.46749049168,-0.00145741909479,0.175988409672,0.0136234028962,0.921747535265,0.387276429929,0.0145894013002
0.398540884256,-0.021753417328,-0.400267273188,-2.52262210846,-0.0392571203411,2.53971552849,-0.765372157097,0.0453651584685,0.00016066680837,-0.000153214408783,0.000524066854268,-0.00186517566908,7.62852141634e-05,0.000127868421259,-0.000405416823924,0.467489892345,-0.00145623461855,0.175988866917,0.0136231667018,0.921747458871,0.387276630174,0.0145891328567
0.398538798094,-0.0217550788075,-0.400268673897,-2.52260756493,-0.0392559431493,2.53972244263,-0.765372574329,0.0453651584685,-0.000167885402334,-0.000207678458537,0.000403912446927,-0.00052395730745,-3.37545388902e-05,1.72998607013e-05,-0.000231404672377,0.467498182802,-0.00145783028425,0.175995800437,0.013626818972,0.921748018128,0.387274771834,0.0145997145281
0.398539870977,-0.0217571444809,-0.400267124176,-2.5226111412,-0.0392562560737,2.53972315788,-0.765372276306,0.04114016518,0.000129178602947,-2.0759729523e-05,0.00242758542299,-0.000173927197466,-0.000112932939373,-0.000468363374239,0.000297805061564,0.467497277892,-0.00145635246061,0.17599549512,0.013626443832,0.92174758748,0.387275810883,0.0145996914601
0.398540556431,-0.0217530410737,-0.400267332792,-2.52261471748,-0.0392569676042,2.53972291946,-0.765370547771,0.04114016518,1.2045099993e-06,-0.000467146077426,-4.57118403574e-06,0.000159067087225,-2.84647230728e-05,0.000224496456212,-9.14674383239e-05,0.467494937044,-0.00145640270149,0.175992306764,0.013625881045,0.921747755783,0.387275576008,0.0145958207868
0.398539632559,-0.021753706038,-0.400269061327,-2.52261304855,-0.0392559245229,2.53972268105,-0.765372097492,0.04114016518,4.59818147647e-05,-0.000231582118431,2.25421845244e-05,-6.50792790111e-05,-8.00478665042e-06,-0.000108013096906,-7.2099006502e-05,0.46749576618,-0.00145755161031,0.175993215424,0.0136258925636,0.921748126177,0.387274653592,0.0145968938097
0.39854195714,-0.0217528864741,-0.400268882513,-2.52261614799,-0.0392566584051,2.53972291946,-0.765370368958,0.04114016518,0.000483676150907,0.000704049540218,7.64346077631e-06,1.6948704797e-05,-5.00375645061e-05,-0.000186443590792,-0.000197426692466,0.467494233036,-0.00145645497291,0.175991674042,0.0136255023456,0.921747877564,0.387275325965,0.0145951181594
0.398546278477,-0.0217536110431,-0.400265365839,-2.52261352539,-0.0392559990287,2.53972434998,-0.76536989212,0.04114016518,0.000391735840822,-0.000296140031423,-0.000383927574148,0.000421159464167,-4.82091718368e-06,2.45047303906e-05,0.000100842713437,0.467495905771,-0.00145272361427,0.175993162979,0.0136260684607,0.92174652471,0.387278436815,0.0145974828145
0.398545503616,-0.0217550005764,-0.400265455246,-2.52261352539,-0.0392567105591,2.53972315788,-0.765367984772,0.04114016518,-0.000467070291052,-0.000239078261075,5.07764780195e-05,0.000373340531951,1.8040454961e-05,-0.000167960810359,0.000107624808152,0.467495849719,-0.00145308867888,0.175993646589,0.0136260373773,0.921746954133,0.387277413243,0.0145975520632
0.39854568243,-0.0217543225735,-0.40026769042,-2.52261400223,-0.0392569936812,2.53972506523,-0.7653683424,0.04114016518,-0.000458236172562,0.000336562312441,0.000167315622093,0.000256032682955,-0.000176749992534,7.62390336604e-05,0.000374430819647,0.46749593074,-0.00145408163765,0.175993342761,0.0136263573838,0.921747224676,0.387276747352,0.0145978364852
0.398542761803,-0.0217528305948,-0.400268614292,-2.52261447906,-0.0392559692264,2.53972244263,-0.765367805958,0.04114016518,-0.000360286940122,-0.00299411895685,2.74704016192e-05,0.000154893728904,0.00553508708254,6.73887989251e-05,0.000158435563208,0.467494915114,-0.00145593283012,0.17599225784,0.0136255314287,0.921748271539,0.387274363996,0.0145957350366
0.39854323864,-0.021752351895,-0.400266706944,-2.52261424065,-0.0392565019429,2.53972220421,-0.765368103981,0.04114016518,-5.59847285331e-05,0.000572210294195,-0.000375364266802,9.09000082174e-05,-8.42064400786e-05,-1.04976688817e-05,-0.00497791636735,0.467494935597,-0.00145499317935,0.175992080171,0.0136257216117,0.921747664578,0.387275818494,0.0145952954139
0.398545026779,-0.0217533968389,-0.400266230106,-2.52261328697,-0.0392567887902,2.53972315788,-0.765366435051,0.04114016518,-0.000146677761222,-0.000811637961306,-0.000118198891869,0.000186096687685,0.000181917625014,0.00013471240527,9.75547300186e-05,0.467495728079,-0.00145377403388,0.175993046793,0.0136260948979,0.921747489429,0.387276163496,0.0145968537702
0.398547530174,-0.0217530000955,-0.400267183781,-2.52261352539,-0.0392569303513,2.53972482681,-0.765367567539,0.0412366949022,0.000134350935696,0.00358150433749,-8.70471558301e-05,0.000273926852969,3.49141664628e-05,0.000192138977582,0.000355019088602,0.467495918301,-0.00145306377595,0.175992939377,0.0136263733522,0.921746933922,0.38727745858,0.0145973118515
0.398544490337,-0.0217524170876,-0.400267094374,-2.52261424065,-0.0392562448978,2.5397233963,-0.765366435051,0.0412366949022,-0.000342383602401,0.000352903240127,-0.000633775431197,0.000331570918206,-0.000220059155254,-3.28931455442e-05,-0.00015515270934,0.467495181062,-0.00145445198718,0.175992271056,0.0136258065728,0.921747854583,0.387275333522,0.0145960848946
0.398545205593,-0.0217557884753,-0.400267034769,-2.52261424065,-0.0392567403615,2.53972291946,-0.765364289284,0.0412366949022,-9.49913883233e-05,0.000307996320771,-2.96321959468e-05,-1.60324780154e-05,-9.09244226932e-06,1.04404045942e-06,-0.00035548186861,0.46749556814,-0.00145391375169,0.175993676559,0.0136258327579,0.921748031988,0.387274856477,0.0145975145246
0.398547500372,-0.0217551738024,-0.400267601013,-2.52261328697,-0.0392569974065,2.53972387314,-0.765364050865,0.0412366949022,0.00047508784337,-0.00034662077087,0.000126029815874,6.40505022602e-05,-7.27201113477e-05,-3.9108479541e-05,0.000207076896913,0.467496139417,-0.00145315089093,0.17599387481,0.0136262386947,0.921747690109,0.387275634692,0.014598077098
0.398547232151,-0.0217523593456,-0.400266736746,-2.52260899544,-0.0392567999661,2.53972578049,-0.765361964703,0.0412366949022,-0.000319558836054,-0.000520327361301,4.11126311519e-05,-0.000167691250681,3.55173651769e-05,7.7652557593e-06,0.000503039860632,0.467498181478,-0.00145303893597,0.175994529648,0.0136273534238,0.921747978137,0.387274853449,0.0145995755825
0.398544728756,-0.0217545218766,-0.400268882513,-2.52260971069,-0.0392565838993,2.53972458839,-0.765361309052,0.0412366949022,-0.000244168797508,0.000330842623953,7.57212765166e-05,0.000180028364412,0.00015903863823,8.06555399322e-05,0.000409139989642,0.46749788818,-0.00145506900129,0.175995057084,0.0136269467732,0.921749047267,0.387272315905,0.0145997671215
0.398546457291,-0.0217520538718,-0.400267660618,-2.52261066437,-0.0392569899559,2.53972482681,-0.765361368656,0.0411631502211,9.04686385184e-05,1.5345554857e-05,-0.00381874199957,0.000272899313131,-4.93518837175e-06,0.000185234617675,-0.000680797093082,0.467497136368,-0.00145385914165,0.175993649981,0.0136269070227,0.921748412554,0.387273887755,0.0145981815597
0.398547589779,-0.021751280874,-0.400266826153,-2.52260637283,-0.0392563007772,2.53972673416,-0.765360176563,0.0411631502211,-0.000509666104335,-0.000207117802347,0.000461064017145,0.000628487730864,0.00478731794283,-5.08551056555e-06,-0.000204583775485,0.467499475025,-0.00145295651447,0.175995182752,0.0136278842981,0.921748332111,0.387273947754,0.0146007566005
0.398545384407,-0.0217545926571,-0.400268554688,-2.52260398865,-0.0392561741173,2.53972744942,-0.765359401703,0.0411631502211,-0.000400375400204,0.000180015980732,-0.000397348543629,7.076588372e-05,-7.47883459553e-05,6.91362511134e-05,-0.000171265695826,0.46750123161,-0.0014545858133,0.17599760254,0.0136284451313,0.921749230179,0.387271674423,0.0146038357627
0.398545473814,-0.0217549167573,-0.400268554688,-2.52260279655,-0.0392567850649,2.53972744942,-0.765359401703,0.0411631502211,0.000262402696535,-0.000531699100975,0.000294088473311,0.000187853875104,-2.89750532829e-05,4.186517981e-05,0.000175430905074,0.467501845311,-0.00145456056947,0.175998208979,0.0136288411911,0.921749107318,0.387271928548,0.014604481752
0.398547053337,-0.0217545386404,-0.400267541409,-2.52260231972,-0.0392561145127,2.53972840309,-0.765359044075,0.0411631502211,0.000145902056829,-3.95611350541e-05,-0.000510048121214,0.000211633174331,0.000161964489962,-2.14822575799e-05,-0.000283912406303,0.467502226444,-0.00145333472716,0.175998327987,0.013628913721,0.921748770641,0.387272705919,0.0146050492835
0.39854606986,-0.0217555947602,-0.400266587734,-2.52260327339,-0.0392555445433,2.53972744942,-0.765358567238,0.0411631502211,-8.64932808327e-05,-0.000416599184973,0.000151636166265,-6.128646055e-05,0.000804955023341,-2.45389969677e-07,0.000307761569275,0.467501721548,-0.00145326171139,0.175998320985,0.0136284096688,0.921748970145,0.387272259825,0.0146047574256
0.398545652628,-0.0217534825206,-0.400266587734,-2.52260041237,-0.0392556637526,2.53972840309,-0.765356957912,0.0411631502211,0.000202875889954,9.40415047808e-05,-0.000465441553388,-0.000612007104792,0.000660814403091,4.64764307253e-05,0.000198239969905,0.467502978725,-0.00145359579854,0.175998623402,0.0136291616444,0.921749326419,0.387271358924,0.0146054591887
0.398547202349,-0.0217542201281,-0.40026602149,-2.52260088921,-0.0392562411726,2.53972887993,-0.765356063843,0.0409786254168,6.03925036557e-05,-0.000764876836911,0.00043426771299,0.000385152467061,7.95120577095e-05,-0.000224268995225,0.000999199226499,0.467502966607,-0.00145258747112,0.175998802682,0.0136292944628,0.921748992544,0.387272136458,0.0146057893289
0.398548573256,-0.021752692759,-0.400266975164,-2.5226020813,-0.0392563976347,2.53972792625,-0.765357792377,0.0409786254168,-0.000472299434477,-0.000311987474561,-2.88242645183e-05,-0.000225237206905,2.48872238444e-05,8.43150846777e-05,1.45454159792e-05,0.46750197398,-0.00145249304596,0.175997583682,0.0136289334134,0.921748574757,0.387273210785,0.0146040062303
0.398548364639,-0.0217544548213,-0.400266349316,-2.5226020813,-0.0392569936812,2.53972840309,-0.765355110168,0.0409786254168,0.00036404147977,0.000469084567158,-0.000229365192354,-0.000191840488696,-6.02337386226e-05,-0.000170738741872,0.000177397727384,0.467502334031,-0.00145221956498,0.175998390637,0.0136291635719,0.921748906196,0.387272373836,0.0146050666815
0.398549854755,-0.0217540394515,-0.400268524885,-2.52259969711,-0.0392564125359,2.53972959518,-0.765354752541,0.0409786254168,-4.46369049314e-05,7.64983997215e-05,-0.000153947199578,-0.00021773991466,0.00361806852743,-0.000262034038315,-0.000137257899041,0.467503657463,-0.00145252871924,0.175999250323,0.0136296632288,0.921749177482,0.387271653746,0.0146065731576
0.398549586535,-0.0217537619174,-0.400265812874,-2.52260065079,-0.0392567813396,2.53973150253,-0.765353739262,0.0409786254168,0.000123549616546,0.000620936567429,3.87070394936e-05,5.73937177251e-05,-3.6280733184e-05,-0.000259339867625,-0.000376679294277,0.467503583364,-0.00145141202891,0.175998951945,0.0136299244401,0.921748828729,0.387272463463,0.0146068690453
0.398547172546,-0.0217535793781,-0.400267392397,-2.52259802818,-0.0392569936812,2.53973174095,-0.76535141468,0.0409786254168,-0.000174814646016,-0.000699475465808,-0.000889455375727,-0.000514534767717,1.07789273898e-05,-4.11350629292e-05,-0.000508328375872,0.467504845367,-0.001453304763,0.175999916509,0.0136305296659,0.921750001988,0.387269604654,0.0146080625069
0.398550063372,-0.0217540562153,-0.400267481804,-2.52259683609,-0.0392568260431,2.53973197937,-0.765352010727,0.0409786254168,0.000448713719379,-0.000956560135819,-0.000289675605018,-0.000280258362181,0.000125787933939,-6.34387615719e-05,0.000152895896463,0.467505535157,-0.00145196012121,0.17600061062,0.0136307417351,0.921749359781,0.387271090578,0.0146089940627
0.398551166058,-0.0217550136149,-0.400267392397,-2.52259635925,-0.0392571426928,2.53973269463,-0.765352845192,0.0409786254168,2.19488583753e-06,0.000474754226161,7.42488045944e-05,-0.000262897607172,3.73178627342e-05,-4.52776330349e-05,-0.000451532861916,0.467506056417,-0.00145135737203,0.176001278492,0.0136310464696,0.921748903075,0.387272129128,0.014609994363
0.398550361395,-0.0217523872852,-0.40026679635,-2.52259874344,-0.0392570495605,2.53973197937,-0.765350878239,0.0409786254168,3.52862443833e-05,0.00054859748343,-0.000273350509815,0.000697836279869,-0.000300188839901,-2.78719198832e-05,-0.000233825587202,0.467504391177,-0.00145160795129,0.175999148954,0.0136304239115,0.921749370516,0.387271141177,0.0146072718966
0.398548871279,-0.0217528417706,-0.400264889002,-2.52259659767,-0.0392568409443,2.53973269463,-0.76535063982,0.0409786254168,-0.000471349281725,-0.000747266167309,-9.10463786568e-05,-0.000425220205216,-0.00202893931419,-7.06787686795e-05,0.000316949619446,0.467505632173,-0.00145138383294,0.176000260362,0.0136309290517,0.921749347704,0.387271118251,0.0146088477276
0.398547768593,-0.0217507202178,-0.400267779827,-2.5225982666,-0.0392561852932,2.53973269463,-0.765352725983,0.0409786254168,0.000179615744855,-0.00025388514041,-0.000300133920973,0.000345757027389,-0.000135220441734,-0.000106947445602,-0.000532709178515,0.467504522528,-0.00145333011889,0.175998682342,0.013630441233,0.921749840208,0.387270031104,0.0146070475655
0.398548275232,-0.0217531397939,-0.400268435478,-2.52259802818,-0.0392568558455,2.53973340988,-0.765349328518,0.0409786254168,0.000152449356392,-0.000644867424853,-0.000112002009701,0.000568442221265,-6.35878677713e-05,0.00510864378884,-0.000346846121829,0.467504823062,-0.00145326428624,0.175999557742,0.0136306001703,0.921750539295,0.387268318137,0.0146081996586
0.398550093174,-0.0217529833317,-0.400265276432,-2.52259731293,-0.0392569899559,2.53973245621,-0.765348315239,0.0409786254168,0.000116424409498,-0.000104525192,0.000139385228977,-0.00165625871159,-0.00281896209344,0.00011690818792,-0.000222077214858,0.467505295754,-0.00145210953568,0.176000223072,0.0136307757227,0.921749976193,0.387269623169,0.014608969668
0.398549377918,-0.0217540115118,-0.400266677141,-2.52259850502,-0.0392570495605,2.53973484039,-0.765346050262,0.040642414242,2.67052951131e-06,4.1766983486e-05,-0.000321649567923,-0.00204592896625,-2.94839846902e-05,0.000572749588173,0.000335361721227,0.46750535465,-0.00145189187162,0.176000216423,0.013630955952,0.921750436145,0.387268499986,0.0146095553285
0.3985491395,-0.0217530541122,-0.400265812874,-2.5225944519,-0.039256490767,2.53973460197,-0.765347182751,0.040642414242,0.000188502759556,0.000501226983033,5.36808511242e-06,-0.000378451135475,-3.89414381061e-05,-3.40183214576e-05,-0.000158426046255,0.467507089439,-0.00145165015664,0.176001370709,0.0136315637403,0.921750167977,0.387269066576,0.0146108884262
0.39855286479,-0.0217559710145,-0.400264531374,-2.52259492874,-0.0392571873963,2.53973865509,-0.765346944332,0.040642414242,0.000187529207324,-0.000854925252497,-0.000380045821657,0.000257200357737,-0.00010309706704,0.000168763654074,5.09632918693e-05,0.46750816847,-0.00144913785225,0.176002834174,0.013632361807,0.921749083612,0.387271502797,0.0146139787951
0.398554384708,-0.0217563174665,-0.400265514851,-2.52258610725,-0.0392565988004,2.53974223137,-0.765345215797,0.040642414242,0.000214156214497,-0.000619422120508,0.000537430110853,0.000875344849192,8.44270180096e-05,0.00473349029198,-3.96117720811e-05,0.467513174057,-0.0014488403865,0.176006774643,0.0136345331348,0.921749321249,0.387270634961,0.0146199611037
0.398549467325,-0.0217633880675,-0.400267511606,-2.52257180214,-0.0392566733062,2.53974485397,-0.7653465271,0.040642414242,-0.000184127464308,-0.00010095169273,0.000422706099926,6.46980115562e-05,-0.000136499817017,-8.57791928865e-06,0.000152907901793,0.467521538184,-0.00145167729222,0.176015659597,0.0136378415063,0.921750258127,0.387267862533,0.0146312423406
0.398552268744,-0.0217696465552,-0.400265693665,-2.5225622654,-0.0392568558455,2.539747715,-0.765344440937,0.040642414242,0.000251328689046,0.000214626139496,-1.85953740583e-05,0.000389442022424,-4.78239053336e-05,0.00568802608177,0.000235538202105,0.467527595124,-0.00144916816897,0.176022367267,0.0136402273419,0.921749629725,0.387268938558,0.0146401233039
0.398554742336,-0.0217683799565,-0.400263369083,-2.52256202698,-0.0392568707466,2.53974890709,-0.765346169472,0.040642414242,0.000137534676469,-0.000256931263721,-0.000115448063298,0.000102979684016,3.83825426979e-05,8.71972370078e-05,-2.38948359765e-05,0.467527791902,-0.00144700198348,0.176022039301,0.013640495219,0.921748355103,0.387271960903,0.0146401753887
0.398556560278,-0.0217663776129,-0.400263220072,-2.52255940437,-0.0392570011318,2.5397503376,-0.765344619751,0.040642414242,-9.56593794399e-05,-0.00140295852907,-7.89880505181e-05,-0.000275841070106,6.83504258632e-05,-7.73605715949e-05,-0.000626336841378,0.467529058209,-0.00144621101037,0.176022342154,0.0136412740468,0.921748232467,0.387272191936,0.0146410594195
0.398556113243,-0.0217677336186,-0.400263249874,-2.5225622654,-0.0392568334937,2.53975105286,-0.765344500542,0.0399286150932,-0.000328152120346,-0.000519419612829,-1.64943303389e-05,-0.000209868187085,-8.72878081282e-06,0.00011166936747,-6.81324818288e-05,0.467528049798,-0.00144632528578,0.176021874424,0.013640802711,0.921748378192,0.387271872675,0.0146407690516
0.398556232452,-0.0217685252428,-0.40026396513,-2.52256178856,-0.0392567552626,2.53975272179,-0.765345573425,0.0399286150932,-9.84101498034e-05,-9.48471715674e-05,-0.00118349178229,-0.000177389389137,3.96531431761e-05,0.000252563972026,-0.00020882426179,0.467528748237,-0.0014465381784,0.176022559108,0.0136411782287,0.921748275794,0.387272050583,0.0146421599329
0.39855697751,-0.0217680223286,-0.400264590979,-2.52256083488,-0.0392566174269,2.53975701332,-0.765344381332,0.0399286150932,-5.05988900841e-05,-0.000426659506047,-0.000522711314261,-5.96898826188e-06,3.89504884879e-06,-0.000167216712725,0.000113423076982,0.467530051753,-0.00144647405404,0.176023125581,0.013642081178,0.921748459324,0.387271498259,0.0146443734332
0.398556470871,-0.0217697508633,-0.400263756514,-2.52255916595,-0.0392575263977,2.53975725174,-0.765345156193,0.0399286150932,0.000690122600645,-0.000153360349941,-0.00294594606385,6.84515325702e-05,0.00171091873199,2.93008306471e-05,-0.000198004156118,0.467531276372,-0.00144596400687,0.176024669559,0.0136427174565,0.921748002975,0.387272486983,0.0146463572302
0.398560494184,-0.0217673815787,-0.400260835886,-2.52255916595,-0.0392572022974,2.53975892067,-0.765344500542,0.0399286150932,-0.000143885961734,0.000182128380402,-0.000302601460135,0.000295790989185,-6.70805820846e-05,-4.3030755478e-05,-0.000178003800102,0.467531079207,-0.00144313583767,0.176023650263,0.0136428234995,0.92174696854,0.387274972143,0.014645647453
0.398559421301,-0.0217683222145,-0.400260567665,-2.5225622654,-0.0392567515373,2.53975749016,-0.765343666077,0.0399286150932,-0.000240733541432,1.32171799123e-05,-0.000334470416419,-0.0034948149696,6.52582748444e-05,-3.59065270459e-05,0.000307769543724,0.467529533905,-0.00144344262826,0.176022756686,0.0136419159995,0.921747325687,0.387274211766,0.0146441216886
0.39855748415,-0.0217694975436,-0.400263845921,-2.52256035805,-0.039256118238,2.53975915909,-0.765343785286,0.0399286150932,0.00064848450711,-8.19760462036e-05,0.000657765194774,-0.000374364579329,7.26573198335e-05,0.000111214139906,0.000348991743522,0.467531000774,-0.00144611132339,0.176024179856,0.0136423936367,0.921748522767,0.387271261481,0.0146463505856
0.398556828499,-0.0217665880919,-0.400261610746,-2.52256035805,-0.0392571017146,2.53975939751,-0.765343904495,0.0385831072927,-0.00055109517416,0.000694510061294,0.000107300256786,-0.00010126025154,7.99402841949e-05,-6.19669808657e-05,0.000141203738167,0.467530592983,-0.00144525553534,0.176022936268,0.0136427418202,0.92174790503,0.387272772126,0.0146449588762
0.398558139801,-0.021765017882,-0.400261580944,-2.52256131172,-0.0392568297684,2.53975987434,-0.765343308449,0.0385831072927,-0.000128343468532,-0.000369940680685,-0.000493293686304,-0.00389422336593,-1.75963377842e-05,0.000299547362374,0.000127827486722,0.467530445529,-0.00144482727903,0.176022478349,0.0136426608802,0.921747880235,0.387272845705,0.0146446491341
0.398564636707,-0.0217776466161,-0.400260925293,-2.52252411842,-0.03925704211,2.53977251053,-0.765342056751,0.0385831072927,0.000266343617113,-0.00044060498476,-0.000559829291888,0.000790173071437,8.57589984662e-05,5.63403227716e-05,1.47245173139e-05,0.467552228038,-0.00144065471323,0.176043141086,0.013652054942,0.921746244338,0.387275321141,0.0146733691172
0.39856159687,-0.0217811763287,-0.400263339281,-2.52249932289,-0.0392574965954,2.5397734642,-0.765341758728,0.0385831072927,-0.000455125933513,-0.000195877844817,0.000105877494207,0.0025549759157,0.000119768061268,-2.80926105916e-05,8.33476296975e-05,0.467564699793,-0.0014430990255,0.176054447458,0.0136571803254,0.921747120369,0.387272542017,0.0146869125019
0.398550033569,-0.0217787772417,-0.400270760059,-2.52247714996,-0.0392579734325,2.53978443146,-0.765339374542,0.0385831072927,0.0004715306859,0.00040120241465,-0.000230626668781,-0.000163315562531,-3.77150536224e-05,-6.28362031421e-05,0.000337061093887,0.467577404514,-0.00145197985326,0.176063368005,0.0136636836878,0.92175097459,0.387262601286,0.0147010856159
0.39854991436,-0.021781032905,-0.400272935629,-2.5224750042,-0.0392579399049,2.53978395462,-0.765340864658,0.0385831072927,0.000340374943335,5.0261940487e-05,0.000486061559059,-0.00034835661063,0.000102688230982,-0.000103925325675,-0.00021272583399,0.467578435722,-0.00145306560219,0.176064874518,0.0136639585064,0.921751100936,0.387262227826,0.0147027461178
0.39854580164,-0.0217771939933,-0.400271803141,-2.52247214317,-0.0392576009035,2.53978872299,-0.765339672565,0.0375744663179,-0.000473892490845,0.000248669617577,-0.000436042959336,0.000641944759991,4.06936051149e-05,-7.43873388274e-05,0.000357031211024,0.467580261958,-0.00145465335477,0.176064804668,0.0136653068824,0.921751914347,0.387260181649,0.0147043931399
0.39854028821,-0.0218018777668,-0.400276094675,-2.52242255211,-0.0392581671476,2.53979921341,-0.765339493752,0.0375744663179,-0.000233117170865,-0.000444654026069,-0.000390528497519,0.00481486087665,-3.05911453324e-05,0.00268416223116,-1.96946475626e-05,0.467609603226,-0.00145787103323,0.176095831529,0.0136770013094,0.92175326633,0.387255032112,0.0147443355333
0.398538142443,-0.0218058973551,-0.400276988745,-2.52238225937,-0.0392578244209,2.53981161118,-0.765337884426,0.0375744663179,-0.00180340243969,-0.000528195465449,0.00362388882786,0.00375947472639,0.000679846736602,0.00235565309413,0.00395075744018,0.467631966723,-0.00145909529044,0.176114522749,0.0136869698733,0.921753848474,0.387252289212,0.0147707095536
0.398537606001,-0.0217962618917,-0.400280117989,-2.52237439156,-0.0392596758902,2.54026627541,-0.765337646008,0.0375744663179,-0.000194213091163,-0.000313892902341,-0.000203618445084,3.83683868677e-07,-0.000604424683843,0.0238538309932,0.000187673358596,0.467732232127,-0.00145793611904,0.17615716845,0.0137706768833,0.921749703309,0.387251094783,0.0149813944436
0.398544698954,-0.0217870436609,-0.400274246931,-2.52237296104,-0.0392583161592,2.54048085213,-0.76533806324,0.0375744663179,1.39524991027e-05,0.000173369771801,-8.61661828822e-05,-0.000468038779218,0.00387577107176,-5.85567977396e-05,0.000307277339743,0.467777814754,-0.00145069985641,0.176174432864,0.0138091100332,0.921745171305,0.387256772657,0.0150777773637
0.398539245129,-0.0217854343355,-0.400278329849,-2.52238678932,-0.0392595268786,2.54048609734,-0.765338122845,0.0375744663179,0.00024630772532,8.9528177341e-05,2.49163731496e-05,-0.000498939887621,6.02754807915e-05,0.00197974895127,-0.000230582183576,0.467772134136,-0.00145520952525,0.176168814115,0.0138077189677,0.921746848733,0.387253021219,0.0150728559492
0.398535996675,-0.0217888057232,-0.400280743837,-2.52237653732,-0.0392582193017,2.54049897194,-0.765337765217,0.0375744663179,0.000251951947575,-0.000165135104908,7.79688634793e-05,0.000242261172389,1.55842590175e-05,0.00070512178354,0.000109661210445,0.467780244127,-0.00145751905001,0.17617550928,0.0138116846162,0.921748016833,0.387249612102,0.015085371735
0.39853978157,-0.0217858273536,-0.400277197361,-2.52237820625,-0.0392589382827,2.54051232338,-0.765338182449,0.0375744663179,-0.000482039904455,-7.06499213265e-06,0.00126600917429,-0.000131780849188,-6.85457416694e-05,-5.32366029802e-05,-0.000291237171041,0.467781913631,-0.00145420732527,0.176174873294,0.013813940527,0.921746287312,0.387253494726,0.015089313417
0.398541629314,-0.0217863861471,-0.400277733803,-2.52238535881,-0.0392578691244,2.54053902626,-0.765336155891,0.0375744663179,-0.00016743640299,-0.00035764274071,-0.000426902319305,5.58856390853e-06,-9.17112265597e-06,0.000130139975226,-3.35656768584e-05,0.46778435124,-0.00145326385206,0.176174880447,0.0138170269561,0.921746363268,0.387252830404,0.015098893792
0.398541092873,-0.0217855758965,-0.400275737047,-2.52239322662,-0.0392586402595,2.54054450989,-0.765336573124,0.0362263284624,9.81041157502e-05,1.61950301845e-05,0.000352265604306,-5.54256330361e-05,-2.44777584157e-05,8.87965870788e-06,-0.000143971279613,0.467781688474,-0.0014526006048,0.176171986795,0.0138167046709,0.921745870294,0.387254075539,0.01509734839
0.398545414209,-0.021773930639,-0.400274664164,-2.5224006176,-0.0392583683133,2.54055380821,-0.765334784985,0.0362263284624,0.000366478023352,-0.000652078189887,0.000176471250597,-0.000291660893708,-0.00012574493303,-0.000129491701955,-8.62839224283e-05,0.467778346781,-0.00145027333043,0.176164974143,0.0138167558634,0.92174504281,0.387256231205,0.015092527558
0.398553043604,-0.0217761565,-0.400269538164,-2.52240014076,-0.0392597690225,2.54055571556,-0.765333235264,0.0362263284624,9.15335185709e-05,-0.000599478371441,0.000169052073034,0.000509263540152,4.91123464599e-05,0.00025844477932,0.000205554038985,0.467779496266,-0.00144464532015,0.176166327795,0.0138175872361,0.921742787787,0.387261483801,0.015094710702
0.398545891047,-0.0217792317271,-0.400273263454,-2.52238249779,-0.0392594598234,2.54056620598,-0.765335559845,0.0362263284624,-0.000735246809199,-0.000388274667785,-0.000251045072218,0.00154274131637,0.00139162817504,0.000251238321653,-0.000163858610904,0.467790548561,-0.00144950840454,0.176175556197,0.0138228767125,0.921744268945,0.387257204278,0.0151092079128
0.398531883955,-0.0217905584723,-0.400282144547,-2.52236199379,-0.0392585992813,2.54059910774,-0.765336453915,0.0362263284624,-0.000373137532733,-0.000609197304584,-0.000405223749112,0.000100958750409,-0.000136575457873,0.00283703068271,-1.88079266081e-05,0.467808951271,-0.00145927849441,0.176191595288,0.0138326206265,0.921748159112,0.387246410355,0.0151395881742
0.398526936769,-0.0218098480254,-0.400287568569,-2.52236533165,-0.0392591133714,2.54071497917,-0.76533383131,0.0362263284624,0.000165655859746,0.00119141838513,-0.000125784543343,0.000305998401018,-3.38316858688e-05,0.00312561215833,6.16935285507e-05,0.467835084936,-0.00146204018939,0.176209731525,0.0138529190583,0.921749341216,0.38724044012,0.0152016387224
0.398543417454,-0.0218024253845,-0.400275975466,-2.52236008644,-0.0392593331635,2.54078125954,-0.765335381031,0.0362263284624,0.000517488690093,6.8402470788e-05,-0.000435264548287,-0.000783902883995,4.34344365203e-05,0.00426815124229,-0.00480030430481,0.467850828855,-0.00144890692848,0.176215020591,0.013865833213,0.921742887402,0.38725416927,0.015231423386
0.398535758257,-0.0217994209379,-0.400282144547,-2.52236175537,-0.039258889854,2.54081535339,-0.765335083008,0.0362263284624,-0.000431747321272,-0.000232426391449,-0.000265299691819,-0.000474494008813,0.00080800417345,0.000311232899548,-0.000157350135851,0.467856915198,-0.00145524140111,0.176216332575,0.0138715510029,0.921745366208,0.387247529699,0.0152450113701
0.398529887199,-0.0218053143471,-0.400283843279,-2.52237725258,-0.0392581894994,2.54081702232,-0.765336096287,0.0359689183533,0.000292477867333,0.000131623426569,0.000180946866749,-0.00241081183776,2.49348231591e-05,4.57436408396e-06,-0.000403454672778,0.467850376747,-0.00145819266459,0.17621266975,0.0138685201727,0.921746685331,0.387244648695,0.015241193138
0.398535877466,-0.0218056831509,-0.400278955698,-2.52238440514,-0.0392595827579,2.54081821442,-0.765334010124,0.0359689183533,0.000657991447952,0.000466313707875,0.000100524848676,-7.61579358368e-05,-2.03910913115e-05,3.32831004926e-05,0.000275528524071,0.467847702032,-0.00145324285044,0.176210446149,0.0138678467604,0.921744901371,0.387249005288,0.0152390028904
0.398536503315,-0.0218030586839,-0.400278508663,-2.52237939835,-0.0392592735589,2.54081892967,-0.765335559845,0.0359689183533,-0.000139760653838,0.000265515263891,-0.000467044184916,0.000467837468022,3.94186463382e-05,-0.00416333321482,-0.000407590239774,0.467849853523,-0.00145290119417,0.176211347604,0.013868874883,0.921744416867,0.387250068294,0.0152403599692
0.398520022631,-0.0218028873205,-0.400290906429,-2.52237462997,-0.0392587557435,2.5408205986,-0.765336811543,0.0359689183533,-0.00129052833654,-0.000654653005768,-0.000431094958913,-5.38164786121e-05,-2.60637011706e-06,1.50520509123e-05,-0.000203614850761,0.467853003366,-0.00146921734364,0.176214130913,0.0138702837588,0.921750928649,0.387234371568,0.0152440782486
0.398515075445,-0.0218013171107,-0.400297313929,-2.52236270905,-0.0392598360777,2.54081773758,-0.765336692333,0.0359689183533,0.000574797100853,0.00434193061665,0.000503838818986,-0.000311105861329,-6.74334296491e-05,5.52005112695e-05,-1.38648683787e-05,0.467857292132,-0.00147132149868,0.176217033806,0.0138722076538,0.921751581003,0.387232659122,0.01524638201
0.398527860641,-0.0218027923256,-0.400286197662,-2.52236437798,-0.0392595753074,2.5408103466,-0.765337526798,0.0359689183533,0.000392823916627,-0.000130806176458,0.000986608327366,-0.000384813145502,-7.43472919567e-05,-0.000199869304197,9.08208094188e-05,0.4678550251,-0.0014604713164,0.176216417926,0.0138703023936,0.921747077574,0.387243580184,0.0152429978324
0.39852938056,-0.0218064319342,-0.400285840034,-2.5223634243,-0.0392606630921,2.54079890251,-0.765335321426,0.035291235894,0.000231298297876,0.00055443495512,-0.000297141901683,0.0013950454304,-1.35513175792e-07,0.000170534927747,-0.000175752997166,0.467853577528,-0.00145972886154,0.176217099748,0.0138687853079,0.921747137156,0.387243618106,0.01523981158
0.398520201445,-0.0218252800405,-0.400295972824,-2.52186012268,-0.0392592288554,2.53977370262,-0.765336215496,0.035291235894,0.000766656827182,0.00052560743643,-1.38906016218e-05,0.0148373935372,-0.000384313170798,-0.0283341947943,0.000259394902969,0.467872836878,-0.00147780528259,0.176320308561,0.0137841866172,0.921758432812,0.387228736467,0.0150097659847
0.398538976908,-0.0218216571957,-0.400280445814,-2.5214703083,-0.0392592474818,2.53883171082,-0.765336751938,0.035291235894,0.000885202316567,0.00138415477704,0.000961415702477,0.0257046036422,-0.000161459014635,-0.0589943788946,-0.000168537269928,0.467855710478,-0.00147088514156,0.17638423034,0.0136885975945,0.921758905937,0.387241316484,0.0147412384543
0.398563861847,-0.021817618981,-0.400266677141,-2.52083778381,-0.039259199053,2.53739881516,-0.765337347984,0.035291235894,0.00221191719174,-0.000601763313171,0.00194806116633,0.0384256727993,-2.7175260584e-06,-0.0741920992732,-0.00036255188752,0.467846374341,-0.0014669612009,0.176492722087,0.0135540126156,0.921762039686,0.387252830575,0.0143623058771
0.398622334003,-0.0221821032465,-0.400250732899,-2.51796603203,-0.0392607077956,2.5313179493,-0.765336036682,0.035291235894,0.00020780324121,-0.0210944190621,0.00348596321419,0.0832608938217,-0.000116722527309,-0.177540123463,1.89452985069e-05,0.467942674702,-0.00147061630359,0.177167568985,0.0130350705711,0.921788658466,0.387253270744,0.0130636916358
0.398653179407,-0.0225106626749,-0.400246322155,-2.51658177376,-0.0392624773085,2.52855372429,-0.765335798264,0.035291235894,0.00189286237583,-0.0305975265801,-0.00388128124177,0.11009517312,7.57376183174e-05,-0.219384223223,0.000164249286172,0.468062643096,-0.00146062825324,0.177648824897,0.0127742786453,0.921800757464,0.387251601149,0.0125051362751
0.39868208766,-0.0234316773713,-0.400251120329,-2.51362395287,-0.0392622761428,2.5223698616,-0.765334546566,0.035291235894,0.00231663230807,-0.0504521876574,0.000692237226758,0.135977417231,-0.00017864711117,-0.294513940811,-1.43731722346e-05,0.468247412265,-0.0014553221157,0.178585364393,0.012255326255,0.921833459406,0.387222253058,0.0114807019579
0.398728758097,-0.0282184295356,-0.400247007608,-2.50216388702,-0.0392683334649,2.49854755402,-0.76533561945,0.035291235894,0.00476610753685,-0.117800228298,0.000287978968117,0.25149461627,0.000216572734644,-0.511445581913,-0.000137725714012,0.469149511043,-0.00138614392437,0.182929918301,0.0101987511665,0.921954164566,0.38708124378,0.00803830269871
0.39877179265,-0.0308460127562,-0.400227606297,-2.49704670906,-0.0392679907382,2.48799204826,-0.765334308147,0.035291235894,0.00498598162085,-0.147182554007,0.000172566695255,0.287986218929,0.000318379374221,-0.562938034534,-7.76094748289e-06,0.469610088807,-0.00131145273562,0.185112193213,0.00929275637897,0.921994625852,0.387031671347,0.00678525130048
0.398831129074,-0.0342766456306,-0.400194466114,-2.49038124084,-0.039273455739,2.47543072701,-0.765334844589,0.0363944359124,-0.00077782938024,-0.178095117211,0.000821272027679,0.334411978722,-8.60184882185e-05,-0.626573741436,0.000101329183963,0.470441592761,-0.00120477778258,0.188088291829,0.00832695576415,0.922033912995,0.386977402874,0.00571090556113
0.398890972137,-0.0402586348355,-0.400150805712,-2.47992968559,-0.0392723456025,2.45611619949,-0.765333533287,0.0363944359124,0.00362685066648,-0.23407535255,-0.000479790032841,0.389700233936,-6.1978949816e-05,-0.70291018486,-0.000381567864679,0.471843715499,-0.00103232872363,0.193095733037,0.00687552124625,0.922098106698,0.386868830933,0.00450734577189
0.398954004049,-0.0453156679869,-0.400129437447,-2.47150969505,-0.039275676012,2.44073867798,-0.765334367752,0.0363944359124,0.00560374045745,-0.258303374052,0.000230317455134,0.42006573081,0.000323918036884,-0.753063201904,0.000382149475627,0.472983034993,-0.000891478028446,0.197289204597,0.00573759313656,0.922143921202,0.386786331422,0.00374194098767
0.398972243071,-0.04945300892,-0.400124877691,-2.4647538662,-0.0392732657492,2.42930531502,-0.765334546566,0.0363944359124,0.000349987385562,-0.290322989225,-5.19833192811e-05,0.470706492662,-0.00121974595822,-0.772540509701,-0.000102923004306,0.474063909266,-0.000797518163121,0.200795246801,0.00498409262921,0.922185207209,0.386699766074,0.00359068610435
0.399021089077,-0.0545864664018,-0.400106936693,-2.4564678669,-0.0392760112882,2.41578269005,-0.765332400799,0.0363944359124,0.00281133665703,-0.316973567009,0.00016599164519,0.498745769262,0.000187106939848,-0.81647336483,-0.000298608851153,0.475456073193,-0.000669339864406,0.205195820219,0.00415012426357,0.922224772297,0.386614525777,0.00366796554743
0.399219483137,-0.0706678703427,-0.400062084198,-2.43097114563,-0.039282951504,2.37606406212,-0.765332579613,0.0363944359124,0.00488847354427,-0.374455392361,0.000427680264693,0.589343369007,0.000858788203914,-0.870025515556,7.79232723289e-05,0.479831839747,-0.000313666069309,0.219228598787,0.00191149000946,0.922322968861,0.386383673696,0.00493393361674
0.399317413568,-0.0779974460602,-0.400046825409,-2.4196305275,-0.0392880402505,2.3592839241,-0.765332102776,0.0363944359124,0.00276731792837,-0.398976802826,0.00027741357917,0.60873824358,4.40552430518e-05,-0.905973553658,0.00013268791372,0.481813887293,-0.000182361696802,0.225719974311,0.00106988225272,0.922358289947,0.386287511432,0.00599987599952
0.399352699518,-0.0849631950259,-0.400031507015,-2.40873980522,-0.0392886735499,2.34408187866,-0.765332043171,0.0363944359124,0.00349694862962,-0.402383506298,0.000602614018135,0.669028580189,0.0012885966571,-0.904024720192,-9.38223965932e-05,0.483804203683,-0.000107607573983,0.2320553606,0.000421674594439,0.922398796891,0.386167471936,0.00741383741132
0.399432063103,-0.0931978523731,-0.400015980005,-2.3953602314,-0.0392846651375,2.32589435577,-0.76533228159,0.0368547588587,0.00568601954728,-0.420848250389,0.000459111091914,0.655164659023,0.00208563939668,-0.921160757542,0.000249556469498,0.486186473739,-4.40304331388e-05,0.239804979565,-0.000292370060967,0.922438361361,0.386034186862,0.00921901656667
0.399550825357,-0.111242823303,-0.400016367435,-2.36632704735,-0.0392862334847,2.28824496269,-0.76533305645,0.0368547588587,-0.000261973211309,-0.441070377827,-0.000741896219552,0.716269493103,0.00110634905286,-0.928000450134,0.000184057178558,0.491348255555,-7.11555865488e-05,0.25753312208,-0.00156000245691,0.922517423159,0.385691211017,0.0141936530349
0.399584174156,-0.121986187994,-0.400004386902,-2.34827494621,-0.0392982997,2.26640224457,-0.765332579613,0.0368547588587,0.00797530636191,-0.447502762079,0.00139708048664,0.763091802597,-0.000303479522699,-0.902005493641,-0.000566909031477,0.494306663033,-0.000196774592036,0.267942663664,-0.00202022287796,0.922549131332,0.385473412388,0.0175859888159
0.399639725685,-0.1287317276,-0.400000751019,-2.3371219635,-0.0392875522375,2.25287699699,-0.765331864357,0.0368547588587,-0.00125819107052,-0.47143638134,-0.000316499150358,0.761923074722,-0.000154920067871,-0.89295566082,0.000228670614888,0.496429696069,-0.000321905088379,0.276158421615,-0.00238958841601,0.922562253946,0.385306275034,0.0203039789974
0.399667412043,-0.151743471622,-0.400012671947,-2.29826140404,-0.0392947904766,2.20856142044,-0.765328526497,0.0368547588587,0.000725602731109,-0.439715057611,0.000310509320116,0.759394645691,-0.00296222534962,-0.831829547882,-7.36931469874e-05,0.501902112157,-0.000944987883384,0.29877345984,-0.0029581450384,0.922571912157,0.384754306526,0.0285734066773
0.399697631598,-0.15824650228,-0.399997740984,-2.28714728355,-0.0392950326204,2.19609642029,-0.765330731869,0.0370346866548,0.00291657424532,-0.440787553787,0.000900370592717,0.733357489109,0.00101578282192,-0.81705302,-0.00045693674474,0.503366464174,-0.00117443823023,0.305711158535,-0.00310364643648,0.922553472503,0.384597950526,0.0311427982755
0.39970651269,-0.166067346931,-0.399987488985,-2.27371716499,-0.0392981767654,2.18172717094,-0.765327095985,0.0370346866548,-0.000248126947554,-0.419643819332,0.000734841683879,0.74558532238,0.0027544554323,-0.790111064911,6.65280094836e-05,0.505134994709,-0.00150587868695,0.314189522964,-0.00315722667427,0.922523810266,0.384377408961,0.0345522585979
0.399659991264,-0.178609132767,-0.400017410517,-2.25155901909,-0.0393021441996,2.15780544281,-0.765328288078,0.0370346866548,-0.0013621338876,-0.386365890503,-0.000933262344915,0.713455796242,0.00162561156321,-0.73849183321,0.00105885008816,0.507648175603,-0.00219864668323,0.32808122327,-0.00329579245046,0.922481838645,0.383958944514,0.039898918946
0.399671286345,-0.18555060029,-0.400018543005,-2.23910737038,-0.0393040962517,2.14469385147,-0.765329122543,0.0370346866548,0.000197632049094,-0.37605085969,0.000598932558205,0.659073114395,0.00074237404624,-0.724406898022,0.00221942807548,0.508938444736,-0.00260869999279,0.335919551866,-0.00331867303652,0.922434482612,0.383737093398,0.0430052849091
0.399653762579,-0.192934200168,-0.400026917458,-2.22604775429,-0.0393012873828,2.13063144684,-0.765327453613,0.0370346866548,0.000336563971359,-0.345159858465,-0.00048648766824,0.646096229553,0.000178879505256,-0.67751455307,0.000394381117076,0.510076516775,-0.00309429186692,0.344188726669,-0.00340541239831,0.922386257759,0.383484251483,0.0461716710776
0.399652272463,-0.197000399232,-0.400028824806,-2.21841597557,-0.0393061302602,2.12260770798,-0.765328705311,0.0370346866548,7.42827469367e-05,-0.337762951851,-0.000100669851236,0.620240747929,-0.000548086187337,-0.67056208849,-0.00604644790292,0.510761322682,-0.00341349372269,0.349325087273,-0.00342321985643,0.922350471116,0.383329258897,0.0481307485265
0.399611532688,-0.204081952572,-0.400050878525,-2.20539474487,-0.0393030010164,2.10822153091,-0.765326678753,0.0370346866548,-0.00100710988045,-0.313511282206,7.21900360077e-05,0.587092638016,-0.000551849603653,-0.632676064968,-0.00011190490477,0.511573907192,-0.00397601522363,0.357423378822,-0.00358356250286,0.922309443543,0.383059897945,0.0509662898437
0.399525761604,-0.212941929698,-0.400062978268,-2.18820214272,-0.0393073447049,2.08900094032,-0.765326917171,0.0370346866548,-0.00364653929137,-0.263314992189,0.000109217588033,0.50260579586,-0.000377349322662,-0.613104820251,-0.000352873466909,0.512362908841,-0.00474721442614,0.367560405688,-0.00383007143726,0.922263409269,0.382717695656,0.0542466551055
0.399485647678,-0.217850908637,-0.400056004524,-2.17842626572,-0.039306961,2.07697701454,-0.765325069427,0.0370346866548,-0.000692073721439,-0.232026174664,5.7126453612e-05,0.484394490719,-0.00139391771518,-0.57249045372,0.000213076767977,0.512495901877,-0.00521289112696,0.373367384241,-0.00417489805004,0.922251587526,0.38254634363,0.055613615146
0.399467468262,-0.221488535404,-0.400065749884,-2.1705892086,-0.03931267187,2.06731176376,-0.765327513218,0.0370438806713,-0.0041918870993,-0.209331735969,-0.000350942602381,0.434198647738,-0.00647065509111,-0.567904353142,0.000157324961037,0.51255203315,-0.00559548866995,0.377885288468,-0.00445594996523,0.922248099875,0.382414544342,0.0565482337892
0.399423927069,-0.223947703838,-0.400070846081,-2.16558909416,-0.0393098480999,2.06051588058,-0.765325248241,0.0370438806713,-0.00135551567655,-0.199922963977,0.000350010406692,0.404421538115,-0.000624120119028,-0.562685728073,0.000449818209745,0.512411023969,-0.00588372135198,0.380997315599,-0.00477857843958,0.922261688067,0.382318676887,0.0569471061428
0.399380832911,-0.22767303884,-0.400067299604,-2.15741729736,-0.039313968271,2.04861044884,-0.76532638073,0.0370438806713,-0.00152222753968,-0.150622367859,-0.00221732258797,0.344780772924,0.000772523868363,-0.523916423321,-0.000391874200432,0.511996114764,-0.00629978556513,0.385432760013,-0.00541147504106,0.922296666618,0.382218016263,0.0569996702583
0.399197667837,-0.231188759208,-0.400084525347,-2.14815735817,-0.0393175035715,2.03462576866,-0.765326738358,0.0370438806713,-0.00695597101003,-0.108695745468,0.00110140431207,0.295945763588,-0.00109624769539,-0.472176611423,-0.000257670209976,0.511431038921,-0.00683246034896,0.389955771798,-0.00617772182012,0.922389024824,0.382051997546,0.0565384249001
0.399117559195,-0.232846543193,-0.400086671114,-2.14321756363,-0.0393206328154,2.0262298584,-0.765326619148,0.0370438806713,-0.0018586301012,-0.0723313316703,-0.00110215204768,0.265164673328,-8.53535821079e-05,-0.444442540407,-4.55148801848e-05,0.510908177602,-0.00711222913489,0.392263025607,-0.00677344119771,0.922456981129,0.381995017036,0.0557408746127
0.39904499054,-0.233856767416,-0.400109469891,-2.1388657093,-0.0393231809139,2.01850032806,-0.7653247118,0.0370438806713,-0.00409947894514,-0.040330786258,0.000558636616915,0.218720287085,0.000279066123767,-0.41919156909,0.000291973847197,0.510389279344,-0.00736125017454,0.394049818444,-0.00735994473167,0.922538275574,0.381944179216,0.0546589879207
0.398928195238,-0.234375953674,-0.400100320578,-2.13520860672,-0.0393261350691,2.011074543,-0.76532459259,0.0370438806713,-0.000604556757025,-0.0162925422192,0.000395115668653,0.171552285552,0.000299990788335,-0.372829526663,-0.000239550601691,0.509767676112,-0.00757650283562,0.395300117031,-0.00801704249196,0.922634415306,0.381911301264,0.0531528021055
0.3989123106,-0.23416544497,-0.400095045567,-2.12981319427,-0.039333011955,1.99589264393,-0.765324413776,0.0370543859899,-0.000203655654332,0.0201759897172,0.000261969340499,0.0630317032337,0.000206298733247,-0.280795872211,-1.33367875605e-05,0.508004178906,-0.00779097064963,0.396246072347,-0.00975687991114,0.922829253454,0.382022230408,0.0484766688175
0.398914277554,-0.2336409688,-0.400097876787,-2.12899231911,-0.0393364839256,1.99108660221,-0.765323758125,0.0370543859899,0.000429372448707,0.0381273329258,-2.60495617113e-05,0.0319712385535,-0.00073757552309,-0.259663999081,-1.16367455121e-05,0.507235240679,-0.00780908953418,0.395900536792,-0.0104735991238,0.922901884275,0.382090787245,0.0463578009317
0.398907512426,-0.232857003808,-0.400100290775,-2.12866473198,-0.0393405929208,1.98685061932,-0.765323281288,0.0370543859899,-0.000146074482473,0.0572350099683,-0.00112413242459,0.00893302168697,9.80594995781e-05,-0.235276430845,-0.00027786596911,0.506469878026,-0.00780524114262,0.395255735002,-0.011178241768,0.922972939173,0.382161076692,0.0441464790168
0.398928791285,-0.23167322576,-0.400087147951,-2.1286251545,-0.0393516793847,1.98212194443,-0.765322208405,0.0370543859899,0.00129192182794,0.0653512328863,0.000408441555919,-0.00414498941973,-0.00245463405736,-0.238728269935,0.000120888784295,0.505544286455,-0.00775899961716,0.394239133467,-0.0120216081132,0.923045694214,0.382270214883,0.0413716065336
0.398958951235,-0.229936808348,-0.40007892251,-2.12872552872,-0.0393723770976,1.97718834877,-0.765321671963,0.0370543859899,0.000306029833155,0.0965607017279,-7.533445023e-05,-0.00220787199214,0.000181761060958,-0.220909073949,0.000392857211409,0.504564624611,-0.0076945945493,0.392884519026,-0.0129232344745,0.923122999752,0.382388326831,0.038158675626
0.398945331573,-0.227992996573,-0.40008726716,-2.1287176609,-0.039429359138,1.97304606438,-0.765322327614,0.0370543859899,-0.00232025329024,0.11401566118,-0.000125273581943,0.0011316454038,-0.0129065671936,-0.207664608955,-0.000152034190251,0.503788453007,-0.00766845066276,0.391573598591,-0.0136448347751,0.923197308394,0.38246264926,0.035254359472
0.398986488581,-0.224942952394,-0.400064229965,-2.12878227234,-0.0398146882653,1.9670330286,-0.765322268009,0.0370543859899,0.00125341222156,0.105359598994,0.000421011296567,-0.00150858389679,-0.0117815127596,-0.182734265924,0.000113921058073,0.5026463439,-0.00762772589626,0.389539472305,-0.0145718781974,0.923259419942,0.382660057392,0.0308380286905
0.399000406265,-0.223087251186,-0.400075495243,-2.12882375717,-0.0399293079972,1.96424996853,-0.76532125473,0.0370543859899,-0.00148241419811,0.123545177281,-0.00243063364178,-0.00381299317814,-0.00462824944407,-0.16374206543,-0.000467911188025,0.502133235549,-0.00760322108446,0.388392824616,-0.0150314910361,0.923298473832,0.382723567041,0.0285771483923
0.398976027966,-0.22094501555,-0.400084227324,-2.12889623642,-0.0400522947311,1.96141505241,-0.765320181847,0.0370622649789,0.00177804473788,0.114174053073,0.000604889297392,-0.000365958025213,-0.00674984883517,-0.145252838731,4.64577460662e-05,0.501611353802,-0.00759206588421,0.387098311624,-0.0155010951037,0.923343807292,0.382770137191,0.0261333377685
0.399022638798,-0.217117831111,-0.400065153837,-2.12909030914,-0.0406269170344,1.95747029781,-0.765319526196,0.0370622649789,6.54858304188e-05,0.116975396872,0.000427641469287,-0.00845556147397,-0.0282689556479,-0.115527972579,0.000204682553886,0.500895856723,-0.00757077354461,0.384869044168,-0.015991898467,0.923363624104,0.382950499157,0.0221989130937
0.399042725563,-0.215119570494,-0.40005004406,-2.1292386055,-0.0413085483015,1.95550465584,-0.765318453312,0.0370622649789,0.00330231059343,0.118354700506,0.000829353055451,-0.0127373281866,-0.0563992597163,-0.111424900591,-0.000146718797623,0.500526723605,-0.00762417631507,0.383692450252,-0.0160732064494,0.923345306064,0.383106970974,0.0201033897206
0.399138510227,-0.213043823838,-0.400059938431,-2.12943482399,-0.0425129421055,1.95356619358,-0.765318512917,0.0370622649789,0.00458350218832,0.106608912349,-0.00114471616689,-0.0158960577101,-0.0861210897565,-0.110023155808,0.000380600366043,0.500153239487,-0.00773942430433,0.382457731998,-0.0159339063204,0.923282066623,0.38337567449,0.0178725480586
0.399164706469,-0.211522623897,-0.400053441525,-2.12968230247,-0.0438689626753,1.95196425915,-0.765317678452,0.0370622649789,0.00175100995693,0.101284451783,0.00146339263301,-0.0179019998759,-0.111754707992,-0.104393079877,-0.00010148929141,0.499810898164,-0.00791735084663,0.381485814079,-0.0156764506021,0.9232094078,0.383642765357,0.0160270557929
0.399226516485,-0.209952428937,-0.400036484003,-2.1299674511,-0.0460177622736,1.95034229755,-0.765315949917,0.0370622649789,0.00414527999237,0.0928308144212,-0.00286643137224,-0.0212439801544,-0.159600868821,-0.10068231076,1.28402621158e-06,0.499457429029,-0.00820681708338,0.380469198904,-0.0150837549836,0.923076422889,0.384065669244,0.0139985439486
0.399464070797,-0.205980479717,-0.400022596121,-2.13101530075,-0.0571412853897,1.94610905647,-0.765200197697,0.0370898470283,0.000475321110571,0.0655993372202,0.000272344565019,-0.0169860180467,-0.264991492033,-0.0768620669842,0.0132155260071,0.498461408379,-0.00988546529566,0.377714556658,-0.0111975032017,0.922365769163,0.386078407313,0.00771147759909
0.399503946304,-0.204909473658,-0.40000897646,-2.13123178482,-0.0623473413289,1.9447773695,-0.764782369137,0.0370898470283,0.00180525286123,0.0552112720907,-3.06023612211e-05,-0.0139831481501,-0.31023105979,-0.0740515068173,0.02692114003,0.498179473439,-0.0107308785789,0.376984929031,-0.00921064582727,0.9220984085,0.386805423719,0.00559043019006
0.399561792612,-0.204162269831,-0.400002896786,-2.13135409355,-0.0677447021008,1.94364786148,-0.764246106148,0.0370898470283,0.0040278066881,0.0421392470598,-0.00081485818373,-0.00713269971311,-0.358268886805,-0.0641392916441,0.0442097224295,0.497957238011,-0.0116143912668,0.376470218471,-0.00708661725413,0.921831533656,0.387507980089,0.00373744061078
0.399638146162,-0.202641814947,-0.3999748528,-2.13146877289,-0.0893512889743,1.94068455696,-0.761264622211,0.0370898470283,0.00403677951545,0.0144245158881,0.00359870330431,0.00232381746173,-0.510809063911,-0.0654820203781,0.082031711936,0.497470143723,-0.015271472062,0.375446580249,0.00177854410533,0.920890123693,0.38981287785,-0.00203391523054
0.399667322636,-0.202531099319,-0.399926900864,-2.13145661354,-0.0985413193703,1.93956887722,-0.759517431259,0.0370898470283,-0.00130114366766,0.00528242113069,0.00263480353169,-0.00115887948778,-0.561820685863,-0.0550591982901,0.109018594027,0.497300020259,-0.0168263487269,0.37532128209,0.00559816512562,0.920548501061,0.390566477498,-0.0041163186255
0.399678558111,-0.202523782849,-0.399879693985,-2.13146710396,-0.108360663056,1.93864226341,-0.757577240467,0.0370898470283,0.000476152868941,-0.00281785149127,0.00256636971608,0.00105162186082,-0.602125167847,-0.0537572540343,0.114992290735,0.497171166066,-0.0185005964371,0.375264776688,0.00972673076519,0.920184259014,0.391316130673,-0.00616487867016
0.399674117565,-0.202593579888,-0.399811714888,-2.13138484955,-0.119985684752,1.93749570847,-0.755301475525,0.0370898470283,-0.000816127867438,-0.00613393262029,0.000819241337012,0.00472726672888,-0.625870168209,-0.0647810176015,0.118794046342,0.49703939354,-0.020493839117,0.375294621976,0.0146323057976,0.919728467369,0.39218979959,-0.00852072283365
0.399671673775,-0.202674940228,-0.399744182825,-2.13109946251,-0.140771299601,1.93553185463,-0.750996291637,0.0371633917093,0.00152347865514,-0.00119784311391,0.00622608885169,0.0137230632827,-0.713035047054,-0.06640855968,0.152890011668,0.496884247702,-0.0240920034144,0.375454081589,0.0234592135346,0.918908138377,0.393571087518,-0.0126213024549
0.399665385485,-0.202707737684,-0.399703145027,-2.13086915016,-0.151039928198,1.93458104134,-0.748628556728,0.0371633917093,0.00151087541599,9.09197042347e-05,0.00283692008816,0.0179165434092,-0.752854824066,-0.0751937776804,0.18288628757,0.496844855225,-0.0260040914805,0.375611188998,0.0281735825342,0.918494651271,0.394153369951,-0.0147290689232
0.399664461613,-0.20270653069,-0.399633258581,-2.13044023514,-0.166575103998,1.93290233612,-0.744648814201,0.0371633917093,0.00122565682977,0.000279711530311,0.00147034286056,0.0233780704439,-0.812476158142,-0.0920724868774,0.197817787528,0.496777085668,-0.0285718413336,0.375848669996,0.034488449516,0.917977816307,0.39473603212,-0.0176278258848
0.399669140577,-0.202706858516,-0.399543434381,-2.13006639481,-0.179077416658,1.93146455288,-0.741620123386,0.0371633917093,-0.00228039990179,-0.000592820579186,0.00624596420676,0.023115856573,-0.845292031765,-0.102295100689,0.205111265182,0.496717636633,-0.0308776461542,0.376104012184,0.0401987094391,0.917431982411,0.395338174405,-0.0202570715773
0.399665236473,-0.202727660537,-0.399293720722,-2.12908768654,-0.208214297891,1.92812228203,-0.734246850014,0.0371633917093,0.0013163916301,0.00050594023196,0.00882764719427,0.0331948511302,-0.918089807034,-0.0974555015564,0.23457531631,0.496663350276,-0.035760538284,0.376803729931,0.0523618799205,0.91622704879,0.396391592344,-0.0256891766563
0.399667352438,-0.202722921968,-0.399111539125,-2.12842965126,-0.225101903081,1.92623651028,-0.730315744877,0.0371633917093,-0.000665668165311,0.000180796560016,0.0102745303884,0.0390584692359,-0.952515423298,-0.104202494025,0.210449263453,0.496693221269,-0.0386617594146,0.377326462344,0.0596721804303,0.915362962462,0.397137126653,-0.0288440661148
0.399663150311,-0.202701598406,-0.398927748203,-2.12776994705,-0.240646824241,1.92449903488,-0.726735830307,0.0371633917093,-0.000617930956651,0.000495813088492,0.0136606907472,0.0462067015469,-0.991781949997,-0.115929879248,0.233531624079,0.496752624658,-0.0413309799935,0.377868881244,0.0664266207372,0.914512852252,0.397804445133,-0.0317075738082
0.399674415588,-0.202701106668,-0.39868414402,-2.12697482109,-0.259072512388,1.92242741585,-0.722528159618,0.0371633917093,-0.0013625464635,0.000135273017804,0.0150469318032,0.0438555963337,-1.05046737194,-0.108415745199,0.227553501725,0.496844767834,-0.0444767545857,0.378582305817,0.0744530376255,0.91343342041,0.398581461693,-0.035056379477
0.399681419134,-0.20269459486,-0.397516876459,-2.12279772758,-0.334389746189,1.91380834579,-0.705574691296,0.037185061723,0.00165716151241,0.00104538234882,0.0234366580844,0.0743566676974,-1.18675196171,-0.148851156235,0.294532269239,0.497672981193,-0.0573004311763,0.382534533243,0.107607482647,0.908332457619,0.401305199779,-0.0480303281519
0.399671703577,-0.202698215842,-0.397145837545,-2.12157201767,-0.352961868048,1.91142511368,-0.701074659824,0.037185061723,0.00118951324839,0.00345017109066,0.0301870200783,0.0872904211283,-1.248691082,-0.165417119861,0.310670882463,0.497931670358,-0.0604386654319,0.383738173754,0.115841904794,0.90697715122,0.401692992396,-0.0511452812833
0.399679780006,-0.202696874738,-0.396582275629,-2.1196603775,-0.380139857531,1.90768623352,-0.694654345512,0.037185061723,-0.000348296802258,0.00329325953498,0.0296832416207,0.101184971631,-1.31594204903,-0.182748198509,0.302277058363,0.498327948456,-0.0650189861805,0.385643080063,0.127908138946,0.904849377503,0.402223499706,-0.0557078808218
0.399688571692,-0.20267534256,-0.395785629749,-2.11664199829,-0.415764510632,1.90210163593,-0.686305820942,0.037185061723,-1.83325846592e-06,0.00278676580638,0.0283608920872,0.122936271131,-1.343141675,-0.212869048119,0.313005030155,0.498906562545,-0.0710342397698,0.388524324932,0.14378920988,0.901871848737,0.402677742218,-0.0616641482339
0.399672180414,-0.202639013529,-0.395220696926,-2.11414241791,-0.442747950554,1.89777708054,-0.67986702919,0.037185061723,-0.00151930109132,0.00145347684156,0.0287989992648,0.126947134733,-1.36141562462,-0.223096743226,0.33377289772,0.499398189461,-0.0753867283714,0.390816909002,0.155273200054,0.899634346935,0.402761706545,-0.0658124804032
0.399675160646,-0.202626779675,-0.394754678011,-2.11206269264,-0.464667320251,1.89404606819,-0.674541711807,0.037185061723,-0.000483964657178,-0.000542775786016,0.0298623647541,0.134983107448,-1.37612247467,-0.24245211482,0.329086899757,0.499840707263,-0.0793368983534,0.393019603043,0.165717012177,0.897529969001,0.402662157359,-0.0695773909208
0.39967879653,-0.202662065625,-0.394103467464,-2.10948729515,-0.491265684366,1.88893938065,-0.668006718159,0.037185061723,0.00549346860498,-0.00350321619771,0.0437034070492,0.133715629578,-1.42781770229,-0.285128265619,0.357108265162,0.500271316545,-0.0838321036671,0.395668811953,0.177632557005,0.895026215591,0.402363796285,-0.0740143446311
0.399659097195,-0.202731654048,-0.392197996378,-2.10282731056,-0.555885612965,1.87502574921,-0.651441514492,0.0371896587312,0.000722685537767,-0.00136351946276,0.0526251941919,0.162314265966,-1.44189345837,-0.333723425865,0.355931609869,0.501246788041,-0.0944133442593,0.402590943703,0.206039302317,0.888729121929,0.400686295789,-0.0846099626283
0.39967545867,-0.202716767788,-0.391223162413,-2.09940671921,-0.584984958172,1.86794805527,-0.644432723522,0.0371896587312,-0.000503357558046,-0.00239918194711,0.0474522747099,0.178951352835,-1.46309435368,-0.365030378103,0.346213728189,0.501731909008,-0.0994892904925,0.406356565575,0.219823151826,0.885361807293,0.399685330577,-0.0897991553518
0.399650394917,-0.202678531408,-0.390265285969,-2.0962574482,-0.611419439316,1.86126565933,-0.638346791267,0.0371896587312,0.000427276449045,-0.00323812174611,0.0578842423856,0.169056177139,-1.47400081158,-0.380794644356,0.332737147808,0.502144590975,-0.103862139386,0.409765503757,0.231761951957,0.88226391199,0.398746130986,-0.0943308534908
0.399639099836,-0.202755689621,-0.387367427349,-2.08833456039,-0.680191040039,1.84198951721,-0.62254434824,0.0371896587312,-0.000596633995883,-0.00154823006596,0.06968139112,0.177621945739,-1.46075201035,-0.442102521658,0.344257742167,0.502924415959,-0.115030166049,0.419160222195,0.262769713163,0.873607857153,0.395492349486,-0.10652319434
0.3996732831,-0.202783033252,-0.386327803135,-2.0857322216,-0.701995015144,1.83540165424,-0.617538034916,0.0371896587312,0.00017988892796,-0.000361486105248,0.0696764439344,0.172490566969,-1.44071936607,-0.441659897566,0.312432765961,0.503149180957,-0.11848948936,0.422369904653,0.272628230986,0.870685511347,0.394197822959,-0.110402282775
0.399648815393,-0.202791765332,-0.384931266308,-2.08254241943,-0.729382395744,1.82683503628,-0.611751198769,0.0372021384537,-0.000216911852476,-0.000805917661637,0.0766609609127,0.16587869823,-1.44082629681,-0.457150757313,0.295162528753,0.503382345667,-0.122809036388,0.426486779264,0.284974032059,0.866798185937,0.392593377817,-0.115417265906
0.399659633636,-0.202876150608,-0.381435722113,-2.07450032234,-0.799424052238,1.80346369743,-0.597847938538,0.0372021384537,0.0014221194433,-0.00527953822166,0.0712837278843,0.163074672222,-1.36849164963,-0.489281266928,0.247363075614,0.50376388363,-0.133780677995,0.437647545002,0.316428065099,0.856159445859,0.387740266326,-0.128537031305
0.399627894163,-0.202903702855,-0.380300104618,-2.071808815,-0.821189522743,1.79561841488,-0.593962013721,0.0372021384537,-0.00535402959213,-0.00268501252867,0.0679555460811,0.164577111602,-1.34382605553,-0.498294383287,0.235977992415,0.5038337138,-0.137174078249,0.441405537678,0.326185564566,0.852635660631,0.386009998071,-0.1327090379
0.399656891823,-0.20292969048,-0.37910759449,-2.0690112114,-0.843894600868,1.78704857826,-0.589838564396,0.0372021384537,0.00529218045995,-0.000772564671934,0.0743928253651,0.156595960259,-1.33716773987,-0.499719411135,0.252517402172,0.503846450149,-0.140676639821,0.445418751379,0.33634854778,0.848889447494,0.383991044198,-0.137139483652
0.399645984173,-0.202934026718,-0.377807885408,-2.06595921516,-0.868486762047,1.77750313282,-0.585189163685,0.0372021384537,-0.000471709034173,0.00372340041213,0.0628879517317,0.161485910416,-1.29754447937,-0.49939724803,0.231599017978,0.503820882424,-0.144463814106,0.449888442347,0.347357041466,0.844786080365,0.381488707652,-0.141936358133
0.399634152651,-0.202976360917,-0.375687092543,-2.0611166954,-0.906829357147,1.76216828823,-0.578577160835,0.0372021384537,8.1543057604e-06,0.0040660914965,0.0687969699502,0.163767889142,-1.28898453712,-0.505739092827,0.19563524425,0.50373622604,-0.150254281242,0.457176333749,0.364478871043,0.838076874769,0.377420024074,-0.149453770867
0.399675786495,-0.202967047691,-0.373339802027,-2.05553293228,-0.950865209103,1.74447739124,-0.572407245636,0.0372021384537,0.00228309910744,-0.00149201450404,0.0657459199429,0.147780522704,-1.24612092972,-0.475895851851,0.160804912448,0.503656568595,-0.156736709182,0.465930085937,0.384010758611,0.829815482369,0.372756739943,-0.158096220616
0.39967545867,-0.203007519245,-0.372303873301,-2.05296516418,-0.972326755524,1.73602449894,-0.569385170937,0.0372067317367,-0.00532801961526,-0.00586194964126,0.0551226176322,0.144373729825,-1.1328510046,-0.465925872326,0.169719263911,0.503608361058,-0.159860121334,0.47029092948,0.393484814686,0.825691305273,0.370273090666,-0.162177085284
0.399691671133,-0.203084379435,-0.370118111372,-2.0462038517,-1.02361524105,1.7155777216,-0.562734901905,0.0372067317367,0.00490892212838,0.000323799235048,0.0438876487315,0.152371093631,-1.14279174805,-0.43772739172,0.127058953047,0.503517463308,-0.168078524391,0.482634317849,0.418536986196,0.814403722092,0.362984091699,-0.172672862525
0.399739533663,-0.20311743021,-0.369372665882,-2.04326820374,-1.04629540443,1.7069414854,-0.560416698456,0.0372067317367,-0.00286632683128,0.000728964514565,0.0350344888866,0.14581809938,-1.1236577034,-0.416095912457,0.114259794354,0.503520393233,-0.170481640936,0.486411112706,0.425937277696,0.81085637172,0.36085065356,-0.175716206942
0.399733066559,-0.203087255359,-0.368913888931,-2.04101538658,-1.06430542469,1.7004045248,-0.558690369129,0.0372067317367,0.000944397819694,0.00107575266156,0.0235778987408,0.136474654078,-1.10081350803,-0.40394487977,0.104464590549,0.503553846998,-0.173029160878,0.490416005481,0.433730350277,0.807047768098,0.358551326954,-0.178865393083
0.399748593569,-0.203137770295,-0.368442088366,-2.03830170631,-1.08619558811,1.69238865376,-0.556601822376,0.0372067317367,-0.00174442632124,-0.00304576079361,0.0230137147009,0.138882309198,-1.0757818222,-0.39688000083,0.0994048118591,0.50354781341,-0.176104953957,0.495383909552,0.443154410525,0.802377338127,0.355590696991,-0.182647287277
0.39972653985,-0.203187137842,-0.367904126644,-2.03200864792,-1.13671135902,1.67507326603,-0.552066206932,0.0372119881213,-0.000284307228867,0.00162981462199,0.00622561573982,0.12633125484,-1.04085767269,-0.337482899427,0.104633957148,0.503665315983,-0.183239304842,0.507373286407,0.465162303634,0.791105104056,0.348286627818,-0.190979501876
0.399718344212,-0.203235462308,-0.367860496044,-2.02990198135,-1.15500247478,1.66921770573,-0.550101280212,0.0372119881213,-0.000182564079296,-0.00328990165144,0.00189281627536,0.111435234547,-0.987857401371,-0.319200307131,0.112423151731,0.50371944054,-0.1855602399,0.51141375192,0.472485336035,0.787294458315,0.345646188052,-0.193529727595
0.399681717157,-0.203286066651,-0.367860198021,-2.02807116508,-1.171474576,1.66418778896,-0.5484136343,0.0372119881213,-0.00287084141746,-0.00320328841917,-0.00157401023898,0.105177931488,-0.961735725403,-0.27851369977,0.0836238414049,0.503793736877,-0.187734957792,0.515283141864,0.479439956268,0.783592079568,0.34314769753,-0.195883737174
0.399678498507,-0.203675687313,-0.367841959,-2.02337384224,-1.2190169096,1.65018594265,-0.544254481792,0.0372119881213,2.33139617194e-05,-0.00899454299361,0.000799463537987,0.0822157040238,-0.887303948402,-0.251064747572,0.0772613361478,0.503979162586,-0.193523188323,0.526290062993,0.498897176771,0.772686573985,0.336289560779,-0.202401571973
0.399667531252,-0.203810587525,-0.367839038372,-2.02233982086,-1.23029923439,1.64701032639,-0.543275117874,0.0372119881213,-0.00176200363785,-0.0116119785234,0.000791713246144,0.0747606307268,-0.859073340893,-0.235789060593,0.06440436095,0.504030964116,-0.194959187528,0.529188876866,0.503936280891,0.769776216902,0.334474324343,-0.204009133263
0.399605482817,-0.204048514366,-0.367856264114,-2.02092528343,-1.2457870245,1.64290452003,-0.542226970196,0.0372119881213,-0.00525278085843,-0.0140959490091,-0.000210541897104,0.0714723542333,-0.784724712372,-0.202439591289,0.0493455566466,0.504120790367,-0.196758655118,0.532920488737,0.510300446109,0.766001102186,0.332269466591,-0.205992153096
0.399565517902,-0.204286292195,-0.367854684591,-2.01968288422,-1.2605650425,1.6391929388,-0.541326403618,0.0372119881213,-0.00276018655859,-0.0126597164199,-0.00353171420284,0.0643516853452,-0.768788099289,-0.188470110297,0.0516422539949,0.504236168403,-0.198390579213,0.536462579637,0.516341182385,0.762320605348,0.330254350334,-0.207824785686
0.399460047483,-0.205086365342,-0.367863833904,-2.01682448387,-1.30661678314,1.62821006775,-0.538668215275,0.0372132994235,-0.000809938646853,-0.0116977505386,-4.59006951132e-05,0.0307973958552,-0.586886286736,-0.123997464776,0.0356391631067,0.504568090404,-0.203121264288,0.547207860022,0.534890451818,0.750465355563,0.324196208949,-0.213519957399
0.399414122105,-0.205244973302,-0.367865294218,-2.01642251015,-1.31473052502,1.62650728226,-0.538059592247,0.0372132994235,-0.0030619779136,-0.00575958378613,0.000434772606241,0.0263729710132,-0.509647428989,-0.10449001193,0.0402025841177,0.50465182141,-0.203899832909,0.549080907194,0.538145341296,0.748349044448,0.323117148663,-0.214402908118
0.399343162775,-0.20542833209,-0.367875128984,-2.01591110229,-1.32458221912,1.62444090843,-0.537202596664,0.0372132994235,-0.00382143864408,-0.00686913914979,0.000265192589723,0.0211622174829,-0.443295538425,-0.0876453369856,0.035585090518,0.504751531143,-0.204839818571,0.551371736791,0.542100546009,0.745789254541,0.3217354284,-0.215433747123
