imanlab/tactile_prediction_flat_dataset/train/data_sample_2021-11-24-15-52-36/robot_state.csv
position_panda_joint1,position_panda_joint2,position_panda_joint3,position_panda_joint4,position_panda_joint5,position_panda_joint6,position_panda_joint7,position_panda_finger,velocity_panda_joint1,velocity_panda_joint2,velocity_panda_joint3,velocity_panda_joint4,velocity_panda_joint5,velocity_panda_joint6,velocity_panda_joint7,ee_state_position_x,ee_state_position_y,ee_state_position_z,ee_state_orientation_x,ee_state_orientation_y,ee_state_orientation_z,ee_state_orientation_w
0.146691009402,-0.0458930842578,-0.151006236672,-2.53514695168,-0.0125399474055,2.53526496887,-0.755867540836,0.0683695077896,0.000794221181422,0.000390257337131,-0.000245365401497,-6.61833328195e-05,-2.45581177296e-05,0.000186800694792,-0.000146428763401,0.464483998301,-0.00155053806566,0.182420255181,0.00866465821012,0.928109644078,0.371610583014,0.0210472454931
0.146695330739,-0.0458914972842,-0.151007324457,-2.53514719009,-0.0125394789502,2.53526568413,-0.75586438179,0.0683695077896,-3.84564737033e-05,-0.000373475020751,-0.000150559455506,-6.85146806063e-05,2.88950286631e-05,-5.79262632527e-05,-0.000254226644756,0.464483807232,-0.00154903644998,0.182419498349,0.00866434057264,0.928109710874,0.371610449951,0.0210467801348
0.146697580814,-0.0458899363875,-0.151008918881,-2.53515124321,-0.0125380437821,2.53526496887,-0.755868136883,0.0683695077896,9.49467212195e-05,0.000485330616357,-0.000524626637343,-0.000374367897166,6.96063871146e-05,3.51150592905e-05,0.000266508723143,0.464481515182,-0.00154866120937,0.18241709972,0.00866287162656,0.928109167638,0.371612000611,0.0210439608537
0.146699234843,-0.0458930172026,-0.151006624103,-2.5351498127,-0.0125393345952,2.53526473045,-0.755866706371,0.0683695077896,4.84251213493e-05,7.77548120823e-05,-6.86982675688e-05,4.86829558213e-05,7.27439055481e-06,0.00775667466223,0.000161546835443,0.464482604044,-0.00154685081743,0.182419065701,0.00866380183959,0.928108464631,0.371613625873,0.0210458824145
0.146701157093,-0.045894600451,-0.15100774169,-2.535145998,-0.0125396540388,2.53526544571,-0.755866408348,0.0683695077896,-5.68387295061e-05,-6.4794679929e-05,0.000210813625017,5.57382481929e-05,9.73131463979e-05,0.00140033673961,-0.000139113544719,0.464484786548,-0.00154646773139,0.182421371419,0.00866488370678,0.928108264137,0.371613940201,0.0210487282987
0.146703124046,-0.0458924770355,-0.151007056236,-2.53514409065,-0.0125385504216,2.53526496887,-0.755866825581,0.0683695077896,-0.000629556365311,0.000136931223096,9.47257358348e-05,0.00135671463795,1.28571014102e-06,4.50072411695e-06,7.26035286789e-05,0.464485268701,-0.00154523913097,0.182421107735,0.0086645980387,0.928107867847,0.371614950508,0.0210484827071
0.146709606051,-0.0458885319531,-0.151007771492,-2.53514575958,-0.0125384125859,2.53526544571,-0.755867958069,0.0683695077896,0.00197346531786,-0.000159077069839,-0.00321428268217,-1.40196507346e-05,4.16871916968e-05,-0.000181146824616,-5.86547685089e-05,0.464484007216,-0.001542626486,0.182418678712,0.0086638119286,0.928106655646,0.371618133965,0.0210460519241
0.146712556481,-0.0458881109953,-0.151007056236,-2.53514719009,-0.0125399203971,2.53526544571,-0.75586771965,0.0683695077896,-0.000255968072452,-0.00124528072774,-0.000689693551976,7.82870411058e-05,0.000104809565528,-1.1728080608e-05,-0.000119862008432,0.464483279028,-0.00154101077718,0.182417920669,0.00866388203422,0.928105809403,0.371620303384,0.021045034989
0.146721720695,-0.0458910875022,-0.151005581021,-2.53514075279,-0.0125402156264,2.53526592255,-0.755866348743,0.0683695077896,0.00177750829607,0.00119033036754,-0.000310083996737,0.000917236728128,2.177200804e-05,4.50715051556e-05,0.000103988488263,0.464486868175,-0.00153605917638,0.182421890778,0.00866551076868,0.928103948933,0.371624647701,0.0210496983879
0.146724522114,-0.045891046524,-0.151006698608,-2.535135746,-0.0125379553065,2.53526473045,-0.755863308907,0.0683695077896,-0.000537971151061,-0.000225422845688,-0.000210016107303,-0.000383001373848,3.55237352778e-05,0.000121606935863,-0.00037530719419,0.464488959896,-0.00153517613145,0.182423736318,0.00866553467406,0.928104507574,0.371623137824,0.0210517136246
0.146723717451,-0.0458890907466,-0.151009336114,-2.535135746,-0.0125388680026,2.53526544571,-0.755866706371,0.0683688521385,-0.000110192835564,-0.000594680779614,0.000343713967595,-0.000118709554954,-5.40807595826e-05,-0.000131511507789,-0.000162265816471,0.464488920212,-0.00153676943816,0.182423225172,0.00866575626876,0.928104323536,0.371623613633,0.0210513366948
0.146725922823,-0.0458912886679,-0.151009052992,-2.53513288498,-0.0125380130485,2.5352666378,-0.755865693092,0.0683688521385,0.000197276080144,-3.77391406801e-05,0.000459733069874,-0.000328132446157,-2.23638271564e-05,-8.03387811175e-05,-0.000176750210812,0.464490746386,-0.0015356104141,0.182425160825,0.00866644765073,0.92810418411,0.371623792816,0.0210540357181
0.1467307657,-0.0458919331431,-0.151008933783,-2.53512501717,-0.0125385969877,2.53526473045,-0.755867063999,0.0683688521385,0.000176395493327,-2.47341108661e-06,-9.05708147911e-05,0.0004268962075,-7.98049513833e-05,2.76044283964e-05,-0.000179293812835,0.464494138334,-0.0015333621941,0.182428389351,0.00866777537666,0.928102860641,0.371626895839,0.0210570585259
0.146758705378,-0.0458911582828,-0.151006862521,-2.53511667252,-0.0125392954797,2.53526544571,-0.755864739418,0.0683688521385,0.000180186601938,-0.00358598562889,-0.000240977489739,0.000106016887003,6.80044031469e-05,-4.02379155275e-05,-0.000121596633107,0.46449814638,-0.00151952909825,0.182431417973,0.00866928043827,0.928097533532,0.371639944813,0.0210609338065
0.146769210696,-0.0458895862103,-0.151006624103,-2.53511595726,-0.0125382868573,2.53526544571,-0.755864739418,0.0683688521385,-0.000284421723336,0.000206899581826,-0.000216430737055,0.000244148133788,-3.53830764652e-05,0.000107521504106,1.22227456814e-05,0.464498264595,-0.00151452540703,0.182430980202,0.00866884856318,0.92809569753,0.371644555713,0.0210606548713
0.146782010794,-0.045890301466,-0.151005744934,-2.53511357307,-0.0125386938453,2.53526544571,-0.755866646767,0.0683688521385,-5.27296142536e-05,-4.41842275904e-05,0.000172062995262,-0.000179515001946,0.000154874578584,-3.33383468387e-06,-0.000312251795549,0.464499513312,-0.00150819453738,0.182432256633,0.00866938626109,0.928092710806,0.371651919296,0.0210621095513
0.146813869476,-0.0458898358047,-0.151005834341,-2.53511309624,-0.0125386491418,2.53526592255,-0.755865097046,0.0683688521385,0.000367468834156,7.81342168921e-05,-0.000392261135858,-0.000706950493623,-1.57603408297e-05,-0.000118508687592,-8.04951196187e-06,0.464499787567,-0.00149323976018,0.18243216399,0.0086691712136,0.928086971883,0.371666232239,0.0210625162202
0.146835327148,-0.045890789479,-0.151006609201,-2.53511476517,-0.0125397732481,2.53526473045,-0.755864679813,0.0683688521385,5.39997090527e-05,0.000175217821379,-0.000346456828993,0.000417985807871,-2.42519054154e-05,0.000154536784976,4.27730519732e-05,0.464498950079,-0.00148386559171,0.182431935491,0.00866879113967,0.928083180668,0.371675760715,0.0210615859427
0.146846756339,-0.0458901450038,-0.151005730033,-2.5351126194,-0.0125390561298,2.53526568413,-0.755864977837,0.0683688521385,-0.000106574269012,0.000180887946044,0.000117461386253,0.000658408156596,3.04575132759e-05,0.000120738091937,0.00027621287154,0.464500086233,-0.0014781399892,0.182432586215,0.00866899075213,0.928080921974,0.371681325245,0.0210628349406
0.146863505244,-0.0458898171782,-0.151006564498,-2.53511357307,-0.0125382132828,2.53526568413,-0.755865097046,0.0683688521385,-5.10772633788e-06,-4.44054603577e-06,-0.000191431638086,-0.000516595086083,7.12715773261e-05,-0.00010834200657,0.000240553825279,0.464499611566,-0.00147070021259,0.182432054916,0.00866835801007,0.928078081106,0.371688458298,0.0210623975761
0.146881222725,-0.0458891913295,-0.151007458568,-2.53511595726,-0.0125391008332,2.53526616096,-0.75586605072,0.0683688521385,0.00196894071996,0.000561188382562,0.000208985598874,0.000259914289927,1.82768781087e-05,4.7072826419e-05,-3.26088556903e-05,0.464498524313,-0.00146292795357,0.182430866222,0.008667980951,0.928074667017,0.371697060219,0.0210611883721
0.146886721253,-0.0458909347653,-0.151008009911,-2.53511309624,-0.0125388959423,2.53526759148,-0.755865693092,0.0683688521385,0.000278904248262,-0.00062598491786,0.000299370702123,-0.000361261656508,8.84877008502e-05,-0.000172562387888,0.000126036902657,0.464500442413,-0.00146058799776,0.182432939345,0.00866885785585,0.928073786126,0.371699075652,0.0210640749126
0.146894305944,-0.0458924397826,-0.151007309556,-2.5351126194,-0.0125383483246,2.53526592255,-0.755865573883,0.0683688521385,0.000317143014399,-0.000290396710625,-0.000291557691526,-0.00027629712713,-0.000181959025213,-3.05442117678e-05,-0.000610019371379,0.464500544874,-0.00145668727124,0.182433658452,0.00866859358373,0.928072349423,0.371702653818,0.0210643430856
0.146904483438,-0.0458925142884,-0.151004433632,-2.53511047363,-0.0125397071242,2.53526616096,-0.755864739418,0.0683688521385,-0.000618137477431,-0.000592634023633,-0.000567359325942,0.00033712995355,0.000145028287079,-0.000120385520859,0.000141821612488,0.464501637923,-0.00145072420351,0.182434575824,0.00866933858088,0.928069850771,0.371708816145,0.0210653825653
0.146915659308,-0.0458887591958,-0.151006042957,-2.53510904312,-0.0125385727733,2.53526568413,-0.755864500999,0.0683695077896,0.000387196487281,0.000656151794828,1.38174129916e-06,-0.000555638980586,-6.50556467008e-06,-3.77833862331e-06,0.000261096400209,0.464501660385,-0.00144629918476,0.182433366392,0.00866863487722,0.928068316376,0.371712732218,0.0210641710066
0.146919116378,-0.0458852350712,-0.151008024812,-2.53510975838,-0.0125395758078,2.53526711464,-0.755862534046,0.0683695077896,-0.000201739167096,0.000683305959683,-0.000811709498521,0.000261773820966,-1.04384014321e-06,-0.000196906446945,0.000409467931604,0.464501107003,-0.0014457245233,0.182431598024,0.00866854797907,0.928068282937,0.371712900591,0.021062708751
0.1469193995,-0.0458826385438,-0.151006564498,-2.53510785103,-0.012538545765,2.5352666378,-0.755864500999,0.0683695077896,-3.46996894223e-05,0.000796723063104,-7.98013497842e-05,0.000477701309137,1.79845428647e-05,-3.46173801518e-05,-0.00024252901494,0.464501517917,-0.00144493795115,0.182431119504,0.00866827079252,0.92806776096,0.37171423853,0.0210622103742
0.146925225854,-0.0458883605897,-0.15100646019,-2.53510737419,-0.0125384368002,2.53526687622,-0.755865514278,0.0683695077896,0.000507378019392,0.000197146699065,0.000118437041237,-7.03512268956e-05,-7.24148037534e-07,-2.36026698985e-05,-0.000104701925011,0.464502654121,-0.00144205392326,0.18243396025,0.00866898799133,0.928066423817,0.371717381957,0.0210653569895
0.146932557225,-0.0458869077265,-0.151007354259,-2.53510403633,-0.0125399008393,2.53526854515,-0.755864679813,0.0683695077896,0.000308388756821,0.00373069779016,-0.0011923967395,-0.000209683363209,-6.78551150486e-05,-3.40387268807e-05,8.96151832421e-05,0.464504405558,-0.0014396111163,0.182434898,0.00866990121697,0.928065299781,0.371720081321,0.0210668693106
0.146935090423,-0.0458851605654,-0.151006564498,-2.53510928154,-0.0125387497246,2.53526759148,-0.755864977837,0.0683695077896,-0.000276246806607,2.32124803006e-05,9.27573200897e-05,3.50473674189e-05,-4.72306383017e-05,-9.88831525319e-05,-0.000142635573866,0.464501448758,-0.00143759675117,0.18243180412,0.00866836474493,0.928064703796,0.371721809581,0.0210632615335
0.14693890512,-0.0458881221712,-0.151007041335,-2.53510260582,-0.0125394165516,2.5352666378,-0.755863010883,0.0683695077896,0.000304523127852,0.000525841896888,-1.7912912881e-05,0.000321769621223,4.60349219793e-05,-5.53766658413e-05,5.59260515729e-05,0.464504826954,-0.0014360443693,0.182435715836,0.008669902829,0.928064268038,0.371722632555,0.0210673041914
0.146940872073,-0.0458896644413,-0.151006877422,-2.53510093689,-0.0125391613692,2.5352678299,-0.755864500999,0.0683688521385,-4.28456769441e-05,0.000373030459741,0.00250242627226,-0.000242358699325,2.18404238694e-05,9.3846458185e-05,3.97925650759e-05,0.464506100157,-0.00143501437907,0.182437202971,0.00867054019683,0.928063590163,0.371724190686,0.0210694111964
0.146943613887,-0.045885078609,-0.151007831097,-2.53510093689,-0.0125389555469,2.53526854515,-0.755864679813,0.0683688521385,0.000104364735307,-0.000190138161997,-8.9553745056e-05,-0.000316050980473,3.07778936985e-05,-0.000123833378893,0.000195681452169,0.464505572283,-0.00143426610674,0.182435163711,0.00867004496031,0.928063292875,0.371725050044,0.0210675483199
0.146945521235,-0.0458833947778,-0.151007220149,-2.53510522842,-0.0125396633521,2.53526711464,-0.755865335464,0.0683688521385,0.000515173713211,4.27146005677e-05,-0.000234817183809,-9.49161840254e-05,-5.72318422201e-05,-7.48819220462e-05,-0.000170953746419,0.464503001843,-0.00143315743148,0.182432551083,0.00866896998715,0.928062667912,0.371726836245,0.0210640045346
0.146950542927,-0.0458852425218,-0.151006907225,-2.53510427475,-0.0125406682491,2.53526759148,-0.75586360693,0.0683688521385,0.000374188326532,-0.000293566379696,-0.0014427176211,0.000402574747568,6.00314451731e-05,-0.000147595303133,-4.83859475935e-05,0.464505532292,-0.00142986963251,0.182435887027,0.00866998758753,0.928061568761,0.371729315898,0.0210682531448
0.146955624223,-0.0458908714354,-0.15100723505,-2.53509902954,-0.0125404782593,2.53526711464,-0.75586438179,0.0683695077896,0.000294818455586,-0.000263162713964,-0.000817459716927,0.000138691088068,2.70271925729e-06,5.98409969825e-05,0.000117032883281,0.464507043369,-0.00142837761346,0.182438442333,0.0086711068608,0.928060716966,0.371731290632,0.0210704717649
0.146960452199,-0.0458884127438,-0.151007652283,-2.53509902954,-0.0125388773158,2.53526902199,-0.755866110325,0.0683695077896,2.82789715129e-05,0.00101539038587,0.000785435026046,-0.000513038889039,-4.27666745964e-05,7.42033444112e-05,3.96586729039e-05,0.464507092159,-0.00142629330099,0.182437498389,0.00867069518691,0.928059820486,0.371733545272,0.0210703499858
0.146965160966,-0.045882537961,-0.151007309556,-2.53510427475,-0.0125394966453,2.53526735306,-0.755863845348,0.0683695077896,3.40155966114e-05,-0.000369053712348,2.54285296251e-05,-0.000425056176027,7.09862360964e-05,2.45941337198e-05,0.000336681259796,0.464503638843,-0.00142429673543,0.182432790178,0.00866903614466,0.928059310339,0.371735190705,0.0210644720211
0.146965011954,-0.0458820015192,-0.15100812912,-2.5351023674,-0.0125394277275,2.5352678299,-0.755864918232,0.0683695077896,-0.000331771472702,-0.000319393526297,-0.000210748345125,0.000235449391766,3.89763663406e-05,1.39595895234e-05,2.34910621657e-05,0.464504318081,-0.00142454992031,0.182433112423,0.00866919165282,0.928059306774,0.371735160519,0.0210650977813
0.146968364716,-0.0458855181932,-0.151006728411,-2.53510117531,-0.012538655661,2.53526830673,-0.755864322186,0.0683695077896,0.00148182339035,-0.000184821197763,-0.0026991609484,-2.11090882658e-05,2.25497478823e-05,3.61324600817e-05,-0.000327318091877,0.464505665329,-0.00142217310477,0.182435471101,0.00866975346008,0.928058579553,0.37173680287,0.0210679227219
0.146970734,-0.045888569206,-0.151005923748,-2.53509831429,-0.0125385411084,2.53526687622,-0.755862832069,0.0683695077896,4.84558586322e-05,0.000474032509374,0.00251759658568,-0.000100778874184,7.16853464837e-05,3.42319094671e-06,5.68402210774e-05,0.464507009517,-0.00142071218954,0.182437649245,0.00867024033403,0.92805826259,0.371737473447,0.0210698526488
0.146978750825,-0.0458835437894,-0.151006162167,-2.53510189056,-0.0125382877886,2.53526687622,-0.75586348772,0.0683695077896,0.000657152442727,-0.000198449022719,0.00283544813283,-2.11760507227e-05,5.07863005623e-05,-8.39126732899e-05,5.21151596331e-05,0.464504591015,-0.00141717854733,0.182433922668,0.00866883675322,0.928056815396,0.371741348151,0.0210658117673
0.146982520819,-0.0458855815232,-0.151006162167,-2.53510308266,-0.0125395301729,2.53526639938,-0.755864739418,0.0683695077896,0.000583081389777,0.000736023299396,0.00229346542619,-0.000361129903467,0.000101899662695,-9.90773842204e-05,-0.00014027384168,0.464504237607,-0.00141544286825,0.182434339388,0.00866907542165,0.928055691309,0.37174414356,0.0210659054586
0.146988064051,-0.0458872541785,-0.151005804539,-2.53510022163,-0.0125389872119,2.53526830673,-0.755863785744,0.0683695077896,0.000462878175313,-0.000510155397933,8.77502316143e-05,5.92449941905e-05,4.8466019507e-05,3.03420601995e-05,-0.000127079445519,0.464506249472,-0.00141264951564,0.182436429584,0.0086699426581,0.928054790236,0.371746196466,0.0210690177827
0.146994650364,-0.0458856187761,-0.151007115841,-2.53509783745,-0.0125382784754,2.53526830673,-0.755865216255,0.0683695077896,-0.000158206094056,7.84303701948e-05,-4.64415461465e-05,-0.000126142607769,5.63859202884e-06,-4.51225387224e-05,-0.000103407117422,0.464507132272,-0.00141019935078,0.182436619382,0.00866993692703,0.928053644465,0.371749033772,0.0210694271733
0.147001087666,-0.045884296298,-0.151007145643,-2.5350985527,-0.0125400675461,2.53526926041,-0.755864262581,0.0683695077896,0.000189153928659,-0.000301291613141,0.000415276910644,-6.19475895292e-06,-5.32991361979e-05,2.92934473691e-05,0.000273120182101,0.464506813539,-0.00140734129363,0.182435821763,0.00867023542314,0.928052371044,0.371752245033,0.0210687354774
0.147003486753,-0.0458856746554,-0.15100671351,-2.53510165215,-0.0125382337719,2.53526759148,-0.755864858627,0.0683695077896,0.00186891504563,-0.0006689982838,0.000163951088325,-4.14303249272e-05,5.33860984433e-05,0.000139777039294,0.000408146734117,0.464505207611,-0.00140589092465,0.182435064116,0.00866899201325,0.9280520428,0.371753169224,0.0210673986962
0.147004276514,-0.045887786895,-0.151006922126,-2.53510332108,-0.0125393038616,2.53526973724,-0.75586348772,0.0683695077896,-0.000128672720166,0.000710510474164,9.47561347857e-05,0.00035710807424,9.26807842916e-05,-0.000126520302729,-6.90132583259e-05,0.464505572234,-0.00140560787823,0.182435861495,0.008669673145,0.928052015887,0.371753140724,0.0210688068164
0.147009566426,-0.0458862669766,-0.15100646019,-2.53510022163,-0.0125404726714,2.53526949883,-0.755863904953,0.0683695077896,-0.000431546824984,-0.000324284861563,-0.000128988365759,-0.000218329791096,6.62149832351e-05,4.34549801867e-05,0.00020209417562,0.464506387615,-0.00140305936293,0.182436090825,0.00867022004526,0.928050666757,0.37175648356,0.0210690253922
0.147029429674,-0.0458840318024,-0.151006519794,-2.53510022163,-0.0125378966331,2.53527379036,-0.75586605072,0.0683695077896,0.000546894327272,-0.00191728258505,0.000181569688721,-7.35688372515e-05,-0.000121748060337,1.5127124243e-05,0.000610238639638,0.464507003161,-0.00139376815249,0.182435484018,0.00866985394705,0.928046950513,0.37176569753,0.021070289498
0.147033601999,-0.0458832494915,-0.151008293033,-2.53510332108,-0.0125390989706,2.53527545929,-0.755865335464,0.0683695077896,-0.000183826414286,0.000434561370639,-2.32593652072e-06,0.000119131589599,0.000260623375652,-0.000136641014251,-0.000351879105438,0.464505790368,-0.00139270477605,0.18243405381,0.00866974362599,0.928046475404,0.371766951114,0.0210691428016
0.147039741278,-0.0458850711584,-0.151006355882,-2.53509998322,-0.0125392088667,2.53527402878,-0.755865573883,0.0683695077896,0.000352232134901,-0.000425870792242,-0.00010724436288,0.00014938665845,0.000132977831527,-1.84452449048e-06,0.000118457530334,0.464507336378,-0.00138895008914,0.182436079806,0.00867031026175,0.928044879588,0.371770820734,0.0210709213153
0.147043019533,-0.0458873622119,-0.151008531451,-2.53509736061,-0.0125384973362,2.53527617455,-0.755864679813,0.0683695077896,-4.51399464509e-05,-0.000341258884873,0.000157318849233,9.25196800381e-05,2.80556596408e-05,-6.95005564921e-06,3.14737990266e-05,0.46450937006,-0.00138834295806,0.182438374796,0.00867119645581,0.928044878435,0.37177060886,0.0210743454143
0.14704798162,-0.0458868704736,-0.151007816195,-2.53509783745,-0.0125395115465,2.53527736664,-0.755865216255,0.0683695077896,0.00179961370304,0.00017631566152,0.000102067446278,0.000389202527003,1.15798220577e-05,-0.000127774954308,-3.09473471134e-05,0.464509337664,-0.00138577127227,0.182438078923,0.00867150753636,0.928043567306,0.371773874334,0.0210743490156
0.147052928805,-0.0458828024566,-0.151006326079,-2.53509998322,-0.0125390402973,2.53527593613,-0.755864799023,0.0683695077896,0.000239508794039,-0.000754810287617,0.000174399465322,-0.000162749318406,-5.24900642631e-05,-2.73461819233e-06,-0.000171123392647,0.464507426394,-0.0013828493042,0.182435224599,0.0086702035168,0.928042593961,0.37177653652,0.0210707840655
0.147058919072,-0.045883782208,-0.151007294655,-2.53509998322,-0.012538375333,2.53527712822,-0.755864202976,0.0683695077896,0.00067692308221,0.000376140204025,0.000283551547909,0.000130972373881,-4.777166032e-05,9.66848165262e-05,0.00306284893304,0.464507834075,-0.00138045142434,0.18243578817,0.00867027241102,0.928041849114,0.371778330057,0.0210719162111
0.147065520287,-0.0458861514926,-0.151007026434,-2.53510046005,-0.0125393560156,2.53527832031,-0.755865097046,0.0683695077896,-0.000285322166746,0.000174598637386,-0.000226576943533,4.33320601587e-05,0.000163969831192,8.8204498752e-05,8.62007000251e-05,0.46450822893,-0.00137725785634,0.182436804917,0.00867088711132,0.928040226953,0.371782285372,0.0210733206009
0.147084608674,-0.0458859018981,-0.151007562876,-2.53509736061,-0.0125380167738,2.53527927399,-0.755865156651,0.0683695077896,-0.000328924186761,0.00124871043954,0.000664761813823,-0.000266177172307,-2.97727910947e-05,-0.000162432887009,-0.00114057387691,0.464509877685,-0.00136858425033,0.182438010543,0.00867104110296,0.928036932265,0.3717903933,0.0210753062016
0.147089079022,-0.0458846390247,-0.151007369161,-2.53509807587,-0.0125393643975,2.53527927399,-0.755865335464,0.0664927512407,-0.000273483747151,0.000453575659776,-0.000246266805334,7.47990125092e-05,7.69370599301e-05,3.8822156057e-05,-0.000105929291749,0.464509360465,-0.00136651453402,0.182437147641,0.00867108644139,0.928035848236,0.371793158894,0.0210742338448
0.147092223167,-0.0458826087415,-0.151008948684,-2.53509831429,-0.0125398933887,2.53528046608,-0.755865335464,0.0664927512407,-6.10818387941e-05,0.000490764214192,-0.000496552849654,-4.36298723798e-05,4.42645869043e-05,1.06457746369e-05,0.000413827830926,0.464509202758,-0.00136584600773,0.182436232312,0.00867111764124,0.928035487306,0.371794092245,0.0210736488186
0.147098734975,-0.0458865389228,-0.151005759835,-2.53509902954,-0.012539180927,2.53528094292,-0.75586605072,0.0664927512407,6.90544547979e-05,-0.000681581557728,0.00321635231376,2.72726392723e-05,6.53997558402e-05,7.62224153732e-05,1.36488652061e-05,0.464509118226,-0.00136188553841,0.182437094611,0.00867083879823,0.928033979956,0.371797818695,0.021074399148
0.147110775113,-0.0458863899112,-0.151007845998,-2.53509712219,-0.0125394789502,2.53528022766,-0.755865454674,0.0664927512407,-0.000207487886655,-0.00316481338814,0.000164254204719,0.000411709479522,-0.000124442318338,-9.03070613276e-05,0.000266046263278,0.464510256737,-0.00135680847412,0.18243839792,0.00867149813055,0.928031863056,0.371802991663,0.0210760847423
0.147114157677,-0.045884821564,-0.151006579399,-2.53509831429,-0.012538314797,2.53528237343,-0.755865454674,0.0664927512407,-6.902525638e-05,-0.000364123261534,0.000236956781009,5.68944924453e-05,-0.000157180344104,-7.06111823092e-05,0.000137672628625,0.464509976885,-0.00135443964896,0.182437442837,0.00867108903082,0.928031142438,0.371804811798,0.0210758745386
0.147116094828,-0.045882884413,-0.151008144021,-2.53509807587,-0.0125386398286,2.53528046608,-0.755865395069,0.0664927512407,4.84695046907e-05,0.000401439960115,-6.53723282085e-06,0.00017449639563,-2.35163042817e-05,-8.24217640911e-05,0.000227269236348,0.46450938983,-0.0013543187185,0.182436455955,0.00867060977159,0.928031072526,0.371805096309,0.021074130952
0.147121444345,-0.0458825454116,-0.151008114219,-2.53509950638,-0.0125396000221,2.53528165817,-0.755866706371,0.0664927512407,-0.00151251221541,0.00275640701875,0.000664375489578,0.000225078474614,-6.6307358793e-05,-2.99223247566e-05,-0.000261731998762,0.464508930685,-0.0013518699649,0.182435849996,0.0086707407656,0.928029688151,0.371808569011,0.0210737718395
0.147153556347,-0.0458853580058,-0.151004850864,-2.53509712219,-0.0125399325043,2.53528618813,-0.755865037441,0.0664927512407,0.000530313875061,5.90838353673e-05,9.69439788605e-05,8.87297501322e-05,-0.000112005873234,-1.31348206196e-05,0.000336984259775,0.464511699651,-0.00133590440593,0.18243879477,0.0086721334462,0.928023533034,0.371823610521,0.0210788656931
0.147159621119,-0.0458833277225,-0.15100581944,-2.53509783745,-0.0125384526327,2.53528594971,-0.75586616993,0.0661723017693,0.00199627340771,-0.000344883330399,-5.88325674471e-05,0.000359334662789,1.07364685391e-05,8.1961734395e-05,0.000104307211586,0.464510809456,-0.00133301125426,0.182437298247,0.00867123498846,0.928022367523,0.371826634226,0.0210772110346
0.147166833282,-0.0458845347166,-0.151008635759,-2.53509902954,-0.0125374579802,2.5352871418,-0.755866825581,0.0661723017693,1.78756890818e-05,0.00106406921986,0.000180568778887,-0.000531308411155,-0.000321107450873,7.05543498043e-05,-0.000116963172331,0.464510687669,-0.00133086286032,0.182437487731,0.00867099470005,0.928021564783,0.371828602093,0.0210779386532
0.147181466222,-0.0458853431046,-0.151007458568,-2.53509616852,-0.0125385047868,2.5352909565,-0.755865633488,0.0661723017693,0.00135319132823,-0.00015355317737,0.000364702165825,0.000263663387159,0.000107616535388,0.00484342547134,-0.000419048184995,0.464513160642,-0.00132314373595,0.18243962858,0.00867249692835,0.928018445419,0.371836139802,0.0210816882467
0.147187441587,-0.0458864234388,-0.151007369161,-2.53509521484,-0.0125392004848,2.53529334068,-0.755866587162,0.0661723017693,0.000986628932878,0.00418973527849,6.29489113635e-06,0.000330127717461,-0.000103984748421,0.000237759872107,0.00020536906959,0.464514123844,-0.00132076892437,0.182440478335,0.00867333597761,0.928017160082,0.371839230553,0.0210834091421
0.147197768092,-0.0458848103881,-0.151006922126,-2.5350933075,-0.0125400014222,2.53529381752,-0.755867302418,0.0661723017693,0.00105997349601,0.000226655436563,4.11050386901e-05,0.000378843804356,-9.7697819001e-05,-0.000174511034857,-5.72429162276e-05,0.464514897315,-0.00131585319748,0.18244054171,0.00867371751318,0.928014896561,0.371844855137,0.0210836851154
0.147206366062,-0.0458841435611,-0.151009112597,-2.53509783745,-0.0125390999019,2.53529334068,-0.755866229534,0.0661723017693,0.000791827216744,-0.000360562291462,0.000491418060847,4.49197705166e-06,6.02189311394e-06,-0.000157678616233,-0.000477983849123,0.464512572597,-0.00131280872738,0.182438385984,0.00867232830006,0.928014094151,0.371847032046,0.021081181695
0.147211119533,-0.0458845458925,-0.151008650661,-2.5350933075,-0.0125392284244,2.53529548645,-0.755867004395,0.0661723017693,0.00140336249024,-3.95357856178e-05,-0.000104307990114,0.000185785422218,0.000110427150503,-0.000260113942204,7.31896143407e-05,0.464515229594,-0.00131040442496,0.182440578066,0.00867361641046,0.928012892252,0.371849814714,0.0210844770938
0.147217124701,-0.0458867885172,-0.151008084416,-2.53508996964,-0.0125379171222,2.53529572487,-0.755867063999,0.0661723017693,0.000155903151608,0.00361765944399,-0.000277384795481,-0.000367177737644,4.10875236412e-06,8.90862356755e-05,-0.000430026237154,0.46451719219,-0.0013072522003,0.182442956403,0.00867413133441,0.92801180118,0.37185236038,0.0210873915079
0.147223800421,-0.0458843484521,-0.15100710094,-2.53509497643,-0.0125392870978,2.53529715538,-0.755866408348,0.0661723017693,6.70971421641e-05,-5.67504612263e-05,-0.000402710022172,-0.000170890896698,-5.20378453075e-05,0.0003598004987,0.000305355555611,0.464514794458,-0.00130380307574,0.182439994092,0.00867348002373,0.92801034793,0.371856170053,0.0210844339734
0.147233903408,-0.0458853729069,-0.151008605957,-2.53508520126,-0.0125394165516,2.53530287743,-0.755865395069,0.0661723017693,-6.18322592345e-05,-0.00076072482625,-0.00224694865756,-0.000140305244713,0.00539757311344,-6.00213934376e-05,0.00019325199537,0.464520779517,-0.00129981750292,0.182444895098,0.00867638076805,0.928008756705,0.371859635395,0.0210921583381
0.147248923779,-0.0458854846656,-0.151005879045,-2.5350933075,-0.0125403758138,2.53530240059,-0.755865931511,0.0661723017693,-0.000197522895178,0.00036000230466,-2.81943430309e-05,-0.000460120878415,-3.00220071949e-05,8.31111094612e-07,-0.000317153841024,0.464516910236,-0.0012916061445,0.182441694949,0.00867492708702,0.928005291826,0.371868541049,0.021088192066
0.14725792408,-0.0458845086396,-0.151008546352,-2.53508758545,-0.0125401243567,2.53530478477,-0.755866825581,0.0661723017693,0.000263411173364,-3.14082499244e-05,-0.000376634590793,0.000320234335959,-2.24055329454e-05,5.21633737662e-05,-0.000478181609651,0.464519971412,-0.00128867509142,0.182443739914,0.00867613840487,0.928003917178,0.371871753227,0.0210915423936
0.147264733911,-0.045886144042,-0.151007637382,-2.5350818634,-0.0125394798815,2.5353076458,-0.755865693092,0.0661723017693,3.49502624886e-06,0.000533988990355,3.29235881509e-05,0.00100467645098,3.50867230736e-05,0.000227983022342,-0.000222691174713,0.464523775397,-0.00128471900163,0.182447162652,0.00867772872387,0.928002572147,0.371874781233,0.0210966793374
0.147275462747,-0.0458856932819,-0.151007652283,-2.53508353233,-0.0125381257385,2.53530740738,-0.755866706371,0.0661723017693,0.00188298104331,0.00297247106209,0.00017442603712,-0.0003268464352,-2.73846526397e-05,-0.000161513351486,-0.000169412858668,0.464522269694,-0.00127973927787,0.18244589456,0.00867661991859,0.928000555943,0.371879926752,0.0210951226358
0.147313818336,-0.0458870120347,-0.151007518172,-2.53507447243,-0.0125388931483,2.53531312943,-0.755865693092,0.0568095482886,0.000166951183928,-0.0001093846804,0.000471284962259,-0.000521526962984,9.50191315496e-06,0.000830052187666,4.31341049989e-07,0.464528286637,-0.00126198313494,0.182450876355,0.0086795304573,0.92799340041,0.371897255786,0.0211032075667
0.147318467498,-0.0458865761757,-0.151008963585,-2.53507614136,-0.0125401811674,2.5353140831,-0.755867242813,0.0568095482886,-0.000213395134779,-0.00215500988998,0.000112546294986,-0.000271657801932,0.000140023621498,2.32083002629e-05,-7.93655926827e-05,0.464527628199,-0.00126064787584,0.182450069807,0.00867954874767,0.927992402004,0.371899794913,0.0211023573316
0.147326797247,-0.0458867549896,-0.151008024812,-2.53507137299,-0.0125384256244,2.53531646729,-0.755866110325,0.0568095482886,0.00155645702034,-0.00365072558634,0.000104385566374,-0.000255322695011,6.13236943536e-06,5.02372931805e-05,7.48451782329e-07,0.464530522185,-0.00125635912848,0.18245234411,0.00868038550625,0.927991105319,0.371902800557,0.0211060649455
0.147331133485,-0.0458860844374,-0.151008248329,-2.53506970406,-0.0125391483307,2.53531837463,-0.755865931511,0.0542643070221,3.6110264773e-05,0.00178920768667,-0.000160271883942,0.000232477061218,-3.00625688396e-05,8.14580271253e-05,0.000215410240344,0.464531621431,-0.00125450430288,0.182452883789,0.00868111752655,0.927990235812,0.371904880669,0.0211073412599
0.147336393595,-0.0458865873516,-0.151006534696,-2.53506875038,-0.0125390086323,2.53531885147,-0.755865693092,0.0542643070221,0.000263386988081,0.000228090328164,0.000293402961688,-0.000308438378852,1.98866418941e-05,0.000274100602837,-0.000264311325736,0.464532257328,-0.00125126236666,0.182453544995,0.008681365856,0.927988985388,0.371907941298,0.0211082867175
0.147343114018,-0.0458868443966,-0.151008158922,-2.53506851196,-0.0125402342528,2.53531837463,-0.755866527557,0.0542643070221,-8.96893761819e-05,0.00235333526507,-0.000142017306644,-0.000107033134555,-1.9153329049e-05,-0.00496935751289,-0.00030012417119,0.46453231039,-0.00124894349771,0.182453705767,0.00868160740869,0.927987698578,0.371911151694,0.0211081953484
0.14735467732,-0.0458851531148,-0.151008754969,-2.53506612778,-0.0125392293558,2.53532338142,-0.755866587162,0.0542643070221,0.00210659299046,0.00415369914845,-0.000217195658479,0.000227915094001,-4.19093048549e-05,8.86544439709e-05,0.000401381519623,0.464534266918,-0.00124383228348,0.182454362361,0.00868237137374,0.927985740405,0.371915862599,0.0211109654843
0.147359505296,-0.0458855926991,-0.151009082794,-2.53506350517,-0.0125407595187,2.5353243351,-0.755866229534,0.0542643070221,0.000105074250314,7.76189845055e-05,-0.000369350542314,-0.000556542596314,0.000136227012263,-0.00519028492272,-8.49802818266e-05,0.464535775448,-0.0012418200677,0.18245569636,0.00868344915544,0.927984700982,0.371918332722,0.0211126957947
0.147362098098,-0.0458877719939,-0.151007428765,-2.53504872322,-0.0125379245728,2.5353269577,-0.75586527586,0.0542643070221,-0.000573449186049,8.63307504915e-05,0.000422359385993,0.00176563696004,-8.29571308714e-06,-0.000117138806672,-2.16349981201e-05,0.464543615833,-0.00123972329628,0.182462819553,0.00868616107071,0.927984328442,0.371918662498,0.0211221434148
0.147366479039,-0.0458868928254,-0.15100748837,-2.53505063057,-0.0125389359891,2.53532576561,-0.75586527586,0.0542643070221,0.00110934895929,-0.000616425997578,3.63212166121e-05,-0.000313051044941,-6.21643193881e-05,-0.000225653668167,0.000155988527695,0.464542338214,-0.00123778131238,0.182461542692,0.00868571316577,0.927983411699,0.371921071401,0.0211201877233
0.147370532155,-0.0458864346147,-0.15100646019,-2.53505349159,-0.0125399930403,2.53532791138,-0.755866229534,0.0542643070221,0.000102652629721,-0.000743084819987,0.000304855289869,0.000290811847663,-4.25636753789e-05,5.43490350537e-05,0.00043316866504,0.464540975568,-0.00123572551556,0.182460280548,0.00868546229779,0.92798237603,0.371923720142,0.0211191524937
0.147375240922,-0.0458883233368,-0.151006549597,-2.53504657745,-0.0125383781269,2.53532838821,-0.755866706371,0.0542643070221,0.000768352940213,0.000224781993893,-0.000281357642962,7.39435126889e-05,-2.7171068723e-05,-9.02177707758e-05,-0.000133500012453,0.464545031894,-0.00123323479506,0.18246406637,0.00868690005706,0.927981345951,0.3719259773,0.021124072226
0.147379904985,-0.0458880700171,-0.151008427143,-2.5350446701,-0.0125403376296,2.53532886505,-0.755865752697,0.0542643070221,-0.000310611940222,-8.87929491e-05,7.0544956543e-05,-0.000699644675478,6.96887655067e-05,0.000231720361626,-0.00400721468031,0.464545995111,-0.00123204263371,0.182464746967,0.00868777085108,0.927980690024,0.371927548255,0.0211248695201
0.147383987904,-0.0458858311176,-0.151006579399,-2.53504109383,-0.0125395078212,2.53532958031,-0.755866348743,0.0520434603095,-0.000311477429932,-0.00027810537722,0.000119064941828,-0.000316957652103,-6.2033017457e-05,1.2509993212e-05,-0.000281653163256,0.464547504848,-0.00122932160869,0.182465212289,0.00868807119472,0.927979582134,0.371930248468,0.0211258732475
0.14738611877,-0.0458872877061,-0.151008337736,-2.53503870964,-0.0125396996737,2.53533029556,-0.755865812302,0.0520434603095,0.000233086320804,-0.000139529132866,0.000150512176333,-0.000290294323349,4.67246791231e-05,-3.97423391405e-05,0.000437832903117,0.464548994496,-0.00122912290551,0.182466891007,0.0086888217777,0.927979539789,0.371930215125,0.0211280114836
0.147391632199,-0.0458869934082,-0.151006743312,-2.53503584862,-0.012540445663,2.53533649445,-0.755866885185,0.0520434603095,1.19301967061e-05,-0.00050738157006,0.00065701128915,0.00138541380875,-9.2750058684e-05,-3.28859023284e-05,-0.000202805284061,0.464551636956,-0.00122588165723,0.182468502148,0.0086906345707,0.927977816225,0.371934245662,0.0211320148866
0.147392049432,-0.0458868220448,-0.15100826323,-2.53501558304,-0.0125381853431,2.53533649445,-0.755866825581,0.0520434603095,0.000180748582352,0.000291863485472,-0.000273341109278,0.00218383711763,7.8860524809e-05,0.00172784598544,0.00018342101248,0.464561131192,-0.00122635637672,0.182476453078,0.00869377568303,0.927978185868,0.371932707098,0.0211415678664
0.147397696972,-0.0458862259984,-0.15100812912,-2.53501582146,-0.0125381695107,2.53532910347,-0.755865991116,0.0520434603095,-9.7518095572e-05,0.00447410950437,-0.000125624123029,-0.000771269376855,-0.000657588941976,0.00190174253657,-0.000205643067602,0.464558950892,-0.00122353725153,0.182474538529,0.00869241191677,0.927977118057,0.371935627665,0.0211376180193
0.147395849228,-0.0458869002759,-0.151007279754,-2.53500986099,-0.0125385969877,2.53534150124,-0.755866408348,0.0520434603095,-0.000329638685798,-0.00333658722229,-0.000183904077858,0.00127797329333,0.000357500248356,-0.000223438080866,-4.17335322709e-05,0.464564913949,-0.00122417891689,0.182479251037,0.00869585399237,0.927977204456,0.371934823398,0.0211465590663
0.147403180599,-0.0458862930536,-0.151007473469,-2.53498983383,-0.0125397201627,2.53534007072,-0.755866646767,0.0520434603095,-0.000492973427754,-0.00280474638566,2.42133119173e-05,-0.000336310040439,0.000110186294478,-0.000345660664607,-0.000396450108383,0.464573910377,-0.00122075888199,0.182486805725,0.00869954998134,0.927975414414,0.371938729174,0.0211548930074
0.147404611111,-0.0458874329925,-0.151006519794,-2.53497934341,-0.0125399967656,2.53534007072,-0.755865454674,0.0520434603095,-0.000203272284125,0.000360353733413,-0.00043103916687,0.000855323218275,-5.36715924682e-05,-4.09701760873e-06,3.51953895006e-05,0.464579039706,-0.00121995763694,0.182491457731,0.00870166957422,0.927975126314,0.371939097521,0.0211601821354
0.147403657436,-0.0458867549896,-0.151007935405,-2.53496456146,-0.0125395599753,2.53534078598,-0.755866527557,0.0520434603095,-0.000400979741244,0.00318887317553,-0.000456312176539,0.000126940576592,0.000177518071723,-1.78868649527e-05,8.9754772489e-05,0.464586034058,-0.00122110341019,0.182497072695,0.00870438078287,0.927975294597,0.371938222105,0.0211670733337
0.147403478622,-0.0458846502006,-0.151007086039,-2.53495383263,-0.0125386994332,2.53534030914,-0.755866646767,0.0520434603095,-0.000229375335039,-0.00118854234461,0.000271790369879,-0.000360147241736,-0.000201640446903,0.00014849366562,-6.40055150143e-05,0.464590661234,-0.0012208469058,0.182500315727,0.00870584045868,0.92797520301,0.371938199259,0.0211708893758
0.147406890988,-0.0458850339055,-0.151009052992,-2.53494262695,-0.0125380922109,2.5353410244,-0.755865752697,0.0494804903865,-0.000339574646205,0.000396159099182,-6.94022892276e-05,-0.000475034117699,2.54750466411e-05,-1.03459879028e-05,-0.000468973419629,0.464596137061,-0.00122016839928,0.182504998802,0.00870788342386,0.927975076167,0.371938137887,0.0211766864192
0.147411122918,-0.0458861403167,-0.151006564498,-2.534938097,-0.0125403227285,2.53534245491,-0.755866706371,0.0494804903865,-6.2144419644e-05,-0.000576983380597,-0.000357829587301,0.000774265616201,-2.79427949863e-05,3.03173947032e-05,-0.000203114934266,0.46459874903,-0.0012171745038,0.182507451316,0.00870972832005,0.927973244751,0.371942488977,0.0211797600458
0.14741422236,-0.0458888784051,-0.151006922126,-2.53493332863,-0.0125387897715,2.53533959389,-0.755866587162,0.0494804903865,0.000351294263965,0.000129702471895,-0.000510204408783,0.00126930547412,2.64764694293e-05,-3.64035840903e-05,0.000500146299601,0.464600785333,-0.00121578205018,0.18251031845,0.0087099587899,0.927972946965,0.371943090472,0.0211821493981
0.147419095039,-0.0458875186741,-0.151007756591,-2.53493332863,-0.0125387432054,2.53534221649,-0.755866587162,0.0494804903865,-0.000538903346751,-0.00376971322112,0.000229779747315,0.000308517395752,0.000208465033211,-1.57520098583e-05,-9.84425787465e-05,0.464601150138,-0.00121392353786,0.182509947998,0.00871020693991,0.927972188368,0.371944943939,0.0211827352655
0.147419854999,-0.045887440443,-0.151008069515,-2.53493261337,-0.0125399297103,2.53534245491,-0.755866706371,0.0494804903865,0.000603678112384,-0.000342287967214,0.000213958948734,8.25116439955e-05,-0.000109554639494,-4.88439982291e-05,0.000345422624378,0.464601610257,-0.00121364517328,0.182510340681,0.0087108344416,0.927971811219,0.371945843677,0.021183200922
0.14742167294,-0.0458854287863,-0.151009574533,-2.53492736816,-0.0125398086384,2.53534412384,-0.755866646767,0.0494804903865,-0.000165693811141,0.000199199726922,0.00320381298661,0.000413866655435,-5.82600769121e-05,-8.13377664599e-06,0.000373421469703,0.464604048843,-0.00121368236318,0.182511532366,0.00871167590503,0.927971820328,0.371945683645,0.0211852656608
0.147425442934,-0.0458872579038,-0.151006698608,-2.5349187851,-0.0125401113182,2.53534340858,-0.755865097046,0.0494804903865,0.00019916058227,-0.000483021547552,2.73666373687e-05,0.000392802729039,9.44819330471e-05,0.000251793739153,-2.40922163357e-05,0.46460821169,-0.00121062948447,0.182515715064,0.00871342755553,0.927970736425,0.371948089311,0.0211897867268
0.147428795695,-0.0458862259984,-0.151007607579,-2.53490662575,-0.0125387860462,2.53534793854,-0.755867660046,0.0494804903865,-0.000326968263835,-0.000813304039184,8.19514971226e-05,0.00137543992605,-2.53713551501e-05,-0.000136557326186,-7.73267529439e-05,0.464614745901,-0.00120948685263,0.182520503146,0.00871603633257,0.92796985307,0.371949811195,0.0211971729267
0.14743065834,-0.0458945594728,-0.151008859277,-2.53489565849,-0.0125397862867,2.5353500843,-0.75586694479,0.0484711937606,1.73684511537e-05,-0.00039300636854,0.000280364532955,0.000840988126583,2.85671922029e-05,7.75219668867e-05,6.1149818066e-05,0.464621600138,-0.00120910658976,0.182528886571,0.00871968349858,0.92796951466,0.371949997907,0.0212072092284
0.147430449724,-0.0458926260471,-0.151007175446,-2.53489351273,-0.0125393010676,2.53534841537,-0.755865633488,0.0484711937606,-0.000188992678886,0.000129724183353,0.000119311916933,-0.000159755407367,-6.46342741675e-05,2.65172657237e-05,-0.000117360934382,0.464621965563,-0.00120846255705,0.182528691092,0.0087194321234,0.927969573955,0.371949893889,0.0212065423339
0.147429361939,-0.0458932518959,-0.151010036469,-2.53489136696,-0.0125400247052,2.53535079956,-0.755867063999,0.0484711937606,-0.000138885210617,7.08410289008e-06,0.000116414877994,2.45151095442e-05,-3.3989923395e-05,1.47719738379e-05,0.000266650196863,0.464623571487,-0.00121030626558,0.182530053912,0.00872053463603,0.927969881878,0.371948967452,0.021208863663
0.147429481149,-0.0458901971579,-0.151009842753,-2.53488993645,-0.0125400330871,2.5353512764,-0.755866408348,0.0484711937606,-0.000346819258993,0.000225794763537,-4.8604382755e-05,0.000158961542184,-0.00018650473794,-0.0036064540036,-0.000308348593535,0.464623891954,-0.00121023576428,0.182529265115,0.00872053288049,0.927969955966,0.371948816781,0.0212082651079
0.147430673242,-0.0458948686719,-0.151007771492,-2.53487873077,-0.0125406542793,2.53535485268,-0.755866706371,0.0484711937606,-9.21726314118e-05,-0.000300353975035,0.000156905181939,0.000662496604491,-5.58657666261e-05,0.000157531292643,8.10775673017e-05,0.464630626648,-0.00120870742225,0.182536211626,0.00872401540531,0.927969011049,0.371950575758,0.0212173269796
0.147438630462,-0.0458953268826,-0.151008859277,-2.53485846519,-0.0125396493822,2.5353577137,-0.755866587162,0.0484711937606,-0.000521395297255,-0.000785464362707,-0.000632411625702,-8.84949768079e-05,6.3579077505e-06,-3.74474038836e-05,0.000112953573989,0.464640838079,-0.00120552861197,0.182544735111,0.00872802067172,0.927967682483,0.371953163751,0.0212284144852
0.147437945008,-0.0458954200149,-0.151009052992,-2.53484535217,-0.0125383185223,2.53535819054,-0.755867242813,0.0484711937606,0.000359228200978,0.000300193263683,2.76905739156e-05,1.57386057253e-05,3.67135944543e-05,0.000123783349409,0.000126145867398,0.464647113851,-0.00120592003922,0.182550023964,0.00873022665837,0.927967795761,0.371952459465,0.0212348947402
0.147436901927,-0.0458967462182,-0.151008635759,-2.53483915329,-0.0125406235456,2.53536009789,-0.755865812302,0.0484711937606,0.000208268727874,0.000282389199128,-0.000354887539288,0.00112350017298,2.17811448238e-05,3.75790332328e-05,6.54904170005e-06,0.464650633784,-0.00120632960338,0.182553279746,0.00873252406327,0.927967739784,0.371952307844,0.0212390516773
0.147437304258,-0.0458958819509,-0.151010975242,-2.53483176231,-0.0125395664945,2.53535985947,-0.755865454674,0.0484711937606,-0.000345483800629,8.53394449223e-05,-0.000357726908987,5.71079945075e-05,8.55148846313e-06,5.26244293724e-05,0.000393361900933,0.464653921551,-0.00120720867939,0.182555782807,0.00873344227895,0.927968267778,0.371950796978,0.0212420642814
0.147439852357,-0.0458959750831,-0.151010319591,-2.53481769562,-0.0125392805785,2.53536105156,-0.755866467953,0.0484711937606,0.000626539811492,-0.000294034223771,0.000221733396756,0.000577011087444,-1.25442502394e-05,-9.61624609772e-05,-8.75898513186e-06,0.464660804979,-0.00120576709027,0.182561522854,0.0087362235233,0.92796738121,0.371952534899,0.0212492181996
0.147440865636,-0.0458944961429,-0.151010468602,-2.53480744362,-0.0125393811613,2.53536176682,-0.755866229534,0.0484711937606,-0.000211225720705,0.000305638415739,9.07565336092e-05,7.38726666896e-05,-0.000138681745739,-2.53444450209e-05,4.0093214011e-06,0.464665556217,-0.00120544581598,0.182564978631,0.00873811916189,0.927967160688,0.371952791541,0.0212535763345
0.147440001369,-0.0458937101066,-0.151010677218,-2.53480029106,-0.0125402798876,2.53536105156,-0.755866765976,0.0477009229362,-8.71655720402e-05,0.000562339962926,4.05381215387e-05,-0.000429511099355,9.73291898845e-05,-1.70842413354e-05,0.000183709082194,0.464668473967,-0.00120623580451,0.182566720926,0.00873953572731,0.927967061185,0.371952902776,0.0212553915812
0.147443577647,-0.0458937175572,-0.151012286544,-2.53479766846,-0.0125397471711,2.53536081314,-0.755866587162,0.0477009229362,0.000869178737048,0.000327293935698,0.000146766324178,0.000280839740299,0.000123193865875,-3.4191623854e-05,6.97775540175e-05,0.464669827684,-0.00120509731618,0.182568398309,0.00873974257796,0.927966799389,0.371953444537,0.0212572555151
0.147443503141,-0.0458954311907,-0.151011735201,-2.53477978706,-0.0125401383266,2.53536677361,-0.755865991116,0.0477009229362,-2.71285098279e-05,0.000191439612536,-7.62305717217e-05,0.000247144460445,1.5897450794e-05,0.00014906875731,-0.000184806995094,0.46467976499,-0.00120493123315,0.182576862868,0.0087444943583,0.927966514332,0.371953366596,0.0212691057071
0.14744246006,-0.0458998419344,-0.151011705399,-2.53474664688,-0.0125394919887,2.53537082672,-0.755865871906,0.0477009229362,-0.00276933563873,0.000281045387965,-8.12785874587e-05,0.00289937597699,-4.16412585764e-05,-4.51137420896e-05,-0.000440530915512,0.464696859986,-0.00120540880166,0.182592430031,0.00875179773368,0.927966424556,0.371952306105,0.0212885556338
0.1474429667,-0.0459028370678,-0.151011958718,-2.53468346596,-0.0125415790826,2.53537082672,-0.755866110325,0.0477009229362,-0.000228991106269,-0.000736383954063,-0.000180942879524,0.00424552150071,-2.10502003029e-05,0.000232929247431,-8.33580634207e-05,0.464726988622,-0.00120560681448,0.182618864606,0.00876456468502,0.927965396596,0.371952822912,0.0213190604512
0.147446587682,-0.0459019243717,-0.15101018548,-2.53462076187,-0.0125407744199,2.53537535667,-0.755867063999,0.0477009229362,0.000213232415263,-0.00105879711919,0.000401775876526,0.00551037723199,4.80761373183e-05,-4.25498074037e-05,6.19378479314e-05,0.464758405098,-0.00120324866853,0.182644695637,0.00877729168093,0.927963654819,0.371955039129,0.0213509492884
0.14744348824,-0.0458958484232,-0.151011377573,-2.53459787369,-0.0125415800139,2.53537797928,-0.75586771965,0.0477009229362,-0.00010864091746,0.000491616083309,0.000389549386455,-0.000168119149748,2.4690922146e-05,7.40882678656e-05,-0.000499024812598,0.4647676954,-0.00120561400013,0.182650306905,0.00878114191797,0.927964079644,0.371953446886,0.0213586392276
0.147442921996,-0.0458981394768,-0.151015102863,-2.53459334373,-0.0125402873382,2.53537869453,-0.755866527557,0.0477009229362,-0.000564738526009,-0.000318043312291,8.77410857356e-05,-0.000122229786939,-0.000105533334136,5.76766760787e-05,0.000406261358876,0.464770308245,-0.00120748152753,0.182653214881,0.00878198397221,0.927965221203,0.371950367011,0.021362330364
0.147443622351,-0.0458988547325,-0.15101391077,-2.53459119797,-0.0125404056162,2.53537988663,-0.755867302418,0.0477009229362,-0.000281862885458,0.000605335517321,0.000221243171836,-0.000265566864982,2.18211298488e-05,-0.000108762258606,-7.23985576769e-05,0.46477168206,-0.00120660865474,0.182654515417,0.00878273452425,0.927964667111,0.371951623559,0.021364212681
0.147443905473,-0.045898757875,-0.151014491916,-2.53459310532,-0.0125406160951,2.53538584709,-0.755866765976,0.0464604794979,-0.000155260247993,-0.00119401828852,0.000134260189952,7.31028267182e-05,-3.24187276419e-05,2.67955310846e-05,-0.000127370120026,0.464772050499,-0.00120673901743,0.182654296693,0.00878349786657,0.9279647453,0.371951305725,0.021366036113
0.147444218397,-0.0458958260715,-0.151011973619,-2.53459310532,-0.0125416070223,2.53538632393,-0.755866110325,0.0464604794979,0.000328575668391,-0.000453867862234,-0.00023962603882,0.00042419595411,4.91795181006e-05,-0.000128927858896,-0.000166826619534,0.464771862763,-0.00120539252126,0.1826531826,0.00878362172506,0.92796409932,0.371952978609,0.0213649187087
0.147444739938,-0.045897372067,-0.151011869311,-2.53459095955,-0.0125405453146,2.53538894653,-0.755866587162,0.0464604794979,-8.41637083795e-05,-0.000169675447978,-0.00509954895824,0.000485455762828,4.48780701845e-05,-9.76571245701e-05,-0.000352680508513,0.464773524622,-0.00120518307849,0.182654823199,0.00878430728202,0.927964106193,0.371952779306,0.0213678078748
0.147440493107,-0.0458958409727,-0.151015117764,-2.5345928669,-0.0125405583531,2.53539037704,-0.755864679813,0.0464604794979,-0.00016331540246,-0.00024697300978,0.0037580197677,-3.70729831047e-05,-0.00010544116958,-3.56138656343e-07,0.000377730146283,0.464772695746,-0.00120866703871,0.182653492833,0.00878402455324,0.927965870852,0.371948439209,0.0213668364583
0.147435456514,-0.0459007918835,-0.151021778584,-2.53456497192,-0.0125456955284,2.53624296188,-0.75586771965,0.0464604794979,-0.000539497006685,-0.000991374021396,-0.000515013060067,0.00226742378436,-0.000279570173007,0.0129324682057,-9.08607034944e-05,0.464969525237,-0.00121307996324,0.182750467792,0.00894720751252,0.927957108994,0.371942550804,0.0217781985081
0.147427290678,-0.0459150522947,-0.151031345129,-2.53450131416,-0.0125448759645,2.53641939163,-0.75586783886,0.0464604794979,-0.000454806548078,0.000392609334085,0.00026831246214,0.00540087092668,-0.000165019606357,0.0107153104618,0.000173246400664,0.465039369681,-0.00122091584572,0.182799592984,0.00899283400484,0.927957805183,0.371932752598,0.0218967569591
0.147425368428,-0.0459148213267,-0.151034280658,-2.53445363045,-0.0125449541956,2.5365152359,-0.755866706371,0.0464604794979,-1.36146009027e-05,-0.000558300234843,0.000358186342055,0.00310504972003,8.04068768048e-05,0.00709639489651,-4.62986972707e-05,0.465084460324,-0.00122303900344,0.182829513396,0.00902058033273,0.92795720506,0.371929466021,0.0219664903028
0.147430613637,-0.0459156297147,-0.151032075286,-2.53441047668,-0.012546193786,2.53658914566,-0.755866587162,0.0464604794979,0.000124325975776,-0.000222981892875,-0.00016650222824,0.00187366723549,-5.74797450099e-05,0.00617991620675,-0.000130227490445,0.46511853819,-0.00121990729932,0.18285260399,0.00904130013355,0.927954588467,0.371932447357,0.0220179681354
0.147430539131,-0.0459117554128,-0.151030883193,-2.53440690041,-0.0125455856323,2.53669118881,-0.755867242813,0.0464604794979,0.000132926856168,0.000732004467864,-0.000281862478005,-0.000156204623636,2.38973716478e-05,0.000371202535462,0.000368826295016,0.465141538203,-0.00121931551558,0.182862280053,0.00906004418087,0.92795321985,0.371932602582,0.0220652711307
0.147430166602,-0.0459109432995,-0.151031687856,-2.53440785408,-0.0125443683937,2.536714077,-0.755866825581,0.0454938672483,0.00321787851863,-0.000520451983903,0.000303150940454,9.53337439569e-06,-0.000136851187563,0.00013694165682,-0.000250792567385,0.465145877766,-0.00121977383558,0.18286377622,0.00906361544973,0.927953462382,0.371931320485,0.0220752135931
0.147430583835,-0.0459068119526,-0.151033967733,-2.53441047668,-0.0125460606068,2.53683662415,-0.755866467953,0.0454938672483,-0.000276976061286,9.89492618828e-05,-0.000166615718626,0.000312731426675,-9.08629408514e-06,0.0035748758819,-0.000182811258128,0.465170320302,-0.00122061144609,0.18287288127,0.00908549096462,0.927952321915,0.371930446646,0.0221288194078
0.147432506084,-0.0459073036909,-0.151031985879,-2.5344145298,-0.0125448480248,2.5368616581,-0.75586694479,0.0454938672483,0.000151303203893,-0.000343686377164,0.000713916204404,0.000382209429517,-2.05002997973e-05,9.24750056583e-05,0.000207764285733,0.465174182274,-0.00121834780787,0.182874283013,0.00908926898555,0.927951314326,0.371932229092,0.0221395590643
0.147437393665,-0.0459049642086,-0.151032224298,-2.53441548347,-0.0125464415178,2.53688120842,-0.755867063999,0.0454938672483,1.86815123016e-05,0.000426500133472,-0.000320489954902,-0.000321845494909,7.36583824619e-05,0.000509993056767,0.000225686831982,0.465177272234,-0.00121661865506,0.182874434904,0.00909254827274,0.92795013294,0.371934693497,0.0221463269972
0.147433534265,-0.0458945967257,-0.151031062007,-2.53442692757,-0.0125458315015,2.5369591713,-0.755867540836,0.0433682352304,0.000205808290048,0.000541629560757,0.000390394154238,-0.00115452578757,-0.000116246417747,-2.7567604775e-05,5.87826725678e-05,0.465187082353,-0.00121791411573,0.18287279614,0.00910335617705,0.927949984721,0.371933251732,0.0221722958247
0.14743848145,-0.0458879135549,-0.151029407978,-2.53443717957,-0.0125455437228,2.53697061539,-0.755868732929,0.0435672067106,-2.76775335806e-05,0.000810948316939,0.000319299579132,-0.000620819395408,-3.16955265589e-05,-3.33200732712e-05,0.00162093422841,0.465183289965,-0.00121486237123,0.182866141183,0.00910244465706,0.927948626061,0.3719368632,0.0221689505676
0.147439077497,-0.0458864830434,-0.151032060385,-2.53443789482,-0.0125451711938,2.53697276115,-0.755867123604,0.0435672067106,-0.000507345772348,0.000771785213146,0.00018831671332,-0.000241778703639,-6.0537513491e-05,0.00011841772357,0.000432120199548,0.465183647646,-0.00121586941315,0.18286604307,0.00910258688166,0.927949355779,0.371934995045,0.0221696902321
0.147441074252,-0.0458831228316,-0.151028037071,-2.53443813324,-0.0125442333519,2.53697657585,-0.755866765976,0.0435672067106,8.80904699443e-05,-3.76068746846e-05,0.000186686345842,0.000418576179072,8.01609785412e-05,0.000138800169225,8.34733327792e-06,0.465183866102,-0.00121311695697,0.182864790972,0.00910261341011,0.927948437862,0.371937276248,0.022169829039
0.14743989706,-0.0458801575005,-0.15102788806,-2.53443670273,-0.0125444978476,2.53697991371,-0.755866646767,0.0435672067106,0.000137618349981,-0.000607752008364,0.000586349982768,-0.000467899430078,-3.65851992683e-05,3.41867926181e-05,0.000221757931286,0.465184812466,-0.00121367682744,0.182864323987,0.00910323479241,0.927948590548,0.371936835986,0.0221705691526
0.147439956665,-0.0458834320307,-0.151029363275,-2.53443431854,-0.0125449243933,2.53698396683,-0.755865752697,0.0435672067106,-0.000189742000657,0.000794901512563,-0.00356093654409,0.000607499037869,8.92232055776e-05,0.000184481104952,-0.000466682453407,0.465187284651,-0.00121427898261,0.182867170992,0.00910489225561,0.927948853499,0.371935868618,0.0221751109558
0.147438958287,-0.0458820611238,-0.151028335094,-2.53443646431,-0.0125450380147,2.53698825836,-0.755866885185,0.0435672067106,-0.000266535789706,1.74483648152e-05,2.97898623103e-05,-0.000189315658645,-3.92828806071e-05,-1.93050982489e-05,-0.000419832329499,0.465186995309,-0.00121429312217,0.182866113904,0.00910518218069,0.927948607318,0.371936457066,0.0221754238468
0.14743989706,-0.045880459249,-0.151031211019,-2.53443574905,-0.012545466423,2.53699088097,-0.755867242813,0.0435672067106,-4.7190078476e-05,7.95593368821e-05,0.000125611259136,-0.000419849035097,0.000112854708277,9.88298197626e-05,-0.000219216788537,0.465187650765,-0.00121523016028,0.182865910019,0.0091056891047,0.927948816927,0.371935878108,0.0221761549688
0.1474378407,-0.0458815470338,-0.151029452682,-2.53443479538,-0.0125439316034,2.5369925499,-0.755866587162,0.0435672067106,0.000136898685014,-0.000101144963992,5.6434488215e-05,0.000162985015777,-5.76535821892e-05,4.51412233815e-05,0.000409730128013,0.465188619011,-0.00121527939547,0.182866958823,0.0091059147104,0.927949185965,0.371934838291,0.0221780597233
0.147443503141,-0.0458807386458,-0.151027470827,-2.53443479538,-0.0125455753878,2.53700327873,-0.755866825581,0.0435672067106,6.7118104198e-05,0.000421949836891,-0.000129959153128,8.58363000589e-06,2.7234402296e-05,7.3690804129e-05,-0.00246697245166,0.465190924756,-0.00121191762333,0.182867610647,0.0091082591747,0.927947297228,0.371939225121,0.0221825535694
0.147443279624,-0.045880921185,-0.151027411222,-2.53443479538,-0.0125446626917,2.53700590134,-0.755866885185,0.0435672067106,7.78705361881e-05,-0.000297584512737,0.000167034202605,-0.000368693348719,6.47172839763e-07,-1.35277059599e-05,-0.000176744433702,0.465191401675,-0.00121184672048,0.182867991234,0.00910845042733,0.927947486174,0.371938668174,0.0221839093561
0.147445186973,-0.0458812117577,-0.151026755571,-2.53443670273,-0.0125450538471,2.53700733185,-0.755867540836,0.0435672067106,0.000119804441056,0.000145933940075,-0.00279640988447,0.000182026866241,-2.47507887252e-05,0.000760750845075,0.000107648607809,0.465190860038,-0.00121066278238,0.182867510351,0.00910848834209,0.927946828382,0.371940315154,0.0221837955067
0.147435232997,-0.045880947262,-0.151033267379,-2.53444838524,-0.0125441253185,2.53701043129,-0.755866110325,0.043947417289,0.000192391817109,-0.000435785361333,0.000132127766847,0.000225193885854,6.53037932352e-05,9.52601767494e-05,0.000104071041278,0.465186113558,-0.00121715218266,0.182863090738,0.00910655219538,0.92794990553,0.371932924623,0.022179783576
0.147442832589,-0.0458813086152,-0.151030942798,-2.53443813324,-0.0125449867919,2.53701257706,-0.755866646767,0.043947417289,0.000522726390045,0.0027836044319,0.00341480504721,0.00016722275177,7.11113170837e-05,0.000461303483462,-0.000148595747305,0.465191315786,-0.00121365573168,0.182867489615,0.00910914148732,0.927948175977,0.371936828012,0.0221856236033
0.147435873747,-0.0458816252649,-0.15103687346,-2.53444838524,-0.0125441765413,2.53701853752,-0.755866825581,0.0439697429538,0.000111234032374,0.000156551090186,0.000289137649816,-0.000177557521965,-7.16098338671e-06,-4.75978158647e-05,-0.000177677036845,0.465187805832,-0.00121950590088,0.182864131797,0.00910813584215,0.927950692971,0.371930678108,0.0221838599202
0.147445499897,-0.0459085777402,-0.151033312082,-2.53444981575,-0.0125456051901,2.53701710701,-0.755865931511,0.0439697429538,0.000663004757371,-0.00413644732907,-0.00302225956693,-0.000596103374846,-2.05944797926e-05,0.000103436694189,-0.000468084093882,0.465190849879,-0.0012128730486,0.18287583155,0.00911104058544,0.927947943712,0.37193677,0.022195528957
0.147449269891,-0.0462091639638,-0.151032745838,-2.53446340561,-0.0125418528914,2.53698945045,-0.755866527557,0.0439697429538,0.000277002400253,-0.0134176444262,0.00032130983891,-0.00214806897566,6.03406879236e-05,0.000444875651738,-0.000523964758031,0.465223158015,-0.00120401927614,0.183005977654,0.00913717996887,0.927944928154,0.371936026611,0.0223229489314
0.147497132421,-0.0502557307482,-0.151032954454,-2.53425717354,-0.0125443441793,2.53539776802,-0.755868554115,0.0439697429538,0.000938550976571,-0.104596823454,0.00020027422579,0.00846187677234,-0.000349446519976,-0.0441690720618,0.000164074153872,0.465587360114,-0.00109344516727,0.184843294907,0.0093603834492,0.927907066876,0.371940766411,0.0236838432224
0.147512853146,-0.0527433156967,-0.151030570269,-2.53385925293,-0.0125466361642,2.53402495384,-0.755867481232,0.0439697429538,0.00133905129042,-0.129943653941,-0.000408591964515,0.033354010433,-0.000120464712381,-0.0901198014617,3.22757769027e-05,0.465830696467,-0.00103805346701,0.185961333065,0.00946535931898,0.927889196449,0.371936344788,0.0244008441582
0.14801543951,-0.08651933074,-0.151027649641,-2.51699519157,-0.012556980364,2.49133729935,-0.755868494511,0.044066272676,0.00501137925312,-0.397047758102,5.39645152458e-05,0.270006299019,-0.00019128304848,-0.609229207039,-0.000200418915483,0.469097028605,-0.000253335535797,0.204398061144,0.00870890876702,0.927724561816,0.372049651642,0.028815771868
0.14815159142,-0.094106130302,-0.151030987501,-2.51194739342,-0.012558943592,2.47983527184,-0.755866467953,0.044066272676,0.00561027787626,-0.449597209692,-0.000210470287129,0.294330835342,-0.000417779956479,-0.667184114456,0.000408903724747,0.469817210965,-0.000103186128897,0.208620612564,0.00844224807031,0.927692323458,0.372085747727,0.0294597601315
0.148276180029,-0.103007994592,-0.151029855013,-2.50575661659,-0.0125629408285,2.46660852432,-0.755864918232,0.044066272676,0.00910204742104,-0.477095246315,-0.00263010896742,0.350919485092,-0.000644765619654,-0.728830993176,0.000225253519602,0.470819417667,5.96008412034e-05,0.21401392956,0.00821151437,0.927648405088,0.372116243759,0.0305042355098
0.148677930236,-0.127820044756,-0.151031002402,-2.48633265495,-0.0125644933432,2.42856359482,-0.755823850632,0.0440767817199,0.00542771769688,-0.548182010651,-0.000823853828479,0.474544614553,0.00263040838763,-0.843284726143,0.0029291131068,0.473886111841,0.000472100525956,0.230000813127,0.0077509878305,0.927500640479,0.372202925334,0.0338742698003
0.148803442717,-0.136726528406,-0.151031449437,-2.47833418846,-0.0125713115558,2.4145617485,-0.755440175533,0.0440767817199,0.00714965909719,-0.560006737709,-0.000333585019689,0.515242815018,-0.000829469005112,-0.893903911114,0.0302472487092,0.475184389224,0.000582951222179,0.236207680254,0.00770881738418,0.927505014748,0.372050924439,0.035399591232
0.148966878653,-0.146930232644,-0.151029631495,-2.46878433228,-0.0125741148368,2.39791727066,-0.754950404167,0.0440767817199,0.00657455250621,-0.587042748928,-0.00104871229269,0.566716134548,0.00454683043063,-0.937213480473,0.0208670832217,0.476583742133,0.000703388212745,0.243469548114,0.00761811939576,0.927516084638,0.371864804349,0.0370465108284
0.149163603783,-0.159273862839,-0.151034906507,-2.45599317551,-0.0125777078792,2.37793087959,-0.754357933998,0.0440767817199,0.0143048260361,-0.586041629314,0.000428528175689,0.634217977524,-0.000283859990304,-0.972033500671,0.0338457487524,0.478630298269,0.000812344358935,0.252884967893,0.00776331812642,0.927504245304,0.371619316973,0.0396823483638
0.149433061481,-0.175739452243,-0.151029393077,-2.43764400482,-0.0125790731981,2.34999322891,-0.753263115883,0.0440767817199,0.00992130767554,-0.607951045036,0.00186273630243,0.702036976814,-0.000312895717798,-1.0046697855,0.0390854626894,0.481252372417,0.000914904811585,0.266013254683,0.0079511534324,0.927531152158,0.371155313775,0.0432027044835
0.149548873305,-0.183417513967,-0.151028990746,-2.42820072174,-0.0125812487677,2.33668780327,-0.752773821354,0.0440767817199,0.0113773178309,-0.596162497997,0.000156916532433,0.734056651592,7.35343492124e-05,-1.04621660709,0.037170059979,0.482305303085,0.000927814163949,0.271041850338,0.00810742339264,0.927529039258,0.370980819734,0.0446920808672
0.149868145585,-0.207270234823,-0.151017576456,-2.39635872841,-0.0125845251605,2.2922976017,-0.751108169556,0.0440767817199,0.00305478461087,-0.567386209965,-4.28844532507e-06,0.777170479298,-0.000134747097036,-1.11286079884,0.0632164925337,0.486445689899,0.000861109560976,0.293957571703,0.00866718214723,0.927536989926,0.3701552483,0.0508439191368
0.150127336383,-0.233868852258,-0.150991171598,-2.35533642769,-0.0125856427476,2.23834657669,-0.746974468231,0.0440826900303,0.00339712039568,-0.539731740952,0.00139365810901,0.891157925129,0.00195904169232,-1.12533307076,0.105020754039,0.490339735254,0.000524023647067,0.320350723649,0.00936733382378,0.927926319699,0.36814860851,0.057720013884
0.150137156248,-0.241771504283,-0.150922253728,-2.34199142456,-0.012585343793,2.22147035599,-0.745356738567,0.0440826900303,0.00210886891,-0.508522927761,0.00656626140699,0.87162399292,-0.00485024275258,-1.1241517067,0.103483483195,0.491378025792,0.000370146141362,0.328742166633,0.00962190242352,0.92809914172,0.367356173009,0.0599069609272
0.150147229433,-0.251437902451,-0.150806382298,-2.32504105568,-0.0125772813335,2.20016098022,-0.743475139141,0.0440826900303,-0.00124760135077,-0.497953861952,0.00548421218991,0.900500416756,-0.00506551284343,-1.10213768482,0.102639779449,0.492481074259,0.000165559295455,0.339290455138,0.00992474127078,0.928282987365,0.366439656322,0.062563350596
0.150129616261,-0.273267090321,-0.150424435735,-2.28379869461,-0.0125647382811,2.14884567261,-0.737356185913,0.0440826900303,-0.00277539016679,-0.433369934559,0.00806924048811,0.8441016078,-0.00433799438179,-1.05590212345,0.148528367281,0.494207137985,-0.000399635538358,0.364410323166,0.0105030246375,0.929007000458,0.36352283291,0.0684604207547
0.150104150176,-0.281614482403,-0.150118768215,-2.26671504974,-0.012580181472,2.12822413445,-0.734533905983,0.0440826900303,-0.00102839886677,-0.391035705805,0.0167966671288,0.809419512749,-0.00151544180699,-1.02520561218,0.134778574109,0.494635891918,-0.000608858780118,0.374625436622,0.010779714139,0.929326513042,0.362236558191,0.0708569369462
0.150098562241,-0.287429958582,-0.149832472205,-2.25463676453,-0.0125601058826,2.11309838295,-0.732578337193,0.0440826900303,0.000695063441526,-0.388274908066,0.0219521503896,0.82690346241,-0.00364675791934,-0.978383779526,0.12545414269,0.49468136814,-0.000722772489687,0.381763000464,0.0108604733321,0.929548314959,0.361387288596,0.0722579241373
0.150103583932,-0.294815033674,-0.149327918887,-2.23903536797,-0.0125765157863,2.09409499168,-0.730184614658,0.0440879426897,-2.73251589533e-05,-0.33750602603,0.0350649170578,0.724676907063,-0.000732001150027,-0.938618123531,0.125406056643,0.49467369867,-0.000817703869404,0.391007147442,0.0110773805769,0.929765705213,0.360417451047,0.074244768929
0.150101512671,-0.304215162992,-0.148414388299,-2.21852850914,-0.0125779025257,2.06844234467,-0.726482689381,0.0440879426897,-0.000103985890746,-0.304274499416,0.0326612479985,0.664348602295,-0.00183649850078,-0.843532860279,0.127272158861,0.494236033022,-0.000839853768563,0.402961522059,0.011203097325,0.930136470123,0.359005409318,0.0763921024841
0.150104865432,-0.30875197053,-0.147841900587,-2.20853924751,-0.0125640993938,2.0551776886,-0.724699556828,0.0440879426897,-0.0010088471463,-0.268211305141,0.0402738116682,0.607751429081,0.000491237675305,-0.806847810745,0.102677956223,0.493776637134,-0.000795816783087,0.408339855123,0.0111378296116,0.930306190943,0.358432627661,0.077022016058
0.150093063712,-0.313132345676,-0.147145345807,-2.19848680496,-0.0125783467665,2.04208183289,-0.723028838634,0.0440879426897,-0.000104114697024,-0.240154787898,0.0354312248528,0.556092262268,0.00307916221209,-0.746415555477,0.09550344944,0.49323202325,-0.000697426808685,0.414388099353,0.0111168397209,0.930451824592,0.357898672488,0.0777454687062
0.150121718645,-0.317980319262,-0.146280452609,-2.18771839142,-0.0125719783828,2.02721643448,-0.721009552479,0.0440879426897,0.000104155071313,-0.208184674382,0.0490311011672,0.462255865335,-0.000326279812725,-0.672943651676,0.10079459101,0.492366052821,-0.00051024417038,0.420738063829,0.0109546393506,0.930643814026,0.357311506821,0.078170160992
0.150118276477,-0.325552582741,-0.144108608365,-2.17007088661,-0.0125796077773,2.00014734268,-0.716678738594,0.0440879426897,-0.000542966823559,-0.129113078117,0.0453461296856,0.303236842155,0.000228260731092,-0.507173120975,0.0908331722021,0.490341339613,0.000105800584755,0.429976642904,0.0102779776258,0.9310921294,0.35633179147,0.0773916262706
0.150129839778,-0.32735529542,-0.143400102854,-2.1656832695,-0.0125793889165,1.9925044775,-0.715225279331,0.0440879426897,-6.72179667163e-05,-0.0957052186131,0.0444040633738,0.247890844941,0.000451898697065,-0.457793563604,0.0909950137138,0.48960973369,0.000350786279177,0.432193628987,0.0099494086961,0.931274537414,0.356007721301,0.0767283994954
0.150138780475,-0.328790456057,-0.142574220896,-2.16138863564,-0.0125838899985,1.98366296291,-0.713386356831,0.0440879426897,-0.000135632566526,-0.0362289324403,0.0355420634151,0.167427644134,-0.00057364301756,-0.390166848898,0.0775264725089,0.488634015049,0.000658344505823,0.43404531357,0.0093658656387,0.931559289602,0.355588015903,0.0752777068394
0.150153011084,-0.329177588224,-0.141190260649,-2.15718483925,-0.01305080764,1.96813678741,-0.709866583347,0.0440918840468,0.000304683082504,0.0254989899695,0.0224432423711,0.0199115965515,-0.0327901169658,-0.285771667957,0.0916325822473,0.486360924007,0.00118238237866,0.434570439974,0.00774226880281,0.932259811975,0.354857935959,0.0700538737158
0.150163516402,-0.327158004045,-0.140749588609,-2.15745925903,-0.0145524069667,1.95898711681,-0.705981910229,0.0440918840468,-0.00251712300815,0.0906004160643,0.00533114327118,-0.0305498726666,-0.069616727531,-0.275616288185,0.126458063722,0.484620999379,0.00118265304486,0.432402919636,0.00653418267864,0.933123654047,0.353679206887,0.0644093860757
0.149564415216,-0.320272862911,-0.140746176243,-2.15942311287,-0.0209434702992,1.94627332687,-0.699466943741,0.0440918840468,-0.0316479429603,0.184728369117,-0.000463150121504,-0.0538434498012,-0.167417004704,-0.228440001607,0.133858695626,0.482213067996,-7.38608012657e-05,0.426660588442,0.00603981821563,0.93460600687,0.351636575768,0.0531681369447
0.148973107338,-0.317106485367,-0.140761196613,-2.16034841537,-0.023900905624,1.94272625446,-0.697387158871,0.0440918840468,-0.0441759936512,0.21451754868,-0.00391517719254,-0.0615957081318,-0.206196606159,-0.202407300472,0.125542491674,0.481479094235,-0.000927775370099,0.423975273374,0.00629437896295,0.935158240339,0.350833034667,0.0485348100935
0.148036167026,-0.312724173069,-0.140835165977,-2.16158890724,-0.0282962247729,1.93894088268,-0.695160806179,0.0440918840468,-0.0579092726111,0.251973807812,-0.0106716156006,-0.0690237134695,-0.255750089884,-0.188554868102,0.103190250695,0.480871850605,-0.00199341989094,0.421160804164,0.00688416459994,0.935630642074,0.350175187636,0.0438776428177
0.146847754717,-0.307591706514,-0.141130745411,-2.16288661957,-0.0335371419787,1.93555784225,-0.69312697649,0.0440938547254,-0.0725477710366,0.275989025831,-0.0205641482025,-0.0673086047173,-0.297929018736,-0.16698820889,0.100639492273,0.480468299164,-0.00300358687351,0.418810362057,0.00750271433078,0.935987706433,0.349658460404,0.04012086039
0.144439995289,-0.298963516951,-0.142135798931,-2.16495680809,-0.0434712171555,1.93073713779,-0.690042197704,0.0440938547254,-0.0881886035204,0.308509588242,-0.0470464639366,-0.0678369253874,-0.362662762403,-0.157090082765,0.100837282836,0.479495992688,-0.00677861486128,0.412059962833,0.0101160919618,0.936962603095,0.348044669364,0.0293879720081
0.142831131816,-0.29343354702,-0.14310990274,-2.16611218452,-0.0500340275466,1.92841875553,-0.688407659531,0.0440938547254,-0.1014194116,0.332513332367,-0.0683168172836,-0.0698460862041,-0.40982785821,-0.122794911265,0.0903200879693,0.479143900671,-0.00908920926974,0.408624255485,0.0117638472037,0.937423887497,0.347159124156,0.0240542979647
0.140905112028,-0.28762999177,-0.144413173199,-2.16731023788,-0.0576231963933,1.92649841309,-0.68693447113,0.0440938547254,-0.125412642956,0.336610525846,-0.0883491039276,-0.0722487270832,-0.464034974575,-0.103683277965,0.0775409340858,0.478851957849,-0.011887960253,0.405090069275,0.0138554529691,0.937869956866,0.346211063087,0.0185975781626
0.138281971216,-0.281015187502,-0.146172225475,-2.16862034798,-0.0668189302087,1.92483389378,-0.685798406601,0.0440938547254,-0.148986712098,0.359139293432,-0.0988570228219,-0.0669646039605,-0.503460884094,-0.0779977366328,0.057665515691,0.478594609522,-0.0155123806962,0.401158482655,0.0165378121996,0.938318467504,0.34514809484,0.0125597222583
0.129848659039,-0.263720214367,-0.152676030993,-2.17154216766,-0.0934321954846,1.92264735699,-0.68316334486,0.0440938547254,-0.207352176309,0.380347013474,-0.175285428762,-0.0576157197356,-0.635045409203,-0.0123821897432,0.0478662587702,0.478214414171,-0.0271140014342,0.391410954022,0.0248016338595,0.939598858102,0.341369414074,-0.00240575015351
0.125915154815,-0.256936043501,-0.156168997288,-2.17254519463,-0.105502530932,1.9225063324,-0.682290077209,0.0440938547254,-0.230481162667,0.369960427284,-0.206658512354,-0.054445642978,-0.684197425842,-0.00156877283007,0.0546979904175,0.478108271828,-0.0326988277069,0.38775907697,0.0287408136949,0.940121187436,0.339528510179,-0.00815530654848
0.122087948024,-0.2509573102,-0.159830838442,-2.17332148552,-0.116654314101,1.92249834538,-0.681393444538,0.0440938547254,-0.24930267036,0.368163704872,-0.243857204914,-0.0493588261306,-0.709553360939,-0.000315229466651,0.0527143217623,0.477973832837,-0.0381617739154,0.384617838652,0.0323764728169,0.940672351956,0.337509395885,-0.0132173238228
0.116203635931,-0.242937386036,-0.165862038732,-2.17414522171,-0.132524549961,1.92250001431,-0.680538654327,0.0440938547254,-0.283251911402,0.37198382616,-0.29673820734,-0.0273571256548,-0.738249897957,0.00736852036789,0.0228116307408,0.477667887204,-0.0465423342123,0.380530322178,0.0375029786373,0.941517156636,0.334268014626,-0.0200963787377
0.107325769961,-0.232139036059,-0.175209864974,-2.17455506325,-0.154140606523,1.92266559601,-0.680253684521,0.044096481055,-0.326830178499,0.365342825651,-0.357778012753,-0.004329203628,-0.748973965645,0.00718196481466,0.00716842385009,0.477127921364,-0.0589192062924,0.375412962623,0.0444084756221,0.942706070434,0.329370348226,-0.0291260271226
0.101885542274,-0.226370453835,-0.181164592505,-2.17457079887,-0.166233047843,1.9229170084,-0.68020170927,0.044096481055,-0.350293010473,0.357653200626,-0.388645648956,0.00084881845396,-0.766715466976,0.0330832116306,0.002036500955,0.476666509889,-0.0668977103463,0.372649561095,0.0484674534453,0.943529725678,0.325930228899,-0.0342351908963
0.0956975743175,-0.220581129193,-0.188105612993,-2.17457127571,-0.179328396916,1.92359852791,-0.680185377598,0.044096481055,-0.380280315876,0.331037968397,-0.435349792242,-0.00143018399831,-0.760718047619,0.0495301298797,0.000542779744137,0.476082758619,-0.0754128440605,0.370102948703,0.0526134967887,0.944442734408,0.322076167706,-0.0390727944098
0.0883649736643,-0.214237257838,-0.196816325188,-2.17448115349,-0.193619266152,1.92461836338,-0.680172324181,0.044096481055,-0.390742719173,0.331306904554,-0.483982473612,0.00884930137545,-0.737087786198,0.0573747083545,0.000302901258692,0.475228881525,-0.0854990225572,0.367366214628,0.0569875343834,0.945639030798,0.317107943129,-0.0442921714322
0.0689800009131,-0.200392141938,-0.221313938498,-2.17412424088,-0.225763469934,1.92775917053,-0.680160105228,0.044096481055,-0.437536090612,0.290222883224,-0.573459625244,0.0177113059908,-0.653452992439,0.0817962139845,-0.000237935848418,0.472120416722,-0.110593215908,0.36175201224,0.0658349281588,0.949060580413,0.303134432877,-0.055310869042
0.0602080710232,-0.195192843676,-0.232966274023,-2.17355871201,-0.237505838275,1.9296131134,-0.680155992508,0.044096481055,-0.478712081909,0.266278833151,-0.632265985012,0.0339528135955,-0.587437570095,0.115223765373,-0.000418463692768,0.470268935477,-0.122808498382,0.359638915523,0.0691488804458,0.950998159612,0.295433851749,-0.0594959803474
0.0521209836006,-0.190809011459,-0.243872419,-2.17281460762,-0.247396096587,1.93163645267,-0.680155158043,0.044096481055,-0.477698743343,0.260866910219,-0.643931388855,0.0602551922202,-0.568180441856,0.12512794137,0.00016080372734,0.468512412111,-0.133429696785,0.358087280124,0.0717556531052,0.952755041392,0.288425206439,-0.062608764004
0.0422647744417,-0.185684144497,-0.257287532091,-2.17132687569,-0.258107960224,1.93446886539,-0.680155277252,0.044096481055,-0.504000306129,0.240700900555,-0.698891043663,0.082997366786,-0.490144819021,0.158073812723,-0.000297487044008,0.46619295672,-0.146863164759,0.356488803896,0.074684764971,0.955084690929,0.27910607155,-0.0658423841329
0.0276936534792,-0.179029017687,-0.278253763914,-2.16847872734,-0.270649582148,1.93995440006,-0.680154979229,0.0440984517336,-0.50548094511,0.232172489166,-0.733150541782,0.117671266198,-0.376162856817,0.226001292467,-2.56492330664e-05,0.462784931084,-0.165082211258,0.354974726406,0.0777079511814,0.958561533646,0.265379171121,-0.0685212066673
0.0179939959198,-0.174865171313,-0.292537003756,-2.16604495049,-0.277410447598,1.94436907768,-0.680154085159,0.0440984517336,-0.508809268475,0.204505175352,-0.7726303339,0.136700242758,-0.330460369587,0.241444438696,-0.00030058689299,0.460325878605,-0.177549699259,0.354286282392,0.0794454901972,0.961038075445,0.255475206774,-0.069474096234
0.0088596381247,-0.171448051929,-0.306566953659,-2.16338348389,-0.282836228609,1.94889008999,-0.680152475834,0.0440984517336,-0.518230080605,0.188477948308,-0.799781322479,0.16002766788,-0.280962795019,0.258683890104,6.35424075881e-05,0.457801920771,-0.189418641064,0.354015060527,0.0808888643725,0.963456431008,0.245665235258,-0.0696942540475
0.000839627173264,-0.168530657887,-0.319204717875,-2.16071152687,-0.287024945021,1.95330834389,-0.68015229702,0.0440984517336,-0.487786859274,0.178170189261,-0.784352302551,0.171585097909,-0.252923041582,0.292724221945,-8.78814098542e-05,0.455483563474,-0.199918151556,0.353972777002,0.0821116024757,0.965593980245,0.236776996687,-0.0694449680385
-0.0223635490984,-0.161245465279,-0.35825291276,-2.15133023262,-0.295281261206,1.96942448616,-0.680144786835,0.0440984517336,-0.445915818214,0.112949773669,-0.794194817543,0.217376276851,-0.0969810560346,0.354551404715,8.89447474037e-05,0.448174376985,-0.23100676446,0.355185507468,0.0854024198899,0.971962045545,0.209059245312,-0.0655014529661
-0.0300846938044,-0.159361332655,-0.37237149477,-2.14753842354,-0.29637414217,1.97586894035,-0.680137753487,0.0440984517336,-0.417534083128,0.0866468623281,-0.786711752415,0.198508188128,-0.0429786890745,0.371551215649,0.00040907759103,0.445472790663,-0.241699314019,0.35614221158,0.086339380187,0.974174726978,0.198919831359,-0.062928635242
-0.0365106835961,-0.158191382885,-0.384582012892,-2.14437246323,-0.296687334776,1.98202514648,-0.680122852325,0.0441010780632,-0.398561269045,0.0574240982533,-0.760250151157,0.197794035077,-0.00430553825572,0.396243810654,0.00115681858733,0.443252619816,-0.250185588509,0.357084661903,0.0870854537583,0.975916984828,0.190685785087,-0.060341474365
-0.0443659834564,-0.157540634274,-0.399074465036,-2.14061951637,-0.296678334475,1.98978710175,-0.68008005619,0.0441010780632,-0.382045269012,0.0130274100229,-0.693974435329,0.178470030427,0.00642654718831,0.391099780798,0.00862873438746,0.440084998912,-0.261529053592,0.358723895416,0.0882067764682,0.978181729366,0.179481990348,-0.0562697410343
-0.0552163571119,-0.157602280378,-0.418040066957,-2.13556957245,-0.296472012997,2.0014705658,-0.679789066315,0.0441010780632,-0.341297984123,-0.0180786605924,-0.580603957176,0.162852078676,0.0226224474609,0.376195013523,0.0142737962306,0.435905242354,-0.275958747616,0.36139653795,0.0901917312397,0.98087278991,0.165066251605,-0.0500714879644
-0.0605096407235,-0.158048450947,-0.426874995232,-2.13314938545,-0.295627444983,2.00753068924,-0.679576098919,0.0441010780632,-0.317302167416,-0.0410727635026,-0.518732905388,0.144701719284,0.0823071748018,0.371964216232,0.0166736971587,0.433895495262,-0.282715393592,0.362901751421,0.0911112306718,0.982119537031,0.158029558877,-0.0465469316405
-0.0667339786887,-0.159495085478,-0.436817079782,-2.13029074669,-0.293510884047,2.01512598991,-0.679140329361,0.0441010780632,-0.276462525129,-0.0842270627618,-0.443498402834,0.133016780019,0.101194940507,0.352726310492,0.0312570109963,0.431652483292,-0.290332597735,0.365129153298,0.0920967720068,0.983572330719,0.14961069748,-0.0414764237287
-0.0792041942477,-0.166614204645,-0.455648839474,-2.12379837036,-0.280979603529,2.03341293335,-0.676560223103,0.044104360044,-0.0966734066606,-0.141791284084,-0.170983284712,0.0787885114551,0.328347235918,0.217910945415,0.0535380840302,0.428186906334,-0.304304905482,0.372013083718,0.0927688621811,0.986763747049,0.130534483511,-0.0255341738037
-0.080323882401,-0.169082030654,-0.458043336868,-2.12261652946,-0.274796873331,2.03695440292,-0.675391852856,0.044104360044,-0.033465705812,-0.158580631018,-0.111088357866,0.0603057034314,0.39078772068,0.201083347201,0.0796242952347,0.428397824412,-0.305392475646,0.373770240398,0.0917585787831,0.987438210224,0.126926587256,-0.0208754725419
-0.0804515853524,-0.172059476376,-0.459242641926,-2.12170815468,-0.267060190439,2.04031610489,-0.673833727837,0.044104360044,0.0167610384524,-0.16787211597,-0.0190415196121,0.0415170863271,0.462734609842,0.175406366587,0.0864831879735,0.429243604293,-0.305273381033,0.375634085371,0.0902120059009,0.988066010346,0.123863251212,-0.0156603923287
-0.0795596763492,-0.175332650542,-0.458956450224,-2.12094712257,-0.257152706385,2.04346489906,-0.672013640404,0.044104360044,0.0866026580334,-0.165096193552,0.0339749418199,0.031396239996,0.532889008522,0.143887445331,0.104403890669,0.430791248478,-0.303850540082,0.377478025932,0.0880430501048,0.988622351547,0.121541069536,-0.0101012604631
-0.0715270787477,-0.182686120272,-0.45357811451,-2.119587183,-0.230553120375,2.04932928085,-0.665939986706,0.044104360044,0.220658019185,-0.157436609268,0.16574960947,0.028276944533,0.602999687195,0.116008162498,0.152529999614,0.437702103438,-0.294864799557,0.381862003041,0.0810124348523,0.98952892357,0.119381388871,0.00419267292678
-0.0682141631842,-0.184418946505,-0.450943529606,-2.11936211586,-0.222574174404,2.05070137978,-0.66416311264,0.044104360044,0.257049977779,-0.146473765373,0.203421264887,0.0186017435044,0.661727428436,0.118090420961,0.144632831216,0.440175021108,-0.291279368679,0.382881264603,0.0787795035555,0.989641289558,0.119752543979,0.00795208969135
-0.0600667670369,-0.187476366758,-0.444041371346,-2.11898136139,-0.206035345793,2.05347371101,-0.660177588463,0.044104360044,0.374037176371,-0.122393280268,0.321892797947,0.0100141689181,0.686588823795,0.11987221241,0.186196446419,0.445973623902,-0.282564503328,0.384807417389,0.0740875828769,0.989673279207,0.121734170298,0.0154473935447
-0.0467955060303,-0.19046151638,-0.43243393302,-2.11867380142,-0.184400185943,2.05719399452,-0.654529631138,0.0441056750715,0.467436730862,-0.0736839026213,0.422073423862,0.0103488517925,0.71526992321,0.127972871065,0.175702750683,0.454736821679,-0.268639049727,0.386969348525,0.067820475099,0.98930960803,0.126711119467,0.0247219440635
-0.0393450818956,-0.1914139539,-0.425554484129,-2.11852169037,-0.173673689365,2.059040308,-0.651867926121,0.0441056750715,0.526973664761,-0.0541658811271,0.492865562439,0.0121684279293,0.713075578213,0.124044306576,0.178470149636,0.460134984147,-0.259601054369,0.387988328884,0.0642357608363,0.988885932275,0.130778155217,0.0295880684398
-0.0289741903543,-0.192171886563,-0.415787518024,-2.11832523346,-0.160154387355,2.06130433083,-0.648216366768,0.0441056750715,0.569520235062,-0.0272243861109,0.532123327255,0.0144809428602,0.703881323338,0.116950377822,0.197527095675,0.466128553295,-0.249075338884,0.388915933503,0.060385494158,0.988284924176,0.135868038062,0.0344438190632
-0.0188401825726,-0.192340388894,-0.40615016222,-2.11807656288,-0.148092895746,2.06303429604,-0.64473503828,0.0441056750715,0.612893640995,0.00043849737267,0.593481659889,0.0186509434134,0.706397354603,0.0926026329398,0.205150902271,0.471627900921,-0.238851043105,0.389577413371,0.0568486544345,0.987616293352,0.141094796297,0.0383998144443
-0.00597721152008,-0.192170619965,-0.393540948629,-2.11772465706,-0.134115576744,2.06482672691,-0.640335738659,0.0441056750715,0.663998305798,0.0174237862229,0.654652416706,0.019860079512,0.679346621037,0.0874712988734,0.231224909425,0.479008020885,-0.224184593686,0.390333935477,0.0521848045939,0.986519004398,0.148967148753,0.0431947730626
0.0143771423027,-0.190892010927,-0.373451411724,-2.11707139015,-0.115264460444,2.06744718552,-0.633576154709,0.0441056750715,0.733186483383,0.0676892921329,0.734202861786,0.0237428341061,0.622268617153,0.100361905992,0.229734048247,0.488887803364,-0.202853394867,0.39101057583,0.0463489945867,0.984624765813,0.161225378237,0.0487054243131
0.0286595690995,-0.189334243536,-0.359229743481,-2.11650371552,-0.10375764966,2.06931948662,-0.629003107548,0.0441056750715,0.772256731987,0.0879923701286,0.762621641159,0.0372528396547,0.585141420364,0.0954129472375,0.262213736773,0.495502792886,-0.187312601963,0.391245293116,0.0426443087328,0.98304803824,0.170589603765,0.0519346149476
0.0412216037512,-0.187729001045,-0.346550941467,-2.11588668823,-0.0947090014815,2.07084465027,-0.624710261822,0.0441056750715,0.798745930195,0.109704338014,0.818826138973,0.0426573045552,0.543475687504,0.0958031341434,0.273458570242,0.500929278708,-0.173550745074,0.391375462994,0.0397207482998,0.981547400795,0.178977872678,0.0543496360236
0.0556495636702,-0.185466602445,-0.331581145525,-2.11505198479,-0.0854968726635,2.0724067688,-0.619523584843,0.0441056750715,0.805928170681,0.144811972976,0.828485250473,0.0474426969886,0.478155016899,0.0833682268858,0.289229601622,0.507051836404,-0.156625167449,0.391343789411,0.036574553035,0.979565929356,0.189476873157,0.056669271647
0.0903118103743,-0.178365364671,-0.294355720282,-2.11279129982,-0.067498229444,2.07582998276,-0.606825947762,0.0441056750715,0.848912358284,0.192840874195,0.926953434944,0.0618789158762,0.369545012712,0.0694311261177,0.317519128323,0.518769955255,-0.118256186734,0.390464913205,0.0308507634745,0.974497291603,0.214045326941,0.0598987208604
0.111354961991,-0.173419103026,-0.271073102951,-2.11126041412,-0.0588136166334,2.07765460014,-0.598219454288,0.0441056750715,0.838029384613,0.209441840649,0.931860327721,0.0628034546971,0.310778975487,0.0665137842298,0.362022846937,0.524659636739,-0.0939421216488,0.389564700814,0.0279630912849,0.970971746647,0.229593527619,0.0609815095595
0.124882094562,-0.170021191239,-0.255887567997,-2.110278368,-0.0542113929987,2.07867860794,-0.592205047607,0.0441056750715,0.839413464069,0.21602499485,0.964669525623,0.0516758672893,0.273176968098,0.0613406524062,0.392605900764,0.52783369356,-0.0781856911218,0.388814204266,0.026405500983,0.968567055515,0.239636092412,0.0612792901117
0.142316058278,-0.165358290076,-0.235931307077,-2.10913610458,-0.0489827506244,2.08000040054,-0.583550035954,0.0441056750715,0.828915834427,0.228478774428,0.96339404583,0.0513113439083,0.220079004765,0.0717145651579,0.426125079393,0.531228644269,-0.0576227458864,0.387590828328,0.0245784055866,0.965354782251,0.252443665365,0.0613045012498
0.159530490637,-0.160580396652,-0.21579156816,-2.10816216469,-0.0443002358079,2.08119797707,-0.574270904064,0.0441076420248,0.797304868698,0.228889599442,0.946095228195,0.0432933345437,0.212121754885,0.0412852354348,0.440044134855,0.533757715764,-0.0370151878173,0.38614741763,0.0228547842122,0.962043397042,0.265009625203,0.0609922887635
0.175571024418,-0.156199380755,-0.19667840004,-2.10749936104,-0.0402684807777,2.08185315132,-0.5653616786,0.0441076420248,0.774951517582,0.220170840621,0.947288036346,0.0250673498958,0.197609841824,0.0275166835636,0.451660811901,0.535237944866,-0.0175802811989,0.384612564359,0.0212449820842,0.958799821559,0.276794994549,0.0602999469142
0.19544583559,-0.150388374925,-0.172247111797,-2.10701870918,-0.0359577573836,2.08250212669,-0.553302228451,0.0441076420248,0.762610435486,0.211058452725,0.943932235241,0.00947156269103,0.142439723015,0.0197653360665,0.477029919624,0.535977151148,0.00593649474179,0.382348515822,0.0194750683034,0.954767338416,0.290807037709,0.0589178896253
0.209262788296,-0.146651342511,-0.154743850231,-2.10699295998,-0.0333047248423,2.08279395103,-0.543929815292,0.0441076420248,0.704355657101,0.185889855027,0.902143418789,-0.00363485701382,0.133366703987,0.011154663749,0.517302751541,0.535697556451,0.0241092563208,0.38056714003,0.0182147884377,0.951605685698,0.301305540569,0.0577045175157
0.221207365394,-0.143513634801,-0.139419347048,-2.10702037811,-0.0311754383147,2.08287334442,-0.535106480122,0.0441076420248,0.681679010391,0.184609904885,0.898315370083,-0.00271066557616,0.103305615485,-0.000426441605669,0.527936339378,0.534888083867,0.0399335331028,0.378993997557,0.0171629847899,0.948853446219,0.310139761984,0.0565322675681
0.260897189379,-0.133220076561,-0.0848750770092,-2.10715174675,-0.0279114693403,2.08285236359,-0.49740806222,0.0441076420248,0.517998039722,0.119451642036,0.745536983013,-0.00258689234033,-0.000945280015003,1.17635072456e-05,0.645786881447,0.529147863263,0.0898650984413,0.37401321261,0.0154642571861,0.940354969791,0.335774587545,0.0524291291639
0.27119332552,-0.130880832672,-0.0699376538396,-2.10719347,-0.0279540363699,2.08284258842,-0.483669131994,0.0441076420248,0.464269042015,0.0983974188566,0.685985326767,-0.000857806066051,-0.00314145325683,-0.000305071182083,0.671164810658,0.526782197952,0.103212543843,0.372830313071,0.0153560898443,0.938455270355,0.341200821187,0.0514577045261
0.283830523491,-0.128854706883,-0.0512415766716,-2.10733652115,-0.0287266410887,2.08283352852,-0.463138133287,0.0441115833819,0.384944319725,0.0416436344385,0.554228186607,-0.00162346602883,-0.063449293375,-0.000566957634874,0.71599906683,0.523343761431,0.119576588378,0.371764305832,0.0155004510825,0.936577392424,0.346436415137,0.0506392532468
0.290042310953,-0.128264635801,-0.0424820706248,-2.10735750198,-0.0303705502301,2.08282494545,-0.450860947371,0.0441115833819,0.341711074114,0.0220628809184,0.47200858593,0.00192704622168,-0.120017558336,0.00026461208472,0.721264600754,0.521568212164,0.127171790192,0.371474970689,0.0160836897264,0.93598530429,0.348037141565,0.0504278975866
0.295344382524,-0.128100767732,-0.0351722985506,-2.10734772682,-0.0329914279282,2.0828230381,-0.438499450684,0.0441115833819,0.276777267456,-0.00487628718838,0.392618715763,0.000562887173146,-0.174387961626,0.000249173550401,0.730984807014,0.520033111552,0.133372128989,0.371424930676,0.0170851327743,0.935725341115,0.34868959468,0.0504157761114
0.299892991781,-0.128235146403,-0.0285221096128,-2.10727953911,-0.0365286283195,2.08283138275,-0.425224840641,0.0441115833819,0.219129770994,-0.0140925804153,0.335828542709,0.00218244711868,-0.231713443995,0.00046313329949,0.742586553097,0.518667398458,0.138692947758,0.371565167611,0.0184785712092,0.935784184407,0.348436499283,0.0505816989904
0.306670576334,-0.130206808448,-0.0182228460908,-2.10688614845,-0.053834926337,2.08283567429,-0.388339132071,0.0441115833819,0.0437787212431,-0.0514143928885,0.072809882462,0.0130397360772,-0.46162584424,0.000817709078547,0.703034937382,0.51702602823,0.14510584466,0.37294259339,0.0255632178025,0.937682408596,0.342654524963,0.0518275864287
0.306924074888,-0.130846098065,-0.0176755096763,-2.10668754578,-0.0601590797305,2.0828359127,-0.37935629487,0.0441115833819,-0.000184367541806,-0.051688272506,0.0124740628526,0.0169985834509,-0.50120973587,-0.000256051425822,0.683336079121,0.517225585734,0.144639810957,0.373432346297,0.0281944990282,0.938517034853,0.340091236857,0.0522378772093
0.30626308918,-0.131892129779,-0.0180621240288,-2.10633230209,-0.0696400478482,2.08283519745,-0.367729365826,0.044115524739,-0.0737561658025,-0.0687884092331,-0.0431194379926,0.0202276986092,-0.54909402132,-0.000834730744828,0.629389286041,0.517864645865,0.142782347755,0.374249490765,0.0321668176209,0.939809258767,0.336042046608,0.0529112046631
0.303832054138,-0.133373185992,-0.0200630370528,-2.1058204174,-0.0816949233413,2.08285093307,-0.355197280645,0.044115524739,-0.156982898712,-0.0602498948574,-0.13732534647,0.0304856877774,-0.587445616722,0.000297614897136,0.581389427185,0.519124465127,0.138815942781,0.375414589288,0.0372586439378,0.941543047792,0.330468044259,0.053845649949
0.29949170351,-0.134544655681,-0.0240048300475,-2.10500049591,-0.0958507284522,2.08286261559,-0.342564493418,0.044115524739,-0.251731544733,-0.0657844468951,-0.241797059774,0.0442923083901,-0.684557318687,0.000951443857048,0.544466197491,0.521792078047,0.130187271855,0.377027376899,0.0452995046771,0.944399883883,0.320985169031,0.055003046716
0.293344676495,-0.135934427381,-0.0300298891962,-2.10395812988,-0.11169911176,2.0829668045,-0.330454498529,0.044115524739,-0.301712989807,-0.0576566383243,-0.30829924345,0.0477049201727,-0.696561574936,0.0141043346375,0.500858843327,0.523591330259,0.124051021215,0.378073001941,0.0500107105017,0.946100561121,0.31509821127,0.0557294717814
0.287471652031,-0.136805906892,-0.0362110994756,-2.10297250748,-0.124113745987,2.08341002464,-0.321878641844,0.044115524739,-0.350965261459,-0.0448624640703,-0.370822131634,0.0603154450655,-0.683810114861,0.0429688952863,0.457199335098,0.525901614623,0.116066848187,0.379243889399,0.0552961692104,0.948159983716,0.307786453082,0.0565904403393
0.280282020569,-0.137538343668,-0.0439277477562,-2.10177540779,-0.137164637446,2.08420038223,-0.313400030136,0.044115524739,-0.412386476994,-0.034400831908,-0.456819444895,0.0631571933627,-0.693504869938,0.0465184785426,0.457073241472,0.528565762407,0.106491805867,0.380502547372,0.060852634677,0.950484967961,0.299273009199,0.0575408393049
0.25773742795,-0.138447850943,-0.0691343396902,-2.09795880318,-0.169938758016,2.08937692642,-0.293923556805,0.044115524739,-0.548365533352,-0.000366893829778,-0.612190067768,0.0939778909087,-0.68047606945,0.16663902998,0.352593719959,0.536249795936,0.0769834304256,0.383950304202,0.0748213401623,0.956940906009,0.273796834622,0.0608371802813
0.248645246029,-0.138380900025,-0.0794251188636,-2.09638881683,-0.180632770061,2.09252500534,-0.288375854492,0.044115524739,-0.585137307644,0.00395538657904,-0.673058688641,0.0960199907422,-0.65243524313,0.223384544253,0.349970847368,0.539059261439,0.0653247382581,0.385206034139,0.079418819668,0.959207546529,0.264057760736,0.0623460700575
0.237212538719,-0.138114616275,-0.0925378873944,-2.09453725815,-0.192537516356,2.09751820564,-0.282087475061,0.044115524739,-0.615688502789,0.0227926708758,-0.709304749966,0.102132253349,-0.607072114944,0.290756106377,0.323354721069,0.542548512716,0.0499748532685,0.386791575491,0.0848185545947,0.962066547422,0.251106891186,0.0646459590238
0.217574328184,-0.137050777674,-0.115527391434,-2.0912437439,-0.209109023213,2.1070497036,-0.272497415543,0.0441174916923,-0.674681901932,0.0439526699483,-0.800354421139,0.121190294623,-0.521491527557,0.340603172779,0.327309727669,0.547321620241,0.0258439848543,0.389053262636,0.0918001546209,0.966381174161,0.230240908208,0.068332142651
0.205292537808,-0.136134952307,-0.129999682307,-2.08887529373,-0.217872709036,2.11319327354,-0.266976386309,0.0441174916923,-0.706756591797,0.0533403865993,-0.842669487,0.139454603195,-0.463193565607,0.362728476524,0.299973785877,0.549927334993,0.0103073212054,0.390519581484,0.0957282212769,0.968975328817,0.216606219906,0.0707436568717
0.192816257477,-0.13501855731,-0.144851371646,-2.08632946014,-0.225388005376,2.11978268623,-0.261997610331,0.0441174916923,-0.73590362072,0.0738957971334,-0.888110101223,0.156786203384,-0.405032873154,0.4008423388,0.26827698946,0.552208108893,-0.00545386854585,0.391982989532,0.0992080304382,0.971444187253,0.202692240377,0.0732790088178
0.182016655803,-0.133851006627,-0.157920703292,-2.08397555351,-0.231007024646,2.12569880486,-0.258432269096,0.0441174916923,-0.732579708099,0.0875154584646,-0.90713429451,0.166325867176,-0.356551885605,0.414193481207,0.223495483398,0.553888411599,-0.01916552589,0.393216210874,0.101929728218,0.973417207833,0.190713491555,0.0754826723996
0.145451560616,-0.129176706076,-0.203459143639,-2.07535719872,-0.246351838112,2.14780068398,-0.247726783156,0.0441194623709,-0.779536128044,0.104950666428,-0.977030038834,0.198958605528,-0.295873612165,0.476371943951,0.211135864258,0.55751552684,-0.0662525004528,0.397470701314,0.11018853172,0.979057450944,0.149398154465,0.0835774273702
0.130237609148,-0.126892924309,-0.223102137446,-2.07119488716,-0.251782745123,2.15743708611,-0.243560507894,0.0441194623709,-0.744938731194,0.118344888091,-0.975044906139,0.209959119558,-0.240227758884,0.489638924599,0.205357924104,0.55801711084,-0.0863131950292,0.399378410592,0.11354394407,0.980896751447,0.131770210604,0.0870973424303
0.120355710387,-0.125368893147,-0.235975146294,-2.06848168373,-0.254807174206,2.16375923157,-0.240942284465,0.0441194623709,-0.757547914982,0.110014505684,-0.997398734093,0.20741429925,-0.217082649469,0.483523249626,0.194604620337,0.557955020431,-0.0993941672725,0.400596181353,0.115601568785,0.981938537542,0.120192694077,0.0893683488209
0.102297641337,-0.122754275799,-0.259806752205,-2.06341171265,-0.259278714657,2.17543959618,-0.236380591989,0.0441194623709,-0.738622486591,0.120469525456,-0.983183145523,0.215856477618,-0.165971443057,0.500210404396,0.195475429296,0.557041515725,-0.12342613558,0.402962551658,0.119122615624,0.983508426338,0.098731609145,0.0936645440952
0.081077888608,-0.119660995901,-0.288505077362,-2.05733704567,-0.263906091452,2.18973064423,-0.230864495039,0.0441194623709,-0.710263192654,0.101187832654,-0.980842888355,0.205791428685,-0.145224779844,0.488326579332,0.186292424798,0.554653013734,-0.152073357435,0.405854034838,0.123356090399,0.98472455013,0.0729632124455,0.0988797484771
0.0719819515944,-0.118390165269,-0.301147520542,-2.05477380753,-0.265592366457,2.19613552094,-0.228453725576,0.0441194623709,-0.693685293198,0.0947907716036,-0.964343011379,0.193102687597,-0.122809045017,0.495106846094,0.177576512098,0.553155264116,-0.164519132365,0.407130726682,0.12516693579,0.985031167927,0.0616718328937,0.101209787677
0.057483702898,-0.116513639688,-0.321801245213,-2.0507953167,-0.267926633358,2.20662117004,-0.22498293221,0.0441194623709,-0.659898221493,0.0771228894591,-0.970557570457,0.183488041162,-0.0891833230853,0.504472315311,0.141426950693,0.5501070948,-0.184585973917,0.409215760057,0.128072236762,0.985230483617,0.0435441195443,0.104987169082
0.0453321188688,-0.115106485784,-0.339624851942,-2.04734778404,-0.269146442413,2.21631765366,-0.222251966596,0.0441194623709,-0.63313794136,0.0713058114052,-0.933437645435,0.179640620947,-0.0370513834059,0.52015209198,0.14014095068,0.547075588356,-0.201600525027,0.411217393858,0.130449945508,0.98507987296,0.028046782432,0.108691459173
0.0181162077934,-0.11308657378,-0.381450235844,-2.04075217247,-0.26982152462,2.24016308784,-0.214622601867,0.0441194623709,-0.525643408298,0.0185899734497,-0.840430676937,0.107694134116,4.52715576102e-05,0.513463556767,0.1881647259,0.537974488871,-0.240321766798,0.415950267166,0.135392428878,0.983698056275,-0.00868879449629,0.118031897515
0.00963384844363,-0.112955547869,-0.395373791456,-2.03919196129,-0.269818693399,2.24870681763,-0.211390435696,0.0441240593791,-0.495318353176,-0.00497067021206,-0.8357462883,0.0842215418816,0.00142034783494,0.521198987961,0.204182833433,0.534833047642,-0.251292261579,0.417372939238,0.136796173312,0.982983652623,-0.0195110031442,0.121034152605
0.00079590769019,-0.11308028549,-0.410410910845,-2.03790545464,-0.269789606333,2.25874662399,-0.207182720304,0.0441240593791,-0.448916167021,-0.0132947191596,-0.762123465538,0.0508058480918,0.000892521289643,0.529063761234,0.229087382555,0.530320594779,-0.265942267019,0.419367918916,0.138738191165,0.981740883032,-0.034368666771,0.125520306469
-0.0188024006784,-0.114582940936,-0.444354504347,-2.03640460968,-0.268224418163,2.28460144997,-0.192742750049,0.0441240593791,-0.333666682243,-0.0383601859212,-0.58647698164,0.00419601006433,0.0668760687113,0.505500614643,0.35792401433,0.520389255266,-0.294589354563,0.423705198459,0.142127660017,0.978157611666,-0.0663570818233,0.136397039504
-0.0235717240721,-0.11522834748,-0.452471733093,-2.03642416,-0.267179727554,2.29213428497,-0.187053009868,0.0441240593791,-0.31248742342,-0.0410615876317,-0.505118012428,-0.00549739087,0.067120693624,0.497185081244,0.399096906185,0.51767048928,-0.301984181368,0.424987794138,0.142726325794,0.976843336253,-0.075985191165,0.14011617595
-0.0284232962877,-0.116071619093,-0.460326075554,-2.03653240204,-0.265972286463,2.30019330978,-0.180210188031,0.0441240593791,-0.268466055393,-0.057245682925,-0.428914248943,-0.00418022274971,0.0883912295103,0.44844403863,0.403121262789,0.515150776648,-0.308764407816,0.426336260859,0.143206014897,0.975420011856,-0.0854736919652,0.144021128465
