imanlab/tactile_prediction_flat_dataset/train/data_sample_2021-11-24-15-40-42/robot_state.csv
position_panda_joint1,position_panda_joint2,position_panda_joint3,position_panda_joint4,position_panda_joint5,position_panda_joint6,position_panda_joint7,position_panda_finger,velocity_panda_joint1,velocity_panda_joint2,velocity_panda_joint3,velocity_panda_joint4,velocity_panda_joint5,velocity_panda_joint6,velocity_panda_joint7,ee_state_position_x,ee_state_position_y,ee_state_position_z,ee_state_orientation_x,ee_state_orientation_y,ee_state_orientation_z,ee_state_orientation_w
0.123671650887,-0.10793222487,-0.085732832551,-2.45711112022,-0.104475744069,2.33343529701,-0.601023733616,0.0582010224462,-9.58962209552e-06,-0.000378124474082,1.80877796083e-05,0.000458672264358,-0.00013372664398,-7.94309380581e-05,-7.29129387764e-05,0.464214556095,0.00866795460197,0.224923694705,0.029371942634,0.936704133935,0.348487848563,-0.016699507327
0.123669050634,-0.107932500541,-0.0857359915972,-2.45711016655,-0.104475803673,2.33343625069,-0.601023972034,0.0582010224462,-3.76724310627e-05,-0.000351197319105,5.20662324561e-05,-0.00025655614445,7.79070032877e-05,-8.59527281136e-05,-0.00014311131963,0.464215250862,0.00866536479468,0.224924282558,0.0293720438549,0.936705100875,0.348485288628,-0.0166985128201
0.123669408262,-0.107930056751,-0.0857344418764,-2.45710992813,-0.104476355016,2.33343577385,-0.601024389267,0.0582010224462,-0.00312906922773,7.81331618782e-06,0.000192068706383,-0.000451560103102,6.19321726845e-05,5.25733485119e-05,-2.71825797427e-06,0.464214979029,0.00866613091196,0.224923225019,0.0293720255401,0.936704600574,0.348486569884,-0.0166998705474
0.123670533299,-0.107926636934,-0.085734128952,-2.45711326599,-0.104475326836,2.33343505859,-0.601024031639,0.0582010224462,-0.000119369091408,0.000304985878756,-0.000366813677829,-0.000101446967165,1.7295618818e-05,0.00010401369218,-5.24005845364e-05,0.464212986348,0.00866665724372,0.224920152434,0.0293706185506,0.936704557325,0.348486637187,-0.0167033661144
0.123671323061,-0.107926487923,-0.0857352539897,-2.45711326599,-0.104477114975,2.33343505859,-0.601024389267,0.0582010224462,0.00018231170543,0.000609672220889,0.000304882531054,0.000184902761248,-3.09376518999e-05,8.16059327917e-05,7.40953328204e-05,0.464212999313,0.00866646930069,0.224920128955,0.0293712358667,0.936704237944,0.348487433158,-0.0167035846232
0.123672127724,-0.107930906117,-0.0857343450189,-2.4571120739,-0.104476392269,2.33343529701,-0.601022958755,0.0582010224462,0.00035569028114,-0.000294115219731,9.87948951661e-05,6.20221471763e-05,2.83061526716e-05,-2.28869212151e-05,0.000874551595189,0.464214017545,0.00866740298675,0.224922685167,0.0293717841295,0.936704340815,0.348487251115,-0.0167006494482
0.12367182225,-0.107934266329,-0.0857337191701,-2.45710849762,-0.104476422071,2.33343625069,-0.601023495197,0.0582010224462,-5.53909158043e-05,-0.000467654404929,0.000569055497181,0.000169322622241,2.47893258347e-05,1.64702087204e-05,0.00133807200473,0.464216125677,0.00866765888574,0.22492580814,0.0293728857933,0.93670425747,0.348487563392,-0.0166968699236
0.123669579625,-0.107933044434,-0.0857352390885,-2.45710873604,-0.104474872351,2.33343625069,-0.60102391243,0.0582010224462,0.00223309500143,0.000635833013803,0.000193383530132,-0.000338709534844,-0.000120481825434,0.000123313991935,-0.000142937511555,0.464215905413,0.00866606450188,0.224925126939,0.0293720591883,0.936705031607,0.348485523579,-0.016697468182
0.123671710491,-0.107928566635,-0.0857350081205,-2.45711421967,-0.104475595057,2.33343434334,-0.601024806499,0.0582010224462,0.000249995471677,-0.000184624528629,0.000495868385769,-0.003690949874,-3.95855022362e-05,-3.57526259904e-05,-0.00465530250221,0.464212633392,0.00866690088223,0.22492062366,0.0293707304259,0.93670426822,0.348487411637,-0.0167032244894
0.123673692346,-0.107935115695,-0.085732974112,-2.45711016655,-0.104474589229,2.33343553543,-0.601022362709,0.0582016818225,-0.000546116149053,-0.000907590263523,6.93120682627e-06,0.00032168335747,7.90932317614e-05,1.29040045067e-05,-9.68685635598e-05,0.464215299901,0.00866900813568,0.224925438232,0.0293720749271,0.93670423377,0.348487671442,-0.0166973707919
0.123670443892,-0.107932560146,-0.0857348442078,-2.45710945129,-0.104474313557,2.33343625069,-0.601022839546,0.0582016818225,0.000103884500277,9.36470132729e-06,-3.14435892506e-05,-0.000211406455492,2.13626972254e-05,3.8859743654e-06,-0.000164285811479,0.46421552891,0.00866668188432,0.224924604244,0.0293717393108,0.93670506063,0.348485449001,-0.0166979591698
0.123673409224,-0.107923649251,-0.0857343450189,-2.45711636543,-0.104475580156,2.33343410492,-0.601022839546,0.0582016818225,0.000263515685219,0.000152736334712,-0.000138429182698,0.000395253882743,1.7263665768e-06,-4.21826662205e-05,6.62166276015e-05,0.464211109712,0.0086678892256,0.224917443724,0.0293698662702,0.936704129198,0.348487691894,-0.0167066927696
0.123672157526,-0.107928387821,-0.0857346504927,-2.45710992813,-0.104475341737,2.33343577385,-0.601022601128,0.0582016818225,-1.99339865503e-06,-0.000201023853151,-0.000371333881048,0.000812197919004,0.000103581878648,0.000249195611104,7.92061473476e-05,0.464214766689,0.00866738905823,0.224922446886,0.0293715092764,0.936704586998,0.348486618912,-0.016700516891
0.123672656715,-0.107934974134,-0.0857338905334,-2.45710682869,-0.104474745691,2.33343625069,-0.601022362709,0.0582016818225,-0.000149453160702,-0.000273953570286,0.000366028194549,-8.90944249932e-07,-3.87362451875e-05,1.7215976186e-05,2.74272351817e-05,0.46421689641,0.00866816198585,0.22492681784,0.0293726557766,0.936704586219,0.348486762777,-0.0166955414112
0.123674966395,-0.107935979962,-0.0857339203358,-2.45710945129,-0.104475900531,2.33343529701,-0.601022541523,0.0582016818225,0.000469340826385,0.000203070710995,5.76650973017e-06,-0.000263616908342,1.42510562e-05,-0.000177990557859,-0.000173917826032,0.46421565865,0.00866906041981,0.224926118279,0.0293726609636,0.936703988691,0.348488306189,-0.0166968408386
0.123674094677,-0.107923671603,-0.0857347622514,-2.45711088181,-0.104475870728,2.33343577385,-0.601020991802,0.0582016818225,-0.00274066627026,0.000875613244716,-1.87231871678e-05,0.000646052532829,-2.55308659689e-05,-9.23070547287e-05,8.02581562311e-05,0.46421447711,0.00866857378079,0.22492173327,0.0293718249597,0.936703918442,0.348488352324,-0.0167012890412
0.123668044806,-0.107920579612,-0.085735462606,-2.45711350441,-0.1044742167,2.33343482018,-0.601021945477,0.0582016818225,7.94329171185e-05,0.000202112511033,-0.000220465110033,-0.000792199338321,5.13418035553e-06,-2.14164319914e-05,0.000376200448954,0.464212209179,0.00866504500735,0.224917262205,0.029369470686,0.936705593717,0.348483801987,-0.0167064158435
0.123670615256,-0.10792530328,-0.0857381299138,-2.45711541176,-0.104474969208,2.33343482018,-0.601020097733,0.0582016818225,0.000443581899162,-0.000452720705653,0.000290839961963,0.00051234831335,0.000161323143402,1.18357975225e-05,0.000157326154294,0.464211899094,0.00866500398022,0.224918640484,0.0293698514212,0.936705861645,0.348483115749,-0.0167050385162
0.123674102128,-0.107930645347,-0.085732921958,-2.45711016655,-0.10447512567,2.33343601227,-0.601020514965,0.0582016818225,0.000233280166867,3.05377398035e-05,-0.00328135164455,7.45432116673e-05,5.47567469766e-05,5.22115296917e-05,0.000336274330039,0.464215021989,0.00866910671133,0.22492348675,0.0293718067595,0.936704468301,0.348486974617,-0.0166992287407
0.123675793409,-0.107929699123,-0.0857332870364,-2.45711326599,-0.104474999011,2.33343529701,-0.601021230221,0.0582016818225,-0.000139929135912,-0.00060530367773,0.000179769820534,-0.000182990828762,-3.80101555493e-05,5.81807471463e-05,4.15534168496e-06,0.4642132485,0.00866967685531,0.224921666915,0.0293710544578,0.936704031313,0.348488101793,-0.016701541172
0.123675055802,-0.107929013669,-0.0857342630625,-2.45711255074,-0.104474209249,2.33343482018,-0.601019859314,0.0578615255654,-0.000116109200462,0.000365695828805,-0.000494633044582,-0.000278235471342,-1.97125814339e-06,-0.000114174130431,-0.000127312698169,0.464213455206,0.00866896465116,0.224921559558,0.0293707367698,0.936704622255,0.348486531351,-0.0167017251004
0.123672500253,-0.107927776873,-0.0857331827283,-2.45711231232,-0.104474946856,2.33343553543,-0.601020336151,0.0578615255654,-0.000721467717085,9.14051779546e-05,0.000121168959595,-0.000157140384545,4.53159118479e-05,0.000122277997434,-0.00032437761547,0.464213604027,0.00866820113381,0.224921157982,0.029371012743,0.936704686973,0.348486321877,-0.0167019808568
0.123672924936,-0.107925832272,-0.0857348144054,-2.45710968971,-0.104474581778,2.33343625069,-0.601017653942,0.0578615255654,0.000148878272739,0.000609537237324,3.49676774931e-05,0.000367689994164,0.000131316264742,1.8146542061e-05,-0.000295170466416,0.464214685811,0.0086677283563,0.22492140038,0.0293710857747,0.93670542068,0.348484378237,-0.016701257428
0.123676002026,-0.10792927444,-0.0857312306762,-2.45711255074,-0.104473896325,2.33343553543,-0.601019024849,0.0578615255654,-0.000238306893152,0.000691420980729,-0.000105186416476,-1.36851213028e-05,-0.000190224003745,0.000198851092136,0.000271093682386,0.46421374173,0.00867083321324,0.224921787952,0.0293710171385,0.936704050704,0.34848807576,-0.0167010624297
0.123673222959,-0.107931643724,-0.0857342258096,-2.45710992813,-0.104473434389,2.33343601227,-0.60101890564,0.0578615255654,-2.0885720005e-05,-0.000853024539538,0.00019783328753,0.000198217807338,9.99262410915e-05,-0.000348385801772,-0.000214870058699,0.464215134983,0.00866830981489,0.224923960371,0.0293713209865,0.936705256426,0.348484929145,-0.0166985608012
0.123676933348,-0.107926174998,-0.0857318639755,-2.45711231232,-0.104473590851,2.33343529701,-0.601019620895,0.0578615255654,3.52222086804e-05,0.000783181050792,6.28397101536e-05,-0.000701744284015,0.00389494444244,5.22280715813e-05,-9.75201255642e-05,0.464213317462,0.0086709550656,0.22492039666,0.0293704549558,0.936703972683,0.348488256078,-0.0167026643631
0.123676389456,-0.107926100492,-0.0857334211469,-2.45711278915,-0.104474671185,2.33343529701,-0.601017832756,0.0578615255654,7.37910377211e-05,0.000487657351186,-0.000187655852642,0.000455879315268,0.00457978341728,0.00146648788359,-0.000629802816547,0.464213131672,0.00866989035425,0.22492016255,0.0293706603255,0.936704502086,0.34848679885,-0.0167030176038
0.123673401773,-0.107925646007,-0.0857324078679,-2.45711159706,-0.104473754764,2.33343553543,-0.601019144058,0.0532858744264,-6.27147237537e-05,0.000345905631548,-2.84985580947e-05,-0.000400763528887,6.84016631567e-05,0.000185313139809,-0.000183738680789,0.464213657312,0.00866906429471,0.224920468181,0.0293705325281,0.936704746251,0.348486176759,-0.0167025286594
0.123675361276,-0.107930138707,-0.0857324227691,-2.45711159706,-0.104474842548,2.33343577385,-0.601015985012,0.0532858744264,0.000109658169094,-0.000162177020684,-0.000136188114993,0.000377456221031,3.03936794808e-05,0.000279342202703,0.00201035593636,0.464214064578,0.00866983776547,0.224922380904,0.0293714425466,0.936704850312,0.348485918781,-0.0167004748967
0.123680122197,-0.107929550111,-0.0857328474522,-2.45711064339,-0.104475177824,2.33343553543,-0.601018369198,0.0532858744264,-0.000203760224395,0.000289986957796,-0.000331312243361,-0.000101307479781,4.93252300657e-05,-0.00441787624732,-0.000109379114292,0.464214447285,0.00867191275171,0.224922674383,0.0293716573604,0.936703647899,0.348489145466,-0.0167002076156
0.123675875366,-0.107927434146,-0.0857341438532,-2.45711183548,-0.104474939406,2.33343529701,-0.601018965244,0.0532858744264,-0.000110206776299,-0.000526967807673,-2.16487987927e-05,-0.0002871688921,-0.000308294111164,-0.000231729398365,-0.00134007376619,0.464213698165,0.00866933049317,0.224921173064,0.0293709975456,0.936704508529,0.348486803392,-0.0167019685071
0.123672872782,-0.107926219702,-0.0857377871871,-2.4571120739,-0.104474440217,2.33343482018,-0.601019382477,0.0532858744264,0.000208444151212,-0.000480753864395,-0.000197283050511,0.00023272180988,-0.000250892451731,-0.000947832711972,-0.00493076117709,0.464213407727,0.00866631202746,0.224920450874,0.0293703410112,0.936705647521,0.348483751933,-0.0167029128136
0.123671352863,-0.107925660908,-0.0857370495796,-2.45711231232,-0.104474492371,2.33343553543,-0.601017892361,0.0532858744264,-0.00022472688579,-0.000243557311478,-0.000141355558299,0.000218910630792,0.000232037695241,0.00190606317483,7.32493299438e-06,0.464213409852,0.00866594432638,0.224920157809,0.0293703886082,0.936706027068,0.348482725704,-0.0167029548295
0.12367977947,-0.107930168509,-0.0857332646847,-2.45711112022,-0.104473777115,2.33343625069,-0.601016521454,0.0532858744264,-2.68250801128e-06,0.000110041211883,1.26600016301e-05,4.08501291531e-05,-0.0058606066741,2.63279457613e-06,-0.00012747826986,0.464214455245,0.0086717250853,0.224922810399,0.0293712451449,0.936704288335,0.348487486536,-0.0166996283522
0.123681545258,-0.107928596437,-0.085729546845,-2.45711159706,-0.104474298656,2.33343529701,-0.601018071175,0.0532858744264,0.000248297670623,-0.00218927278183,0.000440680130851,0.000263099354925,-8.60278887558e-05,-0.000158390874276,3.68442961189e-05,0.464213836383,0.0086741115156,0.224921828969,0.0293712814373,0.936702972493,0.348490948794,-0.0167011210614
0.123681947589,-0.107929959893,-0.0857307910919,-2.45711183548,-0.104473829269,2.33343529701,-0.601016461849,0.0532858744264,0.000110987923108,0.001360121998,-0.000224355186219,-0.000289847346721,-0.000214262036025,-1.99737150979e-05,1.75579752977e-05,0.464213880244,0.00867379897067,0.224922349827,0.0293711806882,0.93670347364,0.348489640092,-0.016700498515
0.123673714697,-0.107930287719,-0.0857338532805,-2.45711016655,-0.104474052787,2.33343648911,-0.601016938686,0.0532858744264,-3.88470034522e-05,0.0011101445416,-9.87371895462e-05,-0.00010031099373,4.57210808236e-05,0.00297896959819,4.79579284729e-05,0.464214990837,0.00866863911358,0.224923280896,0.029371441754,0.936705349555,0.348484641574,-0.0166991256604
0.123678207397,-0.107923813164,-0.0857348516583,-2.45711088181,-0.104474812746,2.33343338966,-0.601015925407,0.0476923882961,0.000248304510023,0.000196906097699,0.00041549038724,0.000408624531701,0.000245798990363,-0.00385555555113,-0.000128116764245,0.464213287279,0.00867001334358,0.224919733532,0.0293704566435,0.936704748454,0.348486101357,-0.01670411171
0.123688012362,-0.107926018536,-0.085727468133,-2.45711231232,-0.104474939406,2.33343625069,-0.601016402245,0.0476923882961,0.000251357065281,0.000407126441132,3.39376965712e-05,6.90611850587e-05,-4.21486729465e-05,3.59724390364e-06,-7.20872849342e-05,0.46421339609,0.00867797217992,0.224920435953,0.0293714035374,0.93670165346,0.348494432649,-0.0167021902543
0.123691052198,-0.107926540077,-0.0857269018888,-2.45711016655,-0.104474283755,2.33343696594,-0.601016581059,0.0476923882961,0.00110362877604,0.000139739422593,0.000218937901082,0.000326984096318,0.00195571687073,0.000927430868614,-9.95518275886e-05,0.464214495279,0.00867975731518,0.224921628338,0.0293717172343,0.936701107421,0.348495956592,-0.0167004642756
0.123686149716,-0.10793261975,-0.0857323333621,-2.4571044445,-0.104471541941,2.33343148232,-0.601015806198,0.0476923882961,-0.000367222935893,0.00068971735891,1.42917233461e-05,0.000876475940458,0.000712542969268,-0.00061813776847,-3.56051496055e-05,0.46421646585,0.00867529184593,0.22492631087,0.029371336443,0.936703538257,0.348489608671,-0.0166972556558
0.123682841659,-0.107938721776,-0.0857370048761,-2.45710253716,-0.104473233223,2.33343529701,-0.60101634264,0.0476923882961,0.000103595695691,-0.000564582122024,1.54970348376e-06,-0.000528559961822,5.73138604523e-05,-0.000432905915659,-0.000339611142408,0.464218856477,0.00867171089955,0.224930228059,0.0293730661932,0.936704689324,0.348486631906,-0.0166917659004
0.123681135476,-0.107934832573,-0.0857382193208,-2.45710945129,-0.104474432766,2.3334414959,-0.601014614105,0.0476923882961,0.000201459246455,0.00068202073453,-0.000192655876162,-0.000644102809019,-0.000225631170906,6.66627674946e-05,-5.23434064235e-05,0.464216988481,0.00866988514161,0.224926088822,0.0293725721964,0.936705373206,0.348484731845,-0.0166939260252
0.123685084283,-0.107937604189,-0.0857376679778,-2.45710873604,-0.104473769665,2.33343958855,-0.601013541222,0.0476923882961,-0.000122995479614,0.000234343489865,0.000252401194302,0.000344868574757,-0.000153581611812,-0.00054112932412,0.0004502661468,0.464217814249,0.00867395490655,0.224928103951,0.0293733454072,0.936704236006,0.348487805899,-0.0166922033664
0.123692549765,-0.107931241393,-0.0857322365046,-2.45710325241,-0.104473859072,2.33343982697,-0.601015925407,0.0476923882961,0.000350357790012,0.000171850173501,9.02172541828e-05,-0.000473469845019,-0.000156889145728,0.000429752515629,-9.51602123678e-05,0.464218624512,0.00867832998818,0.22492688514,0.0293732317161,0.936702065028,0.348493591176,-0.0166934486182
0.123691797256,-0.107931107283,-0.0857314988971,-2.45710921288,-0.10447473824,2.33343625069,-0.601013720036,0.0476923882961,-4.91477003379e-05,8.10484198155e-05,0.000100371391454,-2.74566518783e-05,-2.9432163501e-05,9.96778617264e-05,-0.000237711836235,0.464215271206,0.00867804228796,0.224924052832,0.0293722130699,0.936702276104,0.348492884972,-0.0166981391391
0.123694323003,-0.107933625579,-0.0857313424349,-2.4571056366,-0.104474619031,2.33343863487,-0.601014614105,0.0476923882961,0.000178571135621,-0.000577547412831,0.000475125707453,0.000457812217064,9.87172243185e-05,6.38389683445e-05,0.000169206046849,0.464217578885,0.00867944752725,0.224926903577,0.0293733318155,0.936701728319,0.348494460123,-0.0166940256096
0.123691812158,-0.107932180166,-0.0857340022922,-2.45710849762,-0.104473657906,2.33343815804,-0.601014077663,0.0476923882961,-0.000480779475765,-0.000223471433856,0.0004872038553,-0.000386632571463,-9.8430646176e-05,0.000109225184133,3.527170702e-05,0.464216067672,0.00867649313929,0.224925427259,0.0293726552283,0.936702842618,0.348491420653,-0.0166961425067
0.123685851693,-0.107933349907,-0.0857391059399,-2.45710587502,-0.104474082589,2.33343911171,-0.601014256477,0.0476923882961,-0.000546510796994,-3.94275912186e-06,-0.000221359179704,0.000192041217815,8.78423161339e-05,7.85366864875e-05,-0.000526959309354,0.464217674297,0.00867208121967,0.224926672956,0.029372596868,0.936704688065,0.348486561824,-0.0166941254319
0.123685777187,-0.107932887971,-0.0857410207391,-2.45710420609,-0.104474574327,2.33344054222,-0.601014196873,0.0476923882961,0.000241685891524,-0.000387609587051,-0.00025422355975,-0.000182622345164,-9.8511321994e-05,-7.47732628952e-05,6.63356913719e-05,0.464219376888,0.0086712584133,0.224928240742,0.0293730637713,0.93670498241,0.348485821901,-0.0166922338794
0.123691916466,-0.107931897044,-0.0857369303703,-2.45710611343,-0.104473546147,2.33344078064,-0.601015627384,0.0397697016597,0.000482664094307,-9.37251297728e-06,0.000597198726609,-0.000237888874835,-4.94812957186e-05,2.15662912524e-05,-0.000323787739035,0.464217659815,0.00867545088558,0.224925807986,0.0293725115637,0.936703300246,0.34849029222,-0.0166942740639
0.123699434102,-0.107933372259,-0.0857298523188,-2.45710468292,-0.104474335909,2.33343935013,-0.601014196873,0.0397697016597,0.00382509292103,0.000278224790236,0.00026577009703,-0.000151397834998,7.97746251919e-05,-1.33432131406e-05,0.000213591105421,0.464218060768,0.00868254835091,0.22492724939,0.0293735770443,0.936700694089,0.348497257061,-0.0166932373246
0.123698323965,-0.107934832573,-0.085730150342,-2.45710778236,-0.104474574327,2.33343815804,-0.601013898849,0.0397697016597,0.00149819755461,0.000104063699837,-0.000176987698069,-1.10329310701e-05,3.509455928e-05,-0.000124833881273,-0.000565373920836,0.464216635828,0.00868181998716,0.224926534071,0.0293731745168,0.936700943773,0.348496554036,-0.0166946118759
0.123694963753,-0.107936151326,-0.0857327505946,-2.45710897446,-0.104475580156,2.33343696594,-0.601014077663,0.0397697016597,-0.000582813925575,0.00033634234569,6.74207258271e-05,1.24829457491e-05,-7.62516719988e-05,0.00015486869961,-0.000194677180843,0.464216061907,0.00867895937019,0.224926539806,0.0293731553856,0.936701821524,0.348494164849,-0.0166952702382
0.123692087829,-0.107943534851,-0.0857368782163,-2.45709586143,-0.104474939406,2.33344101906,-0.601014256477,0.0397697016597,-0.00015197211178,-0.00113225961104,-0.000291970733088,0.000537070503924,0.000104102029582,-0.000214815459913,0.00017520628171,0.464223436901,0.00867621630434,0.224935719337,0.029376045537,0.936703304049,0.348490500875,-0.0166834834076
0.123694211245,-0.107953593135,-0.0857378020883,-2.45708298683,-0.104475006461,2.33344244957,-0.601013481617,0.0397697016597,0.000490504433401,-0.00100887345616,-0.000720991345588,-6.22434527031e-05,-0.000108742831799,0.000132385306642,0.000161388044944,0.464230363857,0.00867712088367,0.224945836361,0.0293793768485,0.936703456233,0.348490372265,-0.0166717552163
0.123694553971,-0.108013428748,-0.0857364609838,-2.45702552795,-0.104474440217,2.33345246315,-0.601013541222,0.0397697016597,-0.00300132599659,-0.00108136003837,0.000124554120703,0.00418425817043,0.000229911864153,-0.000407391256886,-0.000115974027722,0.464263701486,0.00867976831474,0.224998220121,0.0293963322574,0.936704417526,0.34848928485,-0.0166104746655
0.123697794974,-0.108042895794,-0.0857331305742,-2.45699477196,-0.104475513101,2.33344960213,-0.601011931896,0.0397697016597,0.000430785439676,-0.00238154130057,0.000235847139265,0.0021236105822,0.000131287713884,-0.00063205382321,0.000581336033065,0.464279442081,0.00868336606589,0.225024411875,0.0294047891394,0.936704031416,0.348490919401,-0.0165829637018
0.123702317476,-0.108049407601,-0.0857306495309,-2.45694446564,-0.104475162923,2.33344578743,-0.601012051105,0.0397697016597,-3.58943798346e-05,-0.00186881516129,-0.000255574821495,0.00228367024101,9.17243814911e-05,0.00030168631929,-9.80141630862e-05,0.464302177441,0.00868732127944,0.225049523663,0.0294134135661,0.936703553174,0.348492764488,-0.0165558859226
0.123697884381,-0.108060970902,-0.0857318341732,-2.4569067955,-0.104473821819,2.33344864845,-0.60101133585,0.0397697016597,1.23223333759e-08,0.000132134300657,-0.000378005817765,0.000444628210971,-0.000312627176754,9.32490511332e-05,0.00010074882448,0.464319035447,0.00868548652686,0.225069291597,0.0294199820925,0.936705219169,0.348488832316,-0.0165327091396
0.123689547181,-0.108050607145,-0.0857380852103,-2.45692038536,-0.104475714266,2.33344364166,-0.60101300478,0.0397697016597,-0.000155972680659,0.000261895329459,0.000133457346237,-0.00020518846577,3.47343811882e-05,3.28213136527e-05,9.73459900706e-05,0.464311115777,0.00867815760292,0.225058407974,0.0294162526696,0.936706984053,0.34848372636,-0.0165469711139
0.123686626554,-0.108050681651,-0.0857408195734,-2.45691871643,-0.104474954307,2.33344388008,-0.60101044178,0.0397697016597,0.000623606669251,-0.000209558871575,-0.000322009786032,0.000988408573903,-7.99688568804e-05,9.19782251003e-05,-0.0002566841722,0.464312733829,0.00867613406752,0.225059882738,0.0294164207152,0.936708403672,0.348479985288,-0.0165450966385
0.123698212206,-0.108050338924,-0.0857343375683,-2.4569067955,-0.104474194348,2.33344602585,-0.601009964943,0.0397697016597,-2.35396346397e-05,0.000626601453405,0.000329956354108,0.000353371957317,-3.25537876051e-05,-7.55337023293e-05,0.000100708850368,0.464317342735,0.00868425559732,0.225064150495,0.0294184310297,0.936705686275,0.348487401261,-0.0165391676022
0.123698860407,-0.108048982918,-0.0857342854142,-2.45691347122,-0.10447524488,2.33344554901,-0.601011395454,0.0325319245458,-0.000335893739248,-0.00013194247731,0.000373182090698,-0.000367026688764,-0.000924768508412,-9.72526031546e-05,-0.00015356655058,0.464314223378,0.00868436106091,0.225060712607,0.0294175345193,0.936705093174,0.348488873088,-0.0165433402043
0.123693086207,-0.108049616218,-0.0857369452715,-2.45690727234,-0.104474142194,2.33344531059,-0.601009845734,0.0325319245458,-0.000153287619469,0.000102967649582,0.000499458110426,0.000205841090064,-0.000230996942264,-4.30148502346e-05,-0.000251907185884,0.464316966333,0.0086806697379,0.225063544224,0.0294179692137,0.936707051519,0.348483723155,-0.0165401663879
0.123692020774,-0.108048371971,-0.0857391282916,-2.45690870285,-0.104474663734,2.33344483376,-0.601008832455,0.0325319245458,0.000346960383467,0.000446141028078,7.62705603847e-05,-0.000416809576564,-3.11618532578e-05,-5.18712731719e-05,-0.000198858222575,0.464316143328,0.00867909300029,0.22506232602,0.0294175919876,0.936707699261,0.348481939297,-0.0165417380202
0.12369544059,-0.108051531017,-0.085734307766,-2.45690941811,-0.104474015534,2.33344483376,-0.601008176804,0.0325319245458,-0.000485627562739,0.000993186840788,5.27470074303e-05,0.000117828523798,2.69942975137e-05,-0.000116039591376,0.000166513418662,0.464316102219,0.00868294605774,0.225063508477,0.029417946701,0.936706485629,0.348485234701,-0.0165404073408
0.123696535826,-0.108048267663,-0.0857363566756,-2.45690941811,-0.104473866522,2.33344507217,-0.601010024548,0.0325319245458,5.63181492907e-05,0.00068071129499,-0.000366430700524,-0.000155937450472,8.83211832843e-05,6.93451947882e-05,-0.000657141907141,0.464315808393,0.00868251058869,0.225062009633,0.0294174179906,0.936706317446,0.34848566151,-0.0165418796614
0.123693719506,-0.108044333756,-0.0857369154692,-2.45690584183,-0.104473046958,2.33344554901,-0.601009488106,0.0324892401695,-6.94669433869e-05,-0.000178014553967,-0.000713309098501,0.00144747726154,-4.18768286181e-05,0.000169627208379,0.000476400280604,0.464317051142,0.00868103816654,0.225061713185,0.0294172454968,0.93670710506,0.348483561891,-0.0165418189766
0.123699054122,-0.10803835094,-0.0857343375683,-2.45691013336,-0.104474492371,2.33344554901,-0.601009249687,0.0324892401695,0.000609739334323,-0.000355746247806,0.00361073855311,-0.000403299316531,-0.00199586432427,-1.54514927999e-05,0.000179165115696,0.464314512701,0.00868440120945,0.225057186578,0.0294165880069,0.936705470419,0.34848777385,-0.0165468184186
0.12369966507,-0.108037427068,-0.0857343673706,-2.45691871643,-0.10447524488,2.33344292641,-0.601007819176,0.0324892401695,-0.000673379166983,0.000159024944878,0.00159854791127,0.000412759167375,-1.25873589241e-06,7.45587676647e-05,-0.000117736330139,0.464310146768,0.00868439827243,0.225052972123,0.0294150993709,0.93670542372,0.348487747809,-0.0165526558318
0.123689047992,-0.108041971922,-0.0857407599688,-2.45691847801,-0.104473233223,2.33344340324,-0.601009011269,0.0324892401695,-0.000134209316457,0.000230195873883,-0.000794212450273,-0.000158024718985,-2.42122332565e-05,0.000157271351782,0.00027767859865,0.464310956806,0.0086768641329,0.225055164009,0.0294145384105,0.936708496616,0.348479657107,-0.0165500926489
0.123699694872,-0.108032688498,-0.0857355818152,-2.45693349838,-0.104475043714,2.33343982697,-0.601010501385,0.0324892401695,0.000394398462959,0.000202766561415,0.000705013982952,0.000332859519403,6.21066719759e-05,0.000105324070319,-0.0017850655131,0.464302601093,0.00868354055044,0.22504436372,0.0294117070876,0.936704992639,0.348488677607,-0.0165634995229
0.123693116009,-0.108013905585,-0.0857390761375,-2.4569299221,-0.10447512567,2.33344054222,-0.601009726524,0.0324892401695,-0.000668428896461,-0.000349890848156,1.29570662466e-05,-7.75086518843e-05,-4.65909397462e-05,0.000171141931787,-0.00155643257312,0.464302368681,0.00867872226428,0.225037219904,0.029409957525,0.936706721374,0.348483836696,-0.0165706903302
0.123695030808,-0.108013622463,-0.0857379809022,-2.45692634583,-0.104474402964,2.33344173431,-0.601008832455,0.0324892401695,-3.14251201416e-06,0.000924940395635,0.0033813486807,-6.24622116447e-05,8.41302608023e-05,9.07189678401e-05,-0.000476180110127,0.464304106958,0.00868025170605,0.225038678739,0.0294104678385,0.936706480745,0.348484547493,-0.0165684385829
0.123697564006,-0.108013361692,-0.0857380405068,-2.45693492889,-0.104474261403,2.33343911171,-0.601009309292,0.0334269590676,3.28702408297e-05,-0.000620684993919,0.000291214586468,2.11954920815e-06,-2.14054707612e-05,-4.140065721e-05,0.00021070461662,0.464299950897,0.00868120853788,0.225035127811,0.0294089011441,0.936705894124,0.348486016197,-0.0165734923066
0.12369787693,-0.108015693724,-0.0857384651899,-2.45693492889,-0.104473538697,2.33343815804,-0.60100954771,0.0334269590676,0.000218060376938,-0.000289882911602,0.000417068164097,3.10870891553e-05,0.000191823477508,-1.36510170705e-05,0.00205103470944,0.464299914661,0.00868135256066,0.225035826999,0.0294086773291,0.936705895579,0.348486052348,-0.0165730471134
0.123699136078,-0.108013823628,-0.0857377573848,-2.45693445206,-0.104474507272,2.33343839645,-0.601009964943,0.0334269590676,0.00016492845316,-0.000353257899405,-5.11902544531e-05,-0.000233399608987,-7.87103708717e-05,-0.000164328317624,0.000294025114272,0.464299871255,0.00868204745132,0.225035119721,0.029408896061,0.936705437462,0.348487230807,-0.0165737717919
0.123700983822,-0.108012795448,-0.0857359096408,-2.45693731308,-0.104474149644,2.33343791962,-0.601008594036,0.0334269590676,-0.000111862493213,-6.72898604535e-05,0.000118460840895,-2.26526499318e-05,-7.1998583735e-05,1.2913313185e-05,-5.12118494953e-05,0.464298391299,0.00868370706315,0.225033421579,0.0294082889959,0.936705039461,0.348488256587,-0.016575774282
0.123697534204,-0.108010932803,-0.0857364088297,-2.45693349838,-0.104474186897,2.33343744278,-0.601008534431,0.0334269590676,-0.000501954113133,-0.000360221980372,0.00208123307675,0.000279797648545,1.47538012243e-05,0.000120938842883,4.90130623803e-05,0.464299764608,0.00868188655878,0.225034106629,0.0294085664479,0.936705755078,0.348486339085,-0.0165751555373
0.123699761927,-0.108011610806,-0.0857374221087,-2.4569337368,-0.104473181069,2.33343887329,-0.601008474827,0.0334269590676,0.000212921630009,0.0015784726711,0.00177948374767,-0.000626149354503,5.26465482835e-05,-4.56776069768e-05,0.000302469503367,0.464300024211,0.00868261116958,0.225034428812,0.0294083912651,0.936705689807,0.348486578766,-0.0165741157521
0.123700149357,-0.108010880649,-0.0857365950942,-2.4569337368,-0.104473762214,2.33343720436,-0.601009845734,0.0334269590676,-0.000116650160635,-0.00196621590294,-0.000421324832132,0.000242263195105,-2.2530226488e-05,-4.87483048346e-05,-0.000112874316983,0.464299578235,0.00868304712904,0.225033959645,0.029408347441,0.936705157077,0.348487955727,-0.0165753493595
0.123698800802,-0.108009010553,-0.085739120841,-2.45693302155,-0.104473471642,2.33343839645,-0.601008892059,0.0334269590676,0.00101361901034,-0.000258230371401,-1.03627535282e-05,0.00372057850473,8.06573516456e-05,1.67348807736e-05,-0.000190694350749,0.464299973218,0.0086813324366,0.225033478571,0.0294081314713,0.9367060249,0.348485642498,-0.0165753243547
0.123702228069,-0.108009196818,-0.0857379809022,-2.45693206787,-0.104475818574,2.33343982697,-0.601010262966,0.0334269590676,0.000228605524171,-0.000159376300871,-0.00260923686437,-0.00013664054859,0.000102755737316,0.00025983035448,-0.000433885492384,0.464300704155,0.00868326734968,0.225034102372,0.0294093704022,0.936704688395,0.348489179827,-0.0165742843147
0.123700171709,-0.10801307857,-0.0857356339693,-2.45692825317,-0.10447280854,2.33344006538,-0.601008176804,0.0334269590676,4.51110499853e-05,-0.00080183823593,0.00276032742113,0.00025621172972,8.74184916029e-05,-0.000253513630014,0.00600084662437,0.464302783525,0.00868376740795,0.225037495924,0.029409546095,0.936705477623,0.348487239232,-0.0165701710537
0.123698651791,-0.108018778265,-0.0857360437512,-2.45692539215,-0.104472838342,2.33344316483,-0.601009070873,0.0334269590676,7.25539357518e-05,-0.000686449813657,-0.00161000201479,-0.000302196160192,0.000248316646321,-0.000201020782697,0.000230955207371,0.464305320362,0.00868307992539,0.225041576984,0.0294109895181,0.936705736807,0.348486686627,-0.0165645784174
0.123699337244,-0.108010873199,-0.0857378691435,-2.4569375515,-0.104475177824,2.33343696594,-0.60100966692,0.0334269590676,-8.1520047388e-05,6.63048122078e-05,8.69784271345e-05,0.000234526698478,0.000130365777295,0.000300472718664,-0.000570065574721,0.464297913796,0.00868190392931,0.225032350865,0.0294081280892,0.936705325086,0.348487423704,-0.0165774293193
0.123697131872,-0.108007475734,-0.085738517344,-2.45693135262,-0.104474797845,2.33343982697,-0.601010084152,0.0334269590676,-0.000435224239482,0.00134302221704,0.000399106938858,0.000142282937304,0.00018608168466,4.24399768235e-05,-0.000644643383566,0.464300864853,0.00868074467114,0.225033595924,0.0294088586211,0.936705826724,0.348486140874,-0.0165747555351
0.123693555593,-0.108015805483,-0.0857417434454,-2.4569196701,-0.10447537154,2.33344244957,-0.601007640362,0.0334269590676,0.000267245224677,-0.000864717876539,3.58300603693e-05,0.000397389521822,-5.18897541042e-05,0.000217466280446,0.000376173964469,0.464307423,0.00867791526224,0.225042511749,0.0294119507756,0.93670756502,0.348481720305,-0.0165639694582
0.123695574701,-0.108045347035,-0.0857419744134,-2.45689749718,-0.104472562671,2.33344626427,-0.601007699966,0.0340796858072,0.000205601812922,-0.0021748652216,-0.000120133605378,0.00104077463038,9.06502027647e-05,0.000174518485437,-0.000195203450858,0.46432092515,0.00867981074998,0.225065684763,0.0294183070336,0.936708137481,0.348480929216,-0.0165369297779
0.123704537749,-0.108094669878,-0.0857363045216,-2.4568939209,-0.104473873973,2.3334441185,-0.601006567478,0.0340796858072,0.000188298305147,-0.00230715004727,-0.000154382112669,-0.000214151383261,-1.615648398e-05,9.62542617344e-05,0.000204893760383,0.464327174481,0.00868703525927,0.225089811017,0.0294251628001,0.93670614328,0.348486880721,-0.0165122556839
0.123702473938,-0.108129099011,-0.085736066103,-2.45689177513,-0.104475013912,2.33344340324,-0.601005971432,0.0340796858072,-0.000204069045139,0.000522583490238,-0.000126939776237,0.00201495876536,3.82554098906e-05,2.38116172113e-05,8.61264052219e-05,0.464331657488,0.00868653819388,0.225106553868,0.0294297699376,0.936706781908,0.348485593484,-0.0164949746771
0.123699471354,-0.10813511163,-0.0857377648354,-2.45687866211,-0.104474373162,2.33344364166,-0.601007163525,0.0340796858072,0.000173565524165,-0.000412393652368,9.26551729208e-05,0.000998246716335,7.12975888746e-05,2.44808620664e-06,7.35580179025e-05,0.464338032036,0.00868469546525,0.225114796362,0.0294321783058,0.936707675357,0.348483426698,-0.0164857153536
0.123700074852,-0.108151465654,-0.0857382118702,-2.45688343048,-0.1044748649,2.33343577385,-0.601004779339,0.0340796858072,-0.000685275357682,-0.00288527249359,-0.000602452550083,0.000195437358343,-2.53796642937e-05,2.59112366621e-05,-9.56841395237e-05,0.464336013229,0.00868464742844,0.225119705196,0.0294325310708,0.936708124354,0.348482278487,-0.0164838451456
0.123681917787,-0.108291774988,-0.0857627764344,-2.45687603951,-0.104472674429,2.33333444595,-0.601006865501,0.0340796858072,0.000203163755941,-0.0110764000565,-0.00154209509492,-0.000175217312062,0.000150133288116,-0.00992158520967,-0.000106676539872,0.464332379369,0.00866428820749,0.225178937597,0.0294351484839,0.936717139158,0.348458887355,-0.01646137145
0.123696506023,-0.108446083963,-0.0857610628009,-2.45686340332,-0.104472853243,2.33288621902,-0.601005911827,0.0340796858072,0.00471589062363,-0.0105775874108,-0.00121433928143,-6.59915531287e-05,0.000156285328558,-0.0269580893219,9.9108867289e-05,0.464256233059,0.00866055834702,0.22521786357,0.02940087672,0.936716790927,0.348456262866,-0.0165974275176
0.123707234859,-0.108624510467,-0.0857520475984,-2.45686149597,-0.104473888874,2.33239579201,-0.601007580757,0.0340796858072,0.000454380002338,-0.0167581457645,0.00220115296543,3.68045402865e-05,-1.84818054549e-05,-0.0359283387661,0.000280495354673,0.464168795346,0.00865715317402,0.225259981449,0.0293632815091,0.936715440819,0.348455883274,-0.0167474693323
0.123713135719,-0.108930595219,-0.0857501029968,-2.456802845,-0.104471795261,2.33154177666,-0.601007163525,0.0340796858072,-0.000324457651004,-0.0151100065559,0.000579468382057,0.00557769229636,-4.4301035814e-05,-0.0510894469917,0.000385163875762,0.464047013516,0.00864173819746,0.225347773078,0.0293071091885,0.936718833644,0.348440705637,-0.0169703974007
0.123719871044,-0.110190831125,-0.0858550965786,-2.45596003532,-0.104474365711,2.32612943649,-0.601005196571,0.0340796858072,0.00057463318808,-0.0413373075426,-0.0042637065053,0.0370221287012,6.31481379969e-05,-0.196513533592,0.000218222689,0.463353574011,0.00846074364595,0.225834516963,0.0289185872291,0.936764031042,0.348268657552,-0.0185958949997
0.123710803688,-0.110940732062,-0.0859263911843,-2.45519399643,-0.104476355016,2.32199668884,-0.601004838943,0.0340796858072,-0.00115088524763,-0.0511543862522,-0.00682905456051,0.0515679977834,0.000293100107228,-0.284402132034,-0.000115043840196,0.462857935931,0.0083200964195,0.22615639137,0.028619172601,0.936796219398,0.348136336021,-0.0198715251046
0.123709544539,-0.112113185227,-0.0860911160707,-2.45394349098,-0.104477494955,2.31581068039,-0.601006507874,0.0315265655518,0.000170748127857,-0.0710103362799,-0.0120452949777,0.080135948956,-6.6663720645e-05,-0.362166404724,-0.000177239257027,0.462163570968,0.00809175130862,0.226707333805,0.0281878414582,0.936851260441,0.347913745997,-0.021706829269
0.123711436987,-0.113504260778,-0.0862467139959,-2.45237088203,-0.104479633272,2.30894589424,-0.60100620985,0.0315265655518,-0.000160849682288,-0.0911902859807,-0.00929804611951,0.109402351081,-0.000631012720987,-0.440865129232,-0.000188914462342,0.461477659491,0.00785587565506,0.227441453708,0.0277491956436,0.936907277113,0.347674023741,-0.0236116313482
0.123709388077,-0.116831682622,-0.0865431651473,-2.44827437401,-0.104479402304,2.29346489906,-0.601003706455,0.0315265655518,0.000707170518581,-0.143984168768,-0.00981161184609,0.159375935793,-2.87786951958e-05,-0.576975882053,0.000156909649377,0.460168906154,0.00735635564866,0.229429086775,0.0268645580589,0.937025240558,0.347135272076,-0.0275517085676
0.123711422086,-0.119261704385,-0.08672131598,-2.44547963142,-0.104483008385,2.28363370895,-0.601005554199,0.0315265655518,0.000243828399107,-0.155475109816,-0.0132336737588,0.198924407363,-0.000169925260707,-0.644055306911,0.000111234643555,0.459439309957,0.00705187260966,0.230927750194,0.0263676753139,0.937097701901,0.346791240699,-0.0298073455833
0.123712614179,-0.122409932315,-0.0869571566582,-2.44131302834,-0.104485891759,2.2711892128,-0.60100543499,0.0315265655518,0.000396449759137,-0.19359870255,-0.0121373860165,0.25910320878,-0.000135862748721,-0.734273672104,0.000105943072413,0.458773120634,0.00667017007933,0.233130601178,0.0258393277477,0.937198303799,0.346333071578,-0.03232756898
0.123720213771,-0.126815289259,-0.0872600749135,-2.43547105789,-0.104483224452,2.25553059578,-0.601004004478,0.0315265655518,-0.000437814102042,-0.248955711722,-0.0156800635159,0.320892751217,0.000438744638814,-0.829313933849,0.00034559937194,0.458199790564,0.00620317525861,0.236372491468,0.0253085989144,0.93733833033,0.345733469533,-0.0349956718213
0.12371776253,-0.139890626073,-0.0881380960345,-2.41738176346,-0.104485139251,2.21322250366,-0.601002991199,0.0314641818404,-0.00162654113956,-0.328449606895,-0.0251633767039,0.472428202629,0.00410044984892,-0.986532390118,-0.00145207287278,0.457503586847,0.00493891740444,0.246731709932,0.0243200044087,0.937778848497,0.344000994189,-0.0405300429403
0.123714119196,-0.145896583796,-0.0884995087981,-2.40863251686,-0.104488052428,2.19609355927,-0.601003825665,0.0314641818404,-0.00274261739105,-0.371236771345,-0.0258020143956,0.543251514435,0.00142132292967,-1.03276002407,0.000174861925188,0.457757499683,0.00444130498662,0.251893621218,0.0242012265312,0.93800199309,0.343255160606,-0.0417427358656
0.123716883361,-0.152710705996,-0.0889353901148,-2.39829683304,-0.104487732053,2.17713356018,-0.601004600525,0.0314641818404,0.000994616304524,-0.381579339504,-0.0264582373202,0.597661495209,0.00146972131915,-1.07065701485,0.000107257517811,0.458220281013,0.00388140303914,0.25799211504,0.0241697288507,0.938274250227,0.342395601222,-0.042690836476
0.123732179403,-0.161044582725,-0.089459002018,-2.38566040993,-0.104487970471,2.15558075905,-0.601005375385,0.0314641818404,-0.000476251239888,-0.442792475224,-0.0270730052143,0.666648566723,0.00251516094431,-1.07455468178,-0.000948942615651,0.459005754865,0.00324356741068,0.265615953776,0.0243140945749,0.938623283666,0.341381509717,-0.0430560178709
0.123719520867,-0.174681827426,-0.0903800874949,-2.36412000656,-0.104483142495,2.12281847,-0.601004838943,0.0314641818404,-0.00160910189152,-0.48188829422,-0.0345963202417,0.768363595009,0.00409336062148,-1.09909677505,0.000775234948378,0.460834539775,0.00220707165275,0.278752598849,0.0249388720375,0.939266315332,0.339692729014,-0.0420201271439
0.123723760247,-0.183078497648,-0.0910165756941,-2.350461483,-0.104483447969,2.10438227654,-0.601004242897,0.0314641818404,0.000605690991506,-0.503699183464,-0.0347329899669,0.82100468874,-0.00347227510065,-1.06552910805,-0.000411466317018,0.462269591942,0.00157540721147,0.287206298404,0.025567905492,0.939700535924,0.33864616715,-0.0403479634553
0.12372367084,-0.191294208169,-0.0916313454509,-2.33740949631,-0.104476191103,2.0871989727,-0.601003706455,0.0314641818404,0.0010061605135,-0.534790933132,-0.0436405949295,0.818614900112,-0.00302962958813,-1.05995678902,4.48543614766e-05,0.463576384187,0.000967211446772,0.29545211804,0.0262213312604,0.940125182806,0.337637924372,-0.0384410477732
0.123711265624,-0.201505929232,-0.0924532189965,-2.32079529762,-0.104479767382,2.0674226284,-0.601003110409,0.0314641818404,-4.59760085505e-05,-0.534045279026,-0.0504062958062,0.88227301836,-0.00344803044572,-1.02904438972,-3.00745196e-05,0.465548966688,0.000157813536764,0.30661383056,0.0273223482605,0.940709257697,0.33630191074,-0.0349371763021
0.123637527227,-0.229169234633,-0.0949008464813,-2.2767636776,-0.104454830289,2.02010297775,-0.600998938084,0.0314641818404,-0.00772833870724,-0.58441567421,-0.053319234401,0.919327259064,0.00631840480492,-0.891765415668,1.83255178854e-05,0.470330501432,-0.00201087746356,0.335778421878,0.0306460513849,0.942213761927,0.332798765162,-0.0232169757808
0.123524568975,-0.239574640989,-0.0959386602044,-2.26053333282,-0.104407928884,2.00447273254,-0.600999593735,0.0314641818404,-0.00438454188406,-0.587205827236,-0.0598997473717,0.87827450037,0.00860464107245,-0.851657569408,0.000309728842694,0.47188078424,-0.00286320539992,0.346234681607,0.0319603770597,0.942743898591,0.331481154337,-0.0182406133034
0.123448818922,-0.248637393117,-0.0968166962266,-2.24717378616,-0.10435269773,1.99211323261,-0.600996911526,0.0314641818404,-0.00747755169868,-0.601011753082,-0.0569385550916,0.88934469223,0.00396119197831,-0.798355579376,-1.38786108437e-05,0.473128107615,-0.00361550703959,0.355672028098,0.0331961861762,0.943191839879,0.330314070008,-0.0134082530818
0.123223379254,-0.261225759983,-0.0980356261134,-2.22931814194,-0.104287289083,1.97605884075,-0.600999295712,0.0314641818404,-0.00914047006518,-0.605434298515,-0.0637644082308,0.860942363739,-0.000612676783931,-0.723404765129,0.000492170802318,0.474564138044,-0.00472686992516,0.368604977537,0.0349294424361,0.943780285195,0.328658771636,-0.00648990316657
0.122766837478,-0.279171437025,-0.100086979568,-2.20551347733,-0.104253031313,1.95543241501,-0.600998282433,0.0314641818404,-0.0208512097597,-0.609676897526,-0.0684354379773,0.766133606434,-0.00206566159613,-0.64123994112,0.000141992801218,0.47599816064,-0.0065457436261,0.386547554835,0.0373844142986,0.944573910437,0.326142578871,0.00368119894318
0.122293025255,-0.290007025003,-0.101329557598,-2.19223570824,-0.104264982045,1.94432175159,-0.601000607014,0.0314641818404,-0.0305442940444,-0.599807620049,-0.0731057673693,0.691355407238,-0.00223642867059,-0.591107547283,0.000642676197458,0.476499356091,-0.00767884498213,0.39645485766,0.0387898638791,0.94498821052,0.32465415816,0.00960758642288
0.121151983738,-0.309156894684,-0.104027792811,-2.17141699791,-0.104269176722,1.92569899559,-0.60100376606,0.0314641818404,-0.0395530462265,-0.56775021553,-0.0919874757528,0.571123242378,0.000325620290823,-0.528986811638,6.74654711474e-06,0.476405814527,-0.0102827060012,0.414362782288,0.0411162507564,0.945812842089,0.321461289996,0.0202524168076
0.118358269334,-0.334967404604,-0.10923627764,-2.14879417419,-0.104800544679,1.9030919075,-0.601024091244,0.0314641818404,-0.0824328437448,-0.490877479315,-0.13029114902,0.378719568253,-0.0370933897793,-0.423692405224,-0.00246802158654,0.474428609452,-0.0152720283883,0.435654331132,0.0436681753103,0.947152245089,0.316090219495,0.0329042233876
0.116643093526,-0.344136834145,-0.111890800297,-2.14247655869,-0.105701111257,1.89536118507,-0.601043641567,0.0314641818404,-0.099290125072,-0.462067335844,-0.147916287184,0.28761100769,-0.0596468746662,-0.385222136974,-0.000188916586922,0.473163758168,-0.0178729160117,0.442173794107,0.0445362025383,0.94778841076,0.313657410618,0.0365059384922
0.114875420928,-0.351362407207,-0.11430875957,-2.13831043243,-0.106942504644,1.8891954422,-0.601063728333,0.0314641818404,-0.121696032584,-0.44000428915,-0.150352939963,0.231394678354,-0.0936573892832,-0.370046526194,-0.00317579507828,0.471979870104,-0.0202015240483,0.446604196266,0.0452410162817,0.948336923581,0.311628249838,0.0387061159256
0.112128533423,-0.359355837107,-0.117550648749,-2.13437724113,-0.109589241445,1.88191211224,-0.601226985455,0.0314641818404,-0.152109220624,-0.368147194386,-0.175783023238,0.157757312059,-0.173212766647,-0.341462284327,-0.016319077462,0.470258581515,-0.0238105587991,0.451450484972,0.0464131053364,0.949114742736,0.308835149986,0.0405940709476
0.10698248446,-0.369114398956,-0.123602584004,-2.13101005554,-0.116264291108,1.87239074707,-0.601895391941,0.0314641818404,-0.196154117584,-0.285726875067,-0.225725725293,0.0679350122809,-0.276846021414,-0.301760643721,-0.0204795282334,0.467446216761,-0.030920313176,0.456654175678,0.0489200364947,0.950481762764,0.30410415116,0.0413752778725
0.103530406952,-0.37336781621,-0.127644479275,-2.13021922112,-0.121339701116,1.8675057888,-0.60225456953,0.0314641818404,-0.218076437712,-0.204247310758,-0.254287868738,0.0278361700475,-0.314820766449,-0.272834897041,-0.0174452252686,0.465855774851,-0.0355522092205,0.458364316726,0.0505592670988,0.951360767424,0.301168827135,0.0406667919709
0.0948294475675,-0.378256231546,-0.138126552105,-2.13014984131,-0.13563914597,1.85846436024,-0.603744149208,0.0314641818404,-0.264009892941,-0.0689358264208,-0.330574125051,-0.00683727255091,-0.474855303764,-0.242436230183,-0.0734484568238,0.462749221696,-0.0470832189296,0.459437029134,0.0547464339591,0.953377251154,0.294510422239,0.0365821791775
0.0799521133304,-0.376489251852,-0.156843557954,-2.13078355789,-0.161537662148,1.84741652012,-0.612222552299,0.0314635261893,-0.33931106329,0.142388910055,-0.443860650063,-0.0186800230294,-0.602940738201,-0.188871175051,-0.258558243513,0.458644520397,-0.0676220457968,0.456893750296,0.0619476492854,0.955972849776,0.28569136781,0.0256679038498
0.0746061056852,-0.37395003438,-0.1638892591,-2.13108849525,-0.171136111021,1.84494125843,-0.616379022598,0.0314635261893,-0.374659359455,0.181622833014,-0.488723039627,-0.0230403728783,-0.666588306427,-0.148586243391,-0.289834827185,0.457476162395,-0.0751413092257,0.455246707681,0.0645591845049,0.956704680895,0.28300792472,0.0213255594643
0.0660182461143,-0.369149535894,-0.175334572792,-2.13159298897,-0.186421111226,1.84221661091,-0.62356120348,0.0314635261893,-0.419805258512,0.259600013494,-0.565375506878,-0.0205813217908,-0.708113908768,-0.102171629667,-0.351693987846,0.455698339414,-0.0872081474519,0.452408957162,0.0686940495736,0.95774583767,0.278916207748,0.0144840162191
0.0589890964329,-0.364215314388,-0.185021311045,-2.13184714317,-0.198098182678,1.84087228775,-0.629640877247,0.0314635261893,-0.435650259256,0.342931032181,-0.608858287334,-0.00988094881177,-0.708700060844,-0.0550907440484,-0.401361435652,0.454341166654,-0.0970460928146,0.449786040679,0.0716228206681,0.958591875168,0.275485217956,0.00892652232757
0.0354737117887,-0.344196796417,-0.218703910708,-2.13169574738,-0.233896568418,1.84029531479,-0.653598368168,0.0314635261893,-0.497411340475,0.487044930458,-0.76208871603,0.0230296012014,-0.711872220039,0.0144082326442,-0.567640960217,0.449657465169,-0.129789861391,0.44024283393,0.0796783087235,0.96088332981,0.265084317393,-0.0092140098085
0.0283850636333,-0.337128698826,-0.229602888227,-2.13138818741,-0.243826761842,1.8405520916,-0.661848068237,0.0314635261893,-0.513723671436,0.520280957222,-0.790453195572,0.0189807917923,-0.710269272327,0.0258624125272,-0.605512142181,0.447964195657,-0.139794290308,0.437028603815,0.0814469718844,0.96148688769,0.262082028719,-0.0149119242616
0.01794533059,-0.326476097107,-0.246189266443,-2.13065743446,-0.257840961218,1.84140098095,-0.674642622471,0.0314635261893,-0.525032520294,0.545101046562,-0.851495325565,0.0462374016643,-0.682902991772,0.0503685958683,-0.672048866749,0.445180564392,-0.154622289458,0.43233004291,0.0836771370612,0.962318421675,0.257695094906,-0.0231220628772
-0.00870619527996,-0.296772509813,-0.291811019182,-2.12630057335,-0.286165028811,1.84553289413,-0.710894882679,0.0314635261893,-0.55615234375,0.641976177692,-0.998958528042,0.130720302463,-0.493280053139,0.132228344679,-0.789899706841,0.436663674949,-0.192471524932,0.420227621974,0.0856090868328,0.964548458371,0.245980233855,-0.0425567850195
-0.0273392628878,-0.274173170328,-0.326650708914,-2.12098097801,-0.3010674119,1.85092532635,-0.738869309425,0.0314635261893,-0.532058119774,0.690380275249,-1.04383397102,0.176042437553,-0.368881821632,0.211515411735,-0.853347957134,0.429485263361,-0.219314949189,0.411962626158,0.0848868814043,0.966221741477,0.237165317944,-0.0544277072896
-0.0381217412651,-0.260430812836,-0.348100304604,-2.11710095406,-0.307734638453,1.85575199127,-0.756370961666,0.0314635261893,-0.530726671219,0.673329591751,-1.08333802223,0.20319750905,-0.309243530035,0.264542132616,-0.895452201366,0.424929752679,-0.235088789693,0.407284165499,0.0839080924464,0.96723744884,0.231897676245,-0.0602877850796
-0.0532374195755,-0.24102845788,-0.379790663719,-2.1107468605,-0.31579336524,1.86464655399,-0.782779157162,0.0314635261893,-0.502258658409,0.671353340149,-1.09069287777,0.229345172644,-0.240002572536,0.337371259928,-0.929273247719,0.417839927492,-0.257719286368,0.401161914573,0.0825340079858,0.968638136729,0.224512225571,-0.0672499655283
-0.0597794540226,-0.232358068228,-0.394017070532,-2.10774064064,-0.318839043379,1.86916124821,-0.794809520245,0.0314635261893,-0.493429392576,0.655817866325,-1.09955763817,0.228574976325,-0.23526224494,0.360025703907,-0.925576984882,0.414485693192,-0.267659817503,0.398539163736,0.0819224935247,0.969228607581,0.221323312344,-0.0700043027798
-0.069845713675,-0.219092473388,-0.417111515999,-2.10259652138,-0.323455870152,1.8768030405,-0.814092278481,0.0314635261893,-0.473145127296,0.611727952957,-1.09915280342,0.258310049772,-0.21174877882,0.364773333073,-0.915915191174,0.408483443481,-0.284217824415,0.394634062935,0.0811618000403,0.970206171497,0.215951096988,-0.0740126368115
-0.0782128199935,-0.207830742002,-0.437540471554,-2.09755039215,-0.327181637287,1.88394284248,-0.831457316875,0.0314635261893,-0.429897934198,0.577989518642,-1.0642272234,0.262871354818,-0.194979533553,0.376083940268,-0.913348019123,0.403519356539,-0.297192409266,0.39196891801,0.0808417138746,0.970905705241,0.21195230918,-0.0767003725912
-0.0946322232485,-0.186530008912,-0.479362249374,-2.0867702961,-0.333954393864,1.89852750301,-0.868578672409,0.0314635261893,-0.371392726898,0.455942600965,-0.967330098152,0.252253681421,-0.153299957514,0.336991578341,-0.879693329334,0.391601456023,-0.324611126982,0.387230897215,0.0804983059952,0.972205037278,0.204097724717,-0.081740483741
-0.112195536494,-0.168203130364,-0.522233605385,-2.07523584366,-0.340627759695,1.9139970541,-0.90951436758,0.0314635261893,-0.323407709599,0.265537232161,-0.761414289474,0.219882160425,-0.134291544557,0.263130128384,-0.772583663464,0.377489672156,-0.352054442911,0.384329224753,0.0811821357939,0.973297907476,0.196956039806,-0.0854924687232
-0.117061108351,-0.164410337806,-0.533832907677,-2.07174777985,-0.342516541481,1.91789257526,-0.921709299088,0.0314635261893,-0.287440061569,0.214479491115,-0.690979957581,0.219923228025,-0.105798952281,0.228318706155,-0.746382713318,0.372876417955,-0.360096335415,0.384196563711,0.0816766484346,0.973532777145,0.195273192866,-0.0862046214919
-0.121598906815,-0.161290675402,-0.544473171234,-2.06836748123,-0.344183564186,1.92117738724,-0.933595061302,0.0314635261893,-0.27522751689,0.163733765483,-0.61799788475,0.204638123512,-0.102978155017,0.185575693846,-0.716446578503,0.368710107833,-0.366992706364,0.384311895928,0.0821032573594,0.973688597538,0.19407345375,-0.0867471290508
-0.133856803179,-0.157666161656,-0.568592607975,-2.05895018578,-0.348535269499,1.92801892757,-0.966210782528,0.0314635261893,-0.206113874912,-0.000706279650331,-0.35556563735,0.172787994146,-0.0566116981208,0.0870595574379,-0.572064161301,0.358014876103,-0.383500909111,0.386830539315,0.0840264689592,0.973766682993,0.192867196392,-0.0867193395784
-0.136660039425,-0.157850280404,-0.573515534401,-2.05636692047,-0.349506735802,1.92931127548,-0.974629759789,0.0314635261893,-0.168211400509,-0.0195926260203,-0.297706156969,0.168556183577,-0.0670441612601,0.0878464207053,-0.546841979027,0.355662554044,-0.38706778964,0.388035514332,0.0847426095245,0.973673426228,0.193225798395,-0.0862701554274
-0.141552314162,-0.160096809268,-0.581414222717,-2.04982352257,-0.351725190878,1.93198168278,-0.994155704975,0.0314635261893,-0.0946790650487,-0.0907193645835,-0.140721395612,0.187164202332,-0.0543995760381,0.0581572949886,-0.503525197506,0.352001220784,-0.393525097569,0.391993465512,0.0873115016289,0.973000748049,0.196332507455,-0.0842602646041
-0.143370240927,-0.162830874324,-0.584068953991,-2.04424786568,-0.353067517281,1.93420624733,-1.00841617584,0.0314635261893,-0.0238582789898,-0.107587561011,-0.0346256420016,0.166602626443,-0.032179158181,0.0775261297822,-0.423609137535,0.351302313275,-0.396635100162,0.395902004344,0.0901729629016,0.97204765464,0.200753805827,-0.081793049886
-0.143449097872,-0.164853423834,-0.584147691727,-2.0417072773,-0.353381067514,1.93546748161,-1.0151501894,0.0314635261893,0.013598009944,-0.135263636708,0.0162763595581,0.150626987219,-0.0108973942697,0.0849315151572,-0.407820433378,0.351735683748,-0.397359226935,0.398075845562,0.0917736846299,0.971425117683,0.203705121491,-0.0800940367109
-0.142956689,-0.167111501098,-0.583539605141,-2.03920412064,-0.353448033333,1.93702113628,-1.02179610729,0.0314635261893,0.042111441493,-0.123606584966,0.0570078939199,0.144972875714,-0.000341518403729,0.0992726609111,-0.369561970234,0.352714267217,-0.39761912221,0.400388503397,0.093547892673,0.970684662085,0.207180617052,-0.0780786153919
-0.141953185201,-0.169305428863,-0.581940591335,-2.03665089607,-0.353466421366,1.93874835968,-1.0282304287,0.0314635261893,0.0676333829761,-0.132149890065,0.116766728461,0.13264028728,-0.00108707603067,0.095672108233,-0.339819848537,0.354325736768,-0.397356809418,0.402778916134,0.0955334619049,0.969778826681,0.211263585985,-0.0759610552117
-0.139009594917,-0.17335255444,-0.577811419964,-2.03303670883,-0.353465944529,1.94155430794,-1.03728640079,0.0314635261893,0.128933191299,-0.114242225885,0.158217564225,0.107241101563,-0.000178522313945,0.0860889106989,-0.27338591218,0.357926876969,-0.395766538818,0.406707759992,0.0989236326279,0.968094321833,0.218587368396,-0.0722984163943
-0.136491447687,-0.175479248166,-0.57455599308,-2.03120183945,-0.35346364975,1.94310629368,-1.04193508625,0.0314635261893,0.151632457972,-0.118605487049,0.204203858972,0.0974146723747,-0.00013185570424,0.0826702415943,-0.246545508504,0.360616722392,-0.394158602248,0.408824384456,0.100879140888,0.966948843633,0.223364690171,-0.0702961421999
-0.13311111927,-0.177893012762,-0.570040643215,-2.02948975563,-0.353464186192,1.94469118118,-1.04635858536,0.0314635261893,0.1900780797,-0.117302305996,0.234443426132,0.0747348964214,-0.000439852592535,0.0708547905087,-0.208112865686,0.36408284408,-0.391723527908,0.411087201786,0.1030362263,0.965551171384,0.229032437422,-0.0681073697164
-0.130350440741,-0.179492741823,-0.566619157791,-2.02857685089,-0.353461444378,1.94572305679,-1.0491861105,0.0314635261893,0.199914202094,-0.106053769588,0.25182518363,0.0590241439641,1.44245914271e-05,0.0779975801706,-0.197531029582,0.366696737619,-0.389694225986,0.412507397305,0.104442593284,0.964499693999,0.233206415003,-0.0666847259671
-0.119238115847,-0.184041872621,-0.552141547203,-2.02680873871,-0.35336369276,1.94903087616,-1.05642557144,0.0314635261893,0.252364814281,-0.0727556869388,0.334381937981,0.0085892919451,0.0065296352841,0.076240003109,-0.111066840589,0.377039337663,-0.380635391048,0.416484921122,0.108899702418,0.960455678071,0.248540511704,-0.0623967868356
-0.115547791123,-0.184849575162,-0.547416388988,-2.02673220634,-0.353179991245,1.95002841949,-1.05787920952,0.0314635261893,0.272744089365,-0.0517152994871,0.343132317066,0.00206011068076,0.0205887500197,0.0613793767989,-0.0908063724637,0.380361015049,-0.3774770293,0.417243333131,0.109987362252,0.959182788627,0.25318883561,-0.0613723990105
-0.110105641186,-0.185780450702,-0.540678143501,-2.02678084373,-0.352667808533,1.95090985298,-1.05953657627,0.0314635261893,0.295339554548,-0.0475861504674,0.36010274291,-0.00210059061646,0.0326425209641,0.0353200994432,-0.0764279291034,0.385027694259,-0.372743017065,0.418089872984,0.111180343048,0.957393562542,0.259657154428,-0.0601220389609
-0.103794671595,-0.186364680529,-0.532935023308,-2.0267829895,-0.351874321699,1.95128297806,-1.06070160866,0.0314635261893,0.310011178255,-0.00954150594771,0.373441636562,0.000726165017113,0.0533977299929,0.0147512312979,-0.0300023574382,0.390280113196,-0.367137927747,0.418810107461,0.112210248116,0.95540341573,0.266707304932,-0.0589948016017
-0.0944309309125,-0.186305120587,-0.521711587906,-2.02708220482,-0.349835932255,1.95184659958,-1.06081998348,0.0314635261893,0.334916651249,0.00573815777898,0.410470217466,-0.0184553619474,0.10249517113,0.0203865859658,-0.000680505298078,0.397931846014,-0.358624046282,0.419279082519,0.113188548178,0.9526775627,0.276213197514,-0.0574463514845
-0.0889028459787,-0.186144530773,-0.515017926693,-2.02746605873,-0.347962498665,1.95226085186,-1.06082010269,0.0314635261893,0.346648514271,0.0152332093567,0.419238805771,-0.0282490849495,0.126677960157,0.0275322385132,4.41226329713e-05,0.402432081574,-0.353369527942,0.419377979296,0.113477275476,0.951084186598,0.28174839027,-0.0563881390291
-0.0825314372778,-0.185801923275,-0.507639348507,-2.02818274498,-0.345404177904,1.9527875185,-1.06081116199,0.0314635261893,0.353672355413,0.0204871911556,0.417607307434,-0.0477936454117,0.144880175591,0.0267247445881,-0.000200885682716,0.407426286517,-0.347284865297,0.419250379985,0.113515477738,0.949294144472,0.287940596803,-0.0551822071663
-0.0755624398589,-0.185416474938,-0.499687731266,-2.02930903435,-0.342612117529,1.95338988304,-1.06078660488,0.0314635261893,0.369905054569,0.0201819390059,0.424554497004,-0.0707930028439,0.159366801381,0.0328131988645,0.00563295604661,0.412691635799,-0.340547443001,0.418924352472,0.113408060074,0.94730713293,0.294676655702,-0.0539766253501
-0.0638340190053,-0.184713542461,-0.485653340816,-2.03184771538,-0.336231321096,1.95419895649,-1.06053304672,0.0314622148871,0.38209939003,0.0287878960371,0.460028797388,-0.0943842306733,0.24366016686,0.0171482097358,0.0165347680449,0.421482943776,-0.328386376191,0.417962720031,0.11239973682,0.943959998582,0.305997438368,-0.0516854683686
-0.0578123182058,-0.184220179915,-0.478415220976,-2.03346610069,-0.331991016865,1.95459973812,-1.06020236015,0.0314622148871,0.381668150425,0.0284994654357,0.458116233349,-0.111888885498,0.27349409461,0.0287252888083,0.0277619622648,0.425887671151,-0.321847972069,0.41720744676,0.111406282786,0.942310498529,0.311613470494,-0.0503647616128
-0.051140692085,-0.183690339327,-0.470553189516,-2.03544378281,-0.327095448971,1.95514893532,-1.05974197388,0.0314622148871,0.398920148611,0.0335855297744,0.453463196754,-0.121415413916,0.301681250334,0.0386685244739,0.0332900770009,0.430601309009,-0.314554903029,0.41627475778,0.110175817838,0.940500163398,0.317698522167,-0.0488710600541
-0.0444050133228,-0.18309250474,-0.462774336338,-2.03759050369,-0.321907818317,1.95570063591,-1.0591506958,0.0314622148871,0.409658551216,0.0356873422861,0.477457523346,-0.136194199324,0.331106007099,0.0337886177003,0.0433650240302,0.435179350914,-0.307135049909,0.415206573932,0.108749327297,0.938702240838,0.323676296019,-0.0473850392033
-0.0307704359293,-0.181781873107,-0.446967363358,-2.04266357422,-0.310036689043,1.95670068264,-1.05732822418,0.0314622148871,0.405666410923,0.0381370969117,0.47982519865,-0.169431716204,0.391243994236,0.033746406436,0.0758113414049,0.444000395865,-0.291572650291,0.412562267877,0.105035185184,0.935177194276,0.335330326857,-0.0443260279611
-0.0237314794213,-0.181187912822,-0.438812434673,-2.0456340313,-0.303260803223,1.95704555511,-1.05584967136,0.0314622148871,0.426908999681,0.0352762266994,0.486278802156,-0.180329009891,0.400360018015,0.0127659402788,0.0994807779789,0.448263716042,-0.283286427623,0.411013024405,0.10270665824,0.93346257105,0.340990076103,-0.0427169578278
-0.0170278027654,-0.180628091097,-0.4310759902,-2.04860711098,-0.296735614538,1.95720541477,-1.05375313759,0.0314622148871,0.412397921085,0.0343430228531,0.490923047066,-0.191561624408,0.411985248327,0.0131382131949,0.15144340694,0.452113003116,-0.275313427994,0.409445700118,0.100348989689,0.931930994419,0.346020815555,-0.0412831296947
-0.00946709141135,-0.179971277714,-0.422201752663,-2.05225324631,-0.289103806019,1.95753991604,-1.05071413517,0.0314622148871,0.417071968317,0.0347229540348,0.490712285042,-0.208423867822,0.428857624531,0.0235624201596,0.178555637598,0.456312281301,-0.266118404179,0.407532632087,0.0975404561009,0.93027823726,0.351419386861,-0.0396569656725
-0.00143869849853,-0.179261922836,-0.412897109985,-2.05619668961,-0.280901163816,1.95802283287,-1.04703199863,0.0314622148871,0.430791199207,0.0363701954484,0.499432981014,-0.213528230786,0.440709710121,0.032510086894,0.20041577518,0.460776474101,-0.255797454992,0.405350986964,0.0943387976369,0.928501178485,0.357146476783,-0.0378437130532
0.00924734491855,-0.178382351995,-0.400617003441,-2.06193470955,-0.269622951746,1.95862293243,-1.04162693024,0.0314622148871,0.426203846931,0.0347922481596,0.496613353491,-0.247936308384,0.452663391829,0.0217508338392,0.237264588475,0.465749529235,-0.243122569596,0.40247480572,0.0901151575713,0.92643712673,0.363747921101,-0.0357904759831
0.0187023244798,-0.177533552051,-0.389697611332,-2.06737542152,-0.259443879128,1.95904159546,-1.03595602512,0.0314622148871,0.429729104042,0.0393331423402,0.49741563201,-0.245059415698,0.466170012951,0.0113332429901,0.280745923519,0.469771530761,-0.23178213944,0.399736154553,0.0861592241062,0.924727339192,0.369169996619,-0.0341972152653
0.0252101588994,-0.176906585693,-0.38226339221,-2.07105207443,-0.252488106489,1.95922267437,-1.03170132637,0.0314622148871,0.432519674301,0.0412746593356,0.490769743919,-0.251948148012,0.462666392326,0.00943972170353,0.292991906404,0.472641613547,-0.223098753202,0.397634605133,0.0830980549801,0.923476102164,0.373083412841,-0.0330963553369
0.0341774858534,-0.17610475421,-0.372065007687,-2.07647776604,-0.242996439338,1.95933961868,-1.02523243427,0.0314622148871,0.437763184309,0.039442896843,0.497432649136,-0.257609128952,0.447246104479,0.0103913284838,0.318658411503,0.475986172704,-0.211807565215,0.394761467948,0.0790076316808,0.921939340657,0.377843609404,-0.0319351342583
0.0475978367031,-0.174827426672,-0.356488019228,-2.08441472054,-0.22901032865,1.95976793766,-1.01476025581,0.0314622148871,0.438285857439,0.0430435501039,0.498516410589,-0.256714344025,0.457381218672,0.00988683570176,0.359148263931,0.48063704391,-0.194747139245,0.390563597851,0.0730894604369,0.91964239432,0.384703141763,-0.0303197912459
0.0535974465311,-0.174251183867,-0.349582493305,-2.0881125927,-0.222748368979,1.95982003212,-1.00959122181,0.0314622148871,0.426119953394,0.0408775620162,0.48245203495,-0.272107899189,0.448042362928,2.36466712522e-05,0.368134379387,0.482439546883,-0.187101040282,0.388598382617,0.070339366273,0.918701630496,0.38749541831,-0.0297823462206
0.0617582798004,-0.173501446843,-0.340280741453,-2.0932366848,-0.214538380504,1.95984268188,-1.00231564045,0.0314622148871,0.429404020309,0.0454084016383,0.498255968094,-0.266779333353,0.424814403057,0.000234394537983,0.398068130016,0.484630763909,-0.176766842256,0.385898691976,0.0666623991333,0.917437357509,0.391163268829,-0.0292594666445
0.0695422515273,-0.172678858042,-0.331185668707,-2.09800887108,-0.207243591547,1.95986568928,-0.995102345943,0.0314622148871,0.429873913527,0.0511029325426,0.493620306253,-0.258159339428,0.386389344931,-0.001414520666,0.409124672413,0.486565499951,-0.166886687457,0.383352210475,0.0633958741014,0.916167175382,0.394686973075,-0.0289976355094
0.0897853896022,-0.170567780733,-0.307843118906,-2.1102104187,-0.189163833857,1.95990264416,-0.974130094051,0.0314622148871,0.431205332279,0.0441161766648,0.496631681919,-0.248221665621,0.366006463766,-0.000241310583078,0.475047945976,0.490615166638,-0.141474335025,0.376858582374,0.0553069893316,0.913204082487,0.402701947968,-0.028819809917
0.0968927592039,-0.16982755065,-0.29944267869,-2.11442637444,-0.183288022876,1.95989608765,-0.96585214138,0.0314622148871,0.402917921543,0.0390505231917,0.4835498631,-0.250833183527,0.335759907961,0.000285334623186,0.490635454655,0.491744642505,-0.132532876923,0.374628263668,0.0527041685811,0.912238157715,0.405221291547,-0.0289744504672
0.103785015643,-0.169154077768,-0.291290044785,-2.11863493919,-0.177976638079,1.95989751816,-0.957380473614,0.0314622148871,0.407143950462,0.0384159907699,0.478602945805,-0.24085599184,0.302331149578,-0.00156960519962,0.500115811825,0.492639428867,-0.123918139453,0.372438216554,0.0503208645575,0.911340551986,0.407513956772,-0.0293015974307
0.111505337059,-0.168322235346,-0.28226134181,-2.12304520607,-0.17249058187,1.95990526676,-0.947619199753,0.0314622148871,0.418633669615,0.0441527068615,0.482346385717,-0.227701812983,0.275126665831,-0.000946764892433,0.521741092205,0.493525212016,-0.114426846515,0.370099136771,0.0479159827469,0.910360241279,0.40995449845,-0.0297590083148
0.123913250864,-0.16682882607,-0.267560869455,-2.12975239754,-0.164353713393,1.95991182327,-0.930565655231,0.0314622148871,0.393158257008,0.0489251799881,0.462861835957,-0.202525362372,0.237140551209,7.65405129641e-05,0.563247203827,0.494673617173,-0.0992397072632,0.36646037962,0.044472421324,0.908945530625,0.413398093901,-0.0306959563614
0.130168229342,-0.166011914611,-0.260152250528,-2.13286280632,-0.160555019975,1.9599199295,-0.921360075474,0.0314622148871,0.383423745632,0.0515671335161,0.454865425825,-0.186244949698,0.225725218654,0.00103413651232,0.574959516525,0.49514624113,-0.0916639133151,0.364726887237,0.0429486626875,0.908326131646,0.414879752882,-0.0312064299284
0.136704206467,-0.165167599916,-0.252430200577,-2.1360001564,-0.156723573804,1.95994877815,-0.911245524883,0.0314622148871,0.384550184011,0.0470662936568,0.449830055237,-0.183834850788,0.22004032135,0.00362853147089,0.619832873344,0.495545902285,-0.0837963171084,0.362974561349,0.0414668529404,0.907770973263,0.416202727292,-0.0317434982623
0.144161894917,-0.164212748408,-0.243369266391,-2.13962435722,-0.152503728867,1.95995950699,-0.898789286613,0.0314622148871,0.362621724606,0.0465363748372,0.45094075799,-0.181687131524,0.209649652243,0.000865244714078,0.630671739578,0.495843305065,-0.0747329645677,0.360962214403,0.0398789116902,0.907256834006,0.417422650071,-0.0324505845461
0.154647320509,-0.162604093552,-0.230580821633,-2.14439177513,-0.147384271026,1.95998573303,-0.879607796669,0.0314622148871,0.358988553286,0.055933598429,0.438836634159,-0.158119961619,0.159237697721,-0.000280359468888,0.667304754257,0.496079144308,-0.0621461996937,0.358168213982,0.0380958627939,0.906787376688,0.418512211343,-0.033658391994
0.161092430353,-0.161621332169,-0.223035633564,-2.14701104164,-0.144751623273,1.96001982689,-0.867254018784,0.0314622148871,0.347406744957,0.0530011840165,0.410466849804,-0.140614017844,0.154445663095,0.00570071674883,0.693115234375,0.496139673606,-0.0546815733818,0.356597686442,0.0372952983929,0.906635835621,0.418852691765,-0.0343939611721
0.167233943939,-0.160648792982,-0.215738549829,-2.14943170547,-0.142177835107,1.96008825302,-0.85443353653,0.0314622148871,0.341100126505,0.0587805658579,0.416096657515,-0.128799185157,0.12291251123,0.0133059024811,0.724717855453,0.49612533156,-0.0475192536876,0.355119692755,0.0365718364656,0.906695659587,0.418731882154,-0.0350584114128
0.173612311482,-0.159508645535,-0.208027482033,-2.15177226067,-0.140024602413,1.9602394104,-0.840574264526,0.0314622148871,0.328508585691,0.0558205395937,0.385237574577,-0.116924926639,0.104162752628,0.0103806303814,0.735973596573,0.496077692212,-0.0401198291036,0.353616410169,0.0361161369427,0.90679140621,0.41849995662,-0.035815586879
0.183852672577,-0.157715275884,-0.195933356881,-2.15522646904,-0.136963754892,1.96065318584,-0.816564500332,0.0314622148871,0.303824931383,0.0515269748867,0.363750725985,-0.105597220361,0.0852665156126,0.0222363583744,0.774424850941,0.495887907266,-0.0284800229689,0.351366726984,0.0357002633395,0.907338298474,0.417255762931,-0.0368826693644
0.189133167267,-0.156836330891,-0.189517617226,-2.15707707405,-0.135752677917,1.96114206314,-0.802514016628,0.0314622148871,0.29182651639,0.0479882992804,0.357816487551,-0.102608218789,0.059460349381,0.0405374877155,0.776508271694,0.49572647401,-0.0224587841682,0.350222789949,0.0357494286536,0.907891057201,0.416004299523,-0.03736614862
0.193698421121,-0.156094431877,-0.183769837022,-2.15868425369,-0.134879231453,1.96186470985,-0.79005086422,0.0314622148871,0.273470342159,0.0452643334866,0.362884044647,-0.100209780037,0.0569401271641,0.0580762550235,0.781392812729,0.495595376052,-0.0171844428412,0.34926603099,0.0359544902547,0.908373806041,0.414904126736,-0.0376678699287
0.198674231768,-0.155280843377,-0.177552834153,-2.16040945053,-0.133814692497,1.96278786659,-0.775956571102,0.0314628705382,0.274337381124,0.0436537973583,0.349725991488,-0.0925889760256,0.0578841008246,0.0537556409836,0.787201821804,0.495422897843,-0.0114448330296,0.348237725453,0.0361711980144,0.909026150541,0.413433039627,-0.0378975393673
0.206308156252,-0.154044419527,-0.16855122149,-2.16298055649,-0.132157549262,1.96417808533,-0.753536045551,0.0314628705382,0.243455946445,0.0581627078354,0.296485692263,-0.0767892897129,0.0502084121108,0.0481556244195,0.772193670273,0.495041301186,-0.00291528923626,0.346683169381,0.0364823877521,0.910301134134,0.410561804365,-0.0382084421709
0.210799217224,-0.152973040938,-0.162975400686,-2.16442418098,-0.131153419614,1.96529185772,-0.73891967535,0.0314628705382,0.231237784028,0.0527064092457,0.285527467728,-0.0808055847883,0.0549134723842,0.0659826621413,0.774233281612,0.494836110498,0.00224599536362,0.345657073239,0.0367363100839,0.911278947873,0.408350031615,-0.0383584937718
