imanlab/tactile_prediction_flat_dataset/train/data_sample_2021-11-24-15-24-26/robot_state.csv
position_panda_joint1,position_panda_joint2,position_panda_joint3,position_panda_joint4,position_panda_joint5,position_panda_joint6,position_panda_joint7,position_panda_finger,velocity_panda_joint1,velocity_panda_joint2,velocity_panda_joint3,velocity_panda_joint4,velocity_panda_joint5,velocity_panda_joint6,velocity_panda_joint7,ee_state_position_x,ee_state_position_y,ee_state_position_z,ee_state_orientation_x,ee_state_orientation_y,ee_state_orientation_z,ee_state_orientation_w
-0.371364206076,-0.0318972729146,0.351104259491,-2.53812551498,0.0321482755244,2.52831697464,-0.889527440071,0.0634294003248,0.000298121536616,-0.000893031479791,6.16395482211e-05,-0.000569396477658,-1.45242904637e-06,-1.85982717085e-05,7.2003508933e-08,0.459106319783,-0.00938959363459,0.173478189971,0.000954264689472,0.912399787361,0.409155910515,0.0108239536508
-0.371365666389,-0.0318957939744,0.351102977991,-2.53812646866,0.0321473330259,2.52832651138,-0.889523208141,0.0634294003248,-2.39632154262e-05,0.000323566229781,-0.000633704767097,-9.56110015977e-05,2.61573350144e-05,0.00146501744166,0.000235472252825,0.459107670669,-0.00939093319588,0.173477916302,0.000955726540797,0.912400987815,0.40915315038,0.0108269679871
-0.371366143227,-0.031893055886,0.351101398468,-2.53812527657,0.0321479998529,2.52834033966,-0.8895149827,0.0634294003248,0.000690713583026,0.000785197655205,0.000188124628039,-0.000193002342712,1.28627016238e-05,1.11839344754e-05,-2.88235041808e-05,0.459110818056,-0.00939183090062,0.17347848194,0.000957899458357,0.912403153891,0.409148159962,0.0108328241138
-0.371365100145,-0.0318965502083,0.351101785898,-2.53812646866,0.0321471355855,2.52834939957,-0.889508783817,0.0634294003248,4.64449112769e-05,0.000997077440843,-0.000275351194432,-0.000361848215107,5.32009689778e-05,0.000388339016354,0.000129325941089,0.459112734907,-0.00939176201442,0.173480607131,0.000961290880263,0.912403925048,0.409146309953,0.0108374447215
-0.371363043785,-0.0318953581154,0.351101487875,-2.53812623024,0.032148513943,2.5283575058,-0.889503657818,0.0634294003248,0.000226781601668,0.000673902686685,-2.64106565737e-05,6.97690120433e-05,-3.69334156858e-05,-4.24474346801e-05,0.000486057746457,0.459114459147,-0.00939065300562,0.173480692431,0.000962174988163,0.912404833478,0.409144189624,0.010840933632
-0.371362894773,-0.0318951457739,0.351102352142,-2.53812479973,0.0321481227875,2.52836561203,-0.889498233795,0.0634294003248,0.000184665521374,-0.00121227966156,-0.000205088712391,-8.87714413693e-05,8.74035104061e-05,0.000141470940434,0.000202356852242,0.459116540807,-0.00939017197288,0.173481415217,0.000963915502099,0.912405500002,0.409142606277,0.010844438311
-0.371364951134,-0.0318960770965,0.351099401712,-2.53812289238,0.0321480073035,2.52837538719,-0.889493882656,0.0634294003248,0.000220639965846,0.000990914180875,-0.000265143404249,-0.00070568366209,9.02977844817e-05,0.000174201210029,3.60896847269e-05,0.45912000462,-0.00939275674075,0.173483954211,0.000967254878271,0.912407469057,0.409138043026,0.010850633847
-0.371360957623,-0.0319000668824,0.351099848747,-2.5381257534,0.0321468524635,2.52839374542,-0.889479279518,0.0634294003248,0.000277241546428,-0.000499788206071,0.00270907697268,-0.000180016621016,-0.00567650934681,-3.79179218726e-05,-0.000363109720638,0.459123250597,-0.00939119606764,0.173486263623,0.000972407750083,0.912409288889,0.409133756136,0.0108587864616
-0.371361523867,-0.0318968221545,0.351099699736,-2.53812623024,0.0321482680738,2.528403759,-0.88947468996,0.0634294003248,0.00031216541538,-0.000309695285978,0.000149349463754,0.000115076669317,-1.66666086443e-05,0.00284731853753,0.0022391343955,0.459124709548,-0.00939136499598,0.173485607015,0.000973015832342,0.912410590317,0.409130764706,0.0108620886166
-0.371362119913,-0.0318958610296,0.351098328829,-2.5381257534,0.032148078084,2.52841067314,-0.889468371868,0.0634294003248,8.48858544487e-05,-0.000108601911052,7.58177848184e-05,6.66693740641e-05,3.33380521624e-05,2.69368210866e-05,0.00025349893258,0.45912646078,-0.00939225394606,0.173486165741,0.000974554099528,0.912412318367,0.409126818442,0.0108654335959
-0.371355652809,-0.0318972058594,0.351099580526,-2.53812527657,0.032147474587,2.52843165398,-0.889454960823,0.0634294003248,-0.000134572139359,0.000463199947262,-0.000214874904486,0.000207621691516,-5.79135630687e-05,-1.50415917233e-06,5.54291545996e-05,0.459131271555,-0.00938908317195,0.173488816771,0.000979600414051,0.912413221017,0.409124539792,0.0108749766217
-0.371354848146,-0.0318947248161,0.351097464561,-2.53812384605,0.0321478359401,2.52843856812,-0.889451742172,0.0634294003248,3.56024393113e-05,0.000117027229862,-0.000227542303037,5.46989977011e-05,7.17561488273e-05,0.00189770862926,-0.00198623747565,0.459133131943,-0.00938960624634,0.173488851493,0.000980567329496,0.912414164862,0.409122353623,0.0108779452937
-0.371352672577,-0.0318925343454,0.351098239422,-2.53812551498,0.0321483165026,2.52844119072,-0.889447927475,0.0634294003248,-0.000576977909077,0.000761963718105,1.73700336745e-05,-0.000171673542354,-8.72293549037e-06,0.00017986963212,0.000215703956201,0.459132605224,-0.00938812183695,0.173487501018,0.000979868165582,0.912414435434,0.40912175973,0.0108776498301
-0.371348440647,-0.031899433583,0.351096987724,-2.53812503815,0.03214854002,2.52844977379,-0.889441132545,0.0634294003248,0.000228469318245,0.000879017286934,-8.54377940414e-05,-1.43445131471e-05,-4.57394780824e-05,-1.91625331354e-05,-0.000119686264952,0.459135751077,-0.00938722990481,0.173491460139,0.000984237295138,0.912415179911,0.409119915666,0.0108841642354
-0.371329456568,-0.0318980738521,0.351097196341,-2.53812527657,0.0321476943791,2.52846622467,-0.889431834221,0.0634294003248,-9.63115817285e-05,0.000306908448692,-1.85314511327e-05,0.000113898517156,9.37150980462e-05,0.00236355885863,-0.000181707160664,0.459139180811,-0.00937856215357,0.173492300807,0.000987479881453,0.912412962641,0.40912467558,0.0108908218275
-0.371320068836,-0.0318975560367,0.351095974445,-2.53812408447,0.0321479253471,2.5284717083,-0.889428436756,0.0634294003248,1.16842320494e-05,-0.000250703131314,0.00012117800361,-0.00025334302336,-4.39267932961e-05,0.000137894996442,-0.000114453658171,0.459140942239,-0.00937483014219,0.173493051015,0.000988649819542,0.912411997772,0.409126748584,0.010893675476
-0.371300518513,-0.0318957939744,0.351096898317,-2.53812718391,0.0321484580636,2.52847719193,-0.889421343803,0.0634294003248,0.00368846650235,-0.00062670186162,-0.000382135855034,6.35331234662e-05,-5.33778002136e-05,0.00275124027394,-0.000159693023306,0.459140580228,-0.0093653455961,0.173491596524,0.000988317303552,0.912409360711,0.409132617041,0.0108941759206
-0.371269762516,-0.0318977721035,0.351095885038,-2.53812265396,0.0321477018297,2.52848434448,-0.889416337013,0.0634294003248,0.000663840211928,-0.000531368365046,7.01330864104e-05,0.000314229895594,-6.68231150485e-05,9.27954315557e-05,-0.000218706540181,0.459144868435,-0.00935194172993,0.173494865048,0.000991599701912,0.912404102948,0.409144178105,0.0109000392479
-0.371243029833,-0.0318968221545,0.351095229387,-2.53812527657,0.0321473069489,2.52849173546,-0.889409840107,0.0634294003248,0.000227416967391,-0.000257062492892,-1.47613363879e-05,0.00034755418892,3.60249323421e-05,-0.0001283956517,0.000490666774567,0.459145321146,-0.00933999699924,0.173494128804,0.000992285624939,0.912400029056,0.409153214555,0.0109017910376
-0.371205568314,-0.0318934433162,0.351100683212,-2.53812646866,0.0321467146277,2.52850079536,-0.889403820038,0.0634294003248,0.0011696126312,-0.00058561260812,7.71171617089e-05,0.000359508412657,4.58810245618e-05,4.51708547189e-05,-0.000464961776743,0.459146853849,-0.00931951313644,0.173493336833,0.000993089731948,0.912392010782,0.409171023939,0.0109043698619
-0.371187061071,-0.0318948142231,0.351099699736,-2.53812360764,0.0321463830769,2.52850651741,-0.889399290085,0.0634294003248,0.0013202567352,0.0015459303977,-0.000187006473425,-0.000595130084548,-0.000125282487716,0.000669800036121,0.00013488647528,0.459149119047,-0.00931180775872,0.173494472956,0.000994563813975,0.91238953374,0.409176455286,0.0109076892252
-0.371172189713,-0.0318954139948,0.351099729538,-2.53812479973,0.0321474894881,2.52851057053,-0.889396429062,0.0634294003248,0.000900923856534,-0.0001521952654,0.000243007132667,-0.000211322389077,6.39383688394e-06,1.02669537227e-05,-0.000200826092623,0.459150119446,-0.00930554120153,0.173495424197,0.00099565140719,0.912387321939,0.40918132467,0.0109099342305
-0.371154814959,-0.031899087131,0.351099938154,-2.53812503815,0.0321473404765,2.52851557732,-0.889392197132,0.0634294003248,0.00045281049097,-0.000374828552594,-1.1459696907e-06,-0.000511306105182,-7.43113332646e-07,0.000103299113107,5.95533274463e-05,0.45915180026,-0.00929774193938,0.173497377907,0.000997959570538,0.912384529126,0.409187455577,0.0109133388756
-0.371142834425,-0.0318973809481,0.351098656654,-2.53812479973,0.0321458019316,2.52852320671,-0.889388859272,0.0634294003248,0.000710287888069,-0.000605317763984,-0.00220344611444,-4.64341283077e-05,8.31729921629e-05,0.00249792635441,0.000514493731316,0.459153413337,-0.00929289078064,0.173497445245,0.000999433910577,0.912382746859,0.409191353008,0.0109160738941
-0.371137738228,-0.0318989381194,0.351097345352,-2.5381257534,0.0321463011205,2.52852892876,-0.889382243156,0.0634294003248,-3.16416808346e-05,-7.7229058661e-05,-0.000695971713867,-9.35777206905e-05,-1.24435371163e-06,-1.97185217985e-05,0.000157602349645,0.459154469044,-0.00929126591884,0.173498284251,0.00100087279081,0.912383385572,0.409189851858,0.0109188278953
-0.371138691902,-0.0318948999047,0.351097345352,-2.53812789917,0.0321474894881,2.52853393555,-0.889380931854,0.0634294003248,-0.000214325729758,-8.78817299963e-05,-8.21366047603e-05,0.000267185183475,-6.32390510873e-05,-0.000120105236419,-0.000112677007564,0.459153923567,-0.00929144828303,0.17349617734,0.000999792538702,0.91238406381,0.409188342146,0.0109188301247
-0.371139019728,-0.0318973585963,0.351095080376,-2.53812646866,0.0321465320885,2.52853679657,-0.889377713203,0.0634294003248,-0.000535362749361,0.000328386202455,-0.000110078064608,0.00032705636113,-3.29797512677e-06,0.000351880182279,0.00250855484046,0.459155543746,-0.00929285994272,0.1734978618,0.00100177571305,0.912385082862,0.409185996333,0.0109214056933
-0.37113687396,-0.0318979397416,0.351098269224,-2.53812718391,0.0321446992457,2.52854323387,-0.88937318325,0.0634294003248,0.00134661432821,4.69913684356e-05,-1.35544114528e-05,0.000125042541185,-0.000108815176645,0.00120267900638,-6.21612998657e-05,0.459156750742,-0.00929062427874,0.173498618288,0.00100380609786,0.912384570564,0.409187064368,0.0109240012907
-0.371130377054,-0.0318983495235,0.351099699736,-2.5381257534,0.0321446843445,2.52855277061,-0.889367699623,0.0634294003248,0.000178043002961,-0.000556607556064,0.000778816349339,0.000190314021893,-2.94585261145e-05,-0.000283353903797,0.000475155567983,0.45915998566,-0.00928676321114,0.173500504647,0.0010065764609,0.912383885843,0.409188442017,0.0109293300962
-0.37112390995,-0.0318987332284,0.35109820962,-2.53812599182,0.0321447513998,2.52855849266,-0.889363646507,0.0634294003248,0.000475877488498,0.000398996664444,-0.000320604507579,0.000178513015271,0.000121696044516,-9.0801713668e-06,0.00238838419318,0.459160867893,-0.00928491242301,0.173500831903,0.00100764641662,0.912383818301,0.409188528106,0.0109316466393
-0.371124058962,-0.0318983085454,0.351099044085,-2.53812456131,0.0321465954185,2.52856588364,-0.889359533787,0.0634294003248,-0.000188270612853,7.45616562199e-05,0.00287988735363,1.47177729559e-06,0.000142610108014,3.48783687514e-05,0.000234358070884,0.459163100728,-0.00928456496232,0.173501881175,0.00100896845934,0.912384786886,0.409186257501,0.0109356752996
-0.371124178171,-0.031891644001,0.351098269224,-2.53812646866,0.0321465432644,2.52857112885,-0.889354050159,0.0634294003248,0.000138357587275,-0.000444399222033,-0.000226471485803,-0.000582941167522,4.0556096792e-05,0.00111058715265,-0.000189971891814,0.459162329402,-0.00928463501277,0.173498759086,0.00100734989161,0.91238611277,0.409183327951,0.0109348195024
-0.371121317148,-0.0318985581398,0.351098805666,-2.53812551498,0.0321452096105,2.52858757973,-0.88934469223,0.0634294003248,8.46246912261e-05,-8.51752265589e-05,-2.20721085498e-05,0.000133765322971,-8.87543646968e-05,-0.000112249406811,9.04140251805e-05,0.459167408063,-0.00928373162181,0.17350362699,0.00101400902921,0.912387005136,0.409181053676,0.0109448451888
-0.371119141579,-0.0318997576833,0.351098775864,-2.53812551498,0.0321461856365,2.52859282494,-0.889343500137,0.0634294003248,0.000171366642462,-0.00152445118874,-0.000428413593909,1.64013954418e-06,2.19086996367e-05,0.00156138418242,-4.30031213909e-05,0.459168746394,-0.00928281931289,0.173504629862,0.00101534506089,0.91238694465,0.409181107903,0.0109477359235
-0.371118724346,-0.0318974591792,0.351099729538,-2.53812456131,0.032146088779,2.52859902382,-0.889339804649,0.0634294003248,0.000359583733371,-0.000711720087565,0.00012493468239,0.000213179213461,1.65819710674e-05,0.000134942427394,-2.10032358154e-05,0.459170215607,-0.00928213864963,0.173504575221,0.00101613599211,0.912387385351,0.409180059855,0.0109501057735
-0.371112972498,-0.0318953096867,0.351099103689,-2.53812479973,0.0321439877152,2.5286154747,-0.889328598976,0.0634294003248,0.000178517613676,-0.000617338635493,-0.000533962622285,0.000145368612721,7.12053224561e-05,-0.000149233324919,-5.79253755859e-05,0.459173523221,-0.00928014358504,0.173505210123,0.00101967815097,0.912388271245,0.409177901772,0.0109566022125
-0.371112406254,-0.0318990424275,0.35109859705,-2.53812408447,0.0321450121701,2.52862334251,-0.889326155186,0.0634294003248,-0.000274092017207,-0.000626906286925,0.000318508478813,0.000564503425267,-1.95965458261e-05,-4.83401709062e-05,0.000232446822338,0.459176000725,-0.00928016557971,0.173507696031,0.0010224491495,0.912388833464,0.409176507039,0.0109616118775
-0.371114462614,-0.031893607229,0.351099312305,-2.53812789917,0.0321448147297,2.52862977982,-0.889324188232,0.0634294003248,-0.000334045005729,-0.00116574787535,-0.000277332059341,0.000294286292046,-9.41473899729e-06,9.91027081909e-06,4.00582612201e-05,0.459174752091,-0.00928052978837,0.173504470056,0.00102120583263,0.912389511258,0.409175020008,0.0109608196236
-0.37110799551,-0.0318983308971,0.351099938154,-2.53812646866,0.0321439579129,2.52864694595,-0.889314651489,0.0634294003248,9.6920884971e-05,-0.000740676245186,0.000266710208962,-0.000420286640292,-3.52662573277e-05,1.65583551279e-05,-7.84875592217e-05,0.459179923307,-0.00927778765413,0.173508643621,0.00102720287488,0.912389767683,0.409174169104,0.0109706745144
-0.371106475592,-0.03189894557,0.351102054119,-2.53812623024,0.0321445651352,2.52865338326,-0.889310359955,0.0634294003248,-0.000425165693741,-0.000560817425139,0.00290899630636,0.000257335050264,-5.6253564253e-05,-2.26887423196e-05,0.00212540361099,0.459181556058,-0.00927620191363,0.173509585685,0.00102874538137,0.912389972463,0.40917362131,0.0109739297926
-0.371106415987,-0.031895313412,0.351101011038,-2.53812456131,0.0321462340653,2.52865982056,-0.889306366444,0.0634294003248,0.00259401230142,0.000644087675028,0.000865672307555,0.000360670412192,3.044479854e-05,-0.00020440229855,0.000531029130798,0.459183206711,-0.00927642640408,0.173509265058,0.00102879553004,0.91239124754,0.409170708679,0.0109765126609
-0.371107280254,-0.0318972356617,0.351098954678,-2.53812503815,0.0321457348764,2.52866768837,-0.889305531979,0.0634294003248,-4.64919867227e-05,0.000148885999806,-0.000210878832149,-7.91534766904e-05,2.78433481071e-06,-8.9199951617e-05,0.000148102888488,0.459184946447,-0.00927797737242,0.173510647627,0.00103127052902,0.912391896204,0.409169150639,0.0109804402589
-0.37110966444,-0.0318987444043,0.351097077131,-2.53812551498,0.0321450009942,2.52867889404,-0.889300942421,0.0634294003248,-0.000331838586135,-0.00613084901124,-0.000248660595389,0.000310033647111,-5.64601941733e-05,0.00181416538544,0.000160587369464,0.459187335269,-0.00928016967221,0.173512159546,0.00103440074929,0.912393538029,0.409165340994,0.0109856810017
-0.371108859777,-0.0318990275264,0.35109847784,-2.53812646866,0.0321462415159,2.52868580818,-0.889294683933,0.0634294003248,0.000275759812212,0.000917472236324,0.00278428709134,-0.000401988596423,-2.0018160285e-05,-0.00422296114266,-0.000316722638672,0.459188442192,-0.00927918258317,0.173512546183,0.00103550151552,0.912394551397,0.409163000529,0.01098858477
-0.371103644371,-0.0318983532488,0.351099312305,-2.53812551498,0.0321447886527,2.52869057655,-0.889294028282,0.0634294003248,-0.000259456282947,0.000443988014013,-0.000122089986689,-5.50584045413e-05,5.37068626727e-05,-2.00508184207e-05,-3.0942610465e-05,0.459189882774,-0.00927650446094,0.17351305988,0.00103689204779,0.912393185894,0.409165984798,0.0109907121209
-0.371103852987,-0.0319001376629,0.351099669933,-2.53812384605,0.0321438834071,2.52870035172,-0.889291226864,0.0634294003248,0.000274049059954,0.000475828128401,0.00020123620925,-0.000494295731187,6.54645482427e-05,-0.00013118784409,-0.000184818054549,0.459193063896,-0.00927670390157,0.173515375964,0.00104031177641,0.912393518947,0.409165082379,0.0109963347209
-0.371107369661,-0.0318948701024,0.351097255945,-2.53812599182,0.0321438871324,2.52871274948,-0.889287114143,0.0634294003248,-0.000240224093432,-0.000712962355465,0.000525477924384,-0.000109158085252,2.02886749321e-05,7.43385453461e-06,-6.00405801379e-05,0.459196550966,-0.00927921970601,0.173516326152,0.00104325468434,0.912396128082,0.409159066971,0.011003393801
-0.371106475592,-0.0318949855864,0.35109809041,-2.53812718391,0.0321436002851,2.52872252464,-0.889279484749,0.0634294003248,0.00045913917711,0.00126277806703,-0.000625072512776,-1.70274597622e-05,2.05345259019e-05,0.000276903185295,-8.30677672639e-05,0.459195315992,-0.00927859354557,0.173513448132,0.00104249301863,0.912396803994,0.409157581695,0.0110026492985
-0.371105104685,-0.0318976677954,0.35109692812,-2.53812646866,0.0321438498795,2.52873039246,-0.889276862144,0.0634294003248,-0.00020328645769,0.000258874701103,-8.35396895127e-06,-0.000224790201173,6.69436412863e-05,3.98559641326e-05,-0.000169151637238,0.459197926849,-0.00927869169497,0.173516089806,0.00104556451026,0.912397185923,0.409156585759,0.0110077211202
-0.371102511883,-0.0319014452398,0.351101160049,-2.53812503815,0.0321445576847,2.52873682976,-0.889272212982,0.0634294003248,7.15572605259e-05,-5.66271155549e-05,0.00376356812194,0.00011115137022,-6.0886148276e-05,-0.000246678653639,-7.49850296415e-05,0.45920077897,-0.00927572532996,0.173518918757,0.00104847240284,0.912396772221,0.409157363423,0.0110128280754
-0.371103435755,-0.0318999253213,0.351100444794,-2.53812646866,0.0321442075074,2.52875375748,-0.88926243782,0.0634294003248,-0.00217162026092,-0.000124957805383,-0.00042698418838,0.000133544483106,4.92367908009e-05,-3.5594603105e-05,-0.00016268780746,0.459203447753,-0.00927689807184,0.173519309955,0.00105161065273,0.912399105909,0.409151981882,0.0110191221215
-0.371102243662,-0.0318988449872,0.351101309061,-2.53812599182,0.0321444012225,2.52875971794,-0.889258861542,0.0634300634265,-0.000225034047617,0.000246534240432,3.58937450073e-06,0.000120704316942,3.70732959709e-05,0.00267800269648,4.13797752117e-05,0.459204750062,-0.00927574402665,0.173519472267,0.00105246184078,0.912399354917,0.409151361114,0.0110214721635
-0.371102303267,-0.0318976081908,0.351098746061,-2.53812527657,0.0321443267167,2.52876710892,-0.889255344868,0.0634300634265,0.000262702873442,0.000733646913432,2.31649810303e-05,-0.000156947440701,-2.94336205116e-05,-4.29016326962e-05,0.000853154051583,0.459206491117,-0.00927695136368,0.173519911617,0.00105382606856,0.912400570521,0.409148560406,0.0110246796601
-0.371100604534,-0.0319013856351,0.351099848747,-2.53812432289,0.0321443900466,2.52878403664,-0.889247536659,0.0634300634265,0.000126181126689,0.000374068622477,-0.00335005694069,-0.000248846743489,0.000296095153317,0.00288414675742,-0.000418028677814,0.459211203438,-0.00927607250575,0.173523469535,0.0010591278173,0.9124015121,0.409146195952,0.0110339921558
-0.371102273464,-0.0318951718509,0.351099729538,-2.53812766075,0.0321444496512,2.52878856659,-0.889244019985,0.0634300634265,5.4860021919e-05,-0.000341955921613,-0.000447943108156,0.000380174082238,7.37024238333e-05,-8.82918466232e-05,0.00016743694141,0.459209708837,-0.00927652602431,0.173519848129,0.00105717913438,0.912402461864,0.409144129246,0.0110322771894
-0.371100574732,-0.0318936817348,0.351100474596,-2.53812742233,0.0321434997022,2.52879309654,-0.889241158962,0.0634300634265,0.000469396996778,0.000249022530625,-0.000744771794416,0.000282164488453,8.29085111036e-05,-0.00189653364941,0.000204084790312,0.459210545139,-0.0092754576154,0.173519783976,0.00105796525525,0.912402565752,0.409143854164,0.0110338115859
-0.371102035046,-0.0318996794522,0.35109859705,-2.53812527657,0.0321447364986,2.5288105011,-0.88922983408,0.0634300634265,-0.00340749882162,-6.15887693129e-05,0.0004341781314,0.000456440611742,5.00557871419e-05,-0.000135117355967,-0.000427623017458,0.459216211857,-0.00927745986084,0.173524819751,0.00106409426021,0.912405652812,0.409136656399,0.0110448400546
-0.371099293232,-0.0319006480277,0.351097017527,-2.5381257534,0.0321436040103,2.52881550789,-0.889225363731,0.0634300634265,7.38935486879e-05,-0.000178088186658,-4.57647474832e-05,0.000256311177509,-0.000115763861686,0.000373903603759,0.000524850969668,0.459217224686,-0.00927708655365,0.173525523946,0.00106571280776,0.912406121394,0.409135546936,0.0110470725285
-0.371098160744,-0.0318998843431,0.351099252701,-2.53812432289,0.0321434997022,2.52882122993,-0.889225006104,0.0634300634265,4.64313634438e-05,0.000249560718657,6.44219471724e-05,0.000280405452941,2.37258018387e-06,0.000105254272057,-3.16867335641e-05,0.459219062437,-0.00927558184048,0.173526265179,0.00106706794126,0.912405459428,0.409136941458,0.011049967701
-0.371099025011,-0.0318974740803,0.351098060608,-2.53812885284,0.0321438610554,2.52882790565,-0.889216780663,0.0634300634265,-0.000365125859389,0.000770280137658,0.000366502121324,0.000419251649873,-1.03972715806e-05,0.000129710795591,0.000106015548226,0.459217971669,-0.00927640864175,0.173524099424,0.00106660474946,0.912407644325,0.409132066104,0.0110501174689
-0.371100664139,-0.0318975634873,0.351098120213,-2.53812718391,0.0321440584958,2.52883267403,-0.889215230942,0.0634300634265,0.000210762867937,0.000295794627164,0.00122617743909,-0.000212298080442,-6.50115980534e-05,3.02528405882e-05,-0.000225443611271,0.459219802176,-0.0092771890592,0.173525223584,0.00106801719297,0.912408285026,0.409130554207,0.0110530561591
-0.371100574732,-0.0319006815553,0.351098805666,-2.53812503815,0.0321428067982,2.52884054184,-0.889212548733,0.0634300634265,-0.000299759092741,0.000197234272491,-0.000398626027163,8.62133019837e-05,-7.35149251341e-06,-0.000330580805894,-0.000330739509081,0.45922299986,-0.00927718055344,0.173528121251,0.00107167478591,0.912408404652,0.40913013176,0.0110584628085
-0.371096551418,-0.0318989530206,0.351100355387,-2.53812432289,0.0321438498795,2.52884578705,-0.889211773872,0.0634300634265,0.000528470845893,0.000374456925783,0.0011229258962,0.000541282177437,0.00012479929137,0.000298335100524,0.00286941975355,0.459224273633,-0.00927453302202,0.173528129889,0.00107210416232,0.912407578752,0.409131913585,0.0110606417268
-0.371096909046,-0.0318999178708,0.351100772619,-2.53812527657,0.0321444123983,2.52885389328,-0.889208495617,0.0634300634265,-0.000173746288056,0.000262706947979,3.59443329216e-05,7.73935607867e-05,3.79886587325e-05,0.000103611448139,-0.000432337168604,0.459225710751,-0.00927474375968,0.17352877902,0.00107388994307,0.912408235664,0.409130348368,0.0110641754016
-0.371099025011,-0.0318932980299,0.35109820962,-2.53812742233,0.0321428626776,2.52886676788,-0.889202356339,0.0634024813771,0.0001918412745,-0.000758550711907,0.000790022779256,0.000254174286965,-0.000124381796923,9.94833244476e-05,0.000114929505799,0.459226461028,-0.00927657855377,0.173526444847,0.001074364605,0.91241025943,0.409125770497,0.0110665180482
-0.371095299721,-0.0318994782865,0.35109937191,-2.53812432289,0.0321428999305,2.52887248993,-0.889200091362,0.0634024813771,-0.000240913999733,-9.17775687412e-05,-0.00600503757596,-0.000489206868224,-2.43024824158e-05,4.36656300735e-05,0.00023112159397,0.459230144547,-0.00927477342235,0.173530831461,0.00107848083202,0.912409649701,0.409126953889,0.0110726371076
-0.371096074581,-0.0318987630308,0.351100564003,-2.53812360764,0.0321420282125,2.52888035774,-0.889195144176,0.0634024813771,-6.8938556069e-05,9.23727839108e-06,0.000307664537104,0.000106771185528,2.7071679142e-05,0.000620802224148,-2.63120327872e-05,0.459232085718,-0.0092746817489,0.173531520806,0.00108036361776,0.912410400159,0.40912518165,0.0110760965901
-0.371098577976,-0.0318960547447,0.351099163294,-2.53812551498,0.032142739743,2.52888989449,-0.889191091061,0.0634024813771,0.00018003337027,-0.00045451047481,-4.27162776759e-05,-0.000303039647406,1.12856423584e-05,0.00309197488241,-4.23123310611e-06,0.459232808247,-0.00927636487881,0.173530505532,0.00108093892214,0.912412137233,0.409121237075,0.0110786486134
-0.371098488569,-0.0318941026926,0.351098865271,-2.5381257534,0.0321431867778,2.52889823914,-0.889186382294,0.0634024813771,-0.00015005269961,0.000419303396484,-0.000363277678844,-0.00011114066001,-0.000123398232972,-1.33452213049e-05,-8.49068328534e-06,0.459234215814,-0.00927635052873,0.173530348655,0.00108196875318,0.912413177404,0.409118833908,0.0110816273776
-0.371095329523,-0.0318992361426,0.351098507643,-2.53812384605,0.0321425944567,2.528901577,-0.889184236526,0.0634024813771,-8.61896187416e-05,-5.94164848735e-05,-0.00128178915475,0.000380155048333,-0.000115282877232,0.00153987400699,-0.000536655832548,0.459236636803,-0.00927549724291,0.173533606666,0.0010850396646,0.912412909172,0.409119312921,0.0110857268649
-0.37109592557,-0.0318971276283,0.351097851992,-2.53812766075,0.0321418903768,2.5289041996,-0.889183282852,0.0634024813771,9.35400021262e-05,-0.000566940463614,-0.000211197228055,-0.000204827767448,-0.00470691174269,0.00030244840309,-0.000174019558472,0.459235057475,-0.00927599240928,0.173531469189,0.00108424321022,0.91241327476,0.40911853704,0.0110843488497
-0.371092319489,-0.0318973213434,0.351101011038,-2.5381257534,0.0321414805949,2.52893686295,-0.889164149761,0.0634024813771,0.00034220397356,-0.000581247790251,-0.000661433849018,-0.000253779493505,7.60354032536e-06,1.64976736414e-05,3.81372365155e-06,0.459243136778,-0.00927329578286,0.173535295808,0.00109208028817,0.912415593709,0.409112926047,0.0110997809809
-0.371092885733,-0.0318982601166,0.351101666689,-2.53812670708,0.0321427769959,2.52894282341,-0.889157772064,0.0634024813771,-0.000539438158739,-0.000832233170513,-0.000160617535585,0.000107062893221,8.51743970998e-06,-4.80514281662e-05,-0.000303578533931,0.459244116056,-0.00927330130709,0.173535881133,0.00109318706,0.912417073139,0.409109549713,0.0111025041946
-0.37109670043,-0.0319011174142,0.35109859705,-2.53812623024,0.0321418754756,2.52895450592,-0.889148831367,0.0605860352516,-0.000302240514429,0.000308695045533,-0.000341250619385,0.000328343536239,-0.000296342710499,-0.000175672437763,-0.00028583680978,0.459247241504,-0.00927678952003,0.173538393955,0.00109712900213,0.912420096001,0.40910262495,0.0111088550555
-0.371100097895,-0.0319014787674,0.351097524166,-2.53812456131,0.0321409739554,2.52896356583,-0.889142096043,0.0605860352516,-0.000182232164661,0.000689675274771,4.73293694085e-05,0.000208751749597,9.74741124082e-05,-6.54671384837e-05,-0.000175620603841,0.459250088091,-0.00927929922523,0.173539774072,0.00109972484642,0.912422400559,0.409097347686,0.0111136564793
-0.371096402407,-0.0318957604468,0.351100236177,-2.53812742233,0.0321422107518,2.52898073196,-0.889133632183,0.0605860352516,0.000340380793205,0.000692317786161,-0.000225792013225,0.000235772604356,2.12291324715e-05,1.82717431016e-05,0.00105395738501,0.459251578887,-0.00927585552409,0.173538041529,0.00110071327525,0.912422799445,0.409096332605,0.0111181748504
-0.371091663837,-0.0318948850036,0.351101189852,-2.53812479973,0.0321418717504,2.52899003029,-0.889130473137,0.0605860352516,-0.000273860059679,-0.000302535161609,-6.39178106212e-05,0.000179049064172,0.000547745963559,1.92780826183e-05,0.000234482387896,0.459254854127,-0.00927338434895,0.173539655928,0.00110324000137,0.912422276411,0.409097351848,0.0111233430551
-0.371093869209,-0.0318995714188,0.351100772619,-2.5381257534,0.0321420542896,2.52899694443,-0.889129161835,0.0605860352516,-0.000118407442642,-0.000194640801055,0.000373240414774,-3.86749379686e-05,2.53118869296e-05,0.000113853187941,0.000213034611079,0.459256594503,-0.00927484749464,0.17354188776,0.00110623872589,0.912422988072,0.409095638327,0.0111276887006
-0.371095389128,-0.0319011546671,0.351097285748,-2.53812646866,0.0321424752474,2.52900743484,-0.88912498951,0.0605860352516,0.000368170381989,-0.000184112184797,-0.000198156907572,1.66929385159e-05,4.9240691169e-07,-0.000122596189613,-0.000251424848102,0.459258614851,-0.00927732020193,0.173543223003,0.00110871648071,0.912424865183,0.409091314422,0.0111324879736
-0.371093004942,-0.0319018885493,0.351098418236,-2.53812432289,0.0321417339146,2.52902793884,-0.889118671417,0.0605860352516,0.00164849613793,-0.000411343207816,0.000471788458526,-0.000154554742039,-0.000104533355625,-7.7769967902e-05,0.000685577862896,0.45926422405,-0.00927602497762,0.173546260209,0.00111420878501,0.912425214466,0.409090240746,0.0111427623212
-0.371093869209,-0.031899202615,0.351099997759,-2.53812670708,0.0321425274014,2.52903461456,-0.889116227627,0.0605860352516,-0.0004276035761,-0.000135363996378,0.00199834420346,-0.000210607293411,-8.26588075142e-05,0.000151940897922,-0.00013162146206,0.459264139147,-0.00927556515108,0.173544790747,0.00111404049536,0.91242570607,0.409089116248,0.0111438083243
-0.371094375849,-0.031896494329,0.351097881794,-2.53812623024,0.0321407169104,2.52904009819,-0.889112234116,0.0605860352516,-0.000472629908472,-0.000336596509442,-0.00208199792542,0.000244513823418,-4.14878122683e-05,0.00151847105008,0.000132859218866,0.459265128712,-0.00927676148334,0.173544324107,0.00111485540223,0.912426749434,0.409086746009,0.0111453099349
-0.37109836936,-0.0318974815309,0.35109642148,-2.53812623024,0.0321428328753,2.52904844284,-0.889105677605,0.0605860352516,-0.000124262121972,0.000919661717489,3.36961020366e-05,-0.000260477361735,3.7678732042e-05,0.000588495400734,-0.000233491547988,0.459267042282,-0.00927929175839,0.173545530578,0.00111651246209,0.912429516855,0.40908045009,0.0111496729207
-0.3710950315,-0.0319009497762,0.351097375154,-2.53812551498,0.0321424305439,2.52905511856,-0.889099240303,0.0500248670578,-0.000263546186034,3.01740947179e-05,-0.000424409954576,-0.000427316554124,6.2463019276e-05,1.12947591333e-05,0.0024934199173,0.459269145119,-0.00927761333289,0.173547680602,0.00111935675236,0.912429997685,0.409079250555,0.0111540490827
-0.371089458466,-0.0319004282355,0.35110321641,-2.5381257534,0.0321421064436,2.52906680107,-0.88909214735,0.0500248670578,-6.49903449812e-05,0.000193960877368,0.000114639442472,0.000106203071482,-2.04901625693e-05,-5.20507601323e-05,0.000519160123076,0.459271820207,-0.00927252164062,0.173548650619,0.00112190363966,0.912428860845,0.409081645283,0.0111589605795
-0.371095716953,-0.0318970642984,0.35109770298,-2.53812718391,0.0321418382227,2.52908229828,-0.889079749584,0.0500248670578,0.000109619322757,-0.000199042653549,-0.0031859036535,0.000635663513094,4.97144901601e-05,0.00023148173932,0.00196088035591,0.459273897722,-0.00927787943516,0.173548108953,0.00112389767106,0.912433727489,0.409070645297,0.0111640777166
-0.371098011732,-0.031898483634,0.351096510887,-2.5381269455,0.0321416966617,2.52908802032,-0.889071285725,0.0500248670578,-0.000198211710085,-0.000254116341239,0.000232818827499,0.000314505392453,-5.23142516613e-05,-3.58718134521e-05,-0.000432746193837,0.459275432827,-0.00927962739432,0.173549348937,0.00112573934507,0.912436116101,0.409065226195,0.0111672353001
-0.371089756489,-0.0319023095071,0.351099848747,-2.53812527657,0.0321405977011,2.52910232544,-0.889053821564,0.0500248670578,-9.82848087006e-06,0.000318169622915,-0.000367282336811,0.000411701592384,-9.70098772086e-05,0.000110154280264,-0.000207161152503,0.459280167247,-0.00927498045607,0.173552957335,0.00113088330021,0.912437164822,0.409062639594,0.0111757739247
-0.371092110872,-0.0319015979767,0.351098775864,-2.53812384605,0.0321423411369,2.52910804749,-0.889047861099,0.0500248670578,0.000218088214751,4.71415623906e-05,1.84268501471e-05,0.000598704908043,-2.88722676487e-05,-9.68458189163e-05,0.000286561727989,0.459281792292,-0.00927626551459,0.173553732637,0.0011317042046,0.912439223286,0.409057964637,0.0111787432696
-0.371091723442,-0.0318968482316,0.351098775864,-2.53812646866,0.0321419648826,2.52911496162,-0.889044821262,0.0500248670578,3.65992527804e-05,0.000656083342619,0.000160233234055,-0.000121838216728,5.96062272962e-05,8.78808896232e-06,0.000269970594672,0.459281335474,-0.00927589332864,0.173551310316,0.00113109011295,0.912439722569,0.409056847549,0.0111789295397
-0.371095746756,-0.0318968966603,0.351098716259,-2.5381257534,0.0321416892111,2.52912044525,-0.88903594017,0.0500248670578,-0.000176065892447,-0.000219570749323,-0.000563425070141,-0.000556866347324,-6.46638291073e-05,-0.000565699010622,0.000831086188555,0.45928293331,-0.00927781028125,0.173552159728,0.00113252218654,0.912442236501,0.409051158367,0.0111817691134
-0.371091991663,-0.0318986847997,0.351098150015,-2.53812527657,0.032141789794,2.52912998199,-0.889024794102,0.0496518798172,-0.000246400770266,-0.000124867307022,-4.30450163549e-05,-0.000100286197267,-4.01879005949e-05,-8.7155145593e-05,0.000216472588363,0.459285509727,-0.00927676044291,0.173554076998,0.00113543242138,0.912444036662,0.409046991566,0.0111870069477
-0.371093630791,-0.0318978689611,0.351099610329,-2.53812599182,0.0321405418217,2.52913331985,-0.889017224312,0.0496518798172,0.000217715307372,-0.000971192144789,-0.000147008890053,-0.000235419516684,-7.03314653947e-05,0.00015833498037,0.000544080918189,0.459285680738,-0.00927672564733,0.17355362954,0.00113592514868,0.912445269477,0.409044226242,0.011187517161
-0.371090859175,-0.0319027453661,0.351099282503,-2.5381257534,0.0321406200528,2.52914476395,-0.88900321722,0.0496518798172,0.000447433092631,0.000342453684425,-1.42851222336e-05,-0.000270614458714,-0.000121242825116,-0.000186531091458,-2.70012569672e-05,0.459289024227,-0.00927600357166,0.173556886432,0.00114017503588,0.912447573559,0.409038884567,0.0111944673421
-0.371091872454,-0.0318975746632,0.35110065341,-2.53812527657,0.0321403890848,2.52915263176,-0.888983726501,0.0496518798172,-0.00025436328724,0.00041861194768,-1.69533923327e-05,1.67721518665e-05,-4.80258386233e-05,8.52845332702e-05,0.000496334978379,0.459290189966,-0.00927564668177,0.173555561467,0.00114017345105,0.912451441755,0.40903020424,0.0111963450836
-0.371093332767,-0.0318984761834,0.351099014282,-2.53812599182,0.0321422852576,2.52915644646,-0.888977408409,0.0496518798172,-0.000481225899421,-0.000487021403387,-1.0058512089e-05,0.000102120553493,6.82098252582e-05,4.42525561084e-06,0.00162541517057,0.459290788362,-0.00927704924917,0.173556036273,0.00114066970996,0.912453666065,0.409025187173,0.0111983077237
-0.37109130621,-0.0319020152092,0.351100057364,-2.53812646866,0.0321402102709,2.52916026115,-0.888969898224,0.0496518798172,7.64024443924e-05,0.000460773881059,3.91344692616e-05,7.25400168449e-05,-0.000108004387585,8.43235320644e-05,0.000268075120403,0.459291934982,-0.00927599930321,0.173557725766,0.00114318179541,0.912454201283,0.409023919008,0.0112007613879
-0.371090203524,-0.03190407902,0.351099431515,-2.53812479973,0.0321399308741,2.52916288376,-0.888959527016,0.0496518798172,0.000125856386148,0.00022923357028,-0.000487451790832,-0.000123876874568,3.30651164404e-05,0.000186025252333,0.000421856966568,0.459293612535,-0.00927594871524,0.173559506737,0.00114486921363,0.912456143848,0.409019508843,0.0112033876316
-0.371090918779,-0.0318961925805,0.351099342108,-2.5381257534,0.0321397185326,2.52917027473,-0.888942360878,0.0496518798172,0.000225119583774,-0.000241252259002,1.75590430445e-05,0.000242548907408,0.000107335981738,1.29825975819e-05,0.00011739711772,0.459293579882,-0.00927594753825,0.173556420747,0.00114348595177,0.912459804878,0.409011343201,0.0112034697653
-0.371087938547,-0.0318972915411,0.351101726294,-2.53812742233,0.0321404635906,2.52917432785,-0.888937592506,0.0457493104041,-0.000469118182082,-3.50578957296e-05,-0.000257422158029,9.66040352068e-06,-2.36000614677e-05,-0.000113660127681,-0.000384655344533,0.459293871899,-0.00927355352398,0.173556613587,0.00114420941628,0.912459797348,0.40901131645,0.0112049857019
-0.371091932058,-0.0319012925029,0.351098507643,-2.53812408447,0.0321412310004,2.52917766571,-0.888928890228,0.0457493104041,0.000248389173066,-0.000170539104147,-5.66158887523e-05,0.000157654925715,1.36241951623e-05,0.000386358180549,0.00083719601389,0.459296725785,-0.00927709389952,0.173559954805,0.00114685409962,0.912463116856,0.409003779098,0.0112095256975
-0.371089398861,-0.0319098830223,0.351098656654,-2.53810882568,0.0321378447115,2.52921199799,-0.888922452927,0.0457493104041,0.000302884116536,-0.0021654847078,-0.000623554515187,0.00151958153583,2.96403377433e-05,-0.0020945223514,-0.000282691587927,0.459312752493,-0.00927699262636,0.173572733168,0.00116174242393,0.9124630224,0.4090032674,0.0112343243214
-0.371095836163,-0.0319087840617,0.351095169783,-2.53811860085,0.03213705495,2.52929997444,-0.888914644718,0.0457493104041,-0.00282469531521,-2.71729404631e-05,-0.00356631563045,-0.00144636339974,6.56104020891e-05,7.32439948479e-05,9.64219361776e-05,0.459326907259,-0.00928240486016,0.173576646492,0.00117926603992,0.912466248904,0.408995072771,0.0112687209599
-0.371092736721,-0.0319023169577,0.351095855236,-2.53812074661,0.032137542963,2.52939724922,-0.888902902603,0.0457493104041,0.000345765496604,-0.000857792038005,0.000408559804782,-0.000457365531474,8.16660249257e-05,-0.000358669291018,-0.000359467318049,0.459346047367,-0.00928130291153,0.173582034096,0.00119821652439,0.912467618199,0.408990852096,0.0113089609103
-0.371091604233,-0.0319020375609,0.351097375154,-2.53812408447,0.0321371592581,2.52940797806,-0.888901650906,0.0457493104041,0.000295216595987,0.000390197528759,0.00021581351757,-2.35068346228e-05,4.91197824886e-05,-0.000533095037099,0.00112257502042,0.459346758288,-0.00928019381555,0.173581609793,0.00119991676755,0.912467253358,0.408991574883,0.0113120777709
-0.371093451977,-0.031906735152,0.351096838713,-2.53812336922,0.0321365818381,2.52941918373,-0.888895869255,0.0457493104041,-0.000399042939534,-0.000175379274879,-4.32698216173e-05,-8.9162029326e-05,-4.3659361836e-05,-0.000398418167606,-0.000141734970384,0.459350204849,-0.00928171314734,0.173584953474,0.00120439241103,0.912468751205,0.408988028903,0.0113189843662
-0.37109452486,-0.0319022275507,0.351095050573,-2.53812360764,0.0321370027959,2.52943205833,-0.888891637325,0.0457493104041,-0.000410530134104,0.00026053795591,0.000357440119842,5.76246675337e-05,2.681006481e-05,0.000113985450298,0.000442796124844,0.459352190437,-0.009282872254,0.17358411845,0.00120549993724,0.91247024557,0.40898457726,0.0113231163057
-0.371092766523,-0.0319041758776,0.351097017527,-2.53812217712,0.0321369506419,2.52945566177,-0.888883769512,0.0399200804532,0.00102853565477,-0.00439879205078,-1.24623356896e-05,-0.000122263314552,6.21982908342e-05,0.00248968414962,-0.000175329274498,0.45935827239,-0.00928146985783,0.173587806859,0.00121186496545,0.912470987776,0.408982572127,0.0113350441656
-0.371094256639,-0.0318999513984,0.351094454527,-2.53812432289,0.0321370922029,2.52946138382,-0.888878166676,0.0399200804532,0.000261164037511,-0.0010066779796,0.000691149500199,0.000114881819172,-4.89872945764e-05,-2.7740637961e-05,-0.000267338822596,0.459358525289,-0.00928309964378,0.173586364953,0.00121188295822,0.912472783053,0.408978534017,0.0113362215863
-0.371094256639,-0.0319037102163,0.351095378399,-2.53812146187,0.0321366153657,2.5294687748,-0.88887578249,0.0399200804532,0.000274135672953,-3.41923914675e-05,0.0011412804015,-0.000466029305244,-8.00388170319e-06,4.04328820878e-05,-0.000132121000206,0.45936140022,-0.00928311258309,0.173588987174,0.00121477068261,0.912473128435,0.408977623786,0.0113409496632
-0.371093779802,-0.0319037027657,0.351097524166,-2.53812241554,0.0321371406317,2.52948021889,-0.888867616653,0.0399200804532,-0.000457434740383,-0.000247503689025,6.61735903122e-05,-9.29236630327e-05,-0.000123433492263,0.00254774023779,-0.000391549605411,0.459363446362,-0.00928200763689,0.173589665162,0.00121696861394,0.912474310268,0.408974849405,0.0113456741402
-0.371093988419,-0.0319101773202,0.351096987724,-2.53811717033,0.0321364477277,2.52949404716,-0.888863921165,0.0399200804532,-0.00363047071733,-0.00354045280255,0.00290160416625,0.00111626833677,-6.67563581374e-05,0.00181074556895,0.000162416574312,0.459369904322,-0.00928293554514,0.173595769337,0.00122366776277,0.912474970568,0.4089730583,0.0113564073827
-0.371094882488,-0.0319243445992,0.351094692945,-2.53810715675,0.0321362763643,2.52951097488,-0.888862431049,0.0399200804532,0.000464738142909,-0.00116633065045,0.000296324811643,0.000603700056672,-9.76326555246e-06,0.00211314880289,1.57826270879e-05,0.459380436595,-0.00928545292999,0.173607331968,0.00123469287456,0.912475672346,0.408970985393,0.0113734645568
-0.371088922024,-0.0319642983377,0.351097762585,-2.5381026268,0.0321358554065,2.52954244614,-0.888861000538,0.0399200804532,0.000132062967168,-0.00236614816822,0.000151186759467,-0.000977704301476,-0.000161809075507,-0.000407962157624,-0.000321035331581,0.459395434959,-0.00928401408295,0.173629223067,0.00125706013728,0.912473664082,0.408974561583,0.0114035001155
-0.371085107327,-0.0321081727743,0.351100176573,-2.53811097145,0.0321364887059,2.52959537506,-0.888857007027,0.0399200804532,0.000241465240833,-0.000833579339087,0.000481210445287,-0.000181741052074,-2.74478152278e-05,3.10571681439e-06,0.0011675277492,0.459424342623,-0.00928996710552,0.173692975276,0.00131822809579,0.912472360823,0.408975307222,0.0114739170144
-0.371088027954,-0.0321118682623,0.351099222898,-2.5381166935,0.0321361832321,2.52960085869,-0.888855099678,0.0399200804532,-0.000245740637183,-0.00104257662315,-0.00037738904939,-9.86405393633e-06,5.33842830919e-05,-2.28989301831e-05,0.000139318886795,0.459423311992,-0.00929200036735,0.173692871219,0.00131963753776,0.912473495067,0.408972740382,0.0114750452082
-0.371089607477,-0.0321135111153,0.351097136736,-2.5381155014,0.0321359485388,2.52960705757,-0.888852238655,0.0399200804532,0.000191754093976,0.000166882251506,-8.35356549942e-05,0.00021681652288,8.91297349881e-06,0.000233014288824,0.000498645298649,0.459425438278,-0.00929385446429,0.173694626228,0.00132191606127,0.912474746305,0.408969832585,0.0114789202205
-0.371087819338,-0.0321120768785,0.351099729538,-2.53811502457,0.0321362912655,2.52961444855,-0.888852953911,0.0399200804532,-0.000322954467265,0.000224576229812,0.000122199868201,-0.000278856459772,4.33148670709e-05,0.00253239017911,0.000280929816654,0.459427092022,-0.00929183532384,0.173694863982,0.00132309126224,0.912473734831,0.408972000526,0.0114819483649
-0.371085315943,-0.0321169272065,0.351099312305,-2.53811430931,0.0321363434196,2.52962088585,-0.888849020004,0.0399200804532,5.07330260007e-05,0.000399165670387,-0.000880143954419,0.000509001605678,-5.22422742506e-05,0.00023884663824,-0.000234758554143,0.459429569463,-0.00929122509616,0.173697832575,0.00132636828751,0.912474061753,0.408971122497,0.0114868629097
-0.371088415384,-0.0321162007749,0.351098865271,-2.5381155014,0.0321357026696,2.52962327003,-0.8888489604,0.0399200804532,-0.000411311397329,0.000577115279157,-1.16872943181e-05,-6.14172458882e-05,0.000128905390739,0.000475788867334,0.000190099905012,0.459429375364,-0.00929286387227,0.173697281353,0.00132657455401,0.912474697074,0.408969698999,0.0114870527047
-0.371089160442,-0.0321177206933,0.351099550724,-2.53811597824,0.032136388123,2.52962732315,-0.888847529888,0.0399200804532,-0.000114496608148,0.000310947274556,0.000128350322484,0.00051575404359,-2.04641528398e-05,6.33192757959e-05,-0.00015196253662,0.459430251739,-0.0092929866054,0.173698125574,0.00132774791655,0.912475093578,0.408968748473,0.0114892618665
-0.371088206768,-0.0321146473289,0.35110104084,-2.53811383247,0.0321364924312,2.52963161469,-0.888845562935,0.0375718399882,0.000109040134703,-0.000383826321922,-2.31683479797e-05,0.000195735730813,7.77799414209e-06,-0.000159532268299,-0.000234274266404,0.459431770832,-0.00929174571349,0.173698019259,0.00132804316646,0.912474995759,0.408968915026,0.0114910677673
-0.371088445187,-0.0321169868112,0.351098001003,-2.53811717033,0.0321359559894,2.52963638306,-0.888839244843,0.0375718399882,0.00021878501866,0.00330553785898,4.69424157927e-05,-0.000677759584505,0.000153677232447,-0.00010102509259,0.000182302115718,0.459431531418,-0.00929343388813,0.17369819587,0.00132932589414,0.912476862985,0.408964705196,0.0114924755436
-0.371087819338,-0.0321145802736,0.351099431515,-2.53811883926,0.0321366451681,2.52963662148,-0.888838410378,0.0375718399882,0.000305304361973,-0.0033900490962,0.000563145440537,-0.000661693688016,6.82327518007e-05,8.00854104455e-05,-0.000413434754591,0.459430446859,-0.00929231386396,0.173696527376,0.00132798601797,0.912476752955,0.408964994879,0.0114910579629
-0.371086031199,-0.0321168527007,0.351100116968,-2.53811573982,0.0321348682046,2.52964186668,-0.888833940029,0.0375718399882,-6.5959233325e-05,-0.000575752288569,-0.000291398027912,0.00111113174353,-3.7669455196e-05,0.000171590669197,-9.40245263337e-06,0.459434207934,-0.00929176538124,0.173700026893,0.00133180882482,0.912476884189,0.408964535882,0.0114965289153
-0.371086537838,-0.0322388708591,0.351099044085,-2.53808116913,0.0321345366538,2.52967238426,-0.888834297657,0.0375718399882,0.000181288472959,-0.00710271392018,0.000617821002379,-0.000322827138007,2.97166534438e-05,-0.000217240085476,0.000321602710756,0.45947605376,-0.00930009384002,0.173771994605,0.00139228393392,0.91247580439,0.4089646482,0.0115708318956
-0.371081262827,-0.032461091876,0.351101100445,-2.53808808327,0.0321348085999,2.52968335152,-0.888832032681,0.0375718399882,-0.000213068997255,-0.0125536723062,-0.000340374419466,-0.000857040809933,-5.84494555369e-05,0.00235550687648,7.79453475843e-05,0.459506748887,-0.00930931343163,0.173862288595,0.00146885785742,0.912473672533,0.408966968925,0.0116472056347
-0.3710744977,-0.0326397158206,0.351107895374,-2.5380961895,0.0321354866028,2.52968454361,-0.888827204704,0.0375718399882,0.000514196988661,-0.00718396436423,-0.000190482547623,-0.000367281027138,-3.28854875988e-05,-3.87327308999e-05,0.000326274428517,0.459529736931,-0.00931335563623,0.173936326666,0.00153077992811,0.912471040335,0.408970913123,0.0117067997959
-0.371061623096,-0.0327871777117,0.351109355688,-2.5381193161,0.0321353003383,2.52968335152,-0.888823151588,0.0375718399882,-3.59024306817e-05,-0.00614147773013,-9.80629629339e-05,-0.00119263050146,-3.87858890463e-05,-5.59674663236e-06,-0.000105619212263,0.459540423868,-0.0093151551692,0.173990911807,0.00157802746437,0.912468254217,0.408975781171,0.0117475516639
-0.371062606573,-0.0327856726944,0.351105511189,-2.53813695908,0.0321354791522,2.52968287468,-0.888810813427,0.0375718399882,-0.000302738830214,0.00033161175088,0.000157647096785,7.20782554708e-05,9.30538080866e-05,-2.1833975552e-06,-9.58540331339e-05,0.459531637771,-0.00931716011127,0.173983412297,0.00157348158364,0.912471948607,0.408967804156,0.0117389098119
-0.371064424515,-0.0327800810337,0.351102918386,-2.53813409805,0.0321346260607,2.52968335152,-0.888805866241,0.0375718399882,-0.000158766648383,-0.000102977763163,0.000533195736352,-8.02918148111e-05,-9.18328260013e-06,0.00153115589637,0.000390359055018,0.459532239976,-0.00931891727811,0.173982162924,0.00157239916632,0.912473727637,0.408963854418,0.0117383726751
-0.371050000191,-0.0327711030841,0.351111233234,-2.53814220428,0.0321347489953,2.52968263626,-0.888800680637,0.0375718399882,0.000641354999971,-0.000984893064015,0.000199393267394,-0.000516574771609,1.83427391676e-06,0.000134590663947,0.0014270117972,0.459527080924,-0.00930793591895,0.173975042331,0.00156721057356,0.912470280887,0.408971771003,0.0117311786226
-0.371042698622,-0.0327833741903,0.351112157106,-2.53814268112,0.0321337357163,2.52968287468,-0.88879686594,0.0375718399882,-0.00027969686198,-0.000130059415824,-0.000191773331608,0.000905226101168,9.49242676143e-05,0.000128479528939,-0.00064212072175,0.459528795835,-0.00930492284147,0.173980171386,0.00157173559842,0.912469144145,0.408974173216,0.0117352440692
-0.371065109968,-0.0328117646277,0.351096391678,-2.53812551498,0.0321346484125,2.52968430519,-0.888790607452,0.0375718399882,-0.000226723685046,-0.00225388095714,-4.33234745287e-05,-0.000148370512761,5.82929787925e-05,0.000155849280418,0.000625383749139,0.459541184354,-0.00932407909471,0.173999281849,0.00158559796174,0.912478068231,0.408953673085,0.0117538856436
-0.371055483818,-0.0328161232173,0.351101398468,-2.53813004494,0.0321346521378,2.5296831131,-0.888789772987,0.0353739783168,0.00210869521834,0.000286512105959,0.000695124850608,0.000263061927399,-2.97075948765e-05,3.73511757061e-05,0.000154151784955,0.459539536293,-0.00931759481386,0.173999273975,0.00158587950722,0.912475265299,0.408959957457,0.0117527903222
-0.371046870947,-0.032812513411,0.351106584072,-2.53812408447,0.0321352593601,2.5296857357,-0.888788878918,0.0353739783168,-7.43201526348e-05,0.000658834644128,0.000219195499085,0.000394192087697,0.00020473630866,5.48021453142e-05,0.000369685702026,0.459542535297,-0.00931109890182,0.174000238816,0.00158627284986,0.912472688225,0.408965630354,0.0117554179212
-0.371037214994,-0.032809022814,0.351111471653,-2.53812432289,0.0321361683309,2.52968764305,-0.888781547546,0.0353739783168,-0.000450704741525,-0.000334491982358,0.000154929264681,-0.000226095085964,0.000129707739688,6.77229472785e-05,0.000368877430446,0.459542445929,-0.00930420959274,0.173998792092,0.00158509930761,0.912471378078,0.408968569648,0.0117550145854
-0.371039152145,-0.0328081697226,0.351108014584,-2.53813886642,0.0321349278092,2.52968597412,-0.888779997826,0.0353739783168,0.000394622155,-0.000553767371457,0.00038637209218,-0.00153574626893,7.15881542419e-05,-4.3431227823e-05,0.000382593716495,0.459534968377,-0.00930659429548,0.173992659621,0.00158162089941,0.912472724053,0.408965802492,0.011747272325
-0.37103793025,-0.0327993147075,0.351108253002,-2.53814435005,0.0321343913674,2.52968525887,-0.888775169849,0.0353739783168,-6.76674062561e-06,0.000348535104422,-0.000146938415128,0.00011986069876,3.76825773856e-05,0.000215448002564,9.94643341983e-05,0.459530895169,-0.0093054063831,0.173986648109,0.00157724245584,0.912473423189,0.408964431063,0.0117412982854
-0.371051430702,-0.0327835716307,0.351098865271,-2.53813815117,0.0321331098676,2.52968668938,-0.88877171278,0.0353739783168,-0.000812325568404,0.000136374888825,-0.0022309019696,0.00394452689216,2.02125811484e-05,2.77404922144e-07,3.4422158933e-05,0.459531632944,-0.00931508519995,0.173982431931,0.00157362470463,0.912478630966,0.408952887279,0.011739139765
-0.371034890413,-0.032829772681,0.351109296083,-2.5381166935,0.0321345292032,2.52969026566,-0.888762891293,0.0353739783168,0.000146257763845,-0.000163910342962,0.000580707972404,-0.000867861323059,-6.11302821198e-05,-0.000144556266605,0.000374644441763,0.459549284092,-0.00930512140616,0.174010839933,0.00159495451828,0.912474550855,0.408961126861,0.0117663315844
-0.371027946472,-0.0328419916332,0.351112723351,-2.5381269455,0.0321344472468,2.52969002724,-0.888760387897,0.0353739783168,1.1797596926e-05,-0.000524991250131,0.000323653890518,-0.000571002135985,-4.98392655572e-05,0.00248122075573,-0.000116372066259,0.459546687063,-0.00930138628738,0.174012222578,0.00159709066006,0.912473090817,0.408964378387,0.0117662537113
-0.371027827263,-0.0328335724771,0.351110935211,-2.53812646866,0.0321337766945,2.52969002724,-0.88875669241,0.0353739783168,-0.00219810381532,0.000302415020997,0.00040510983672,-0.000449842627859,1.60466661328e-05,4.48241480626e-05,0.00024597288575,0.459545512915,-0.00930173324866,0.174008615067,0.00159425213746,0.912474199242,0.408962002282,0.011763266804
-0.371027261019,-0.0328268148005,0.351108849049,-2.5381231308,0.0321349166334,2.52969074249,-0.888754785061,0.0353739783168,-6.41889637336e-05,-0.000511533813551,-0.000203499061172,-0.000134257687023,0.000104121500044,-8.69040231919e-05,7.78911344241e-05,0.459546393139,-0.00930195938715,0.174007234127,0.00159248210525,0.912475018609,0.408960186449,0.0117630776412
-0.371029376984,-0.0328373648226,0.351106882095,-2.53812336922,0.032136246562,2.52969098091,-0.888748943806,0.0353739783168,-0.000346576358424,-0.000773291278165,-4.84395568492e-05,0.000456300651422,-8.30045519251e-06,1.86865054275e-05,-0.000348485104041,0.459548229556,-0.00930463524756,0.174012202594,0.0015962372797,0.912477320364,0.408954908373,0.0117675165592
-0.371032118797,-0.0328266806901,0.351105570793,-2.53812146187,0.0321357734501,2.52969455719,-0.888743340969,0.0353266969323,-0.000370546273189,-0.000558916595764,0.00117241218686,0.000174440720002,9.55794439506e-06,-6.45804393571e-05,-9.33942210395e-05,0.45954787462,-0.00930546895916,0.174008024794,0.00159332558819,0.91247889845,0.408951457931,0.011765455052
-0.371026396751,-0.0328315608203,0.351106822491,-2.5381231308,0.0321343503892,2.52969455719,-0.888742029667,0.0353266969323,0.000583140878007,7.40225077607e-05,0.000458027119748,-3.46108427038e-05,1.83415231731e-05,4.3809748604e-05,-0.000169905310031,0.459547914679,-0.00930282794218,0.174009647364,0.00159508730281,0.912477726811,0.408954037939,0.0117664056808
-0.371024608612,-0.0328339934349,0.351107597351,-2.53812646866,0.0321334898472,2.52969431877,-0.888737440109,0.0353266969323,0.0015456948895,-0.000337997858878,-0.000478570582345,0.000283511995804,-3.42171297234e-05,0.000307649897877,0.000341710023349,0.459546650324,-0.00930182054586,0.174009379473,0.00159537848703,0.912478013673,0.408953421961,0.0117655292109
-0.371024399996,-0.0328328683972,0.351108729839,-2.53812503815,0.0321347489953,2.52969622612,-0.888731658459,0.0347159951925,-0.000445658282842,-0.000399475684389,-0.00346679100767,-0.000118496507639,2.44167349592e-05,5.98845035711e-05,0.000525161798578,0.459547593274,-0.0093011054181,0.174009619138,0.00159535535619,0.912479116146,0.408950925918,0.0117667884037
-0.371025383472,-0.03283534199,0.351105839014,-2.53812789917,0.0321341194212,2.52969503403,-0.888732135296,0.0347159951925,-9.9239332485e-05,0.000980200711638,-0.00655011413619,-8.22905203677e-05,2.83001190837e-05,0.000415574322687,0.00225828564726,0.459546303593,-0.0093030197799,0.174009483936,0.00159551320548,0.912479720847,0.408949605066,0.011765779898
-0.371023178101,-0.032841604203,0.351108193398,-2.53812623024,0.0321354679763,2.52969551086,-0.888729870319,0.0347159951925,-4.71784223919e-05,0.000233684811974,-7.50524413888e-05,4.70075610792e-05,7.09121695763e-06,-0.00019838604203,-0.000118200157885,0.459548172771,-0.00930123876345,0.174012865378,0.00159784093844,0.912479422643,0.40895016585,0.0117690988374
-0.37103587389,-0.032824087888,0.351100385189,-2.53813695908,0.0321342498064,2.52969479561,-0.888723671436,0.0347159951925,-0.00016443131608,0.000497436500154,0.000741989235394,-0.000390311994124,4.54994333268e-05,3.80125893571e-05,-0.00013971386943,0.459540121706,-0.00930961327936,0.174001127108,0.00158946584474,0.912484872574,0.408938365824,0.0117577021035
-0.371029496193,-0.0328275673091,0.351104468107,-2.53814125061,0.0321333110332,2.52969360352,-0.888720691204,0.0347159951925,0.000105281353171,0.00109019223601,-0.00133790611289,-0.0001469108538,-4.15736358264e-05,1.13404867079e-05,4.3615422328e-05,0.459538417578,-0.0093050428945,0.174000836355,0.00158973282981,0.912483209046,0.408942117205,0.0117562925452
-0.371025621891,-0.0328588671982,0.351106524467,-2.53815317154,0.0321340076625,2.52969121933,-0.888718783855,0.0347159951925,-0.000219525856664,-0.00509815569967,1.3533198171e-06,-0.00135995773599,-6.85088743921e-05,-6.58227008898e-06,-0.0006778256502,0.45953682329,-0.0093041801824,0.174010235403,0.00159831119204,0.912482399083,0.408943745427,0.0117613570929
-0.371049553156,-0.0330626443028,0.351090669632,-2.5381436348,0.0321336910129,2.52968716621,-0.888696551323,0.0347159951925,0.00023793404398,-0.00847098324448,-0.000311605050229,0.000164264070918,8.88364302227e-05,6.69471728543e-06,0.00121269584633,0.459570418873,-0.0093339769306,0.174100861321,0.00167125431359,0.91249381362,0.408915856599,0.0118350714333
-0.371051967144,-0.0332183763385,0.351088315248,-2.53808403015,0.0321330912411,2.52967715263,-0.888686180115,0.0347159951925,-0.000826644012704,-0.0142946233973,-0.000477576279081,0.00264117168263,-8.66023765411e-05,-0.000637030636426,0.0015137657756,0.459619709177,-0.0093453616002,0.174190242061,0.00173725825133,0.912495450348,0.408909690394,0.0119121706793
-0.371052592993,-0.033481080085,0.351088315248,-2.53791594505,0.0321327000856,2.52966833115,-0.888675034046,0.0347159951925,0.000908128742594,-0.0265013575554,0.000432511820691,0.0110491821542,-6.2249644543e-05,-0.000301077147014,-0.00048402606626,0.459736848986,-0.00936156428995,0.174367933074,0.00186471525692,0.912494873209,0.408905599823,0.0120763951044
-0.371040582657,-0.0340597480536,0.351095438004,-2.53752636909,0.0321326479316,2.52963995934,-0.888656377792,0.0347159951925,-0.000211893202504,-0.0378279983997,0.000105342041934,0.0268344487995,-7.24534911569e-05,-0.00262883631513,0.00195639044978,0.460020295804,-0.00938977709151,0.174792372727,0.0021658864743,0.912487775604,0.408908213271,0.0124676023208
-0.371049165726,-0.0354569740593,0.35109052062,-2.53612375259,0.0321333110332,2.52953648567,-0.888569056988,0.0347159951925,-0.000942689948715,-0.0590630844235,-0.000227294760407,0.0666138529778,-6.9907924626e-05,-0.0106290206313,0.00717478152364,0.460852772248,-0.00947960962051,0.175905561775,0.00292016026281,0.912487650466,0.408870308394,0.0135215016095
-0.371045976877,-0.0370008870959,0.351094394922,-2.5344452858,0.0321330800653,2.5291864872,-0.888426482677,0.0347159951925,0.000552201643586,-0.091007836163,0.00136356649455,0.0931180119514,3.26242661686e-05,-0.0179428271949,0.00467426097021,0.461799656896,-0.00956819967929,0.177195786265,0.0037482528915,0.912490094603,0.408818640785,0.0146661678163
-0.371054649353,-0.038246396929,0.351088583469,-2.53323483467,0.0321318916976,2.52890110016,-0.88838738203,0.0347159951925,-0.00230304617435,-0.11338955164,-0.000323155196384,0.112962342799,7.53940985305e-05,-0.0195644721389,0.00293095386587,0.462491958152,-0.00964752388092,0.178182777665,0.00438573200472,0.91248059721,0.408801854376,0.0155231636257
-0.371070533991,-0.0405026637018,0.351071685553,-2.53079581261,0.0321325436234,2.52828025818,-0.888312995434,0.0347159951925,-0.000195907690795,-0.12439802289,0.000854496145621,0.144943207502,-0.000146782767843,-0.0448937043548,0.00139166146982,0.463834303686,-0.00979233958382,0.180062796104,0.00556885803254,0.912461012545,0.408766526973,0.0171410183748
-0.371066510677,-0.0453052967787,0.351072281599,-2.52548146248,0.0321305207908,2.52655887604,-0.888193547726,0.0360608510673,-0.00575348548591,-0.189454317093,-0.00157168519218,0.1997423172,-0.000159486648045,-0.0733349323273,0.0027286100667,0.466637336613,-0.0100550400485,0.184098393391,0.00802425065335,0.912384574224,0.408743634029,0.0204607292136
-0.371084183455,-0.0490739457309,0.351054340601,-2.52157568932,0.0321305543184,2.52499437332,-0.888101935387,0.0360608510673,0.00112477096263,-0.220296159387,0.00114767439663,0.23933057487,-0.000127360210172,-0.0975497066975,0.00542710954323,0.468642155766,-0.0102689100003,0.187160807591,0.00984596038749,0.912326970393,0.408705746222,0.0228510140229
-0.371058613062,-0.052881449461,0.351067483425,-2.51736903191,0.0321306288242,2.52332472801,-0.888025939465,0.0360608510673,0.00115622405428,-0.254728555679,0.00108510034624,0.277648180723,3.32702329615e-05,-0.121057778597,0.00363899348304,0.4707486253,-0.0104434535831,0.190368687974,0.011721709352,0.912237890529,0.40870813009,0.0253435729634
-0.37106025219,-0.0577193424106,0.351067870855,-2.51207065582,0.032130587846,2.52077484131,-0.887942373753,0.0360608510673,-0.000469776045065,-0.286497056484,-0.000188346326468,0.3103505373,-4.40060503024e-05,-0.157080799341,0.0041777016595,0.473279088005,-0.0106747520991,0.194409715112,0.0139990442519,0.912125466179,0.408693509829,0.0282979754091
-0.37106525898,-0.0639427229762,0.351067245007,-2.50539088249,0.032129894942,2.51705121994,-0.887852728367,0.0360608510673,-0.000702829158399,-0.329209476709,0.000353511539288,0.348033428192,-0.000169189326698,-0.205937698483,0.00673171970993,0.476325194915,-0.0109541076395,0.199548095507,0.0168000784042,0.91196784335,0.408679256619,0.0318382623723
-0.371091216803,-0.0814222469926,0.351045995951,-2.48655247688,0.0321303345263,2.50499653816,-0.887655675411,0.0360608510673,0.000473525666166,-0.415655165911,-0.000611392373685,0.450627774,-0.000183614814887,-0.295694112778,0.0110518094152,0.484266021839,-0.0116451503193,0.214071154934,0.024324642272,0.911446976425,0.408636170396,0.0410998889131
-0.371086031199,-0.0916575491428,0.351051181555,-2.47520446777,0.0321295820177,2.49720597267,-0.887455880642,0.0360608510673,-0.000205485965125,-0.448494702578,0.000415795802837,0.480966180563,-0.000543716363609,-0.342887639999,0.00705619715154,0.488685272841,-0.0119593905438,0.222777891057,0.0286316435302,0.911095414899,0.408580749918,0.0463372896785
-0.371084421873,-0.0961849763989,0.351053774357,-2.47032999992,0.0321311019361,2.49365639687,-0.887357532978,0.0360608510673,6.20512728347e-05,-0.460520774126,0.000752515799832,0.499904364347,-0.000231626894674,-0.358968168497,0.0117173166946,0.490503802247,-0.0120826632533,0.226587782608,0.0304816067361,0.910935191246,0.408548198422,0.0485419225738
-0.371003180742,-0.11972566694,0.351086467505,-2.44341683388,0.0321648530662,2.47512722015,-0.886302828789,0.0362223908305,0.00310144852847,-0.505402088165,-0.000751157233026,0.57916778326,0.000749802333303,-0.40612205863,0.0455441176891,0.500078977206,-0.0125070285312,0.247399179815,0.040388677716,0.910008109836,0.408131140803,0.0606874478882
-0.370971769094,-0.128397345543,0.351067513227,-2.43313312531,0.0324644185603,2.46821880341,-0.885342955589,0.0362223908305,-0.00499466154724,-0.510364890099,-0.000195411063032,0.618028223515,0.0326827764511,-0.410206377506,0.0722997039557,0.503504841386,-0.0125837736944,0.255359162985,0.0439882082662,0.909758997953,0.407594640426,0.0653468587715
-0.370939582586,-0.136417865753,0.351096272469,-2.42344260216,0.0332160443068,2.46158099174,-0.883857131004,0.0362223908305,0.00530774658546,-0.504619300365,0.00584718817845,0.619115591049,0.0563794448972,-0.435387223959,0.114887818694,0.506577527372,-0.0125579562,0.262836598332,0.0471274803564,0.909681875757,0.406690955437,0.0697162245069
-0.370751798153,-0.147204622626,0.351099967957,-2.40978765488,0.0347559861839,2.4522087574,-0.88127630949,0.0362223908305,0.0108523461968,-0.500056028366,-0.00201197527349,0.651681005955,0.0905848294497,-0.436686426401,0.130744084716,0.510679297619,-0.012359173262,0.273225308243,0.0511690359312,0.909690988425,0.405092970546,0.0757873355812
-0.370456576347,-0.161896929145,0.351126283407,-2.39082455635,0.0391330085695,2.43961715698,-0.876600563526,0.0362223908305,0.0172703675926,-0.510306954384,0.000365704850992,0.660328030586,0.219247668982,-0.44400370121,0.188853368163,0.516082239563,-0.0117658633404,0.287744784454,0.0559563634338,0.910124185956,0.401701149998,0.0847291998009
-0.370078146458,-0.169795900583,0.351107180119,-2.3799636364,0.0429930090904,2.43267130852,-0.873239159584,0.0362223908305,0.0266252923757,-0.480628192425,-0.000466719677206,0.686100006104,0.261723041534,-0.430808663368,0.227044969797,0.519023169976,-0.0111586211874,0.295932603413,0.058049411996,0.910614185187,0.399125735941,0.0900595252704
-0.369498074055,-0.178851485252,0.351128488779,-2.36716961861,0.0486035831273,2.42434406281,-0.868427634239,0.0362223908305,0.0323384106159,-0.474399447441,0.00130902556702,0.661637663841,0.323811709881,-0.440595954657,0.26706430316,0.522284594035,-0.0101980053338,0.305510451675,0.0599363215739,0.911424553971,0.395495280669,0.0964178532356
-0.367938429117,-0.194971293211,0.351158082485,-2.34359383583,0.0628549680114,2.40930318832,-0.857244253159,0.0362263284624,0.048290297389,-0.428103983402,0.00803903676569,0.651735723019,0.498082965612,-0.421027064323,0.377758800983,0.527882289372,-0.00765890329062,0.323118651206,0.0615918845487,0.913588949554,0.386914237941,0.108899234016
-0.36692404747,-0.201831713319,0.351239442825,-2.33311891556,0.0715163126588,2.40282297134,-0.851090431213,0.0362263284624,0.0715900212526,-0.426040202379,-0.00131156679709,0.66536796093,0.578399717808,-0.39087665081,0.396290659904,0.530222196235,-0.00604487259619,0.330895743966,0.061264331604,0.914894309397,0.382115598704,0.114903234133
-0.365522623062,-0.208996847272,0.351203948259,-2.321352005,0.0825555324554,2.39583587646,-0.843633592129,0.0362263284624,0.0774271711707,-0.384714901447,-0.00041978477384,0.645206511021,0.662129759789,-0.390842735767,0.432479053736,0.532773494639,-0.00397983323822,0.339464968505,0.0601511211032,0.916510122851,0.376219402676,0.121860568158
-0.363980948925,-0.215529203415,0.35124745965,-2.31062340736,0.0944721251726,2.3891518116,-0.83588129282,0.0362263284624,0.0984728485346,-0.375416457653,0.00208197813481,0.631494224072,0.726824522018,-0.3770622015,0.473921656609,0.534927192265,-0.00168619105995,0.347281300204,0.0582188556046,0.918226061273,0.370104301098,0.128430024689
-0.361341506243,-0.223396480083,0.351246118546,-2.29618263245,0.112250834703,2.38067770004,-0.824401915073,0.0362263284624,0.128384307027,-0.321786254644,0.00376626267098,0.605729758739,0.815362811089,-0.360051035881,0.527338802814,0.537647743226,0.00175129789992,0.357071319563,0.0546690219786,0.920553381056,0.361644228971,0.137135779417
-0.358831256628,-0.228818163276,0.351350069046,-2.28569531441,0.127898365259,2.37434124947,-0.814326584339,0.0362263284624,0.152419954538,-0.294786244631,0.00793923158199,0.579391539097,0.916792333126,-0.336388856173,0.593790113926,0.539683823207,0.00523943466907,0.364799668882,0.0502906665553,0.922786437196,0.353650691879,0.144454934151
-0.354794561863,-0.23527097702,0.351464271545,-2.27206015587,0.151268675923,2.36708426476,-0.799657583237,0.0362263284624,0.181721717119,-0.250920653343,0.00817412976176,0.544753074646,1.00735783577,-0.281235933304,0.635201931,0.542232956307,0.0103166242612,0.374232881063,0.0433111350575,0.925707777117,0.34265532684,0.154196574656
-0.35192039609,-0.23884421587,0.351603478193,-2.26429629326,0.166782408953,2.362834692,-0.79009437561,0.0362263284624,0.196013495326,-0.224884182215,0.0122026782483,0.503346323967,1.05591320992,-0.285593181849,0.650750458241,0.543423399886,0.0133365788636,0.378901077044,0.0388969680824,0.927285019363,0.336554380202,0.159250329951
-0.34709751606,-0.243179440498,0.351853847504,-2.25286579132,0.191537722945,2.35679244995,-0.774535655975,0.0362263284624,0.221048519015,-0.150928094983,0.0167021919042,0.485724925995,1.08453381062,-0.238789647818,0.697448730469,0.545573393719,0.0195605131845,0.387116427584,0.0292060700456,0.930333152935,0.324374483176,0.168547988334
-0.342556804419,-0.24607527256,0.352384954691,-2.24372339249,0.214043989778,2.35214471817,-0.760286867619,0.036231584847,0.239215955138,-0.1340508461,0.0309894252568,0.437873095274,1.15511655807,-0.212024271488,0.723885118961,0.547126795701,0.0250106289381,0.392948943949,0.0204380060774,0.932705639427,0.314359589336,0.175557757919
-0.330141544342,-0.250514298677,0.354870259762,-2.22498822212,0.272845357656,2.34327816963,-0.722468554974,0.036231584847,0.263968288898,-0.03917613253,0.0773337557912,0.315590500832,1.22386574745,-0.152843669057,0.772508978844,0.550199733018,0.0399911527763,0.404562802441,-0.00455575656004,0.938213102797,0.288620660009,0.190875700719
-0.325489342213,-0.251145780087,0.356197655201,-2.21991348267,0.293226629496,2.34074497223,-0.709289431572,0.036231584847,0.2828130126,-0.0307792127132,0.081048309803,0.281800717115,1.17069029808,-0.1338249892,0.777064561844,0.55092955634,0.0455830736194,0.407506769276,-0.013874367584,0.939866875607,0.280012492686,0.195066044424
-0.321134239435,-0.251444786787,0.35748770833,-2.21585583687,0.31154435873,2.33873438835,-0.697132468224,0.036231584847,0.288638442755,-0.00550524145365,0.0928214788437,0.242117464542,1.21736085415,-0.123420268297,0.787009835243,0.551472691924,0.050734473189,0.409815306484,-0.0224803375753,0.941279017044,0.272227147664,0.198446028573
-0.314874947071,-0.251369565725,0.359689891338,-2.21134114265,0.337076693773,2.33625912666,-0.680202186108,0.036231584847,0.292655199766,0.0043531069532,0.109012909234,0.177654564381,1.14887237549,-0.113644987345,0.785273253918,0.551951139678,0.058178498159,0.412246188305,-0.0348283506396,0.943103509618,0.261582995063,0.202279738284
-0.306200832129,-0.250820994377,0.363077431917,-2.20721077919,0.370770812035,2.33350086212,-0.656978130341,0.0362355224788,0.305140286684,0.0241482667625,0.135811015964,0.114378273487,1.14077365398,-0.0899555385113,0.8233730793,0.552092017605,0.0687492792481,0.41442859239,-0.0522362968313,0.945433790838,0.246907384893,0.206065667709
-0.295981794596,-0.249722912908,0.36825466156,-2.20461177826,0.408111929893,2.33043265343,-0.628762066364,0.0362355224788,0.297172993422,0.0395771712065,0.159984096885,0.0482759326696,1.06883907318,-0.0832303762436,0.84021127224,0.551524973094,0.0807136699375,0.415448589565,-0.0711048517592,0.947726897195,0.231289637961,0.207997431356
-0.290644884109,-0.248891577125,0.371396780014,-2.20406579971,0.426745027304,2.32892346382,-0.613230526447,0.0362355224788,0.298205524683,0.0505668781698,0.191300481558,0.0145407030359,1.01403343678,-0.0755856558681,0.872531592846,0.550950170825,0.0872504449215,0.415448862564,-0.0811491787089,0.948913514986,0.222856054452,0.208118068786
-0.277132570744,-0.245572477579,0.38108921051,-2.20420908928,0.470588445663,2.32448387146,-0.570235729218,0.0362355224788,0.269496142864,0.092485152185,0.234435230494,-0.00304717058316,0.832457602024,-0.122862868011,0.967924833298,0.548673207219,0.104338258727,0.413846889042,-0.106106018989,0.951895414103,0.201300326642,0.205218935599
-0.272252619267,-0.243882164359,0.385397046804,-2.2043068409,0.485079348087,2.32218790054,-0.552524745464,0.0362434051931,0.273684084415,0.0924641564488,0.23938319087,-0.0145437372848,0.761054635048,-0.121521510184,0.990943670273,0.547559316189,0.110851444068,0.412850148694,-0.114991126681,0.953023250546,0.193239573179,0.202933959087
-0.267368078232,-0.242062851787,0.389730244875,-2.20461440086,0.497743785381,2.32026314735,-0.534254133701,0.0362434051931,0.267259508371,0.108361981809,0.2438454777,-0.0211241636425,0.655640244484,-0.0995314195752,1.01886320114,0.546385580143,0.11715882952,0.41168492708,-0.12312695789,0.9541326716,0.185360643022,0.200279876512
-0.262192368507,-0.239641532302,0.394656807184,-2.20514750481,0.50977730751,2.31839513779,-0.513570666313,0.0362434051931,0.252018868923,0.126242876053,0.250497847795,-0.0363248512149,0.56640201807,-0.0894234627485,1.05026829243,0.545038552226,0.123847418574,0.410066827841,-0.13133958687,0.955377838713,0.176835820265,0.196804955676
-0.255371570587,-0.236365765333,0.401601135731,-2.20658135414,0.523829340935,2.31600832939,-0.483330219984,0.0362434051931,0.233086928725,0.124680869281,0.251430690289,-0.0616941861808,0.433709919453,-0.0783793330193,1.08300852776,0.542837777678,0.132968109095,0.407331224261,-0.141956389317,0.957273581121,0.164346272015,0.190960668687
-0.251824647188,-0.234339445829,0.405738860369,-2.20772409439,0.5301451087,2.31488633156,-0.465827584267,0.0362434051931,0.209700316191,0.128796115518,0.263124912977,-0.0843711346388,0.365464627743,-0.0713573470712,1.1164021492,0.541635270517,0.137362744099,0.405658941987,-0.146679345212,0.958277076129,0.158102628562,0.187600036214
-0.247249364853,-0.231443807483,0.411607146263,-2.20983529091,0.537986159325,2.31336712837,-0.440245240927,0.0362434051931,0.19524435699,0.117199338973,0.243331387639,-0.104190200567,0.310482233763,-0.0755853950977,1.09950983524,0.539691738016,0.14362495651,0.402838092994,-0.153327077227,0.959874205934,0.1482762047,0.182061755961
-0.238998919725,-0.226545840502,0.421159505844,-2.21594572067,0.549130439758,2.31028628349,-0.390131950378,0.0362434051931,0.159292370081,0.109675750136,0.186466649175,-0.159635350108,0.195594117045,-0.0756530240178,1.10897028446,0.535462802361,0.153831512488,0.396615185532,-0.164009914812,0.96309531922,0.128742743975,0.170215920246
-0.23650239408,-0.224987238646,0.424167573452,-2.21892595291,0.552157044411,2.30893659592,-0.371514499187,0.0362434051931,0.137044534087,0.0786217972636,0.167522028089,-0.190605267882,0.159650340676,-0.07077665627,1.07908320427,0.533760864952,0.156849502027,0.394027570028,-0.167291376042,0.964338056452,0.121211657278,0.165449213393
-0.234381720424,-0.223562225699,0.42683121562,-2.22227811813,0.55462962389,2.30768108368,-0.353381454945,0.0362434051931,0.113671347499,0.0858458429575,0.148492604494,-0.206021472812,0.135934188962,-0.0707049369812,1.06158041954,0.53205649411,0.159377126668,0.391326204077,-0.1701498536,0.965565521755,0.113671568179,0.160658099075
-0.232693776488,-0.221975803375,0.429328173399,-2.2261133194,0.556654989719,2.30637788773,-0.334229916334,0.0362434051931,0.073023557663,0.0781688466668,0.130116716027,-0.225141644478,0.0864984020591,-0.0689012482762,1.05150747299,0.530298263758,0.161485064215,0.388286393376,-0.17279980861,0.966884058306,0.105396204425,0.15545765894
-0.231293439865,-0.219767451286,0.432579576969,-2.23368811607,0.557717323303,2.30429363251,-0.30209338665,0.0362434051931,0.0131011269987,0.0635486096144,0.0830558165908,-0.256407827139,0.00127672450617,-0.0640472397208,1.02216303349,0.527364634454,0.163407381003,0.38279973076,-0.175864889774,0.969188681319,0.0909052110515,0.146564261829
-0.231289252639,-0.218892529607,0.433679163456,-2.237657547,0.557726144791,2.30349731445,-0.287182718515,0.0362434051931,-0.00964284688234,0.060606893152,0.0620895214379,-0.271152734756,0.000307662790874,-0.0427987761796,0.973080337048,0.52597353993,0.163636100536,0.379945705709,-0.17696588569,0.970326732374,0.0832595309636,0.142186349343
-0.231523245573,-0.217893630266,0.434279114008,-2.24311232567,0.557729423046,2.30293321609,-0.269063830376,0.0362473428249,-0.0209531709552,0.0521512031555,0.0050698001869,-0.303554415703,0.000134196860017,-0.0252906233072,0.949771881104,0.524513609088,0.163305412155,0.376674225886,-0.178008713563,0.971531183403,0.0744341176609,0.137475886587
-0.232212379575,-0.21718300879,0.43423423171,-2.248306036,0.557729780674,2.30250692368,-0.253865897655,0.0362473428249,-0.0680598169565,0.0371533185244,-0.00616872962564,-0.323629021645,0.000456155015854,-0.0247419606894,0.909328043461,0.523207531541,0.162420409228,0.373565526516,-0.178798225049,0.972588638846,0.0660473191816,0.133192663576
-0.234280109406,-0.216413870454,0.434028208256,-2.25517272949,0.557720899582,2.30192828178,-0.235723674297,0.0362473428249,-0.127682164311,0.0318316817284,-0.0182956792414,-0.342044621706,-0.00107976701111,-0.0311922132969,0.859752476215,0.521650495262,0.160574262919,0.369557706103,-0.179540165454,0.973834578468,0.055277957585,0.127890147661
-0.239289745688,-0.21549834311,0.432689040899,-2.26551437378,0.557633161545,2.30083680153,-0.210957348347,0.0362473428249,-0.19725318253,0.0305762849748,-0.0743151009083,-0.349905401468,-0.00524038169533,-0.0331267565489,0.782208204269,0.519639795864,0.156301638164,0.363699711305,-0.180247117875,0.975445803105,0.0389172967125,0.120423857327
-0.242804199457,-0.214992433786,0.431244522333,-2.27113890648,0.557473480701,2.30012369156,-0.198779046535,0.0362473428249,-0.235255166888,0.0402119643986,-0.105831094086,-0.366295576096,-0.0135587491095,-0.0551175065339,0.748173117638,0.518707878903,0.153211207832,0.360549468565,-0.180454342992,0.976192068899,0.0299461698136,0.116569727297
-0.247349992394,-0.214412912726,0.428927868605,-2.27779865265,0.557208776474,2.29916405678,-0.185423642397,0.0362519398332,-0.269228249788,0.0272345021367,-0.150304362178,-0.369654744864,-0.0158500690013,-0.0531923659146,0.737129449844,0.517677287242,0.149061548194,0.356861712631,-0.180587959454,0.976950692718,0.0193866781324,0.112158322489
-0.253102570772,-0.214011535048,0.425528734922,-2.28499293327,0.55707681179,2.29805541039,-0.172186374664,0.0362519398332,-0.327147990465,0.0163645260036,-0.203568965197,-0.384636849165,-0.000105512532173,-0.070276170969,0.66634863615,0.516726946972,0.143734248251,0.353048857982,-0.180671803008,0.977593501738,0.00768834291188,0.107747547706
-0.263407588005,-0.21379069984,0.418975740671,-2.2959895134,0.557026088238,2.29573965073,-0.153761476278,0.0362519398332,-0.387690335512,0.00843902025372,-0.265546411276,-0.381617456675,-0.0020722579211,-0.0864245668054,0.615456700325,0.515370513969,0.134250670455,0.347448346019,-0.180724811429,0.97824082629,-0.0106672373555,0.101339222695
-0.269879430532,-0.213723510504,0.414129793644,-2.30227255821,0.556998074055,2.29407334328,-0.144089743495,0.0362519398332,-0.41220536828,-0.00406267913058,-0.332530915737,-0.385440021753,-0.000118937517982,-0.13394293189,0.578356564045,0.514634064192,0.128044520828,0.34431662032,-0.180758481247,0.97841713747,-0.0215227138825,0.0977908433572
-0.277149558067,-0.213706806302,0.407805740833,-2.30875754356,0.556967496872,2.29154849052,-0.134698092937,0.0362519398332,-0.438803672791,0.005154596176,-0.402341634035,-0.376817822456,-0.00334907206707,-0.173031687737,0.528316140175,0.513844729989,0.120773503001,0.341106955286,-0.180875345956,0.978436011975,-0.0332845647656,0.0940171108902
-0.286335021257,-0.213737919927,0.399146080017,-2.31609535217,0.5569242239,2.28749513626,-0.124415799975,0.0362519398332,-0.474341154099,-0.000641988881398,-0.469601154327,-0.341071456671,-0.00119268416893,-0.237879663706,0.497621208429,0.512839961677,0.111459940036,0.337468929699,-0.181147668542,0.978224823396,-0.047496820198,0.0894749620839
-0.296204984188,-0.213673889637,0.389070600271,-2.32272863388,0.556888103485,2.28203487396,-0.114543184638,0.0362519398332,-0.511734485626,-0.00211338512599,-0.543106675148,-0.331461131573,-0.00353356567211,-0.30943313241,0.487450897694,0.511797318838,0.101343060562,0.334087531119,-0.181686684406,0.977710228296,-0.062308552996,0.0847956491401
-0.31068661809,-0.213610872626,0.373132765293,-2.33095860481,0.556863307953,2.27196478844,-0.101814605296,0.0362519398332,-0.553346931934,0.00354487588629,-0.627381801605,-0.2747169137,0.000571507960558,-0.438250422478,0.427207887173,0.51004406103,0.0863807817447,0.329773716449,-0.182883059818,0.976490186852,-0.0833335555414,0.0779501098789
-0.319728463888,-0.21361258626,0.362666666508,-2.33515667915,0.556855201721,2.26428318024,-0.0951431691647,0.0362519398332,-0.581965267658,0.000304813263938,-0.683342993259,-0.25205975771,-0.000412083842093,-0.523720145226,0.404135972261,0.50878026811,0.0770764796967,0.327473346313,-0.183881962272,0.975491582091,-0.095810351353,0.0736476305688
-0.347684174776,-0.213534399867,0.328127413988,-2.34387087822,0.556819498539,2.2364885807,-0.0766468718648,0.0362604781985,-0.624799668789,0.00214993860573,-0.822053551674,-0.128678888083,0.00167792721186,-0.689156889915,0.405058294535,0.504364604082,0.0477171782622,0.322149984979,-0.188253359471,0.971025927742,-0.134150927843,0.0606040308288
-0.361239373684,-0.21346257627,0.310441643,-2.34600400925,0.55680501461,2.22100734711,-0.0681006759405,0.0362604781985,-0.650139033794,0.00637444481254,-0.83883023262,-0.072161719203,0.00723283877596,-0.782040894032,0.398872733116,0.502114680645,0.0345442148087,0.320614841355,-0.19081833709,0.968359915519,-0.151169296366,0.0549115632332
-0.372958928347,-0.213339805603,0.295004844666,-2.34674596786,0.556787788868,2.20614361763,-0.061276845634,0.0362604781985,-0.667852163315,0.010166070424,-0.88865929842,-0.0164355542511,-0.00274100457318,-0.861779153347,0.375935912132,0.499852393656,0.0228577468366,0.319624141786,-0.19347641436,0.965675857216,-0.166049469607,0.049644629248
-0.38365238905,-0.2132768929,0.280594587326,-2.34666347504,0.556782484055,2.19183731079,-0.0553134940565,0.0362604781985,-0.667341113091,-0.0029978682287,-0.911428928375,0.0158104654402,-0.000826155766845,-0.914090633392,0.374094367027,0.49765920362,0.0122475320536,0.319085152524,-0.196138465674,0.96297379968,-0.179412441697,0.044970422157
-0.396713256836,-0.213285341859,0.262544572353,-2.3458814621,0.556743502617,2.17313289642,-0.0474534295499,0.0362604781985,-0.640668451786,0.00136071315501,-0.913357198238,0.0476311072707,-0.0124464649707,-0.955997824669,0.410148143768,0.494658902079,-0.000629401949789,0.318745307607,-0.199718018385,0.959275668995,-0.19589503224,0.0390901527488
-0.415362238884,-0.213550820947,0.235604971647,-2.34339880943,0.556714236736,2.14429020882,-0.0346606746316,0.0362604781985,-0.625309050083,-0.0113651044667,-0.915908515453,0.119601659477,-0.00146273325663,-1.03998589516,0.469255626202,0.48981716391,-0.0190151237985,0.31898440062,-0.20549059225,0.953100775491,-0.220088984596,0.0305510524456
-0.426584452391,-0.213682025671,0.219194933772,-2.34078788757,0.556693315506,2.12508678436,-0.0258538182825,0.0362604781985,-0.623077809811,-0.00191393098794,-0.911724150181,0.174235418439,-0.00178210786544,-1.09016239643,0.487112104893,0.486584643758,-0.02978367603,0.319564698249,-0.209392324434,0.948895667243,-0.234786662385,0.0250417653463
-0.436994999647,-0.213723570108,0.203568264842,-2.33738231659,0.556683778763,2.10639810562,-0.0174478180707,0.0362604781985,-0.598870635033,-0.00279651326127,-0.917396605015,0.227158114314,0.00283503998071,-1.1046487093,0.502600908279,0.483507727716,-0.0397682402949,0.320518450461,-0.213274100078,0.944676016004,-0.248395302237,0.0200288925688
-0.447310298681,-0.213700592518,0.187619403005,-2.33274650574,0.55668592453,2.08589315414,-0.00797861348838,0.0362604781985,-0.56927895546,0.00330111128278,-0.8811622262,0.276921272278,-0.0118571007624,-1.15558373928,0.552169144154,0.480093609734,-0.0500871737447,0.322036302021,-0.217769661762,0.939816068674,-0.262897414817,0.0143902900565
-0.472337007523,-0.214058592916,0.147785723209,-2.31645202637,0.556584060192,2.02833223343,0.0226336885244,0.0362604781985,-0.46307849884,-0.0124624855816,-0.75422668457,0.386434912682,-0.00419936608523,-1.22482979298,0.697448849678,0.4716632489,-0.0726264140891,0.327701314429,-0.229221762548,0.926833999857,-0.297382034021,0.000214027810034
-0.481020629406,-0.21439255774,0.133738011122,-2.30837011337,0.556489527225,2.00477552414,0.0366054773331,0.0362604781985,-0.435958564281,-0.0218951776624,-0.712439537048,0.465390533209,-0.0111760152504,-1.25376152992,0.774859726429,0.468471842676,-0.0802679717141,0.330794844639,-0.233771979428,0.921443161162,-0.31026244434,-0.00551159649071
-0.488036125898,-0.214823827147,0.122048050165,-2.30024409294,0.556411981583,1.9835767746,0.0506114736199,0.0362604781985,-0.392853617668,-0.0259058102965,-0.657835364342,0.495844662189,-0.0122897913679,-1.23779070377,0.859604537487,0.465853417924,-0.0863699470271,0.3340350558,-0.237727501379,0.916528800568,-0.321479464167,-0.0105615631499
-0.495333790779,-0.215456739068,0.10973598063,-2.29009079933,0.556334197521,1.95851802826,0.0685029476881,0.0362604781985,-0.346304655075,-0.0394027344882,-0.583658874035,0.510891616344,-0.00632283231243,-1.2607806921,0.925586163998,0.462978336162,-0.0924470628777,0.338169495873,-0.242169663446,0.910777286168,-0.334006382274,-0.0166830868305
-0.50418138504,-0.216947466135,0.0946075841784,-2.27394938469,0.556245923042,1.92201817036,0.0973424389958,0.0362742654979,-0.269018113613,-0.0663292482495,-0.463278919458,0.585719525814,-0.00560863222927,-1.26606321335,1.04648184776,0.45934454087,-0.0992961654699,0.345059798097,-0.248087014719,0.902550487589,-0.350996268689,-0.0256333674021
-0.507906079292,-0.217939391732,0.0882616117597,-2.26512789726,0.556204319,1.90309596062,0.113437078893,0.0362742654979,-0.234548285604,-0.0596589148045,-0.39018830657,0.591606378555,-0.0111419530585,-1.27176260948,1.09227013588,0.457601523291,-0.101954727459,0.349184903316,-0.251018406949,0.898173009547,-0.359623052047,-0.0307614109883
-0.512083590031,-0.219504743814,0.0811690688133,-2.25289177895,0.556135475636,1.87795245647,0.136698395014,0.0362742654979,-0.191658228636,-0.0950051397085,-0.31354150176,0.625060081482,-0.00253229122609,-1.2363653183,1.20713877678,0.455779359512,-0.104249423194,0.354403520987,-0.25414693396,0.89300458234,-0.369572840838,-0.0369873879671
-0.514801442623,-0.22119051218,0.0766991004348,-2.24206185341,0.5561003685,1.85677099228,0.1578001827,0.0362742654979,-0.137769252062,-0.102959647775,-0.231875538826,0.628566980362,-0.00239357538521,-1.25174629688,1.29314231873,0.454439272223,-0.105314336998,0.359401375812,-0.256549394929,0.888574844979,-0.377888950185,-0.0426273836166
-0.517930626869,-0.224650904536,0.0719990059733,-2.22140336037,0.556038200855,1.8177844286,0.20043759048,0.0362742654979,-0.0494216233492,-0.116342350841,-0.0749543830752,0.653486907482,-0.00185163354035,-1.17875885963,1.4053992033,0.452498712754,-0.104919351796,0.369039254697,-0.259976369962,0.88071326117,-0.392249693932,-0.053820218718
-0.518242835999,-0.22662897408,0.0712345913053,-2.21116232872,0.556015133858,1.79904556274,0.22316673398,0.0362742654979,0.00561368558556,-0.13539083302,-0.0161848496646,0.625550985336,0.000834543316159,-1.15610277653,1.4425868988,0.451810059455,-0.103549311117,0.373928965888,-0.26110523113,0.877038391026,-0.398841804713,-0.0596064881186
-0.517642438412,-0.229383572936,0.0714995861053,-2.19831061363,0.556032657623,1.77654147148,0.252663046122,0.0362742654979,0.060290582478,-0.13268828392,0.0464422516525,0.634622454643,-0.00125062500592,-1.0982260704,1.48917496204,0.451230594525,-0.100980294923,0.380196120708,-0.261983719531,0.872667195803,-0.406649115627,-0.0667307462802
-0.516482234001,-0.23143902421,0.0724868401885,-2.18951869011,0.555991828442,1.76127362251,0.273676633835,0.0362742654979,0.100368909538,-0.148729607463,0.0946860909462,0.609313607216,0.00683788303286,-1.06820964813,1.51611673832,0.450923769359,-0.0985427970871,0.384538621829,-0.262225675086,0.869838249674,-0.411658118664,-0.0718102202781
-0.5139310956,-0.234496042132,0.0751486122608,-2.17756843567,0.556041121483,1.74084365368,0.304442822933,0.0362742654979,0.15803822875,-0.160560429096,0.157622873783,0.591408371925,0.00504058692604,-0.967533707619,1.55513620377,0.450675369968,-0.0942207238749,0.390536725583,-0.262042176346,0.866014271561,-0.418454007886,-0.0790532872148
-0.503526866436,-0.242743432522,0.0861738398671,-2.15192961693,0.556024074554,1.69894373417,0.379691690207,0.0362959355116,0.274102389812,-0.163550049067,0.311712920666,0.494169384241,-0.00364929018542,-0.753770172596,1.5717523098,0.450774555365,-0.0805503007363,0.403984844936,-0.25904774071,0.858200878832,-0.432749104193,-0.0954658687121
-0.499198466539,-0.245259299874,0.0910852402449,-2.14483118057,0.555994272232,1.68809401989,0.403192013502,0.0362959355116,0.299309283495,-0.174634516239,0.338691443205,0.453157603741,-0.00339935300872,-0.690773844719,1.55484342575,0.451029048156,-0.0753624070134,0.407745947605,-0.257411671753,0.856209670692,-0.436560073737,-0.100297222003
-0.492553144693,-0.249257966876,0.0990766510367,-2.13589572906,0.55600386858,1.67439985275,0.436375111341,0.0362959355116,0.328733026981,-0.185423091054,0.398582518101,0.380388081074,-0.000636709446553,-0.585589528084,1.52465593815,0.451353103188,-0.0678497486262,0.412513235537,-0.254786562939,0.853789456634,-0.441352726245,-0.106466622865
-0.48237451911,-0.254357278347,0.112483166158,-2.12601613998,0.555789470673,1.65916502476,0.480756670237,0.0363412462175,0.371002912521,-0.174131780863,0.502030491829,0.305279791355,-0.0194293428212,-0.458982884884,1.48235189915,0.45188832299,-0.0552279490105,0.41835045504,-0.249748019781,0.850948297479,-0.447404581241,-0.115507843805
-0.468839555979,-0.260168105364,0.130833938718,-2.1170630455,0.553407132626,1.6448379755,0.531147539616,0.0363412462175,0.399762272835,-0.164435818791,0.552171528339,0.218227222562,-0.129969403148,-0.361028283834,1.40422523022,0.452110422031,-0.0396135029762,0.423367098283,-0.241890786096,0.849088000406,-0.452580303071,-0.125337480839
-0.460091888905,-0.26340636611,0.143183365464,-2.11313390732,0.549817204475,1.63788044453,0.560349345207,0.0363412462175,0.42398032546,-0.135954961181,0.61678224802,0.168957948685,-0.220062747598,-0.308541327715,1.3705060482,0.451869886492,-0.0298338903953,0.425360584467,-0.235597965829,0.848776240484,-0.4548572408,-0.131062512719
-0.431995898485,-0.26960170269,0.185802921653,-2.10666012764,0.524662911892,1.62078332901,0.644603669643,0.0363412462175,0.433450877666,-0.0549370087683,0.703269660473,0.0377737618983,-0.574320495129,-0.230898410082,1.20644772053,0.448727553947,-0.000156259710221,0.425818554326,-0.207361608251,0.851226453623,-0.458647773247,-0.148515682117
-0.426373898983,-0.270264387131,0.194975972176,-2.1063246727,0.516883552074,1.61785852909,0.660184264183,0.0363412462175,0.42493340373,-0.0499130226672,0.700604319572,0.016159972176,-0.634962439537,-0.221482411027,1.19070112705,0.447421196972,0.00629282624533,0.424810119191,-0.198913152703,0.85247489788,-0.458833548501,-0.152288806543
-0.417517870665,-0.270823836327,0.209860682487,-2.1063041687,0.502573728561,1.61316561699,0.685078203678,0.0363412462175,0.410074949265,-0.00401240913197,0.70773345232,-0.00691203027964,-0.723704576492,-0.223153069615,1.16266131401,0.445478570745,0.014023815037,0.4230098769,-0.187295029528,0.854124171107,-0.459077873863,-0.156971263731
-0.398778229952,-0.270359218121,0.24393543601,-2.10756111145,0.462643563747,1.60262393951,0.737538993359,0.0363412462175,0.383775502443,0.0242348313332,0.71744710207,-0.0613878890872,-0.952540576458,-0.20512419939,1.05891597271,0.439541600913,0.0309856167053,0.41683013118,-0.15433736908,0.859130765094,-0.458482179576,-0.166938298931
-0.391704440117,-0.269763380289,0.257498890162,-2.10898423195,0.443496763706,1.59902906418,0.757284879684,0.0363412462175,0.360524117947,0.0402820259333,0.707289874554,-0.0903972312808,-1.04568684101,-0.181447193027,1.02432978153,0.436659034931,0.0369117085666,0.413499864913,-0.138756197714,0.86146359593,-0.457940337776,-0.17005245422
-0.386015295982,-0.269090622663,0.268552601337,-2.11058497429,0.426017552614,1.59615552425,0.773283004761,0.0363412462175,0.354227781296,0.0425204113126,0.685232102871,-0.110347092152,-1.12041223049,-0.182206332684,0.98635917902,0.434370915792,0.0407158375144,0.410776994226,-0.126523927811,0.863203271056,-0.457496937908,-0.171954528872
-0.379944592714,-0.268440127373,0.280813336372,-2.11283707619,0.405412524939,1.59287166595,0.790667414665,0.0363412462175,0.322603613138,0.0321051739156,0.673783421516,-0.141742944717,-1.14520800114,-0.184064716101,0.943494737148,0.431120815544,0.0451680013891,0.407016640639,-0.109707384359,0.865477908462,-0.456779659049,-0.173967303041
-0.369997382164,-0.267001450062,0.302270829678,-2.11820292473,0.364342182875,1.58709263802,0.81983345747,0.0363412462175,0.281161248684,0.0466390736401,0.616318047047,-0.192778259516,-1.30997037888,-0.168541699648,0.842231273651,0.425839952218,0.0501360992671,0.400740120718,-0.0824711688675,0.86893927824,-0.455235547373,-0.17579429204
-0.365430176258,-0.266411781311,0.312587976456,-2.1215968132,0.341481626034,1.58422708511,0.833846449852,0.0363583192229,0.254787385464,0.0294002797455,0.574094295502,-0.208226010203,-1.35621809959,-0.172575473785,0.80807363987,0.422836210063,0.0517923735167,0.397225084877,-0.0669598516253,0.870682889858,-0.45436035923,-0.176023712056
-0.361269444227,-0.266065448523,0.32210624218,-2.12547588348,0.318328231573,1.58126854897,0.847054183483,0.0363583192229,0.245918825269,0.0222052130848,0.564828932285,-0.227597504854,-1.37305748463,-0.168601289392,0.772436916828,0.419765523147,0.0527468711024,0.393761424821,-0.0514962960585,0.872183732518,-0.453544627952,-0.175900364832
-0.357554733753,-0.265790611506,0.331227809191,-2.12982702255,0.294947743416,1.5782841444,0.859571456909,0.0363583192229,0.198090076447,0.0194766204804,0.527648687363,-0.26453101635,-1.40488123894,-0.169057875872,0.717446148396,0.416470414528,0.0531691541114,0.390076538347,-0.0351110793561,0.873542973652,-0.452652025581,-0.175487973083
-0.349282950163,-0.265458673239,0.353063136339,-2.14358282089,0.226564243436,1.5704010725,0.890616118908,0.0363583192229,0.139416366816,0.00261078332551,0.379177302122,-0.308845043182,-1.4570120573,-0.1675131917,0.583686113358,0.408172777946,0.0506594859214,0.38094553422,0.00741400199057,0.876002218107,-0.450406933245,-0.17233322547
-0.347111552954,-0.265328347683,0.35907304287,-2.1488802433,0.20156916976,1.5677011013,0.900324225426,0.0363583192229,0.115496143699,0.00778525602072,0.329085975885,-0.316932976246,-1.48200309277,-0.151257306337,0.55869859457,0.405320547256,0.0483976415986,0.377828963759,0.0226291038584,0.876367909126,-0.449821551311,-0.170668635544
-0.341620832682,-0.265321731567,0.374247342348,-2.17021083832,0.101624511182,1.55915117264,0.933530688286,0.0363583192229,0.0495544672012,0.00406065722927,0.121579945087,-0.311901658773,-1.51911270618,-0.120648562908,0.436515748501,0.395613086136,0.0339303259382,0.367529364899,0.0800266159948,0.875260160384,-0.448973842922,-0.161052415127
-0.341081619263,-0.265222072601,0.375890910625,-2.1753821373,0.075643196702,1.55724751949,0.940731704235,0.0363668575883,0.0196316093206,0.00932113546878,0.0708209872246,-0.301848143339,-1.53355658054,-0.101989284158,0.405449897051,0.393553259181,0.0288402954553,0.365469673201,0.094025065766,0.87432906389,-0.449147125445,-0.158034282418
-0.341005086899,-0.265076875687,0.376602530479,-2.17988991737,0.0524527356029,1.55594062805,0.946650981903,0.0363668575883,-0.00830185413361,0.00739663792774,0.0274417251348,-0.294819504023,-1.56392490864,-0.0747342407703,0.377762615681,0.391711601625,0.0231394004648,0.363614362617,0.107752021134,0.873148753354,-0.449516439772,-0.154711752952
-0.341372638941,-0.264956116676,0.376636773348,-2.18587636948,0.019375320524,1.55461609364,0.954040527344,0.0363668575883,-0.0354200229049,0.00461073499173,-0.0116949006915,-0.274883210659,-1.59394311905,-0.0524652265012,0.318096607924,0.389925591122,0.0161661939484,0.361915327492,0.122830142978,0.87167987244,-0.449924890415,-0.150514280427
-0.343506067991,-0.264682352543,0.375655442476,-2.19404125214,-0.0307049434632,1.55300378799,0.962861359119,0.0363668575883,-0.0938875973225,0.00875902734697,-0.0513749346137,-0.252786815166,-1.64655900002,-0.0456371493638,0.257819205523,0.387410258056,0.00361506564056,0.359836285448,0.147168626955,0.868942918683,-0.450330504697,-0.143115462187
-0.345558136702,-0.26450625062,0.374490559101,-2.19863963127,-0.06185740605,1.5521889925,0.967663943768,0.0363668575883,-0.123970001936,0.0140423793346,-0.0655637681484,-0.231294125319,-1.64267396927,-0.0379538796842,0.248919948936,0.38614742789,-0.00418301108341,0.359045968338,0.161105803434,0.867072235572,-0.45059663256,-0.138540004303
-0.347435057163,-0.264288514853,0.373362988234,-2.20179414749,-0.0847492143512,1.55171000957,0.970957577229,0.0363668575883,-0.141899317503,0.0228264480829,-0.0936852023005,-0.217560663819,-1.63171505928,-0.0358152464032,0.226425677538,0.385212396324,-0.0108895300759,0.358589269492,0.172476033061,0.865341892868,-0.450886931931,-0.134671454837
-0.350060880184,-0.26392531395,0.371385663748,-2.20555830002,-0.114542774856,1.55118834972,0.974594533443,0.0363668575883,-0.156355664134,0.0139950979501,-0.121268719435,-0.202775388956,-1.67630290985,-0.0235945638269,0.189252212644,0.38415600086,-0.0197298076092,0.35830961078,0.186738031983,0.863022496807,-0.451124390118,-0.129645137677
-0.354565888643,-0.263499766588,0.367935776711,-2.2104177475,-0.15802000463,1.55087518692,0.978580713272,0.0363668575883,-0.199779197574,0.014899680391,-0.148319587111,-0.175271570683,-1.66585063934,-0.00107234518509,0.137959361076,0.383010345035,-0.0318201460273,0.358511176112,0.205146922176,0.859825654421,-0.451174451187,-0.122703702396
-0.357892841101,-0.263201028109,0.365542948246,-2.21305680275,-0.184716403484,1.5508223772,0.980516791344,0.0363668575883,-0.22204259038,0.0210287701339,-0.151578083634,-0.158376604319,-1.67153906822,-0.00162299501244,0.113778717816,0.382374518245,-0.0397828211167,0.358930473636,0.216650921353,0.857611797212,-0.451202779635,-0.118238889008
-0.362192451954,-0.262840300798,0.362470239401,-2.21592235565,-0.2161334306,1.55078792572,0.982451319695,0.0363668575883,-0.234185487032,0.0201679933816,-0.171509593725,-0.142320081592,-1.64190864563,-0.00273013114929,0.0802458003163,0.381618574121,-0.0498321601094,0.359730909029,0.230697791141,0.854673353292,-0.451220375417,-0.112748218641
-0.369564026594,-0.262151956558,0.356661707163,-2.21973514557,-0.264674037695,1.55074560642,0.984255850315,0.0363753922284,-0.260117709637,0.0255138743669,-0.200617745519,-0.109830632806,-1.61367356777,-0.000965581275523,0.0483360029757,0.380564328023,-0.0645963657837,0.361400412844,0.250169458616,0.850151149979,-0.451210621232,-0.105200946359
-0.374130100012,-0.261724084616,0.353101104498,-2.22149395943,-0.291900247335,1.55073332787,0.985012114048,0.0363753922284,-0.274831026793,0.0274151358753,-0.216734662652,-0.0936966538429,-1.59057676792,0.000698490999639,0.0332155711949,0.37996689185,-0.0733491503783,0.362674310858,0.261283217711,0.847299188181,-0.451265882719,-0.100867579549
-0.379101037979,-0.261223375797,0.348728775978,-2.22301888466,-0.320012122393,1.55072295666,0.985672533512,0.0363753922284,-0.28155168891,0.0234921649098,-0.26761123538,-0.0725103467703,-1.53801178932,-7.64502619859e-05,0.0296348091215,0.379312274247,-0.0826758138705,0.36421956418,0.272548327335,0.844093471724,-0.451563748409,-0.0965080361538
-0.388764560223,-0.26042330265,0.339691221714,-2.22485113144,-0.369829773903,1.55070698261,0.986773014069,0.0363753922284,-0.299663871527,0.024863248691,-0.274897098541,-0.0407379455864,-1.47659265995,0.00107335601933,0.0347505547106,0.378152879898,-0.0982965691009,0.367318186272,0.290336911878,0.838336479253,-0.452633929679,-0.0895485930439
-0.392734199762,-0.260100156069,0.336030513048,-2.22520875931,-0.388586550951,1.55070996284,0.987201988697,0.0363753922284,-0.315918326378,0.0253862719983,-0.293683558702,-0.0204723402858,-1.43007409573,0.000449281098554,0.0341931059957,0.377526550183,-0.106447767291,0.369167152965,0.299261777776,0.835151721365,-0.453392177133,-0.0860204861331
-0.398996561766,-0.259601175785,0.329791009426,-2.2253985405,-0.416434139013,1.55070817471,0.987743735313,0.0363753922284,-0.310002595186,0.0236129071563,-0.315876454115,0.000121017459605,-1.35836625099,-0.00039458082756,0.0176857449114,0.376646543519,-0.116652818092,0.371644939057,0.309760245681,0.831003078128,-0.454720520812,-0.0819250996046
-0.404896467924,-0.25920689106,0.323492228985,-2.22530794144,-0.441754072905,1.55071294308,0.988110899925,0.0363753922284,-0.31497874856,0.019122056663,-0.357845902443,0.00459642615169,-1.31142103672,0.0010414122371,0.017859319225,0.375710479578,-0.126177420746,0.374126347094,0.319144150981,0.827003122806,-0.456159214914,-0.078304636299
-0.41453742981,-0.258588433266,0.312732160091,-2.2251431942,-0.479096025229,1.55071604252,0.988516449928,0.0363753922284,-0.324416428804,0.0163421873003,-0.357803702354,0.00996531080455,-1.16330862045,-0.000237715285039,0.011219332926,0.373785822874,-0.141009427983,0.37795936569,0.332725727916,0.820468560577,-0.459032282883,-0.0735818864313
