imanlab/tactile_prediction_flat_dataset/test/data_sample_2021-11-25-13-23-53/robot_state.csv
position_panda_joint1,position_panda_joint2,position_panda_joint3,position_panda_joint4,position_panda_joint5,position_panda_joint6,position_panda_joint7,position_panda_finger,velocity_panda_joint1,velocity_panda_joint2,velocity_panda_joint3,velocity_panda_joint4,velocity_panda_joint5,velocity_panda_joint6,velocity_panda_joint7,ee_state_position_x,ee_state_position_y,ee_state_position_z,ee_state_orientation_x,ee_state_orientation_y,ee_state_orientation_z,ee_state_orientation_w
-0.0806987583637,-0.0132714603096,0.0669844299555,-2.51757931709,0.0538650304079,2.55506706238,-0.926203846931,0.0687122866511,-8.34784805193e-05,0.00275835767388,-0.000186468139873,0.000264925358351,3.15647521347e-05,7.77694731369e-06,0.00269658840261,0.472129808381,-0.00403725309239,0.176301541069,-0.00191033675152,0.906813282474,0.42050049482,0.0294169147995
-0.0806990936399,-0.013273421675,0.0669827908278,-2.51757693291,0.05386415869,2.55506682396,-0.926204800606,0.0687122866511,-0.00046762090642,-0.00044307418284,-0.000299558887491,-0.000334827840561,7.14091074769e-05,0.000241697402089,0.000231059661019,0.472131334753,-0.00403797243856,0.176303452599,-0.00190905580511,0.906813139001,0.420500678139,0.0294188001802
-0.0807018354535,-0.0132726831362,0.0669833123684,-2.51757574081,0.0538638308644,2.5550673008,-0.926204562187,0.0687122866511,-0.000281910586637,0.000697026145644,0.000167543490534,-1.76642952283e-05,-9.13456751732e-05,-6.43443054287e-05,-0.000331515970174,0.47213151988,-0.00403954577589,0.176303065688,-0.00190917055199,0.906813800077,0.420499271869,0.0294185161825
-0.080698646605,-0.0132676949725,0.0669828206301,-2.51757884026,0.0538642071187,2.55506587029,-0.926205158234,0.0687122866511,-0.000479840382468,0.000632675772067,-0.00287852995098,0.000286472117295,8.64133326104e-05,9.70014225459e-05,0.00035792394192,0.472129279629,-0.00403807126107,0.176299884576,-0.00191118490998,0.906813359282,0.420500463549,0.029414938945
-0.0807003006339,-0.0132696144283,0.0669846758246,-2.51757597923,0.0538640096784,2.55506634712,-0.926204741001,0.0687122866511,-0.000263043621089,0.000165775010828,-4.30358304584e-05,0.000143729048432,-7.44488279452e-05,9.24555788515e-05,-0.000182669275091,0.472130940309,-0.00403790076706,0.176301914061,-0.00190994247852,0.906813178327,0.420500703412,0.0294171691559
-0.0807007998228,-0.0132721951231,0.0669831559062,-2.51757645607,0.0538639239967,2.55506682396,-0.926204681396,0.0687122866511,0.000110474364192,0.00280257943086,0.000112009474833,7.60021284805e-05,6.69213040965e-05,4.21105978603e-05,0.000291337870294,0.472131211308,-0.00403889189036,0.176302989239,-0.00190925596886,0.906813566495,0.420499791542,0.0294182826622
-0.0806996971369,-0.0132707804441,0.0669833794236,-2.51757645607,0.0538645870984,2.55506587029,-0.926205813885,0.0687122866511,0.000424842903158,-0.00419567059726,-0.000187987461686,-0.000236790743656,-4.15834110754e-05,0.000139055788168,4.94924570376e-05,0.472130835029,-0.0040385058448,0.176301986034,-0.00191006963366,0.906813450539,0.420500113241,0.029417205819
-0.0807021632791,-0.0132712060586,0.0669842585921,-2.51757574081,0.0538648180664,2.55506706238,-0.926204562187,0.068711631,0.000251185469097,4.28982420999e-05,0.00343671394512,0.000619627244305,-8.37162224343e-05,0.000147683735122,2.73661862593e-05,0.472131447835,-0.00403897013999,0.176302829553,-0.00190950877739,0.906813798751,0.420499281857,0.0294183923198
-0.0806988999248,-0.0132710412145,0.0669834241271,-2.51757621765,0.0538648813963,2.55506563187,-0.926205217838,0.068711631,0.000445606681751,0.00030883346335,0.000468717102194,0.000134474015795,-8.64649264258e-05,-0.000120342272567,0.000173475258634,0.472130900484,-0.00403779170551,0.176302423262,-0.00191003740776,0.906813181896,0.420500673192,0.0294174849254
-0.0806989446282,-0.0132715012878,0.0669868737459,-2.51757717133,0.0538641884923,2.55506706238,-0.926205635071,0.068711631,0.000486922683194,-0.000125230682897,0.00234138825908,0.000192637118744,1.10092632895e-05,0.000177422436536,-0.000124808997498,0.472130569499,-0.00403638461422,0.17630222163,-0.00190977724065,0.906812304397,0.420502566368,0.02941748972
-0.0807003229856,-0.0132709853351,0.0669845044613,-2.51757764816,0.0538649559021,2.55506634712,-0.926204741001,0.068711631,-0.000444322184194,0.000143131648656,1.40796801134e-05,-0.000740953895729,-3.22924825014e-05,-0.000252408266533,4.40580115537e-05,0.472130365651,-0.00403795367021,0.176301903858,-0.00191020672261,0.906813383126,0.42050026279,0.0294171372963
-0.0806987956166,-0.0132714854553,0.0669820308685,-2.51757693291,0.0538650564849,2.55506563187,-0.926206111908,0.068711631,0.000354364339728,0.000298360246234,-0.00231510680169,-0.000457991438452,-0.000113645452075,-0.000210595870158,0.000250839453656,0.472130626545,-0.00403839015265,0.176302351663,-0.00191010364971,0.906813298485,0.420500428435,0.0294173853308
-0.0806991383433,-0.0132710849866,0.0669827833772,-2.51757836342,0.0538650900126,2.5550673008,-0.926206707954,0.068711631,-0.000648237124551,-0.000295795674901,-0.00283362763003,0.000513632665388,5.69974290556e-05,3.81390273105e-05,0.000480826449348,0.472130244766,-0.00403820832973,0.176301764299,-0.00191011930316,0.906813106338,0.420500848422,0.029417303961
-0.0807014033198,-0.0132715860382,0.0669841244817,-2.51757740974,0.0538630634546,2.55506682396,-0.926207482815,0.068711631,0.000334254844347,-0.00116893602535,0.000272786739515,-8.47951014293e-06,5.52705250811e-06,-7.57842572057e-05,-0.000175277367816,0.472130663364,-0.00403874916119,0.176302325098,-0.00190935051249,0.906812779041,0.420501545731,0.02941747551
-0.0807007402182,-0.0132709788159,0.0669827461243,-2.51757645607,0.0538641363382,2.55506515503,-0.926208019257,0.068711631,0.000209910387639,-0.00178306398448,0.000344394822605,-0.000240456458414,0.000841547909658,4.22160246671e-06,0.000210463724216,0.47213069526,-0.00403888221722,0.176302213029,-0.00190996280945,0.906812984618,0.420501124997,0.0294171127741
-0.0806969553232,-0.0132693471387,0.066982999444,-2.51757407188,0.0538643077016,2.55506587029,-0.926209032536,0.068711631,0.000321282510413,0.000757309375331,-0.00307755824178,0.000433887820691,2.99054718198e-05,2.15787349589e-05,-5.44447393622e-05,0.472131707998,-0.00403709608258,0.176302493454,-0.00190975543061,0.906811954573,0.420503302739,0.0294177487456
-0.0807004198432,-0.0132695566863,0.0669836550951,-2.51757740974,0.0538645349443,2.55506658554,-0.926205694675,0.068711631,0.000189070255146,0.0001789949456,0.000938561221119,-0.000214070896618,0.000105316663394,-6.8842091423e-05,0.000355841271812,0.472130301602,-0.00403840580955,0.176301348289,-0.00191031961463,0.90681332604,0.420500417499,0.0294166782017
-0.0807009413838,-0.0132715310901,0.0669819787145,-2.51757740974,0.0538649708033,2.5550661087,-0.926206588745,0.068711631,6.9202920713e-05,0.000220909627387,0.00209347065538,-0.00379636511207,2.10701127799e-05,1.12826764962e-05,0.000259705586359,0.472130500629,-0.00403943677914,0.176302232368,-0.00191002206496,0.906813648501,0.420499673523,0.0294173920208
-0.0807006508112,-0.0132704423741,0.0669830590487,-2.51757907867,0.0538640804589,2.55506682396,-0.92620831728,0.068711631,0.000280116713839,-0.00447640335187,0.00209506764077,-0.000248728320003,8.39277345221e-05,4.61492600152e-05,-8.95829452929e-06,0.472129695822,-0.00403882130664,0.176301131245,-0.00191024289491,0.906812881998,0.420501397486,0.0294163628824
-0.0806986317039,-0.0132698947564,0.0669821724296,-2.51757836342,0.0538638606668,2.5550673008,-0.926207602024,0.068711631,-0.000842578185257,0.00267040263861,0.000231858532061,0.000484247953864,-2.81509546767e-05,-9.96623930405e-05,0.000170026221895,0.472130335534,-0.00403849769909,0.176301557505,-0.00190996920727,0.906812954048,0.420501196229,0.0294170364997
-0.0807009711862,-0.0132694477215,0.0669831112027,-2.51757597923,0.0538632683456,2.55506587029,-0.926208078861,0.068711631,0.000303658016492,-0.000668838445563,0.00034739554394,-0.000298113911413,-7.34319792173e-06,0.000225785392104,-2.13281527977e-05,0.472130864024,-0.00403887809724,0.176302090428,-0.0019096206935,0.906812766939,0.420501594527,0.0294171335147
-0.08070294559,-0.0132720833644,0.066982999444,-2.51757788658,0.0538652390242,2.55506706238,-0.926208615303,0.068711631,0.000401156110456,-0.000254830229096,-1.78841728484e-05,0.000503429153468,-0.000161016068887,1.10299959033e-06,4.1906714614e-05,0.472130374716,-0.0040400089051,0.176302331264,-0.00190983056187,0.906813485704,0.420499998659,0.029417775214
-0.0806989446282,-0.013270133175,0.0669833123684,-2.51757931709,0.0538648553193,2.5550673008,-0.926208734512,0.068711631,0.000100284618384,0.000793733983301,-0.000636909215245,-0.000407385232393,-6.16300894762e-05,2.47004300036e-05,-0.000288742157863,0.472129646516,-0.00403786157008,0.176300939896,-0.00191047764589,0.906812516905,0.420502179093,0.0294164293674
-0.080697029829,-0.0132690798491,0.0669843554497,-2.51757693291,0.0538648143411,2.55506682396,-0.926207244396,0.068711631,-8.44436726766e-05,-0.000613392156083,0.000176555753569,0.000224095580052,2.88174687739e-05,4.65868288302e-05,-0.000224782648729,0.472130521146,-0.00403646329756,0.176301335188,-0.00191038234309,0.906812185191,0.420502867384,0.0294168221876
-0.0807014107704,-0.0132731320336,0.0669825673103,-2.51757574081,0.0538651831448,2.55506706238,-0.926208674908,0.0687122866511,-0.00012676177721,0.000120926808449,0.000174019645783,-4.87806937599e-05,4.89838967042e-05,4.25121797889e-05,0.000168818383827,0.472131746135,-0.00403941666042,0.176303737844,-0.00190906370449,0.906813164698,0.42050058857,0.0294192878461
-0.0807007551193,-0.0132721969858,0.0669835954905,-2.51757788658,0.053863864392,2.5550661087,-0.926208615303,0.0687122866511,-0.000366752006812,-0.00277151237242,-0.00047278474085,0.000183364289114,0.000101091020042,-0.000223107475904,0.000119471820653,0.472130382737,-0.00403864731046,0.176302355776,-0.00190966545787,0.906812654594,0.420501823683,0.0294173181041
-0.0806975960732,-0.0132700167596,0.066983781755,-2.51757669449,0.0538648255169,2.5550673008,-0.926208496094,0.0687122866511,0.000171543404576,0.00276544457301,0.000111513552838,-0.00341795105487,0.00013674069487,5.09449455421e-05,0.000747150799725,0.472130877896,-0.00403702034154,0.176301917683,-0.00190995856836,0.906812142486,0.420502910293,0.0294175527862
-0.0806977376342,-0.0132689606398,0.0669831782579,-2.51757574081,0.0538648366928,2.55506658554,-0.926209509373,0.0687122866511,-0.000373577524442,9.55919604166e-05,-6.57534474158e-05,-0.000256945524598,-0.000120072822028,-9.8773971331e-06,-3.86611936847e-05,0.472131008923,-0.0040373518854,0.176301725543,-0.00191016143592,0.906812094931,0.420503035692,0.0294172130324
-0.080698274076,-0.0132716232911,0.0669824555516,-2.51757502556,0.0538652502,2.5550673008,-0.926207244396,0.0687122866511,0.000493351370096,-0.000774810323492,-0.00275092059746,-5.76374404773e-05,-6.23344931228e-07,0.000878615421243,-0.00016469428374,0.472131912712,-0.00403797403669,0.176303332745,-0.00190930728439,0.906812850183,0.420501281404,0.0294190636213
-0.0806992053986,-0.0132695231587,0.0669834390283,-2.51757574081,0.0538633614779,2.55506634712,-0.926207602024,0.0687122866511,-4.97975361213e-06,-0.000966014689766,-0.00021879702399,-0.000143379758811,-3.66409112758e-05,-3.5310851672e-05,-0.000311942276312,0.472131036864,-0.00403799629612,0.176301964568,-0.00190971033962,0.9068124952,0.420502178302,0.0294171595777
-0.0807021707296,-0.0132720265538,0.0669817849994,-2.51757740974,0.0538655631244,2.55506706238,-0.926208555698,0.0687122866511,-0.000518593587913,-0.000303561741021,-0.00235779141076,-1.30461976369e-05,-4.7902987717e-05,5.77369282837e-05,0.000301992404275,0.472130777807,-0.00404010075827,0.17630256089,-0.00190977788605,0.906813618891,0.420499688366,0.0294181084321
-0.0806970074773,-0.0132729904726,0.0669857114553,-2.51757693291,0.0538643933833,2.55506706238,-0.926210105419,0.0687122866511,0.000255739578279,-0.00176941556856,-0.00104771926999,1.98012039618e-05,7.55172950448e-05,0.000123542995425,-4.68245634693e-05,0.472131187098,-0.00403588856968,0.176303199094,-0.00190922615838,0.906811164117,0.420504952255,0.029418570577
-0.0807023271918,-0.0132732605562,0.0669811517,-2.51757621765,0.0538650043309,2.55506706238,-0.926208436489,0.0687122866511,-6.80199154885e-05,0.000493981526233,-0.000283921224764,-0.000107221851067,-2.57352057815e-05,-2.85136266029e-05,7.9892022768e-05,0.47213153065,-0.0040405219328,0.176303610945,-0.00190906687198,0.906813680198,0.420499489151,0.0294191123455
-0.0807024016976,-0.0132712982595,0.066982857883,-2.51757740974,0.0538644008338,2.5550661087,-0.926209032536,0.0687122866511,6.53662136756e-05,7.52699706936e-05,0.000365495798178,-2.71745921054e-05,6.11856594332e-05,0.000187202196685,0.000125219317852,0.472130460212,-0.00403973732736,0.176302121476,-0.00190988385589,0.906813164399,0.420500730385,0.0294172167348
-0.0807002410293,-0.0132685294375,0.0669836327434,-2.51757860184,0.0538644045591,2.55506706238,-0.926208794117,0.0687122866511,-0.000127355087898,-0.00338337896392,0.00110297719948,0.00013849408424,1.64729626704e-05,0.00109519029502,1.23787222037e-05,0.472129678663,-0.00403832510803,0.176300441982,-0.00191064133183,0.906812648411,0.420501932463,0.0294158903535
-0.0806998312473,-0.0132678579539,0.0669823661447,-2.51757788658,0.0538650453091,2.55506706238,-0.926209807396,0.0687122866511,-8.82718450157e-05,0.000705245183781,-1.02540743683e-05,-0.000268119212706,5.70433585381e-05,7.73565043346e-05,0.00027168309316,0.472129911118,-0.00403869223866,0.176300408986,-0.00191079565838,0.906812722434,0.420501763788,0.0294160096178
-0.0807015821338,-0.0132700195536,0.0669835582376,-2.51757836342,0.0538648106158,2.55506682396,-0.92620909214,0.0687122866511,0.000173861481017,0.000273169978755,0.000690446642693,-0.000595539575443,-6.14124874119e-05,-8.70916555868e-05,8.18250264274e-05,0.472129968778,-0.00403899053062,0.176301214686,-0.00191035847358,0.906812928361,0.420501280704,0.0294165955229
-0.080698184669,-0.0132742356509,0.0669833645225,-2.51757740974,0.0538636930287,2.55506682396,-0.926209330559,0.0687122866511,0.000146802223753,-0.00041978340596,0.000228265082114,0.000100130921055,-3.69447334378e-05,-7.35013818485e-05,6.68283828418e-05,0.472131194922,-0.00403746635447,0.176303889865,-0.00190872638286,0.906811907619,0.420503320477,0.0294190093191
-0.0807016640902,-0.0132731432095,0.0669832602143,-2.5175755024,0.0538635887206,2.55506777763,-0.926209568977,0.0687122866511,-0.00355727877468,-0.0023777205497,-0.000132569039124,0.000996196293272,-1.20141721709e-05,0.000136821458,-0.00047551013995,0.472131895653,-0.00403942858707,0.176303807163,-0.00190846618694,0.90681265248,0.420501688489,0.029419393513
-0.0807032063603,-0.0132678942755,0.0669796094298,-2.51757955551,0.0538649186492,2.5550673008,-0.926208734512,0.0687122866511,-4.9817852414e-05,3.86229039577e-05,-0.00661538774148,0.000369734683773,4.07055558753e-05,2.38232732954e-05,0.000232631500694,0.472129152499,-0.00404158132015,0.176299793427,-0.00191100072824,0.90681423816,0.420498538499,0.0294153760106
-0.0807034373283,-0.0132689867169,0.0669819042087,-2.51757788658,0.053865198046,2.55506634712,-0.926209568977,0.0687122866511,0.000586841721088,-0.000392470945371,-4.91912760481e-05,-0.000596011057496,2.67831910605e-05,-3.4659216908e-05,-5.43412570551e-05,0.472129918561,-0.00404060791349,0.176300870309,-0.0019106721699,0.906813642859,0.420499765388,0.0294162105425
-0.0807001516223,-0.0132678560913,0.0669847950339,-2.51758003235,0.0538648217916,2.55506587029,-0.926209628582,0.0687122866511,7.72102339397e-06,0.00082899373956,0.00238733738661,0.000129576394102,0.00435046106577,6.87082574586e-05,-5.90014788031e-05,0.47212864696,-0.00403768111999,0.176299443828,-0.00191150438294,0.906812320791,0.420502733855,0.029414477923
-0.0807031914592,-0.0132699701935,0.0669824182987,-2.5175807476,0.0538640096784,2.55506777763,-0.926210403442,0.0687122866511,-5.06559445057e-05,0.000952523027081,-0.00284882239066,7.83666109783e-05,5.80380174142e-06,-5.46198025404e-05,-0.00010280830611,0.472129022419,-0.00404032371694,0.17630034602,-0.00191040327155,0.90681312435,0.420500911841,0.0294158237034
-0.0807030126452,-0.0132683282718,0.0669824331999,-2.51758289337,0.0538639836013,2.55506634712,-0.926211535931,0.0687122866511,0.000213093167986,0.000464425480459,-0.000233846949413,4.33572749898e-05,5.26212716068e-05,1.38006280395e-05,0.000132652770844,0.472127444337,-0.00404017771892,0.17629858636,-0.00191158898025,0.906812908548,0.420501533665,0.0294135101999
-0.0806980356574,-0.0132736358792,0.0669842511415,-2.51758098602,0.0538652166724,2.5550673008,-0.926210165024,0.0687122866511,0.00374645204283,-0.00113766186405,-0.000319863844197,-0.000171172257978,-4.23737947131e-05,4.99539492012e-05,-9.95675145532e-05,0.47212941128,-0.00403700788238,0.176301932222,-0.00191007003636,0.906811862255,0.420503535661,0.0294172446314
-0.0806965082884,-0.0132731180638,0.0669865086675,-2.51758146286,0.053865108639,2.55506658554,-0.926211595535,0.0687122866511,9.19128215173e-05,0.000788716308307,0.00130640086718,-0.000171460167621,-0.000132403612952,0.000143929224578,2.99189250654e-05,0.472128966198,-0.00403521045456,0.176301428728,-0.00191046348444,0.906810768051,0.420505947985,0.029416465861
-0.0806966423988,-0.0132708847523,0.0669868141413,-2.51758289337,0.0538641363382,2.55506706238,-0.92621243,0.0687122866511,-2.54652586591e-05,-0.000272100238362,4.00165918109e-05,0.000199329733732,-1.31624456117e-05,-9.46413565543e-05,5.06219876115e-05,0.472128039646,-0.0040351469725,0.176299859167,-0.0019109497021,0.906810442964,0.420506754017,0.0294149334025
-0.0806999951601,-0.0132705559954,0.0669835135341,-2.51758551598,0.0538646504283,2.55506634712,-0.926211833954,0.0687122866511,-0.000252957688645,-0.000365399260772,-0.00360944960266,-0.000525218958501,-2.71448789135e-05,-7.87613244029e-05,-0.000504060124513,0.472126568089,-0.00403822543278,0.176298603081,-0.00191182872535,0.906812103123,0.420503278772,0.0294133772406
-0.0807036682963,-0.0132714463398,0.0669823363423,-2.51758337021,0.0538658164442,2.55507016182,-0.926215529442,0.0687122866511,0.000219906010898,-0.000972230627667,0.000216509462916,0.000313324388117,-1.18929456221e-05,0.000201775183086,-1.23134132082e-05,0.472128523012,-0.00404053993936,0.176300246599,-0.00191042419275,0.906812466391,0.420502278083,0.0294165749674
-0.0807018876076,-0.0132743809372,0.0669825747609,-2.5175819397,0.0538646504283,2.55507111549,-0.926217675209,0.0687122866511,-0.000148577033542,-0.00106545886956,-0.000273054960417,-0.00021048176859,9.72740235738e-05,5.23347307535e-06,8.79437793628e-05,0.472129867854,-0.00403970337265,0.176302284314,-0.00190886534723,0.906811322718,0.420504598352,0.0294187638684
-0.0807017683983,-0.0132729476318,0.0669831335545,-2.51758289337,0.0538654513657,2.55507135391,-0.926219046116,0.0687122866511,-8.8963068265e-05,-0.00577930454165,0.0012497062562,0.000109022075776,-6.99069933034e-05,-0.000147190570715,3.28750065819e-05,0.472129248017,-0.00403932582449,0.176301258256,-0.00190955989958,0.906811059915,0.420505221057,0.0294179186841
-0.0806995406747,-0.013267442584,0.0669843479991,-2.51758313179,0.0538651011884,2.55507040024,-0.926221251488,0.0687122866511,0.00297640357167,0.00111373793334,0.00375614617951,0.00289196451195,-4.73977488582e-05,-2.32379006775e-05,-0.000872621370945,0.472128084087,-0.00403763440126,0.176298476638,-0.0019111130797,0.906809905156,0.420507912159,0.0294149459729
-0.0807024762034,-0.0132718551904,0.0669818818569,-2.51758289337,0.0538645200431,2.55507159233,-0.926227807999,0.0687122866511,-0.00287272385322,0.00012928925571,0.00131437834352,0.000342021288816,2.05637479667e-05,-7.21287578926e-05,0.000199194691959,0.472129118115,-0.00404028269336,0.176300766537,-0.00190938354217,0.906809486907,0.420508647355,0.0294174418832
-0.0807060450315,-0.0132723599672,0.06698179245,-2.5175845623,0.0538645610213,2.55507206917,-0.926229715347,0.0687122866511,-2.72936940746e-05,-0.000708318431862,-0.000706799386535,-0.000330107053742,2.63401379925e-05,-0.000128833315102,2.33963146457e-05,0.472128493636,-0.00404201110051,0.176300394184,-0.0019094371024,0.906809875554,0.420507830786,0.0294171306134
-0.0807031914592,-0.0132725918666,0.0669806823134,-2.51758551598,0.0538658052683,2.55507206917,-0.926230490208,0.0687122866511,-0.000487293844344,-8.06259267847e-05,-0.000974773312919,-0.000695672759321,0.000239111192059,0.000377798220143,-0.000131153865368,0.472128088709,-0.00404112319382,0.176300130161,-0.00190992569324,0.906809566223,0.42050850713,0.0294169661823
-0.0806976780295,-0.0132691785693,0.0669856667519,-2.51758790016,0.0538641102612,2.55507516861,-0.926235377789,0.0681554302573,-4.27295126428e-05,-0.000672451744322,0.00041606175364,-3.69221743313e-05,4.9660953664e-05,0.000209779929719,-0.000277452229057,0.472127125723,-0.0040362480526,0.176297885273,-0.00191016977398,0.906806106546,0.420516066992,0.02941553097
-0.0806968137622,-0.0132698183879,0.0669845566154,-2.51758694649,0.0538650453091,2.55507302284,-0.926239073277,0.0681554302573,-0.000353956711479,-0.00106963235885,-0.000194731925149,3.60887279385e-05,9.85482402029e-05,4.32318302046e-05,3.21457919199e-05,0.472127220423,-0.00403629821808,0.176298352047,-0.00191050036018,0.906805532348,0.420517311282,0.0294154225091
-0.0806995406747,-0.0132706388831,0.0669825449586,-2.51758503914,0.0538653545082,2.55507445335,-0.926239669323,0.0681554302573,0.00013623254199,0.000667301646899,3.40852930094e-05,0.000504200230353,-5.3333453252e-05,8.19594206405e-05,0.000416152935941,0.472128540023,-0.00403856035815,0.176299632312,-0.00190956015426,0.906806403392,0.420515304449,0.0294173205791
-0.0807016938925,-0.0132720712572,0.0669830739498,-2.5175845623,0.0538658648729,2.5550737381,-0.926244318485,0.0681554302573,0.000250198878348,-4.11464243371e-05,-0.000282066612272,8.98438975128e-06,7.3967865319e-05,3.96661853301e-05,0.000130713466206,0.472128831459,-0.00403931400837,0.176300424488,-0.001909308628,0.906805831081,0.420516498224,0.0294179139125
-0.0806997641921,-0.0132683394477,0.0669846832752,-2.51758766174,0.0538631044328,2.55507516861,-0.926249027252,0.0681554302573,5.48428142793e-05,0.000740415067412,-0.000824789633043,0.00102435913868,8.44590758788e-05,-0.00013812231191,-0.000291468168143,0.472127092631,-0.00403773419327,0.176297582956,-0.00190982693402,0.906803721407,0.420521237671,0.0294151619147
-0.0806989222765,-0.0132681010291,0.0669852718711,-2.51758909225,0.053864851594,2.55507493019,-0.926251828671,0.0681554302573,-0.000478795438539,0.00326247257181,-0.000374987430405,4.15402319049e-05,-4.54852925031e-05,4.93525767524e-05,-0.000138984556543,0.472126337195,-0.00403696105992,0.176296886091,-0.00191067533679,0.906803152352,0.420522504758,0.0294145350869
-0.080699250102,-0.013270644471,0.0669845640659,-2.51758670807,0.0538638867438,2.55507540703,-0.926252305508,0.0681554302573,-0.000172915082658,-0.000399034179281,0.00211885734461,0.000225143987336,9.5839772257e-05,6.61115554976e-05,-0.000101655037724,0.472127959158,-0.00403754872911,0.176299068792,-0.00190915548309,0.906803031013,0.420522614607,0.0294168039221
-0.0807010829449,-0.0132710868493,0.0669837594032,-2.51758742332,0.0538645796478,2.55507826805,-0.926258742809,0.0681554302573,-0.00020416364714,4.53619322798e-05,0.000426290469477,-9.55553787207e-06,3.09367023874e-05,-3.94774142478e-05,-0.00037245079875,0.472128292473,-0.00403880406996,0.176299279503,-0.0019085744977,0.906802329728,0.420524043304,0.0294180356962
-0.0807013362646,-0.0132707739249,0.0669846460223,-2.51758670807,0.0538648217916,2.55507874489,-0.92626786232,0.0681554302573,0.000265513575869,0.000435419380665,0.0019924682565,-0.000457595888292,-0.000187695099157,5.09550263814e-05,-0.000651835580356,0.472128687446,-0.00403850310571,0.176299460906,-0.0019083161704,0.906800309935,0.420528369579,0.0294184684806
-0.0807014480233,-0.0132668297738,0.0669838786125,-2.51758909225,0.0538640022278,2.55508136749,-0.926911890507,0.0678756907582,0.000179556751391,-0.000567439128645,3.12881165883e-05,0.000330185255734,-0.000229359953664,5.12026745128e-05,-0.0114055741578,0.472127586679,-0.00403890243277,0.176297206758,-0.00189926339605,0.906662977626,0.420824489439,0.0294174534717
-0.0806980207562,-0.0132736796513,0.0669843703508,-2.51758885384,0.0538657009602,2.555082798,-0.927090764046,0.0678756907582,-0.000429858861025,-3.83785991289e-05,0.00433901743963,0.000462528143544,-1.95313368749e-05,-7.45595389162e-05,-0.00715874461457,0.472129006055,-0.00403711076989,0.176300386097,-0.00189527456177,0.906626671614,0.420902440557,0.0294214456575
-0.0807005167007,-0.0132689801976,0.0669825524092,-2.51759243011,0.0538655817509,2.55508375168,-0.927418708801,0.0678756907582,-0.000125020742416,-0.000237697764533,-0.00058757601073,3.90061018152e-07,-0.000313110445859,-3.02627777273e-05,-0.00677664810792,0.472126764324,-0.00403908255278,0.176296859469,-0.00189207421076,0.906558645136,0.421049158117,0.0294185164722
-0.0807006731629,-0.0132675953209,0.0669843256474,-2.51759052277,0.0538644045591,2.55508327484,-0.927527844906,0.0678756907582,-0.000135449532536,-0.000545298738871,-0.00287195900455,-0.000229873505305,0.000104983322672,0.000695161812473,-0.000463213800685,0.472127352648,-0.00403836621049,0.176296908805,-0.00189022169262,0.906535124888,0.421099804779,0.0294185060657
-0.0806996226311,-0.0132705196738,0.0669823437929,-2.51758885384,0.0538655556738,2.55508494377,-0.927645742893,0.0678756907582,-0.000204692114494,0.000297769380268,0.000637401535641,4.62654224975e-06,-6.69356813887e-05,0.00012131116091,-0.00640140008181,0.472128956546,-0.00403881941149,0.176299110718,-0.00188730290473,0.906510608997,0.421152379749,0.0294215324735
-0.0807026475668,-0.0132732382044,0.0669810622931,-2.51758766174,0.0538666024804,2.55508685112,-0.927890658379,0.0678756907582,-0.000191554499906,-0.000691927212756,0.00128869025502,2.01352577278e-05,3.52400784323e-05,-3.34493815899e-05,-0.0135024609044,0.472130339334,-0.00404087068755,0.176301051007,-0.00188253239511,0.906460039547,0.421261027434,0.0294244663456
-0.0806970074773,-0.013268424198,0.0669858530164,-2.51759052277,0.0538658760488,2.55508852005,-0.928584694862,0.0678756907582,0.000281163724139,-0.000317378347972,0.000259904220002,-0.000593854463659,5.06989599671e-05,-0.00386357191019,-0.0171248372644,0.472128628245,-0.00403593796336,0.176297818893,-0.00187367453989,0.906311578021,0.421580523481,0.0294223518428
-0.080698788166,-0.0132692884654,0.0669856145978,-2.51759243011,0.0538664460182,2.55508852005,-0.928833067417,0.0591958723962,-0.000157662070706,-0.00144846842159,0.000127614999656,0.00043086882215,-0.000257180188783,0.000119218573673,-0.0147777162492,0.472128019017,-0.00403694543317,0.176297603089,-0.00186985784451,0.906255817568,0.421700391967,0.0294223698561
-0.0807021185756,-0.0132714500651,0.066982910037,-2.51759076118,0.0538649559021,2.55509018898,-0.92921423912,0.0591958723962,-0.000398313306505,2.01559560082e-05,9.83680820354e-06,0.000372988288291,-6.46926055197e-05,0.00031462527113,-0.0165696684271,0.472129310186,-0.004039840572,0.176299314786,-0.00186298611283,0.906180320641,0.421862463107,0.0294247797762
-0.0806992948055,-0.0132722919807,0.0669836774468,-2.51758909225,0.0538658462465,2.55509018898,-0.929967224598,0.0591958723962,0.000148327861098,0.000206100143259,-0.000109442778921,-9.77851086645e-05,-4.45567493443e-05,-0.000114600050438,-0.0131755350158,0.472130249102,-0.00403812502499,0.176300369521,-0.00185161339772,0.906020783527,0.422204902839,0.0294267062755
-0.0807006880641,-0.0132678430527,0.0669834986329,-2.51759195328,0.0538661777973,2.55509018898,-0.930113732815,0.0591958723962,-0.000251407589531,7.7507153037e-05,-0.00397111708298,0.000287542992737,0.00446245679632,8.18248645373e-06,-0.00951759982854,0.47212824047,-0.00403885393068,0.176297174209,-0.0018512043874,0.905988667399,0.422274028464,0.0294236664733
-0.0807017534971,-0.0132669480518,0.066983923316,-2.51759147644,0.0538651682436,2.55509066582,-0.930237054825,0.0591958723962,-0.00180189183448,0.00110545568168,-0.00160892121494,6.91812456353e-05,0.00025657057995,-0.00016968678392,-0.00705132074654,0.472128376098,-0.0040391278188,0.176296959992,-0.00184916097654,0.905964275749,0.422326364544,0.0294236836345
-0.0806997045875,-0.0132722947747,0.0669842138886,-2.51759028435,0.0538645647466,2.55509328842,-0.930643200874,0.0527211390436,0.000665321596898,0.00017826462863,-0.00299863494001,-0.000274404708762,-0.000204956610105,0.000165033314261,-0.00542567623779,0.472130344387,-0.00403816772141,0.176300205442,-0.0018408621521,0.905877780831,0.422511598085,0.0294279898404
-0.0807017609477,-0.0132728070021,0.0669839829206,-2.51759052277,0.0538660250604,2.55509519577,-0.930821180344,0.0527211390436,-0.000321192172123,0.000145231169881,0.00126143265516,1.17029076137e-05,0.00013782219321,0.000129995416501,-0.00436200201511,0.472130714016,-0.00403921149965,0.176300543506,-0.00183805751829,0.905840889072,0.422590607009,0.0294293013026
-0.0807027071714,-0.0132686952129,0.0669843778014,-2.5175921917,0.0538667850196,2.55509400368,-0.931011855602,0.0527211390436,0.000412255089032,4.63423348265e-05,-0.000207733959542,0.000388806307456,-0.000175161476363,3.54992334906e-05,-0.00695487298071,0.472129026099,-0.00403935586979,0.176297833078,-0.00183709775882,0.90580093572,0.422676436431,0.0294265132775
-0.0807006135583,-0.0132689904422,0.0669831186533,-2.51759076118,0.0538659356534,2.55509328842,-0.931203246117,0.0527211390436,-0.000326930050505,-0.000386251776945,-7.62873605709e-05,-0.000343066116329,-1.06914114895e-06,-7.57227171562e-05,-0.012611111626,0.472129598224,-0.00403900143432,0.176298464116,-0.00183386955452,0.905760143415,0.422763821295,0.029427038684
-0.0807019323111,-0.0132708288729,0.0669818520546,-2.51759147644,0.0538658872247,2.55509352684,-0.932223379612,0.0527211390436,-0.000312932650559,0.00319114211015,0.00394937535748,-0.000202810930205,-5.50386685063e-05,0.000187134923181,-0.00903256703168,0.472129587147,-0.0040402441615,0.176299072234,-0.0018184607419,0.905544908566,0.423224611506,0.0294285518685
-0.0806991830468,-0.0132694318891,0.06698346138,-2.51759696007,0.0538653060794,2.55509400368,-0.932608664036,0.0527211390436,3.26757763105e-05,-0.000365860236343,0.00278631760739,0.000553715683054,-0.00290341302752,-0.00443102000281,-0.0205475073308,0.472126888912,-0.00403817344476,0.176296300272,-0.00181412511016,0.905462437898,0.423401222797,0.0294259531326
-0.0807021856308,-0.0132742384449,0.0669826865196,-2.51759243011,0.0538661591709,2.55509495735,-0.932896316051,0.0527211390436,-0.000261239678366,-0.00048932840582,-0.00216321856715,-0.000312395015499,0.000151069965796,0.00101356662344,-0.00236228271388,0.472129976698,-0.00404001762493,0.176300443651,-0.00180765601845,0.905402331698,0.423529424511,0.0294308747212
-0.0806984230876,-0.0132729746401,0.0669837370515,-2.51759171486,0.0538651458919,2.55509495735,-0.932969033718,0.0527211390436,0.000116464550956,9.80458862614e-05,-0.000149904444697,-0.000510120182298,-0.000130161017296,-1.63924487424e-05,-0.0071572419256,0.472131207053,-0.00403823011983,0.17630088996,-0.00180659380762,0.905392491297,0.423550410081,0.0294316618658
-0.0807013884187,-0.0132661573589,0.0669824555516,-2.51759314537,0.0538654699922,2.55509495735,-0.93330013752,0.0527211390436,0.000151526270201,-0.00157156062778,0.00037628528662,-0.000120104916277,-7.71292543504e-05,9.7122931038e-05,-0.00456988206133,0.472128376111,-0.004039676262,0.176296355506,-0.00180370438367,0.905316689826,0.423712721448,0.0294273195165
-0.0807017087936,-0.0132699422538,0.0669845044613,-2.51759457588,0.0538660362363,2.5550942421,-0.933403909206,0.0509028285742,2.85058540612e-05,-0.000404158927267,0.000512969156262,0.000259436521446,-0.000509340432473,-1.72915260919e-05,-0.00176456826739,0.472128144881,-0.00403886550631,0.176297503749,-0.0018018803639,0.905294405629,0.423760280348,0.0294281640764
-0.0807006731629,-0.0132723236457,0.0669835358858,-2.51759147644,0.053865917027,2.55509567261,-0.933505475521,0.0509028285742,-0.000443841039669,-4.50618645118e-05,0.000272570672678,-0.000315919198329,-0.000201033093617,0.000123770805658,-0.00442919693887,0.472130540056,-0.0040387528225,0.176300502717,-0.00179868413924,0.905275326933,0.423800811578,0.0294315980707
-0.0807014405727,-0.0132713355124,0.0669842660427,-2.51759171486,0.0538656413555,2.55509567261,-0.933595955372,0.0509028285742,-0.000141612646985,0.000192294275621,-7.62464478612e-05,-0.000136365284561,-0.000141892844113,-0.000162220239872,-0.00420984486118,0.472130022751,-0.00403892688345,0.176299427482,-0.00179764626796,0.905253562941,0.423847357633,0.0294308062543
-0.08070127666,-0.0132685266435,0.0669844299555,-2.51759552956,0.0538659207523,2.55509591103,-0.933643579483,0.0509028285742,-0.00397915393114,6.36630065856e-05,-0.000266426533926,-0.000260735454503,3.20663252751e-06,-0.000206898374017,-4.16545663029e-06,0.472127829945,-0.00403870379308,0.17629662629,-0.00179849194275,0.905243543821,0.423868943253,0.0294280550006
-0.080698736012,-0.0132701778784,0.0669855698943,-2.51759433746,0.0538660474122,2.55509734154,-0.93368935585,0.0509028285742,0.000381606660085,0.00021762389224,0.000484557327582,-3.77021424356e-05,-8.15115636215e-05,1.95315237761e-06,-0.00275899702683,0.472128973433,-0.00403701250072,0.176298014384,-0.00179688915278,0.90523303012,0.423891268952,0.0294299873222
-0.0807005092502,-0.0132718468085,0.066984154284,-2.51759266853,0.0538654923439,2.55509543419,-0.93377661705,0.0509028285742,-0.000245152827119,0.000641048536636,-0.000365409621736,0.000631536007859,2.72227825917e-05,9.60347642831e-06,-0.00291478773579,0.472129602782,-0.00403854377789,0.176299268944,-0.00179510041905,0.905215082402,0.423929557231,0.0294306369443
-0.0807032138109,-0.0132717592642,0.0669824257493,-2.51759457588,0.0538661926985,2.55509591103,-0.93386220932,0.0509028285742,-0.000237560190726,0.00251130782999,-0.00264805741608,-0.000316772900987,0.00224045338109,-2.15316576941e-05,-0.00406120531261,0.472128771792,-0.00404059408375,0.176298525484,-0.00179428901913,0.905198023399,0.423966020035,0.0294301290299
-0.0807020068169,-0.0132719157264,0.0669831633568,-2.51759433746,0.0538662672043,2.55509638786,-0.933942615986,0.0509028285742,0.000142615142977,0.00020127541211,0.0003998632601,9.68586027739e-05,8.81884770934e-05,1.80663137144e-05,-0.00567665277049,0.472129193182,-0.00403943970587,0.176298751441,-0.0017927905511,0.905179447235,0.424005639312,0.0294307953398
-0.0807006731629,-0.013268920593,0.0669822990894,-2.51759290695,0.0538662113249,2.55509567261,-0.934041559696,0.0509028285742,-0.000120529330161,-0.000428212544648,-0.00488751102239,-0.000437452836195,0.000107411855424,8.5254701844e-05,-0.00103013962507,0.472129077879,-0.0040394239753,0.176297822506,-0.00179208688155,0.905159510354,0.424048277247,0.0294297040736
-0.0807007551193,-0.0132719445974,0.0669826865196,-2.5175921917,0.0538659095764,2.55509757996,-0.934109151363,0.0509028285742,-0.000263872236246,0.00287959282286,-0.00418917601928,-0.002754884772,-3.56246819138e-05,-3.65685264114e-05,-0.0020719494205,0.472130115513,-0.0040391868294,0.176299541356,-0.00178981663572,0.905145556328,0.424077918128,0.0294319121164
-0.0807008296251,-0.0132714509964,0.0669851601124,-2.51759266853,0.0538663901389,2.55509710312,-0.934159100056,0.0509028285742,-0.00399403041229,0.000714025285561,-0.000386608880945,0.000416236609453,0.00278678303584,6.47576816846e-05,-0.000559890817385,0.472129801588,-0.00403793732167,0.17629931277,-0.00178946242902,0.905134189441,0.424102200653,0.0294316157978
-0.080700173974,-0.0132701229304,0.0669847950339,-2.5175921917,0.0538656748831,2.55509734154,-0.934181392193,0.0500721484423,-1.35589925776e-05,0.000599168764893,0.000340602215147,0.000294493307592,7.3702474765e-05,-1.53187045271e-06,7.65773802414e-05,0.472129971531,-0.0040380859143,0.176298833373,-0.00178907083864,0.905129092584,0.424113100197,0.0294313251804
-0.0807004794478,-0.0132687855512,0.0669842287898,-2.51759409904,0.0538657642901,2.55509853363,-0.934235095978,0.0500721484423,2.00923659577e-05,1.5478604837e-05,0.0022749460768,0.00020080646209,0.000140588963404,-8.11288991827e-05,-0.00503927981481,0.472129110769,-0.00403848160755,0.176297570578,-0.00178875802983,0.905117942386,0.424136956204,0.0294304735749
-0.0807002857327,-0.0132708214223,0.0669849663973,-2.51759505272,0.0538657791913,2.55509853363,-0.934476733208,0.0500721484423,0.000157949238201,0.00164262426551,1.77825404535e-05,0.000245304079726,0.000356103439117,-6.99659767633e-06,-0.00359444878995,0.472128980655,-0.00403806260171,0.17629815341,-0.0017849189994,0.905066481636,0.424246727021,0.0294311429047
-0.0807021409273,-0.0132696768269,0.0669833570719,-2.51760005951,0.053865943104,2.55509924889,-0.934670865536,0.0500721484423,7.82237402746e-05,0.000166132900631,-0.000123761143186,-5.100951239e-05,5.49057804164e-05,-2.78157694993e-05,-0.000857740174979,0.472126569676,-0.00403965273702,0.176295714221,-0.00178326919657,0.905026145712,0.424332928612,0.0294289126995
-0.0806997939944,-0.0132710952312,0.0669841244817,-2.51759910583,0.0538657009602,2.55509877205,-0.934759616852,0.0500721484423,-5.87942267885e-05,0.000237539381487,0.00136547954753,-0.00186421186663,7.60106422604e-06,-4.84140982735e-05,-0.000230369667406,0.47212729945,-0.0040382487919,0.176296775401,-0.00178140162119,0.905006007855,0.424375810834,0.0294299712954
-0.0806995108724,-0.0132715376094,0.066982768476,-2.51760029793,0.0538657084107,2.55509829521,-0.93483287096,0.0500721484423,0.000226428659516,0.000260023080045,0.000614176329691,-0.000176474699401,0.000250860786764,-3.26972112816e-05,-0.00398008013144,0.472126551186,-0.00403870634349,0.176296402284,-0.00178067641744,0.904991281563,0.424407263158,0.0294293075592
-0.0807014405727,-0.0132731013,0.0669846683741,-2.51760149002,0.0538662187755,2.55509901047,-0.934882044792,0.0500721484423,0.00025469128741,-0.00115039991215,-0.000161188014317,-9.55876312219e-05,-1.20033018902e-05,7.24046985852e-05,-0.00149722071365,0.472126384571,-0.00403872338774,0.176296739744,-0.00177977415827,0.904980928739,0.42442930332,0.0294298689032
-0.0806993916631,-0.0132731134072,0.0669849961996,-2.51760601997,0.053865596652,2.55509877205,-0.934944152832,0.0496597588062,0.000130916509079,-0.000117295843665,-0.000559313339181,-0.000107807136374,0.000591706950217,4.61588479084e-06,-0.00129817356355,0.472124197372,-0.00403760035248,0.176294936789,-0.0017797774954,0.904967207143,0.4244587098,0.0294277036085
-0.0806988105178,-0.0132698360831,0.066984474659,-2.51760792732,0.053865429014,2.55509877205,-0.934973537922,0.0496597588062,0.000408260180848,0.000308572809445,0.000344052794389,-0.000228131058975,7.6071220974e-05,-1.05324870674e-05,-0.00449283095077,0.472122781771,-0.00403752599274,0.176292642278,-0.00178053561039,0.904961005732,0.424472085705,0.0294254300295
-0.0807014107704,-0.0132715599611,0.0669865235686,-2.51760673523,0.0538662001491,2.55510020256,-0.935012042522,0.0496597588062,-0.000504438648932,-0.00012703993707,-0.000270424323389,0.000158850190928,3.19966193274e-06,3.44944055541e-05,-0.0084846932441,0.472123921137,-0.00403780474023,0.176294065116,-0.00177911773547,0.904953027275,0.424488959528,0.0294274715674
-0.0806994661689,-0.0132715059444,0.0669830814004,-2.51761126518,0.0538657456636,2.55509972572,-0.935110986233,0.0496597588062,-6.20152131887e-05,-0.000190112870769,-0.000389447028283,-0.000224197850912,-8.99460937944e-05,-0.000116229050036,-0.0048062116839,0.472121658072,-0.00403849038951,0.176292209433,-0.00177866003225,0.904932338452,0.424533218865,0.0294252434282
-0.0807013884187,-0.0132699161768,0.0669825300574,-2.51761436462,0.0538660623133,2.55509972572,-0.935336470604,0.0496597588062,0.000412572233472,0.000576022022869,0.000719879579265,-0.000531997240614,0.000118272095278,-0.000130076194182,-0.000164076613146,0.472119932415,-0.00403960276929,0.176290240886,-0.00177646185115,0.904885118228,0.424633995139,0.0294234063952
-0.0807007700205,-0.0132682919502,0.0669841319323,-2.51761579514,0.0538660772145,2.55509972572,-0.935345649719,0.0496597588062,-4.13530142396e-05,-0.000381979974918,0.00330664985813,-0.000138107643579,8.70996518643e-06,2.2213176635e-05,-0.000611649185885,0.472118318367,-0.00403919672934,0.176289061711,-0.00177686547218,0.904879603397,0.424645836571,0.0294220880682
-0.0806992053986,-0.0132694877684,0.0669846087694,-2.51761984825,0.0538652427495,2.55509924889,-0.93537825346,0.0496597588062,0.00366811058484,0.000166021243786,0.000227460259339,-1.78918198799e-05,-0.00507145887241,1.05554117908e-05,-0.000436690781498,0.472117187607,-0.0040378416416,0.176287989832,-0.00177702432418,0.904875629462,0.4246544138,0.0294205015094
-0.0807015150785,-0.0132686132565,0.066984154284,-2.51762080193,0.0538656227291,2.55509972572,-0.935443103313,0.0486517772079,-8.38755149744e-05,0.000443197524874,-0.00215185224079,0.000245948118391,-0.000300538784359,-0.000110813802166,0.000347670691554,0.472116683906,-0.00403886412756,0.176287090804,-0.00177652343591,0.904862199186,0.424683068903,0.029419978126
-0.0807036310434,-0.013269902207,0.0669807568192,-2.5176217556,0.0538661107421,2.5551006794,-0.935469806194,0.0486517772079,2.43239264819e-06,-0.00138678669464,0.00319011881948,0.000425092468504,0.00122307613492,4.63117758045e-05,0.00479148235172,0.472116616976,-0.00404146159351,0.17628741869,-0.00177585522391,0.904857770293,0.424692462847,0.0294206314742
-0.080702804029,-0.0132674043998,0.0669830963016,-2.51762247086,0.0538659654558,2.5551006794,-0.935490906239,0.0486517772079,0.000362440972822,0.00149192323443,-0.000931275368202,-9.95392620098e-05,-0.000875343626831,-6.13837546553e-05,-0.00388437299989,0.472115899974,-0.00403994257316,0.176285959506,-0.00177631692566,0.904852639815,0.424703489923,0.0294192155322
-0.0806994363666,-0.0132655669004,0.0669854283333,-2.51762962341,0.0538652427495,2.55510044098,-0.935518920422,0.0486517772079,-6.715964264e-05,0.000657319440506,0.00014991631906,-0.00169929675758,9.41761900322e-05,-0.000145438563777,-0.00056556268828,0.472112194187,-0.00403722028909,0.176282251752,-0.00177786646557,0.904845492887,0.424719000861,0.0294150161995
-0.0807006210089,-0.0132705522701,0.0669838264585,-2.51762771606,0.0538655668497,2.55510115623,-0.935544013977,0.0486517772079,-0.000154351466335,-0.000159537084983,-0.000502323498949,0.000108355779957,-8.11863992567e-06,0.000170062601683,0.000492341292556,0.472114019339,-0.00403860260873,0.176285422388,-0.00177572416366,0.904840703903,0.424728976437,0.0294184230876
-0.0807019770145,-0.013272899203,0.0669833868742,-2.51762676239,0.0538650676608,2.5551006794,-0.935561180115,0.0486517772079,0.000121220764413,-0.000495926302392,0.000116636285384,-0.00022176510538,0.00010762202146,-0.000160061434144,0.000326728157233,0.472114727242,-0.00403950149402,0.176286855482,-0.00177464302883,0.904837310202,0.424736128371,0.0294196132245
-0.0807019397616,-0.0132707068697,0.0669850036502,-2.51762723923,0.0538650602102,2.5551006794,-0.935581088066,0.0468748360872,0.00023685018823,1.56044970936e-05,0.000187119032489,-0.000950140471105,-0.00523724826053,9.43388877204e-05,-0.0011106824968,0.472114165285,-0.00403869374811,0.176285634577,-0.00177501154855,0.904832768966,0.424745881162,0.0294184577144
-0.0807011723518,-0.0132648982108,0.0669840574265,-2.51762938499,0.0538655146956,2.55510115623,-0.935621857643,0.0468748360872,-6.5689215262e-05,0.000470441678772,-0.000399898795877,-0.000162626223755,-0.000143605968333,-6.44638275844e-05,-0.00033240581979,0.472112344029,-0.00403867514682,0.176282102449,-0.00177632765528,0.904824338498,0.424764054493,0.0294152819224
-0.0807017683983,-0.0132603337988,0.0669819936156,-2.51763033867,0.053865082562,2.55510044098,-0.9356559515,0.0468748360872,-0.000417076662416,-2.98696668324e-05,-0.00022658353555,-0.000227494412684,-0.000104366881715,3.46818633261e-05,-0.000457720394479,0.472111014733,-0.00403987272527,0.176279507117,-0.00177720013683,0.904817675294,0.424778434131,0.0294125417034
-0.0807012617588,-0.0132606821135,0.0669837146997,-2.51763701439,0.0538659654558,2.55509996414,-0.93567276001,0.0468748360872,-7.15716159903e-05,8.82969907252e-05,0.00278454599902,-0.000328056921717,5.67837887502e-05,8.49023199407e-05,-9.19671074371e-05,0.472107815736,-0.00403873845766,0.176276995615,-0.00177868754712,0.90481388046,0.424786714429,0.0294096059213
-0.08069832623,-0.0132646439597,0.0669846907258,-2.51763939857,0.0538657531142,2.5550994873,-0.935691356659,0.0468748360872,0.000899857783224,0.000334788201144,-0.000348886067513,0.00024683951051,-3.21407496813e-05,0.000253351812717,-0.00155617599376,0.472107218234,-0.00403693209407,0.176277874459,-0.00177806320919,0.904809045253,0.424796987035,0.0294100255494
-0.0806981548667,-0.0132674071938,0.0669868141413,-2.5176346302,0.0538663268089,2.55510091782,-0.935701370239,0.0468748360872,0.0012156435987,-9.79163232842e-05,-0.000219126974116,-0.000206442928175,0.000293257413432,-7.48038874008e-05,-0.000482410541736,0.472110225176,-0.00403591187403,0.176281194716,-0.00177601527499,0.9048064059,0.424802337232,0.0294140709976
-0.0807025507092,-0.0132632814348,0.0669822022319,-2.51764416695,0.0538662783802,2.55509996414,-0.935723006725,0.0468748360872,-0.000392764020944,-0.000200447029783,0.00290334480815,-0.000298317347188,0.000104452577943,8.8958984179e-07,-0.00232543353923,0.472104823085,-0.00404003169966,0.176275404056,-0.00177891441373,0.904803924801,0.424808056845,0.0294076120221
-0.080703638494,-0.0132602239028,0.0669847726822,-2.51764369011,0.0538660883904,2.55510044098,-0.935737609863,0.0468748360872,-0.000232031088672,-1.46751581269e-05,0.00300194462761,0.000154537992785,-4.68552207167e-05,-0.000137552240631,-0.00163740874268,0.47210467834,-0.00403931783616,0.176274197728,-0.00177919920623,0.904800509569,0.424815393703,0.029406687774
-0.080701097846,-0.0132601307705,0.0669852346182,-2.5176448822,0.0538660809398,2.5551006794,-0.935748815536,0.0468748360872,0.000238198030274,0.00374632934108,-0.000317216617987,-0.000323713640682,-0.000346863875166,6.84487604303e-05,-0.00278069404885,0.472104162042,-0.00403789677006,0.176273707758,-0.00177930093088,0.904797507542,0.424821819436,0.0294062211523
-0.0806986391544,-0.0132621200755,0.0669852569699,-2.51764750481,0.0538661889732,2.55510091782,-0.935760617256,0.0468748360872,0.00013255122758,-0.00229080487043,-0.000451095722383,-0.000518232642207,3.23633212247e-05,4.7078839998e-05,-0.00272346660495,0.472103358675,-0.00403688687686,0.176273724777,-0.00177922615621,0.90479470401,0.42482780196,0.0294060590758
-0.0807029008865,-0.0132597703487,0.0669834762812,-2.51765036583,0.0538667477667,2.5551006794,-0.935796320438,0.044689450413,0.000256687839283,0.00196557724848,-0.00011380459182,-1.90346270301e-06,0.000930720765609,3.14314311254e-05,-0.000174077504198,0.472101495606,-0.00403950422008,0.176271380366,-0.00178001868582,0.904788373411,0.424841441824,0.0294037388919
-0.080700404942,-0.013258988969,0.0669829174876,-2.51765346527,0.0538649521768,2.55509972572,-0.935802400112,0.044689450413,0.000389974244172,0.000315205019433,6.80112061673e-05,-0.00188420317136,8.36567633087e-05,-0.000366230757209,-0.00251163658686,0.472099704294,-0.00403863082947,0.176269695222,-0.00178060103277,0.904786430176,0.424845742654,0.0294013580625
-0.0807008743286,-0.0132545465603,0.0669831931591,-2.51766490936,0.0538671575487,2.55509662628,-0.935816287994,0.044689450413,-3.08279777528e-05,-0.000287874165224,-0.000298087019473,-0.000211938880966,0.00513542070985,7.41682597436e-05,5.67487550143e-05,0.472092931107,-0.00403844349563,0.176262793716,-0.00178529832851,0.904784156091,0.424851128639,0.029393226575
-0.0806993767619,-0.0132559193298,0.0669837221503,-2.51767683029,0.0538657009602,2.55509614944,-0.93583291769,0.044689450413,-0.00361563474871,-6.12724761595e-05,-0.000273530720733,-0.00156012666412,0.000207030083402,6.74193870509e-05,0.000256177736446,0.472087400075,-0.00403749424813,0.176258696296,-0.00178708747691,0.904780106332,0.424860101932,0.0293880752695
-0.0806994661689,-0.013262912631,0.0669846013188,-2.51768445969,0.0538648031652,2.55509209633,-0.935850083828,0.044689450413,0.000867278024089,0.000733393011615,-0.000138869014336,-0.0020806142129,-0.000485407246742,0.00197401549667,-0.00161858927459,0.472084012134,-0.00403714565288,0.176258582808,-0.00178751004496,0.904776183182,0.424868612614,0.0293857932944
-0.0807036757469,-0.0132588911802,0.0669814571738,-2.51770234108,0.0538644753397,2.55509328842,-0.935862421989,0.044689450413,0.00280973431654,0.000631729606539,-0.000867361668497,-0.00304640550166,-0.000195322572836,0.0002901359112,-7.55145811127e-05,0.472075137024,-0.00404048361215,0.176249766611,-0.00179177837502,0.904775383289,0.424870939235,0.0293765211607
-0.0807130560279,-0.0132574792951,0.0669757425785,-2.51772785187,0.0538675710559,2.55509638786,-0.935871124268,0.044689450413,-0.00182150176261,-0.000846153881866,-0.00249506044202,-0.00413533020765,-0.00205591670237,-0.000467417499749,0.000413132598624,0.472063441057,-0.00404732180505,0.176239369847,-0.00179744151527,0.904777642508,0.424866814177,0.0293662512223
-0.0807077437639,-0.0132546648383,0.0669812262058,-2.51776099205,0.0538650564849,2.55509781837,-0.935880899429,0.044689450413,0.000680073164403,0.00138363428414,0.000194769789232,-0.000656615302432,-0.000298490718706,0.00015582315973,0.000126299855765,0.472047641559,-0.00404213951793,0.176225130695,-0.00180438560822,0.904773366824,0.424876984111,0.0293504161813
-0.0807088166475,-0.0132584962994,0.0669793412089,-2.51780986786,0.0538655109704,2.55509829521,-0.935898423195,0.044689450413,-0.000172758547706,-0.000778224261012,-0.000571259181015,-0.00113098707516,-6.88530562911e-05,5.27508518644e-06,3.7987021642e-05,0.472025174267,-0.00404326476763,0.176207739198,-0.00181383261927,0.904771015676,0.424883332415,0.0293304060196
-0.0807091891766,-0.0132574569434,0.0669794157147,-2.5178091526,0.0538657344878,2.55509829521,-0.935906946659,0.0402267426252,0.000517231295817,-8.55004982441e-05,-2.30634614127e-05,0.000352289003786,0.00192434131168,-0.000117321120342,0.000193496409338,0.472025350125,-0.00404338618039,0.176207531767,-0.00181386152249,0.90476931077,0.424886969172,0.0293303136721
-0.0807047113776,-0.0132574765012,0.0669809803367,-2.51781129837,0.0538653433323,2.55509853363,-0.935912847519,0.0402267426252,0.000108203028503,0.00023763574427,0.00038531087921,5.89238552493e-05,4.62587777292e-05,-6.3365528149e-06,-0.000191381637705,0.472024410557,-0.004040546695,0.176206718394,-0.00181416217131,0.904766736673,0.424892511875,0.0293294059929
-0.0807084068656,-0.0132565861568,0.0669789388776,-2.51781535149,0.0538656078279,2.55509805679,-0.935925662518,0.0402267426252,-0.00288106617518,0.000478798581753,-4.70585000585e-05,9.39006495173e-05,-6.10126789979e-06,3.06485999317e-05,-0.000458826601971,0.472022226901,-0.00404319420386,0.176204657635,-0.00181519013274,0.904765354752,0.42489561297,0.0293270469432
-0.0807080343366,-0.0132561121136,0.0669801160693,-2.51781892776,0.0538643486798,2.55509805679,-0.935931384563,0.0402267426252,0.000667266605888,-0.000359840021702,-0.000352853588993,1.46877000589e-05,-0.00349495862611,-0.000136089976877,-0.000335318647558,0.47202046094,-0.00404249737149,0.176203023993,-0.00181570018589,0.904763655687,0.424899365252,0.0293250689026
-0.0807059630752,-0.0132570602,0.0669795125723,-2.51781916618,0.0538648478687,2.55509877205,-0.935936510563,0.0402267426252,0.00185385381337,-0.000352534058038,-0.000455366913229,0.000229146855418,0.00446292757988,-0.00103305792436,0.00020923113334,0.472020755335,-0.00404202642508,0.176203505005,-0.00181540258683,0.9047624591,0.424901861276,0.0293258397762
-0.0807097107172,-0.0132580688223,0.0669774413109,-2.5178194046,0.0538645982742,2.55509781837,-0.9359395504,0.0402267426252,2.61106561084e-05,-0.000207533608773,-0.000747228157707,0.000128648825921,-7.76591114118e-05,8.19619308459e-05,-0.00111545517575,0.472020473371,-0.00404455176447,0.176203735525,-0.00181527111434,0.90476286811,0.424901003906,0.029325651522
-0.0807147100568,-0.0132585987449,0.0669718459249,-2.51782202721,0.0538641214371,2.55509829521,-0.935948014259,0.0402267426252,0.000470816972665,-0.000270271033514,0.00343342334963,-0.000112853776955,5.99322265771e-06,0.00548793654889,0.000109120359411,0.47201937227,-0.00404956148657,0.176203001353,-0.00181523032798,0.904763266845,0.424900207905,0.0293248854416
-0.0807113796473,-0.0132588120177,0.0669750124216,-2.51782464981,0.053864389658,2.55509853363,-0.935952484608,0.0402267426252,0.000258358631982,-0.000178915390279,6.61676540403e-06,-0.000503696559463,2.5539429771e-05,0.000171580177266,0.00208920869045,0.472018240441,-0.00404647887118,0.176202091717,-0.00181577397331,0.904761016524,0.42490506343,0.0293239269621
-0.0807238593698,-0.0132707571611,0.066967651248,-2.51781272888,0.0538641996682,2.55509805679,-0.935962438583,0.0401925966144,-0.000228935095947,-0.000226941469009,-0.000297503778711,0.000392612098949,-5.68505784031e-05,0.000113346271974,-0.000313011871185,0.472025573948,-0.00405605496043,0.176212365112,-0.00180987290974,0.904762737527,0.424900709193,0.0293342827958
-0.0807238593698,-0.0132831931114,0.0669673159719,-2.51780962944,0.0538645610213,2.55509829521,-0.935963571072,0.0401925966144,3.4050510294e-05,-0.000371652015019,0.00298355543055,-0.000492280465551,-1.55841935339e-05,-0.000557491497602,-0.000129155057948,0.472029036556,-0.00405637523033,0.176219464757,-0.00180612405268,0.904762400786,0.424900962873,0.0293412247105
-0.0807196199894,-0.0132827814668,0.06696972996,-2.5178129673,0.0538632012904,2.55509805679,-0.935966134071,0.0401925966144,0.00017631740775,0.000538207299542,-0.00418748427182,-0.000183734533493,-6.34071038803e-05,-0.00019817451539,0.000100826495327,0.472027362615,-0.00405327532741,0.176217930051,-0.00180671170089,0.904760268997,0.424905635928,0.0293392513977
-0.0807269737124,-0.0132683459669,0.0669677481055,-2.51781439781,0.0538628511131,2.55509853363,-0.935970664024,0.0401925966144,0.000296062993584,-0.000347250228515,-0.00033168841037,0.000329895061441,0.000223909548367,8.39633357828e-05,-0.000298342609312,0.472024492389,-0.00405751047641,0.17621061782,-0.00181021292456,0.904761457729,0.42490355392,0.0293325293839
-0.080723322928,-0.0132751762867,0.0669683516026,-2.51781630516,0.053864210844,2.55509805679,-0.935972392559,0.0382035523653,0.000407576037105,-0.000213997918763,0.000209726233152,-0.000479632319184,-0.000494302832521,1.70604889718e-05,-7.54045613576e-05,0.472024575007,-0.00405550590944,0.176213037322,-0.00180942880964,0.90476035076,0.424905771447,0.029334599526
-0.0807208940387,-0.0132802790031,0.0669700354338,-2.51781868935,0.0538631938398,2.55509805679,-0.935975134373,0.0382035523653,3.81353711418e-05,-0.00197761622258,-0.00274854851887,0.000780364731327,4.00025555791e-07,-3.64201441698e-05,0.00498904008418,0.472024256403,-0.00405366659206,0.176214498753,-0.00180843410263,0.904758682716,0.424909258298,0.0293356013501
-0.0807225927711,-0.0132946679369,0.0669664815068,-2.5178000927,0.05386300385,2.55509924889,-0.935976564884,0.0382035523653,-0.000771021877881,-0.000347501540091,-9.00927261682e-05,0.00105224421714,5.45400944247e-05,0.000278021558188,7.947866834e-05,0.472035549728,-0.00405646242897,0.176228714605,-0.00180038602724,0.904758967283,0.424907642691,0.0293507170558
-0.0807418078184,-0.0133361527696,0.0669541582465,-2.51777887344,0.0538634583354,2.55510187149,-0.935979604721,0.0382035523653,-0.000262703164481,9.14572519832e-05,0.000410663051298,-2.0140372726e-05,5.89492119616e-05,-9.5187984698e-05,0.000119471966173,0.472052520794,-0.00407199765844,0.176256867698,-0.00178450292339,0.904764158197,0.424894665042,0.0293795317724
-0.0807405486703,-0.0133535964414,0.0669542774558,-2.51777982712,0.0538622811437,2.55510115623,-0.935981929302,0.0382035523653,-3.42097737303e-05,5.06322903675e-05,-0.00144919857848,-5.89907867834e-05,-0.00016291315842,6.5425883804e-06,-0.000163522374351,0.472054643625,-0.00407160720502,0.176264632946,-0.00178023638956,0.904762936988,0.424896822115,0.0293862016403
-0.0807526111603,-0.0133427651599,0.0669525191188,-2.51778626442,0.0538610331714,2.55510139465,-0.935992598534,0.0360667593777,-0.00031981401844,0.000250707787927,-0.000306408299366,-0.000260309549049,-1.74691995198e-05,-0.000146737569594,0.000306683941744,0.472049893231,-0.00407801417322,0.176257020727,-0.00178360763615,0.904763645795,0.424895825772,0.0293785791254
-0.0807577595115,-0.0133393853903,0.0669497027993,-2.51779317856,0.0538614206016,2.55510210991,-0.935994386673,0.0360667593777,-1.65602959896e-05,-0.000208324243431,0.00122926640324,0.000286790425889,-7.08756169843e-06,-0.000192510531633,0.000116103015898,0.472046211431,-0.00408167477343,0.17625277931,-0.00178576007508,0.904765170049,0.42489286071,0.0293743889032
-0.080753698945,-0.0133389187977,0.0669528692961,-2.51779484749,0.0538625307381,2.55510115623,-0.935995936394,0.0360667593777,8.05697054602e-05,0.000120662261907,-0.000114273389045,-0.000155243338668,0.000148873601574,3.70258057956e-05,-0.000132130633574,0.472045175918,-0.00407818609513,0.176251808463,-0.00178681662652,0.904763533656,0.424896426599,0.0293731475162
-0.0807535201311,-0.0133302863687,0.0669541060925,-2.51779985428,0.053860951215,2.55510020256,-0.935995936394,0.0360667593777,-0.000250240147579,0.000750173581764,0.000198093155632,-0.00028906139778,2.10767357203e-05,-0.00012078112195,-0.000335723569151,0.472041252418,-0.00407744126632,0.176245675402,-0.00178989188754,0.904763172032,0.42489764169,0.0293665215018
-0.08075235039,-0.0133205093443,0.0669545531273,-2.51780033112,0.053862400353,2.55509996414,-0.935999929905,0.0360667593777,0.0017912236508,0.00025618323707,-0.000192519495613,0.000116589093523,0.000165138728335,0.000190637816559,-3.67139400623e-05,0.472039350054,-0.00407650188276,0.176240913234,-0.00179284628697,0.904762459651,0.424899451743,0.0293620996416
-0.080754622817,-0.0133213819936,0.0669544115663,-2.51779484749,0.0538633652031,2.55509996414,-0.936001002789,0.0360667593777,-0.000517887820024,-0.000414390437072,-0.000481083494378,0.000305104913423,0.000212776198168,0.000143731973367,-0.00113290117588,0.472042038317,-0.00407727339748,0.17624322947,-0.001791652788,0.904762553679,0.424899064186,0.0293648833305
-0.080751106143,-0.0133172133937,0.0669571533799,-2.51780295372,0.0538624636829,2.55509901047,-0.936006605625,0.0360667593777,0.000205188931432,0.0015122287441,-0.000422386481659,0.000120761171274,-0.000133062494569,7.18320443411e-05,-0.00139504775871,0.472037512335,-0.00407459475745,0.17623818295,-0.00179439117723,0.904760248453,0.424904359017,0.0293591271233
-0.0807541385293,-0.0133109902963,0.0669547393918,-2.51780056953,0.053862798959,2.55510115623,-0.9360049963,0.0360667593777,6.72366659273e-05,0.000934445066378,-0.000109085500299,-0.000656344636809,1.45842368511e-05,1.30593807626e-05,2.47781590588e-05,0.472038107475,-0.00407711340773,0.176236405256,-0.00179494669992,0.904761842426,0.424901006084,0.0293584972842
-0.080753274262,-0.0133080054075,0.066955268383,-2.51780533791,0.0538637079298,2.55509972572,-0.936008214951,0.0360667593777,8.16363317426e-05,-0.00028832393582,-0.000200947120902,-0.000409844069509,-8.60031796037e-05,2.33062746702e-05,-0.000177043155418,0.472034830209,-0.00407627464854,0.176232839607,-0.00179737307932,0.904761073197,0.424902924989,0.0293542823406
-0.0807481482625,-0.0133097264916,0.0669590458274,-2.5178103447,0.0538630858064,2.55509877205,-0.936010241508,0.036779243499,0.00139141746331,-0.00042903443682,0.000152513501234,0.000515351479407,0.000129934545839,9.07653593458e-05,-0.00646329065785,0.472032810862,-0.0040721354581,0.176231724242,-0.00179808849886,0.904758772126,0.424907942908,0.0293525274841
-0.0807486921549,-0.0133110536262,0.0669594183564,-2.51781463623,0.0538634359837,2.55509805679,-0.936009645462,0.036779243499,-0.000452883396065,-0.000500274531078,-0.000405530357966,-0.000619319092948,5.25840914634e-06,-0.001916926587,0.00202820263803,0.4720308322,-0.00407217968406,0.176230589018,-0.00179896135619,0.904759044878,0.424907470548,0.0293509045862
-0.0807490646839,-0.0133092096075,0.0669585838914,-2.51781415939,0.0538618043065,2.55509805679,-0.936012387276,0.036779243499,0.000326520530507,-0.00027649482945,-0.000135971276904,0.00105986185372,0.00420927722007,-3.51180278813e-06,0.000465514691314,0.472031134599,-0.00407296254731,0.176230298123,-0.00179860047933,0.904758578271,0.424908492337,0.029350517868
-0.0807630419731,-0.0133337201551,0.0669479295611,-2.51778507233,0.053861875087,2.55510115623,-0.936015129089,0.036779243499,-0.00054576311959,-0.00248429062776,-0.000433572859038,0.00534592941403,1.53238943312e-06,0.000225973330089,-9.7567703051e-05,0.47204893567,-0.00408494388589,0.176253211176,-0.00178533919843,0.904762309227,0.424898895009,0.029375245767
-0.0807847306132,-0.0133854337037,0.0669399946928,-2.51774930954,0.0538626238704,2.55510687828,-0.936017036438,0.036779243499,-0.000352636998286,-0.000650495232549,-0.00034129281994,-0.000282875669654,-0.000129606050905,1.67469388543e-05,-0.000237261454458,0.472075062551,-0.00409983875133,0.176292213785,-0.00176309110682,0.904766992797,0.424886166447,0.0294164154095
-0.0807963460684,-0.0134815750644,0.0669408962131,-2.5177731514,0.0538612492383,2.55510640144,-0.936019778252,0.036779243499,-2.73550958809e-05,-0.00635688379407,-3.41659142578e-05,-0.00162395590451,-0.000116901166621,-0.000338234356605,-0.000198724796064,0.472078633505,-0.00410602456121,0.17632804445,-0.00174399618826,0.904767408156,0.424883240611,0.0294470226119
-0.0808027982712,-0.0135217905045,0.0669435113668,-2.51776385307,0.0538621433079,2.555103302,-0.936019897461,0.036779243499,-0.000918697565794,-0.000385124149034,8.53088422446e-05,0.000134207468363,0.000119442142022,-1.55685791015e-06,1.76380654011e-05,0.472088641375,-0.00410831763347,0.176350336971,-0.00173287223729,0.904767648903,0.424881361015,0.0294673954128
-0.0808173269033,-0.0135144721717,0.0669427886605,-2.51779174805,0.0538587905467,2.55509924889,-0.936025738716,0.0359564386308,-0.000372699432774,-0.000339885940775,-0.000310666830046,-0.000189482219866,0.00497025856748,0.000298358965665,-0.00217923359014,0.472073346587,-0.00411534820596,0.176335498999,-0.00174059228998,0.904769633026,0.42487834608,0.0294494856163
-0.0808413401246,-0.0135202426463,0.0669416561723,-2.51779532433,0.0538573004305,2.55509567261,-0.936026930809,0.0359564386308,-0.00144474895205,-0.000472088111565,-8.65688252816e-06,-0.00358838774264,7.16130452929e-05,0.00015305019042,-0.000139618932735,0.472071223014,-0.00412806785518,0.176336209082,-0.00174012055762,0.904774731314,0.424867578908,0.0294482194128
-0.0808636248112,-0.0135221630335,0.0669410675764,-2.51780438423,0.053858358413,2.55509233475,-0.936029672623,0.0359564386308,-0.00164145778399,0.000261292734649,-0.00472701527178,-0.000322050938848,4.53011416539e-05,0.000225786978262,-7.65050790505e-05,0.472066884493,-0.00413794608842,0.176333460475,-0.00174222868267,0.904779056124,0.424858645787,0.0294440998532
-0.0809894576669,-0.0135133294389,0.0669257566333,-2.51778626442,0.0538576431572,2.55509209633,-0.936031222343,0.0359564386308,-0.00151369173545,0.000598350830842,-0.000331647024723,0.000783540599514,-2.4948229111e-05,2.83845092781e-05,-0.000323448592098,0.472073449505,-0.00420457526831,0.176336419995,-0.00173832198482,0.904808446352,0.424795769483,0.0294483879596
-0.0810050442815,-0.0135070607066,0.0669270902872,-2.5177989006,0.0538574531674,2.55509066582,-0.936031401157,0.0359564386308,0.000282316963421,-0.000148590639583,0.000303633569274,-0.00173548969906,-2.12530521821e-05,-3.44753389072e-05,9.16116478038e-05,0.472066118222,-0.00421113440674,0.176328349283,-0.00174271458367,0.904811694714,0.424789459232,0.0294393454088
-0.0810027644038,-0.0135139049962,0.0669290646911,-2.51781964302,0.0538571737707,2.55508518219,-0.936031460762,0.0359564386308,0.00065642723348,-0.000829452939797,0.000725912221242,-0.00134765601251,9.76518822426e-06,2.97205879178e-05,5.485161455e-05,0.472055732156,-0.0042084955706,0.176322781118,-0.00174696642293,0.904810698207,0.424792191978,0.0294302876477
-0.0809953212738,-0.0135838408023,0.0669381469488,-2.51781773567,0.0538579262793,2.55508065224,-0.936031877995,0.0359564386308,-7.03031037119e-05,-0.00385776907206,-0.00323102995753,0.000564971880522,-0.000199458285351,-0.000100314529845,-0.000113314410555,0.472067130868,-0.00420202680554,0.176356089673,-0.00173051081548,0.904806500544,0.42479915517,0.0294597921126
-0.080997698009,-0.0137071562931,0.0669370666146,-2.51774120331,0.0538583733141,2.55505514145,-0.936031997204,0.0359564386308,0.000189230413525,0.000552783545572,0.000234660838032,0.0073217311874,-0.000196183274966,-0.000510808720719,0.000271878525382,0.472117161841,-0.004205288135,0.176441783878,-0.00168929890452,0.904804544141,0.424798159539,0.0295365282465
-0.0810047909617,-0.0136978859082,0.0669346749783,-2.51756978035,0.0538573674858,2.5550134182,-0.936032176018,0.0359564386308,-0.0022609399166,0.000502592709381,0.000140834788908,0.0138910934329,4.42163545813e-05,-0.00310465856455,0.000965222425293,0.472187937491,-0.00421013148417,0.176500831769,-0.0016636638751,0.904804258,0.424795072611,0.0295910947847
-0.0809981003404,-0.0137059940025,0.0669378340244,-2.51721763611,0.0538606159389,2.55488538742,-0.936031401157,0.0350620597601,0.001156205195,0.00413492228836,0.000553678313736,0.0238237567246,-0.000398293777835,-0.0153682408854,-0.000353270821506,0.472328622132,-0.00420568673714,0.176630770356,-0.00161610823709,0.904798521011,0.424800084073,0.0296970170115
-0.0809655189514,-0.0136659936979,0.0669657289982,-2.51654243469,0.0538588948548,2.55461907387,-0.936030566692,0.0350620597601,0.00187640683725,0.00164696841966,0.00284515391104,0.0487093105912,-0.00567094655707,-0.0296175219119,9.62837075349e-05,0.472585302251,-0.00417690584658,0.176851772852,-0.00154213292545,0.904778157691,0.424831902728,0.0298657210514
-0.0808883458376,-0.0155131425709,0.067039847374,-2.5098028183,0.0538530573249,2.54607892036,-0.93603181839,0.0350620597601,-8.57444974827e-05,-0.0704129934311,-0.000345837470377,0.172584325075,-0.000234443679801,-0.283500641584,-0.000159850183991,0.474226520148,-0.00403981654127,0.179544005738,-0.00164432126436,0.904685510228,0.425023390073,0.0299423005269
-0.0809122398496,-0.0192307829857,0.0670254677534,-2.5019261837,0.0538503676653,2.53179955482,-0.936027348042,0.0350620597601,-0.000732584565412,-0.141041830182,-0.000266792892944,0.261629521847,-0.000239694127231,-0.519416868687,-0.000366974825738,0.475429754886,-0.00393353858482,0.183028388465,-0.00239734745337,0.904635246164,0.425204377287,0.0288194610802
-0.0809149071574,-0.0243876874447,0.0670262053609,-2.49365520477,0.0538450032473,2.5145676136,-0.936006546021,0.0350620597601,0.000535664148629,-0.221549332142,0.000265429785941,0.357047885656,-0.000799563538749,-0.720737397671,0.000173061926034,0.476350943291,-0.0037834541493,0.187097582552,-0.00340669653264,0.904572558395,0.425437567297,0.0271984747203
-0.0809187144041,-0.0287917740643,0.0670248195529,-2.48686504364,0.0538444146514,2.50051236153,-0.935979664326,0.0350620597601,0.000295652687782,-0.26665687561,0.000111516863399,0.399590969086,-0.000489948841278,-0.852092623711,0.000288429553621,0.477107605767,-0.00366365972856,0.190557794797,-0.00416976398146,0.904518316967,0.425622154064,0.0259809350525
-0.0809100046754,-0.0331134833395,0.0670311972499,-2.48051452637,0.0538428537548,2.48688983917,-0.935927927494,0.0350620597601,0.000498311244883,-0.310628175735,0.00044866555254,0.446716308594,-0.000812674523331,-0.959053993225,0.00786728505045,0.477704137874,-0.00353605324961,0.193868392718,-0.0049446036,0.904466383333,0.425799357219,0.0247188063069
-0.0809304863214,-0.0527254752815,0.0670261010528,-2.45390462875,0.0538343451917,2.43045783043,-0.934716880322,0.0350620597601,0.000324077089317,-0.455066144466,-0.000208157827728,0.60485547781,0.00149114569649,-1.25239849091,0.045520093292,0.480120822158,-0.00305499351344,0.208771911204,-0.00764715242205,0.904432564945,0.426062367561,0.0203498194821
-0.0809141620994,-0.0618968494236,0.0670388042927,-2.44219589233,0.0538398660719,2.40613341331,-0.933824717999,0.0363412462175,0.000279169034911,-0.514909386635,-0.000234640043345,0.651993513107,-0.000267032388365,-1.31008708477,0.0443715341389,0.481130903743,-0.00282780614692,0.215760808087,-0.00857317033619,0.904469389149,0.426034384153,0.0188766533073
-0.080922536552,-0.0698508694768,0.0670355781913,-2.43190169334,0.0538338907063,2.38609671593,-0.933013856411,0.0363412462175,-0.00268569239415,-0.535297572613,-0.00536815961823,0.714599728584,-0.000129133361042,-1.36484956741,0.0584809854627,0.482176708761,-0.0026604966973,0.222037567435,-0.00908465973518,0.904508145343,0.425974249696,0.0181224236453
-0.0809294432402,-0.0983099341393,0.0670452043414,-2.39375376701,0.0538137406111,2.31579780579,-0.929263591766,0.0363412462175,-0.00306452694349,-0.608390450478,-0.00108967302367,0.827601253986,0.00373587198555,-1.48641061783,0.107939623296,0.485823434725,-0.00202673631703,0.245605145966,-0.0102514764253,0.904785057619,0.425421622858,0.016593650062
-0.0809288471937,-0.108417570591,0.0670472234488,-2.37967681885,0.0538239181042,2.2921833992,-0.927404224873,0.0363412462175,-0.00015606827219,-0.628172039986,0.00100099213887,0.912115752697,0.00149918359239,-1.4894682169,0.128416568041,0.487155541114,-0.00181895521194,0.253908616606,-0.0102315321903,0.904970388303,0.425017967239,0.0168415927183
-0.0809156149626,-0.121212854981,0.0670662969351,-2.36155986786,0.0538296736777,2.26271724701,-0.924571573734,0.0363412462175,0.000568526622374,-0.669169723988,-0.000528377888259,0.926564753056,-0.00170943234116,-1.44377470016,0.147667735815,0.488970515143,-0.00150217836086,0.26599413319,-0.0100085098342,0.905325257236,0.424238563376,0.017539936288
-0.0809353739023,-0.133869275451,0.0670676007867,-2.34349775314,0.0537978038192,2.2352502346,-0.92170214653,0.0363412462175,-0.000953323440626,-0.657607853413,0.000355919037247,0.937653243542,0.000487006036565,-1.43965423107,0.139989495277,0.490749679296,-0.00124049750425,0.277714184724,-0.00934871037153,0.905672048394,0.423450223766,0.0189907883887
-0.0809121951461,-0.152436673641,0.0670887455344,-2.31637001038,0.0537959039211,2.19602012634,-0.917585849762,0.0363412462175,-0.000826906296425,-0.65712749958,0.000873324112035,0.972402453423,-0.00865326728672,-1.37869727612,0.150766149163,0.493194404477,-0.000802960315547,0.295482309626,-0.00799049955185,0.906127759649,0.422362799457,0.0218700805675
-0.0809730365872,-0.165269181132,0.0670742243528,-2.29784059525,0.053813457489,2.17043542862,-0.914466917515,0.0363412462175,-0.0023228910286,-0.682817876339,0.00134224223439,0.970820963383,0.000997834722511,-1.31618475914,0.16178676486,0.494683779568,-0.000548959338934,0.307926989451,-0.00674523313609,0.906509944055,0.421422719673,0.0244359198901
-0.0809640362859,-0.175950571895,0.0670873150229,-2.28257203102,0.053797878325,2.14978098869,-0.911889791489,0.0363412462175,7.35745707061e-05,-0.681907057762,-0.000573480152525,0.948805034161,0.000240078719798,-1.25752127171,0.162749394774,0.495726215728,-0.000294721543207,0.31834072164,-0.00557683729514,0.906792528527,0.420689000308,0.0267763662913
-0.0810162052512,-0.188563287258,0.0670777931809,-2.26464509964,0.0537715665996,2.12661242485,-0.908806622028,0.036862641573,-0.00376692041755,-0.643074989319,0.00172694772482,0.883312165737,-0.00229449640028,-1.19526767731,0.158359050751,0.496855047222,-3.84626168467e-05,0.330776774517,-0.00393229039999,0.907133137983,0.419752391902,0.0300322532642
-0.0810527428985,-0.207779422402,0.0670869722962,-2.23895716667,0.0537413544953,2.09349679947,-0.904087603092,0.036862641573,-0.00420990632847,-0.641723632812,-0.00245456793346,0.812124729156,-0.00552924536169,-1.09300851822,0.169873729348,0.497846013453,0.000390349553727,0.349283396371,-0.00127570789934,0.907623900326,0.418301649553,0.0352272307401
-0.0811904668808,-0.219367131591,0.0670895203948,-2.22428536415,0.0536015853286,2.07464647293,-0.900963783264,0.036862641573,-0.00920692738146,-0.633398532867,0.00116703880485,0.799425542355,-0.0124150803313,-1.00121951103,0.167941838503,0.498056272454,0.000575557830935,0.360211950389,0.000451673838666,0.907977938613,0.417248654661,0.0384632141942
-0.0813313126564,-0.230103626847,0.0670969411731,-2.21145439148,0.0533174984157,2.05825471878,-0.898086130619,0.036862641573,-0.0135002722964,-0.626396536827,-0.0017356639728,0.694952130318,-0.0224464330822,-0.943490743637,0.177560165524,0.498014933543,0.000716703910488,0.370099877989,0.00219530020987,0.908282167394,0.416282507472,0.0415639110658
-0.0815933719277,-0.241478994489,0.0670428723097,-2.1993253231,0.0527839846909,2.04229998589,-0.894881248474,0.036862641573,-0.020369194448,-0.621258080006,-0.00561265880242,0.644819498062,-0.0312429051846,-0.850591540337,0.171254828572,0.497643059084,0.000736648099069,0.37947769523,0.00402246469965,0.908636838617,0.415180386714,0.0445888041102
-0.0834039598703,-0.269591778517,0.0669773891568,-2.17427682877,0.0497689843178,2.00700473785,-0.887860417366,0.0370373129845,-0.0595639273524,-0.547335505486,-0.00328967650421,0.407147377729,-0.119755670428,-0.629901051521,0.128749340773,0.495288788847,-6.40766549202e-05,0.402541874198,0.00957239235468,0.909518759464,0.412289679676,0.0519732161674
-0.084432952106,-0.278141468763,0.0668620914221,-2.16829228401,0.0473881065845,1.99724113941,-0.885756731033,0.0370373129845,-0.0690413564444,-0.513207554817,-0.0140448771417,0.339719384909,-0.178202465177,-0.580958664417,0.13267454505,0.49421527584,-0.000779718734179,0.408305360537,0.0115762900019,0.909793004161,0.411440155185,0.0534759522529
-0.0859547331929,-0.287462115288,0.0665460079908,-2.16258335114,0.043451435864,1.98684489727,-0.883244395256,0.0370373129845,-0.0896305441856,-0.46463227272,-0.0227271709591,0.265529960394,-0.233266636729,-0.514990925789,0.127347916365,0.492634692958,-0.00219954295017,0.414946572445,0.0144967628784,0.910230782586,0.410208017264,0.0547644825586
-0.0979740023613,-0.314926803112,0.0614686273038,-2.15289950371,0.0106598986313,1.95393383503,-0.877315998077,0.0370373129845,-0.226680845022,-0.190328866243,-0.101438239217,0.0124476319179,-0.573409318924,-0.314107567072,0.0328101404011,0.485288213063,-0.0155341526158,0.429546123601,0.0295156788447,0.912477195488,0.405016333519,0.0497590361526
-0.106068514287,-0.318359911442,0.0569363795221,-2.1529841423,-0.00949118938297,1.94448566437,-0.877154111862,0.0370373129845,-0.280297011137,-0.023264599964,-0.172857403755,-0.00682709738612,-0.702437579632,-0.272027134895,-0.00419260608032,0.482552862336,-0.0250079006035,0.430207918803,0.0364625942602,0.913843065147,0.402150567639,0.0428515125823
-0.111228622496,-0.318262428045,0.0537149123847,-2.15312838554,-0.0221458245069,1.93991279602,-0.877170443535,0.0370373129845,-0.319097161293,0.0251253694296,-0.209947183728,-0.0106724556535,-0.769159674644,-0.261858165264,-0.00318370829336,0.48122210583,-0.0312076677677,0.429677137198,0.0404732120693,0.914755338056,0.400168600873,0.0380746787195
-0.117634736001,-0.316888958216,0.0489755682647,-2.15341615677,-0.0369503051043,1.93558323383,-0.877268493176,0.0370458513498,-0.352183610201,0.122130908072,-0.286577612162,-0.0150653244928,-0.783586919308,-0.193380117416,-0.013649167493,0.479901482352,-0.0386771719526,0.428621447772,0.0446775434336,0.915955803828,0.397445155093,0.0326531915812
-0.124515205622,-0.31379878521,0.0433663018048,-2.15375208855,-0.0511530861259,1.93269884586,-0.877763152122,0.0370458513498,-0.383293092251,0.204305171967,-0.314753234386,-0.0197889506817,-0.797145009041,-0.134823933244,-0.0510571189225,0.478732380793,-0.0476056316105,0.426739181238,0.0488134717403,0.917480136462,0.393878161377,0.0265977037724
-0.137794792652,-0.305665135384,0.0314522981644,-2.15402317047,-0.076309196651,1.92967796326,-0.88068652153,0.0370458513498,-0.463566303253,0.317753016949,-0.457126826048,0.00134998140857,-0.807169377804,-0.0435366220772,-0.147810801864,0.477011932117,-0.0641214496943,0.422713676802,0.0552600511452,0.920078321627,0.387477943721,0.0162188665139
-0.145458295941,-0.300045281649,0.0237778555602,-2.15398597717,-0.0892288610339,1.92947638035,-0.883722603321,0.0370458513498,-0.499017268419,0.385442733765,-0.510782897472,0.00783287175,-0.816270172596,0.00797583535314,-0.229782730341,0.47620169678,-0.0737665759933,0.420199694212,0.0582962678658,0.921480645652,0.383870969937,0.0108647579186
-0.15469814837,-0.292545765638,0.0140684843063,-2.15378332138,-0.103637106717,1.92967021465,-0.888606607914,0.0370458513498,-0.515411794186,0.451406478882,-0.564133048058,0.0183958802372,-0.775278568268,0.0253360997885,-0.319904178381,0.475154270996,-0.085407033576,0.416927390206,0.06128724183,0.923041852832,0.379759360045,0.00452106735199
-0.164484843612,-0.283919721842,0.00297717400827,-2.15330696106,-0.116976775229,1.93012535572,-0.895299017429,0.0370458513498,-0.558648645878,0.507978200912,-0.657270550728,0.0359151214361,-0.713906347752,0.0327087007463,-0.41472619772,0.473879071201,-0.0977815835581,0.413244428145,0.0634127293059,0.924641619346,0.375516931144,-0.00193278120917
-0.18257600069,-0.266400158405,-0.0192858837545,-2.15114164352,-0.137211680412,1.93204510212,-0.910920381546,0.0370543859899,-0.604425787926,0.623134315014,-0.764698266983,0.102120935917,-0.602062404156,0.0915981903672,-0.589328110218,0.471249458841,-0.12074352292,0.406270218522,0.0652585499324,0.927506577169,0.367845956352,-0.0127366812183
-0.203412055969,-0.244274958968,-0.0471067167819,-2.14660596848,-0.15411452949,1.93684065342,-0.932951569557,0.0370543859899,-0.651742517948,0.709335625172,-0.891739070415,0.172894671559,-0.431105822325,0.206786587834,-0.745430409908,0.467905480988,-0.147208628156,0.398260376118,0.0649525494246,0.930762284072,0.359083277423,-0.0228459281322
-0.216465875506,-0.229227721691,-0.0654909610748,-2.14253759384,-0.161933526397,1.94153261185,-0.948580086231,0.0370543859899,-0.661984562874,0.795780003071,-0.950110256672,0.231312587857,-0.361963033676,0.255209773779,-0.810471951962,0.46571397033,-0.163875961803,0.39325894819,0.0639587271694,0.932772391076,0.353644039509,-0.0279435264446
-0.236621618271,-0.205154404044,-0.0952307656407,-2.13445115089,-0.171180471778,1.95000898838,-0.97397762537,0.0370543859899,-0.674530088902,0.830390810966,-1.01152181625,0.294135838747,-0.246693134308,0.304377257824,-0.884817838669,0.461739077704,-0.189942049259,0.385884621109,0.0618666465023,0.93601995493,0.344751677294,-0.0344302586567
-0.248743638396,-0.190011650324,-0.113882526755,-2.12858438492,-0.174893304706,1.95578110218,-0.990268111229,0.0370543859899,-0.665502548218,0.832369625568,-1.05807852745,0.360503464937,-0.171559631824,0.335736721754,-0.918082952499,0.45897174406,-0.205789354237,0.381529986189,0.0602267976721,0.938028950716,0.339206759812,-0.0375924759252
-0.260707318783,-0.174529060721,-0.132956400514,-2.12176990509,-0.17724737525,1.96185612679,-1.00711297989,0.0370543859899,-0.659367859364,0.839167237282,-1.05425930023,0.388192653656,-0.0906917825341,0.334444493055,-0.947502672672,0.455963683823,-0.221654804515,0.377392886964,0.0584538508611,0.94006998513,0.333526438124,-0.0401457984849
-0.271205306053,-0.161005035043,-0.149860069156,-2.11533713341,-0.178052186966,1.96686708927,-1.02235984802,0.0370543859899,-0.661885797977,0.851119995117,-1.06703269482,0.411764383316,-0.0259603727609,0.301898032427,-0.947045326233,0.452925620336,-0.235480547355,0.373907660794,0.0566077267022,0.941899943553,0.328407708675,-0.0420528023079
-0.284075379372,-0.14424456656,-0.171054825187,-2.10697937012,-0.178157657385,1.97249221802,-1.04102826118,0.0370543859899,-0.620193898678,0.833244144917,-1.03600728512,0.424247026443,-0.000619433703832,0.259688675404,-0.920699179173,0.448550544107,-0.252512651709,0.369651962315,0.0541050949882,0.944263736643,0.321672404296,-0.0443339413978
-0.301919996738,-0.121242150664,-0.200390353799,-2.09458351135,-0.178140714765,1.97975587845,-1.06709110737,0.0370648950338,-0.613209009171,0.758719742298,-0.989199399948,0.414376467466,0.00634759198874,0.231787189841,-0.881888687611,0.441473763659,-0.276070286134,0.364146431397,0.0510588619707,0.947431182635,0.312268087538,-0.047495136373
-0.313269197941,-0.107625871897,-0.218536242843,-2.08694529533,-0.178043663502,1.98370480537,-1.08363330364,0.0370648950338,-0.566244661808,0.686787307262,-0.902509987354,0.393244504929,0.0125869978219,0.178534969687,-0.856024384499,0.436227577461,-0.290636290606,0.360965632266,0.0492781997781,0.949331675987,0.306409895873,-0.0495378985732
-0.323021531105,-0.0965596213937,-0.233399897814,-2.08084154129,-0.177788853645,1.98623383045,-1.09792804718,0.0370648950338,-0.571026623249,0.614057004452,-0.84410148859,0.337524116039,0.0140219368041,0.123407870531,-0.817177653313,0.431252515794,-0.302585903628,0.358263014799,0.0475398847563,0.950829487073,0.301676620956,-0.0515214705565
-0.332561999559,-0.0868208408356,-0.247230052948,-2.07533860207,-0.177369356155,1.98807561398,-1.11138236523,0.0370648950338,-0.547070205212,0.532018184662,-0.775997102261,0.313731878996,0.0228321496397,0.100837491453,-0.759009361267,0.426029366285,-0.313722526046,0.355900622085,0.0458220467199,0.952267497829,0.297048065624,-0.0533797621868
-0.364364206791,-0.0626525729895,-0.28771468997,-2.06132340431,-0.176623508334,1.98996269703,-1.15594172478,0.0370648950338,-0.401197582483,0.194695219398,-0.445371866226,0.103753425181,0.00154390302487,-0.000504275842104,-0.596041381359,0.406419373491,-0.346627670866,0.349952922779,0.0400799841301,0.956147837102,0.283972195691,-0.0594533450969
-0.371117860079,-0.0598899200559,-0.295136809349,-2.05979275703,-0.176603555679,1.98984515667,-1.1665071249,0.0371069200337,-0.351244837046,0.113121382892,-0.388167917728,0.063225261867,-0.000793059065472,-0.00931338593364,-0.568472385406,0.401846450213,-0.352652770142,0.349190236219,0.0388869299494,0.956636661821,0.282269770802,-0.0604804110498
-0.376926779747,-0.0588207319379,-0.301531225443,-2.05904316902,-0.176585108042,1.98936033249,-1.1771774292,0.0371069200337,-0.268497258425,0.0100554535165,-0.29598069191,0.0244612768292,-0.000640003127046,-0.0347244478762,-0.540739417076,0.397614587193,-0.357626942789,0.348894723775,0.0378283484411,0.956854597051,0.281528467757,-0.0611556840358
-0.383582144976,-0.0596725046635,-0.30904340744,-2.05875587463,-0.176584154367,1.98806726933,-1.19269132614,0.0371069200337,-0.161399081349,-0.0755055695772,-0.182554244995,0.00412388565019,-0.00587156414986,-0.0477896407247,-0.4613904953,0.392321834728,-0.363125096284,0.349264729735,0.0366198483453,0.956705776255,0.282105878222,-0.061557432951
-0.385822534561,-0.061561178416,-0.311419039965,-2.05873632431,-0.176574617624,1.98694574833,-1.20028543472,0.0371069200337,-0.106167808175,-0.134661018848,-0.0977791547775,0.00400861818343,-1.62061569426e-05,-0.0773130953312,-0.427638888359,0.390320616624,-0.364858076675,0.350156057306,0.0363282396722,0.956307349217,0.283543612736,-0.0613150242788
-0.387229532003,-0.066943757236,-0.312572270632,-2.05838942528,-0.176570758224,1.98373019695,-1.21477138996,0.0371069200337,0.0260304082185,-0.183512330055,0.0123103810474,0.0144905550405,0.00204084068537,-0.0976939350367,-0.39331972599,0.388864686886,-0.365436355063,0.352659679547,0.0363454063499,0.954772171617,0.288859886244,-0.0604075951585
-0.382288217545,-0.0772826299071,-0.308354705572,-2.05695724487,-0.176486194134,1.97968971729,-1.23233616352,0.0371069200337,0.179920002818,-0.227992162108,0.152373850346,0.0450001843274,0.00258429627866,-0.0757514685392,-0.31222897768,0.391553792535,-0.361567218005,0.358199288266,0.0384452416354,0.951091713934,0.301072346753,-0.0574626556221
-0.379306256771,-0.0807629004121,-0.30584153533,-2.05616259575,-0.176386132836,1.978561759,-1.23688995838,0.0371069200337,0.215893879533,-0.229727327824,0.178265735507,0.0559139251709,0.0116900559515,-0.0764108076692,-0.297908246517,0.39342388068,-0.359384479063,0.36024827593,0.0395089182803,0.949659408734,0.30564933931,-0.0562541895979
-0.374371051788,-0.0856360048056,-0.301654160023,-2.05482387543,-0.176256507635,1.97717511654,-1.24303400517,0.0371739007533,0.251982361078,-0.230701252818,0.214155003428,0.0729116722941,0.000659142038785,-0.0647153109312,-0.289600014687,0.396602067677,-0.355805837887,0.363256830459,0.0412476515505,0.947423884429,0.312606954205,-0.0544380962811
-0.360848993063,-0.0961850062013,-0.289119929075,-2.05039215088,-0.176029041409,1.97473740578,-1.25596106052,0.0371739007533,0.315787941217,-0.209023550153,0.299376875162,0.112785294652,0.00937278941274,-0.028318984434,-0.248551189899,0.405936915645,-0.345727566188,0.370639625932,0.046212434308,0.941407982338,0.3303388056,-0.049916879997
-0.354886323214,-0.0998533517122,-0.283404618502,-2.04822897911,-0.175924047828,1.97429203987,-1.26009237766,0.0371739007533,0.343425691128,-0.20503602922,0.337559372187,0.122651301324,0.00106942676939,-0.0252165216953,-0.22429010272,0.410208969214,-0.341228924262,0.373578498146,0.048479980267,0.9388477099,0.337503973191,-0.0480180892606
-0.327662408352,-0.11334836483,-0.256985217333,-2.03858995438,-0.175273567438,1.97362840176,-1.27534747124,0.0371844060719,0.358256965876,-0.1401065588,0.361784726381,0.120474092662,0.0140657564625,-0.000713910732884,-0.184689253569,0.429378439594,-0.319904135227,0.38547975992,0.0582675130348,0.92692985362,0.368515431615,-0.0400289862346
-0.319278657436,-0.116336472332,-0.24866618216,-2.03570365906,-0.174996286631,1.97363865376,-1.27936959267,0.0371844060719,0.335426211357,-0.117298208177,0.333949655294,0.113064095378,0.00203355238773,0.000244449503953,-0.157507717609,0.435163025866,-0.313023278615,0.388562667086,0.0609448793561,0.923110245873,0.377778979784,-0.0378977276572
-0.314317882061,-0.117977567017,-0.243715077639,-2.03410601616,-0.174832239747,1.97364354134,-1.28171336651,0.0371844060719,0.322174906731,-0.10097758472,0.324472308159,0.0988353341818,0.0140960970894,0.000805937917903,-0.154637828469,0.438082241096,-0.309418055645,0.390058274968,0.0622526805826,0.921107619155,0.382526674793,-0.036860554106
-0.307684063911,-0.119780734181,-0.237206608057,-2.03212738037,-0.174457594752,1.97364354134,-1.28516411781,0.0371844060719,0.307875484228,-0.0773427411914,0.300814807415,0.0883798152208,0.013953441754,-0.00291424617171,-0.161762788892,0.442901584563,-0.3032652142,0.392280407805,0.0641863147996,0.9176322161,0.390624951212,-0.0352615958149
-0.299578994513,-0.121744632721,-0.228897213936,-2.03009700775,-0.173844173551,1.97367584705,-1.28944885731,0.0371844060719,0.272872775793,-0.0573801249266,0.277643799782,0.0602668337524,0.0246246997267,-0.000934687850531,-0.143203899264,0.448204466307,-0.29609342514,0.394430612445,0.0660665362267,0.913599409138,0.39980085672,-0.0336245008724
-0.294555962086,-0.12254010886,-0.224028542638,-2.02914786339,-0.17343981564,1.97367572784,-1.29189169407,0.0371844060719,0.24903845787,-0.0377168022096,0.235741958022,0.0387604013085,0.0172552037984,-3.51412600139e-05,-0.128562688828,0.45145301444,-0.291467347041,0.395429436416,0.0669768023359,0.9110291337,0.405541036984,-0.0328099451387
-0.290551781654,-0.123126626015,-0.22014670074,-2.02861833572,-0.173163488507,1.97367632389,-1.29409503937,0.0371844060719,0.222375616431,-0.027946844697,0.218840494752,0.0246671065688,0.0177808888257,-0.00270356982946,-0.133190631866,0.45369058352,-0.288124389593,0.396014935489,0.067532684684,0.909117932555,0.409754330913,-0.0323312416006
-0.286881387234,-0.123481474817,-0.216468974948,-2.02833461761,-0.172895401716,1.97367322445,-1.29652047157,0.0371844060719,0.190176665783,-0.0135170230642,0.189898222685,0.00547995930538,0.0158211402595,-0.000225629613851,-0.12703704834,0.455855285748,-0.284760258745,0.396397527591,0.0679322117451,0.907124677428,0.414108801747,-0.0319989719109
-0.27936437726,-0.123308002949,-0.209101304412,-2.02847194672,-0.172390371561,1.97362887859,-1.30141913891,0.0371876917779,0.106304451823,0.013259167783,0.117678023875,-0.00953467190266,0.00478883692995,-0.00020993941871,-0.0931706279516,0.459797433676,-0.278246633053,0.396389881516,0.0681667461478,0.903287073862,0.422385763906,-0.0318751163205
-0.278346657753,-0.12307433784,-0.207923129201,-2.02854609489,-0.172317191958,1.97362887859,-1.30251908302,0.0371876917779,0.0817709565163,0.0268136523664,0.0965000838041,-0.00614665867761,0.00495331222191,-7.16219219612e-05,-0.100620903075,0.460762094429,-0.276617233693,0.396183335938,0.0680868544199,0.90219963273,0.424706062077,-0.0320119269898
-0.276768952608,-0.122386291623,-0.206023350358,-2.0287103653,-0.172240912914,1.9736148119,-1.30453932285,0.0371876917779,0.0484183095396,0.0237156935036,0.0648587197065,-0.0041749891825,0.00241160835139,0.000223665207159,-0.0760105699301,0.461627746884,-0.27515385208,0.395804859295,0.0678925922539,0.90114747574,0.426943174254,-0.032300905865
-0.276069700718,-0.121835537255,-0.205132782459,-2.02895116806,-0.172187626362,1.97360146046,-1.30604934692,0.0371876917779,0.0235469639301,0.0265135839581,0.0296188611537,-0.0146543681622,0.00488465372473,0.000141297947266,-0.0754716768861,0.462044523097,-0.274384937764,0.395412783844,0.067637169962,0.900483623254,0.428359475519,-0.0325978051516
-0.275800615549,-0.121165730059,-0.204857081175,-2.02935886383,-0.172160282731,1.97358047962,-1.30787193775,0.0371876917779,0.00175850500818,0.0330942943692,0.00233103963546,-0.0202460922301,-0.000118315714644,-0.00135327014141,-0.0809036716819,0.462139610874,-0.274084363388,0.394866260046,0.0672304022165,0.899972469391,0.42946382762,-0.0330219290572
-0.276004582644,-0.120572477579,-0.20504295826,-2.02969288826,-0.172161668539,1.9735212326,-1.30925559998,0.0371876917779,-0.0194435939193,0.0298740435392,-0.0177990887314,-0.018940133974,-0.000209696896491,-0.00391217740253,-0.0655468404293,0.461980390831,-0.27422712186,0.394384998439,0.0668423601092,0.899755408339,0.429948479194,-0.033415699521
-0.277158915997,-0.119634605944,-0.206089526415,-2.03023815155,-0.172161146998,1.97318172455,-1.31060647964,0.0371896587312,-0.0487201847136,0.0282590165734,-0.0399912558496,-0.0171482302248,0.0023551392369,-0.0130626345053,-0.0381477661431,0.461239265365,-0.275165200443,0.393579141243,0.0660805339662,0.899941145163,0.429622420309,-0.0341155964006
-0.278115272522,-0.119147650898,-0.20682297647,-2.03049993515,-0.172160193324,1.97298932076,-1.31124138832,0.0371896587312,-0.0664731636643,0.0347806476057,-0.0515796430409,-0.0161039512604,0.000368073960999,-0.0129464417696,-0.0461506061256,0.460704055926,-0.275905548078,0.39316673713,0.0656698111307,0.900170084495,0.429176036242,-0.0344851341692
-0.279301851988,-0.11861115694,-0.207788571715,-2.0307469368,-0.172160059214,1.97281885147,-1.31213366985,0.0371896587312,-0.0718185082078,0.0310865677893,-0.0584142059088,-0.0117187267169,-6.2257546233e-05,-0.00550377927721,-0.0547681935132,0.460049949726,-0.27686285449,0.392734465606,0.0652338950155,0.900442180008,0.428639828931,-0.0348757241309
-0.280831068754,-0.118162937462,-0.209051653743,-2.03104877472,-0.172163397074,1.97263038158,-1.31316816807,0.0371896587312,-0.0864998847246,0.0188064519316,-0.0694560036063,-0.0188494995236,2.27842083405e-05,-0.00823877565563,-0.0462930165231,0.459194300336,-0.278103817063,0.392314677716,0.0647718219882,0.900821596529,0.427879802382,-0.0352694867206
