imanlab/tactile_prediction_flat_dataset/train/data_sample_2021-11-24-15-32-59/robot_state.csv
position_panda_joint1,position_panda_joint2,position_panda_joint3,position_panda_joint4,position_panda_joint5,position_panda_joint6,position_panda_joint7,position_panda_finger,velocity_panda_joint1,velocity_panda_joint2,velocity_panda_joint3,velocity_panda_joint4,velocity_panda_joint5,velocity_panda_joint6,velocity_panda_joint7,ee_state_position_x,ee_state_position_y,ee_state_position_z,ee_state_orientation_x,ee_state_orientation_y,ee_state_orientation_z,ee_state_orientation_w
0.140867650509,0.0986760854721,-0.152038514614,-2.48981499672,-0.0063072363846,2.59147334099,-0.71429759264,0.0699855610728,-3.62534956366e-05,4.16849579778e-05,-0.000170922765392,-0.000181994881132,0.000160753741511,8.23173177196e-05,-0.00599852018058,0.473970902529,-0.00811230448143,0.137754844334,0.00924463450075,0.93773487711,0.347226261096,-0.00132675397118
0.140864193439,0.0986809283495,-0.152038276196,-2.48981618881,-0.00630768202245,2.59147405624,-0.714297354221,0.0699855610728,9.16695789783e-05,0.00303785153665,0.000370869704057,0.000171584484633,4.25226171501e-05,-9.32785187615e-05,-9.75952498266e-05,0.473969337314,-0.00811383308135,0.137752024272,0.00924397019434,0.937735360426,0.347224962053,-0.00132974979636
0.140868827701,0.0986764654517,-0.152034550905,-2.48981642723,-0.00630790367723,2.59147405624,-0.714298546314,0.0699855610728,2.18315344682e-05,-0.000517290842254,-9.58803648246e-05,0.000526779273059,-1.74822471308e-05,-5.34127975698e-05,6.30516369711e-05,0.473970298391,-0.00810983809998,0.137754184806,0.00924443958799,0.937733724499,0.347229377067,-0.00132727634986
0.140872612596,0.0986745432019,-0.152033984661,-2.48981666565,-0.00630792044103,2.59147381783,-0.714297294617,0.0699855610728,-0.000408020539908,0.00013744692842,-0.000534431310371,-6.52657618048e-05,-9.73810674623e-05,-0.00012789882021,0.000558437604923,0.473970720307,-0.00810735932024,0.13775510602,0.00924464842795,0.937732975085,0.347231399164,-0.00132628595235
0.140868455172,0.0986765399575,-0.152035117149,-2.48981714249,-0.00630802987143,2.59147262573,-0.714298963547,0.0699855610728,0.000208464203752,0.000934846000746,0.000485676835524,0.000464469136205,2.57484844042e-05,-3.03636388708e-05,-8.29049531603e-05,0.473969606231,-0.00811030039176,0.137753768773,0.00924410944826,0.937733800311,0.347229177048,-0.00132834054922
0.140868335962,0.0986771211028,-0.1520370543,-2.48981738091,-0.00630784314126,2.59147572517,-0.714297354221,0.0699862167239,0.000233190425206,-0.000231502053794,0.000209289253689,0.000243263246375,0.00242881034501,-1.72595337062e-05,4.39290015493e-05,0.473970040618,-0.00811131448183,0.137753700154,0.00924459805122,0.937734454135,0.347227402323,-0.00132728970167
0.140866398811,0.0986783802509,-0.152036383748,-2.48981642723,-0.00630759447813,2.59147405624,-0.714298546314,0.0699862167239,-0.000467613484943,0.000433723907918,2.09887020901e-05,0.000153471439262,-0.00545980175957,-8.5400948592e-05,0.000348481058609,0.473969898755,-0.00811192900063,0.137753301662,0.00924424642419,0.937734505933,0.347227268235,-0.00132822106311
0.140868231654,0.0986787825823,-0.152033850551,-2.4898147583,-0.00630811229348,2.59147357941,-0.714298188686,0.0699862167239,-0.000248164782533,-0.00018058140995,0.000466563302325,0.000138910312671,3.67056850337e-06,-0.000120329408674,9.31348913582e-05,0.473970582495,-0.00810984868249,0.137753655362,0.00924442531123,0.937733732958,0.34722935236,-0.00132786275875
0.140868216753,0.0986761823297,-0.152034282684,-2.48981785774,-0.00630741054192,2.59147524834,-0.714299082756,0.0699862167239,-7.19458039384e-05,0.000209569800063,-6.67530039209e-05,3.56259151886e-05,-1.69591276062e-05,-5.02517104906e-05,0.000240401685005,0.473969892579,-0.00810996843506,0.137753904391,0.0092442901985,0.937733765392,0.347229270892,-0.00132720220543
0.140868753195,0.0986763015389,-0.152035295963,-2.48981690407,-0.00630778912455,2.59147524834,-0.7142983675,0.0699862167239,-0.000104675978946,0.000423138088081,0.000226039628615,-4.22950324719e-05,1.85008811968e-05,0.000117594732728,-2.49978188549e-06,0.473970346887,-0.00811022946778,0.137754200679,0.00924458911947,0.937733912206,0.347228867748,-0.00132686082414
0.140867903829,0.0986771136522,-0.152037546039,-2.48981738091,-0.00630591157824,2.59147405624,-0.714299023151,0.0699862167239,-0.000416774884798,0.00303587084636,0.000217345397687,-2.17641681957e-05,-2.28016870096e-05,-7.94945954112e-05,-0.000470627914183,0.473969671387,-0.00811168501665,0.137753557554,0.00924385562427,0.937734618211,0.347226976648,-0.00132789889949
0.14087150991,0.098676584661,-0.152035310864,-2.48981571198,-0.00630792463198,2.5914747715,-0.714299201965,0.0699862167239,-0.000206908749533,-6.92814091963e-06,0.000370858557289,0.00187523721252,0.000175215827767,4.45972837042e-05,-0.000175074877916,0.473970808293,-0.0081089433509,0.137754456443,0.0092447230138,0.937733269439,0.347230600779,-0.00132666988722
0.140875533223,0.0986786857247,-0.15203101933,-2.48981666565,-0.00630767922848,2.59147453308,-0.714299321175,0.0699862167239,-0.00076115509728,-8.85856788955e-05,-0.000559647101909,-0.000449087063316,6.72622409184e-05,4.16903203586e-05,-0.000449045764981,0.47396992718,-0.00810497870697,0.137753075587,0.00924402694199,0.937731847235,0.347234454452,-0.00132814728014
0.140875712037,0.0986776649952,-0.1520306319,-2.48981738091,-0.00630752695724,2.59147548676,-0.714299499989,0.0699862167239,-0.000137391180033,0.000374137773179,-6.81513192831e-05,0.0039819618687,-2.74999947578e-05,-4.29065803473e-05,0.000168593571289,0.473969977689,-0.00810466946817,0.137753376938,0.00924411979898,0.937731741564,0.347234739766,-0.00132751586501
0.140859097242,0.0986772701144,-0.152039900422,-2.48981523514,-0.00630774814636,2.59147548676,-0.714299619198,0.0699862167239,-0.00154026795644,-0.0020037018694,-0.000249963632086,0.000136650065542,4.15372487623e-05,8.32413570606e-05,7.1562899393e-05,0.473970946108,-0.00811709012272,0.137754404901,0.00924502759074,0.937736165749,0.347222771199,-0.00132655880689
0.140859618783,0.0986784920096,-0.152042105794,-2.489818573,-0.00630815559998,2.59147548676,-0.714298784733,0.0699862167239,0.000648914487101,-0.000209800346056,-0.00282539357431,0.00178554700688,-3.60707272193e-05,-6.67943022563e-05,0.000149942425196,0.473969032059,-0.00811714368353,0.137752719791,0.00924452003145,0.937736278343,0.347222472763,-0.00132861715801
0.140880391002,0.0986793786287,-0.152027085423,-2.48981738091,-0.0063081276603,2.59147596359,-0.714299440384,0.0699862167239,0.00213081645779,-0.000129597872728,0.000676667434163,0.000473587744636,3.47119057551e-05,-1.53882665472e-05,-0.000120192446047,0.473969807492,-0.00810078193339,0.137752591475,0.00924400335649,0.937730234804,0.347238809669,-0.00132811234672
0.140885859728,0.0986768305302,-0.152025714517,-2.48981308937,-0.00630849041045,2.5914747715,-0.714299798012,0.0699862167239,-0.000173642809386,-0.00065571727464,0.000417285249569,0.000133412075229,-5.81204221817e-05,7.73491919972e-05,-0.000678652839269,0.473972244319,-0.00809746157494,0.137755218286,0.00924485666611,0.937728930406,0.347242319822,-0.00132541142652
0.140872970223,0.0986797586083,-0.152030065656,-2.48981618881,-0.00630820915103,2.59147524834,-0.714301228523,0.0699862167239,-0.000304532557493,-0.000496671185829,-0.000891504343599,0.000109130691271,2.92376007565e-05,-0.000108914951852,0.000292400654871,0.473970099665,-0.00810577539982,0.137752802455,0.00924420522633,0.937731713052,0.347234811985,-0.00132817120269
0.140856310725,0.0986776277423,-0.15204526484,-2.48981547356,-0.00630752928555,2.59147620201,-0.714300274849,0.0699862167239,0.00016661650443,-5.32450030732e-05,0.0001824246865,0.000260154658463,1.10804603537e-05,-0.000146174643305,0.000637720047962,0.473970862299,-0.00812104405913,0.137754254207,0.00924527194494,0.937737491145,0.347219185103,-0.00132658581194
0.140863984823,0.0986788198352,-0.152040660381,-2.48981833458,-0.00630799913779,2.59147572517,-0.714302539825,0.0699862167239,-9.84264916042e-05,0.000168610087712,0.000374478462618,0.000242192487349,0.000103519283584,1.48093863572e-06,9.18691512197e-05,0.473969179002,-0.00811519918961,0.137752587148,0.00924445059754,0.937734906943,0.347226178066,-0.00132867842445
0.140872478485,0.0986771583557,-0.152035757899,-2.48981714249,-0.00630821147934,2.59147548676,-0.714298605919,0.0699862167239,9.78715179372e-05,0.000142056218465,0.000337208533892,0.00026673800312,4.77438902635e-07,-0.000161310730618,0.000405738683185,0.473970141399,-0.00810873053856,0.137753738362,0.00924462497993,0.937733239026,0.347230683074,-0.0013273105932
0.140871703625,0.098674684763,-0.15203255415,-2.48981380463,-0.00630793534219,2.59147667885,-0.714299678802,0.0699862167239,0.000182057992788,-0.000744188611861,-0.000473304069601,-0.000327129673678,-0.000138543036883,-0.000913440948352,-0.000157891015988,0.473972566006,-0.00810744585738,0.137756183869,0.00924547215776,0.93773267024,0.347232209529,-0.00132391901565
0.140870302916,0.0986797660589,-0.152034446597,-2.48981571198,-0.00630750739947,2.59147572517,-0.714300751686,0.0699862167239,-0.000368207256543,0.000215570034925,-0.000150078471052,0.000243700007559,3.03362921841e-05,-1.85750920423e-07,-0.000122280980577,0.473970396746,-0.00810916158466,0.137753045212,0.00924440869927,0.93773311704,0.347231016633,-0.00132773771481
0.140868797898,0.0986792072654,-0.152035444975,-2.48981952667,-0.00630708178505,2.59147596359,-0.714300990105,0.0699862167239,0.000107822132122,-0.000342232437106,-3.0771082038e-06,-0.000639557896648,-4.50301449746e-05,-6.65314510115e-05,-0.000204653988476,0.473968481832,-0.00811025550227,0.137751915606,0.00924368807271,0.937733561088,0.347229830775,-0.00132926561689
0.140867859125,0.0986768528819,-0.152035310864,-2.48981809616,-0.00630795676261,2.59147548676,-0.714301764965,0.0699862167239,1.92687075469e-05,0.000325205648551,0.000139007461257,0.000467835692689,-9.50493631535e-06,-0.00277846422978,-2.35912702919e-05,0.47396992261,-0.00811074715259,0.137753594371,0.0092445000592,0.93773343055,0.347230168754,-0.00132741907489
0.140868991613,0.0986767336726,-0.152037128806,-2.48981285095,-0.00630715861917,2.59147667885,-0.714302122593,0.0699862167239,-0.000593379256316,6.18989142822e-05,-0.000438775023213,-0.000305809662677,4.05564424e-06,0.000344375614077,0.000360841659131,0.473972602049,-0.0081110014786,0.137755602125,0.00924544924092,0.937733617146,0.347229650732,-0.00132449286211
0.14086997509,0.0986780226231,-0.152037292719,-2.48982191086,-0.00630800472572,2.59147644043,-0.714301347733,0.0699862167239,0.00244172476232,-0.000187798941624,-0.000241602974711,-2.43270787905e-05,-3.00587970514e-07,-6.06745379628e-05,0.000312511227094,0.473967761744,-0.00811068598638,0.137751707767,0.00924386894575,0.937733499028,0.347229992504,-0.00132954112178
0.140871837735,0.0986802428961,-0.152033567429,-2.48982191086,-0.00630810251459,2.59147596359,-0.714301884174,0.0699862167239,-0.000273428420769,0.000131560402224,0.000547944218852,-0.000381375779398,-5.83706969337e-05,-6.74488110235e-05,0.000175981389475,0.473967263359,-0.00810804009756,0.137750598708,0.00924339743792,0.937732424159,0.347232903038,-0.0013307962885
0.140874579549,0.0986774563789,-0.152033045888,-2.48981952667,-0.00630782358348,2.59147620201,-0.714301526546,0.0699862167239,-0.00039130973164,0.000592201889958,0.00307247717865,0.000109040185635,4.95398453495e-05,0.00101449957583,-9.54214847297e-05,0.473969075548,-0.00810639675214,0.137752781263,0.00924406970897,0.937731960536,0.347234147284,-0.00132816076465
0.140872165561,0.0986769720912,-0.152035936713,-2.489818573,-0.00630768993869,2.59147620201,-0.714301764965,0.0699862167239,-0.000100627403299,0.000683438091073,0.000388894317439,0.000308719143504,2.41005272983e-05,5.28276104887e-05,-0.00013700821728,0.473969612625,-0.00810894076295,0.137753373494,0.00924439415287,0.93773285523,0.347231724891,-0.0013275216738
0.140869706869,0.0986820608377,-0.15203486383,-2.48982143402,-0.00630777422339,2.59147691727,-0.714303076267,0.0699862167239,0.000300302286632,0.000161078292876,2.80460935755e-05,-0.000106170700747,5.73307534069e-06,-6.45987020107e-05,-0.000247456686338,0.473967335532,-0.00810972253077,0.137750013891,0.0092434367532,0.937732854089,0.347231740073,-0.00133101889227
0.140871092677,0.0986861884594,-0.152036055923,-2.48982810974,-0.00630642054603,2.59147572517,-0.714302778244,0.0699862167239,5.86673304497e-05,-0.00033489902853,0.000253732607234,-0.00187972537242,-5.84014305787e-05,-1.70626262843e-05,-0.000146497404785,0.473962812719,-0.0081095899445,0.13774558693,0.00924130558934,0.937733015664,0.34723133862,-0.0013367017189
0.140873149037,0.0986831337214,-0.152032539248,-2.48983573914,-0.00630771648139,2.59147691727,-0.714302659035,0.0699862167239,0.000482710805954,-0.00107505708002,-9.66565949057e-06,-0.000563062378205,4.7565503337e-05,-6.79956792737e-05,-0.00031067233067,0.473959990652,-0.00810697971335,0.137744328985,0.0092406477748,0.937731963778,0.347234191197,-0.00133816589576
0.140875533223,0.0986789390445,-0.152032077312,-2.48984336853,-0.00630811369047,2.59147620201,-0.714302241802,0.0699862167239,0.00108091498259,-0.000525025010575,0.000567033304833,-0.00123964715749,-0.00201819860376,7.01385361026e-05,0.000256169034401,0.473956838685,-0.00810552526467,0.137743471037,0.0092396819603,0.937731505399,0.347235447582,-0.00134003260834
0.140877902508,0.0986782312393,-0.152029335499,-2.48986363411,-0.00630688434467,2.59147667885,-0.71430337429,0.0699862167239,0.000288154202281,0.000128527564812,-0.000101653073216,8.19493143354e-05,-0.000171427702298,-2.99711191474e-05,0.000305152032524,0.473946945131,-0.00810299196034,0.137736506091,0.00923579441858,0.937730648979,0.347237830011,-0.00134876369844
0.140873491764,0.0986821427941,-0.152034297585,-2.48989129066,-0.00630723685026,2.59147548676,-0.714304029942,0.0699862167239,-0.000396990799345,0.000323607062455,-3.26756307913e-05,-0.000706247519702,-9.97457755147e-06,0.000105840073957,0.000277406070381,0.473933353812,-0.00810754663971,0.137725577943,0.00923111386952,0.937732068028,0.347234066749,-0.00136297628864
0.140868127346,0.098682358861,-0.152037158608,-2.48996138573,-0.0063075395301,2.59147548676,-0.714303553104,0.0699862167239,-0.000113275593321,0.000152372536832,-0.000488593766931,-0.00180750340223,1.67779799085e-05,-7.4802128438e-06,0.00013578114158,0.473896713365,-0.00811161776961,0.137699232231,0.00921822358494,0.937733753258,0.347229721969,-0.00139721930363
0.140870064497,0.0986795127392,-0.152035176754,-2.49006032944,-0.00630738167092,2.5914747715,-0.714302062988,0.0699862167239,4.32682245446e-05,-0.000955666415393,0.000266050396021,-0.00434284377843,-2.50845787377e-05,-0.000105995946797,0.000169414517586,0.47384748033,-0.00810965828174,0.137664766844,0.00920060897569,0.937733554259,0.347230542187,-0.00144231394355
0.140879645944,0.0986784026027,-0.152029961348,-2.49031734467,-0.00630718376487,2.59147644043,-0.714301645756,0.0699862167239,-0.00048160876031,0.000379810342565,0.00335379014723,-0.00448651844636,0.00553749362007,-1.21728226077e-05,-0.000128335741465,0.473719170195,-0.00810256016489,0.137572634682,0.00915485819113,0.937731576718,0.34723657918,-0.00156088540194
0.140876293182,0.0986815169454,-0.152032598853,-2.4903922081,-0.0063073579222,2.59147500992,-0.714302957058,0.0699862167239,-2.48524338531e-05,0.000123226782307,-0.00332615897059,-0.00211552879773,0.000290822703391,3.31539631588e-05,-0.000243029309786,0.47368063501,-0.00810554637952,0.137544056839,0.00914107761398,0.937732496939,0.347234287746,-0.00159811886048
0.14087498188,0.0986820980906,-0.152034550905,-2.49045562744,-0.00630773184821,2.59147500992,-0.714301884174,0.0699862167239,0.000219848050619,6.62431048113e-05,0.000507253105752,-0.0016521703219,9.85015940387e-05,-5.32144804311e-05,-7.48264574213e-05,0.473648665853,-0.00810716497435,0.137520917971,0.00912987973484,0.937733306497,0.347232256847,-0.00162808879942
0.140872389078,0.0986817330122,-0.152034193277,-2.49054908752,-0.00630745477974,2.59147620201,-0.714302539825,0.0699855610728,-0.000195575121325,-0.000415574671933,-6.05325258221e-05,-0.00165882031433,-9.20813181438e-05,4.60582014057e-05,-0.000253328937106,0.473602060055,-0.00810820973884,0.137487475115,0.00911335934053,0.937733789969,0.347231181384,-0.00167098559879
0.140870437026,0.0986802652478,-0.152034968138,-2.49056434631,-0.00630737189204,2.59147596359,-0.714303076267,0.0699855610728,-0.00390009162948,-0.000604997563642,-0.00364635279402,-0.000563046603929,0.000141423559398,5.11626858497e-05,-0.000113192712888,0.47359461167,-0.00810947295646,0.137482641831,0.00911076385712,0.937734211917,0.347230078464,-0.00167752158168
0.140872970223,0.0986819341779,-0.152033999562,-2.49058818817,-0.00630730716512,2.59147548676,-0.714302897453,0.0699855610728,0.00190387235489,-0.000673112634104,-0.00342822424136,0.000177801295649,7.42240828799e-08,4.83078656544e-05,-0.000537457701284,0.473582240506,-0.00810784526718,0.137473211431,0.00910618805821,0.937733687442,0.347231556031,-0.00168966234602
0.140881866217,0.0986791700125,-0.152027010918,-2.49060893059,-0.00630823196843,2.59147596359,-0.714302957058,0.0699855610728,-0.000114688409667,0.000695869501214,0.000379601289751,-0.000395755167119,9.42781625781e-05,3.18385136779e-05,0.000460380455479,0.473572575624,-0.00810016892552,0.137467013987,0.00910276540963,0.93773082948,0.347239324584,-0.00169772005624
0.14087665081,0.0986803621054,-0.152030989528,-2.49064040184,-0.00630737142637,2.59147644043,-0.714303851128,0.0699855610728,-0.000169538951013,-7.20878742868e-05,3.27507696056e-05,-0.000349108071532,-2.01805050892e-05,0.000102353973489,-0.00310897547752,0.473556585396,-0.00810459285977,0.137455175639,0.00909707865587,0.937732447892,0.347235029039,-0.00171278279219
0.140877649188,0.0986801162362,-0.15203101933,-2.49067282677,-0.00630794744939,2.59147548676,-0.714303255081,0.0699855610728,-0.000403014128096,-0.000112480520329,-8.13665537862e-05,-0.00039813190233,-9.3482878583e-05,-0.00018488187925,-0.00140685052611,0.473539997118,-0.00810410150729,0.137443540251,0.00909126321025,0.93773235179,0.347235363904,-0.00172831750452
0.140879690647,0.0986787676811,-0.152031466365,-2.4906899929,-0.0063081108965,2.5914747715,-0.714303433895,0.0699855610728,-0.000535217230208,-0.000436352507677,0.000124784070067,-0.000157356873387,0.000130341519252,0.000124205980683,1.14192675937e-06,0.473531652788,-0.0081033807719,0.13743789098,0.00908830851353,0.937732058075,0.347236196078,-0.00173600845174
0.140881344676,0.0986794605851,-0.152028650045,-2.49069356918,-0.00630812626332,2.59147667885,-0.714303970337,0.0699855610728,0.000171490013599,-0.000374089780962,-7.84917647252e-05,-0.00101891951635,1.23872368931e-05,0.000137971088407,4.59427683381e-05,0.473530168723,-0.00810123588048,0.137436425537,0.00908780392353,0.937731190954,0.347238545635,-0.00173707891005
0.140875250101,0.098680332303,-0.152031555772,-2.49069809914,-0.0063077849336,2.59147715569,-0.714302241802,0.0699855610728,-0.000287083617877,-0.000828757125419,1.9367565983e-05,-0.000348741479684,2.22007911361e-05,-0.000115872549941,0.000210540820262,0.473527764937,-0.00810555741502,0.137434447415,0.00908703713949,0.937733106798,0.347233380088,-0.00173942799315
0.140877634287,0.098679959774,-0.152030646801,-2.49071669579,-0.00630764383823,2.59147715569,-0.714303612709,0.0699855610728,0.00030091177905,0.000191415500012,-0.00217518419959,0.000362092163414,-7.54453776608e-06,8.61553708091e-05,0.000133872512379,0.473518318307,-0.00810369537106,0.137427700681,0.00908355530201,0.937732264911,0.347235701521,-0.0017480401935
0.140877068043,0.0986806899309,-0.152030959725,-2.49072051048,-0.00630833441392,2.59147524834,-0.714303851128,0.0699862167239,-8.4173399955e-05,-0.00029673348763,0.000149982501171,-0.000941160833463,-8.81614832906e-05,0.000202815106604,-0.00020958550158,0.473516043877,-0.00810444011079,0.137426024265,0.00908276940693,0.937732370013,0.347235423304,-0.00175100529169
0.14087715745,0.0986781716347,-0.152030572295,-2.49072527885,-0.00630830554292,2.59147524834,-0.714304387569,0.0699862167239,0.00028922513593,0.000483855896164,-4.73649088235e-05,-0.000801731192041,1.74330980371e-05,7.38505832487e-06,0.000253852951573,0.473514140161,-0.00810413823077,0.137425479462,0.00908215965654,0.937732211109,0.347235863388,-0.00175199536836
0.140875041485,0.0986780673265,-0.152030915022,-2.49073195457,-0.00630740867928,2.59147548676,-0.714304566383,0.0699862167239,2.08354367714e-06,-0.00056833983399,-0.000287652219413,0.000269773503533,9.72918314801e-06,6.18456397206e-05,-0.00017244911578,0.473511118115,-0.0081051543947,0.13742339371,0.00908090799685,0.937732764199,0.347234390365,-0.00175439239956
0.140873506665,0.0986798703671,-0.152030810714,-2.49074888229,-0.00630794558674,2.5914773941,-0.714304029942,0.0699862167239,0.000257192441495,0.000866982038133,-0.00380828068592,0.000302619620925,0.00020090174803,-0.000137937735417,-0.00392104452476,0.47350239857,-0.00810601859905,0.137416364333,0.00907806468219,0.937733036162,0.347233687525,-0.001762829087
0.140875980258,0.0986796915531,-0.152031496167,-2.49075245857,-0.00630788691342,2.59147500992,-0.714302361012,0.0699862167239,0.000385230960092,0.000291041302262,-0.000586141482927,-0.00141549715772,-7.73477513576e-05,-9.45106658037e-05,-9.88312021946e-05,0.473500132431,-0.00810517792162,0.137414951832,0.00907704750009,0.937733035447,0.347233702408,-0.0017655136059
0.140878617764,0.0986791625619,-0.152031123638,-2.49075460434,-0.00630773277953,2.59147500992,-0.714303553104,0.0699862167239,0.000237149302848,0.000289879273623,-0.000415604066802,-2.95723129966e-05,-0.000156551293912,-0.000119874079246,-2.23958977585e-06,0.473499352294,-0.0081035741004,0.137414627534,0.00907664749186,0.937732300932,0.347235694211,-0.00176595922449
0.1408777982,0.0986811742187,-0.152029424906,-2.49076795578,-0.00630780728534,2.59147453308,-0.714305043221,0.0699862167239,0.000121767203382,-0.000238621607423,-6.38252677163e-05,-0.00069352198625,0.000133039240609,3.13339623972e-05,-0.000177390291356,0.473491946411,-0.00810326640512,0.137408514096,0.00907388205521,0.93773190547,0.347236794699,-0.00177375925034
0.140877634287,0.0986791849136,-0.152031436563,-2.49077248573,-0.00630769087002,2.59147572517,-0.714306294918,0.0699862167239,-0.000218756642425,0.000197970759473,0.000117041214253,-0.00114408158697,0.000115444447147,-1.02943604361e-05,-0.000290946336463,0.473489927292,-0.0081046824086,0.137407643369,0.00907345816224,0.937732274065,0.347235805293,-0.00177475139678
0.140877440572,0.0986774563789,-0.15203204751,-2.49077558517,-0.00630767364055,2.59147596359,-0.714303731918,0.0699855610728,0.000327010900946,-0.00040965602966,0.000240311506786,-0.00159538385924,1.36665121317e-05,0.000132332876092,-0.000142134609632,0.473488565573,-0.00810436893312,0.13740718747,0.00907300355463,0.937732542583,0.347235088165,-0.001775505572
0.140879437327,0.0986789613962,-0.152028620243,-2.49078583717,-0.00630762800574,2.59147524834,-0.714306116104,0.0699855610728,-0.000144686724525,-0.000318311096635,0.000189058977412,-0.000648473214824,-8.65294859977e-05,5.90047420701e-05,5.23893822901e-06,0.473483609795,-0.00810210558291,0.13740325594,0.00907100986384,0.937731385517,0.347238239053,-0.00178056813246
0.140877455473,0.0986793786287,-0.152032181621,-2.49079823494,-0.00630784593523,2.59147524834,-0.714305460453,0.0699855610728,0.000238330307184,0.000308489281451,0.000116784140118,1.98575435206e-05,-0.000116879753477,8.84833061718e-05,-0.0001141718094,0.473477268689,-0.00810481182659,0.137398616299,0.00906897297918,0.937732445519,0.347235398462,-0.00178664251652
0.140875712037,0.0986800864339,-0.152032002807,-2.49080514908,-0.00630808062851,2.59147548676,-0.714305758476,0.0699855610728,-0.000211838472751,0.00138041947503,5.17995931659e-06,-0.000405535887694,3.48525463778e-05,3.68864402844e-06,-3.38257268595e-05,0.473473698818,-0.00810557922356,0.137395811983,0.00906775272138,0.937732640855,0.347234884823,-0.00179013507395
0.140876203775,0.0986812934279,-0.152033060789,-2.49081230164,-0.00630716467276,2.59147500992,-0.714304566383,0.0699855610728,-0.000232883816352,4.51336891274e-05,-0.000213785009691,-0.00148098357022,1.98510206246e-05,6.78780343151e-05,-0.000460904848296,0.473469845113,-0.00810561575052,0.13739261262,0.00906604668515,0.937733059409,0.347233777242,-0.001794357198
0.140877768397,0.0986816361547,-0.152029842138,-2.49082326889,-0.00630800891668,2.59147524834,-0.714306294918,0.0699855610728,0.00023866945412,-0.00024126189237,0.000137442591949,8.97205754882e-05,5.79776751692e-05,1.16217233881e-05,0.000191869068658,0.473464276387,-0.00810358884324,0.137388516167,0.00906419398094,0.937731858805,0.347237041718,-0.00179942054377
0.140877440572,0.0986796543002,-0.152030870318,-2.49084949493,-0.00630703847855,2.59147524834,-0.714306890965,0.0699855610728,-0.000521555251908,-0.000152200474986,-0.000803460483439,0.000475359382108,8.89452567208e-05,-3.03149445244e-05,-0.00023541234259,0.473451483303,-0.008104159212,0.13737999289,0.00905953415452,0.937732183645,0.34723622782,-0.00181062752869
0.140879571438,0.0986790284514,-0.152031421661,-2.49086546898,-0.0063074468635,2.59147596359,-0.714308440685,0.0699855610728,0.000637618533801,0.000634992611594,-0.000120383061585,-0.00029311212711,3.25084656652e-05,-5.09629307999e-06,-0.000215310879867,0.473443754007,-0.0081034215394,0.137374593335,0.00905700135765,0.937731605324,0.347237819816,-0.00181749238793
0.140881285071,0.0986816734076,-0.152030542493,-2.49088311195,-0.00630756374449,2.5914747715,-0.714305579662,0.0699855610728,0.00119375553913,-0.000165049103089,-4.10909669881e-05,-0.002240706468,3.10175237246e-05,3.71901696781e-05,0.00028235084028,0.473434140159,-0.00810225972738,0.137366882916,0.00905335310953,0.937731664576,0.347237702099,-0.00182756002844
0.140885159373,0.0986791774631,-0.152029141784,-2.49095153809,-0.00630793301389,2.59147524834,-0.714306473732,0.0699862167239,4.42209711764e-05,-0.000119597141747,0.000547224073671,-0.0030405994039,5.19292116223e-05,-0.000108943997475,-0.000395796058001,0.473400405773,-0.00809969487165,0.137343411108,0.00904151511356,0.937730660081,0.347240561264,-0.00185807653948
0.140888273716,0.098677828908,-0.152027830482,-2.49099087715,-0.00630700122565,2.59147524834,-0.714304149151,0.0699862167239,-0.000437190581579,-0.000279619824141,8.36993931443e-05,-0.00283615221269,-5.31275509275e-05,-7.25648133084e-05,-0.000301409454551,0.473380944136,-0.00809750989195,0.137329848622,0.00903435255904,0.937730505975,0.347241069335,-0.00187565735529
0.140891283751,0.0986804515123,-0.152026161551,-2.49103593826,-0.0063074012287,2.59147500992,-0.714305102825,0.0699862167239,-0.000440684962086,-0.00129652244505,-0.000115671718959,-0.00119053432718,5.16410618729e-05,0.000111157234642,-0.000360832636943,0.47335778759,-0.0080953618281,0.137312344663,0.00902601037109,0.937729542869,0.347243765199,-0.0018981001463
0.140894085169,0.0986824482679,-0.152027457952,-2.49108767509,-0.00630784686655,2.59147620201,-0.714306652546,0.0699862167239,2.76962236967e-05,-0.000415844784584,-0.000564430607483,-0.00358796864748,-7.99713088782e-05,7.566747081e-05,0.000285968970275,0.473331694171,-0.00809475097339,0.137292876581,0.00901694509899,0.937729025178,0.347245263186,-0.00192273788493
0.140896126628,0.0986807718873,-0.152027219534,-2.49115371704,-0.00630740774795,2.59147548676,-0.714306294918,0.0699862167239,-6.04063861829e-05,0.000771468912717,0.000441430893261,-0.000433744688053,-3.90605455323e-05,-2.63458277914e-05,-8.67237395141e-05,0.473298711827,-0.00809361497129,0.13726979011,0.00900509348382,0.937728872108,0.347245814978,-0.00195304184454
0.140895292163,0.0986814275384,-0.15202614665,-2.49119091034,-0.00630726106465,2.59147357941,-0.714308142662,0.0699862167239,0.000241428628215,-0.000278293329757,-0.000611530034803,-0.000422041892307,9.44535531744e-06,7.78644316597e-05,0.000273393670795,0.473279486022,-0.0080935030389,0.137255901397,0.00899796083869,0.937728598047,0.347246635051,-0.00197160787025
0.140896767378,0.0986796170473,-0.152025073767,-2.49123883247,-0.00630788411945,2.59147262573,-0.714306116104,0.0699862167239,0.000234582417761,-0.000323363317875,-0.00017189879145,-0.00348888663575,0.000375962641556,5.79778170504e-05,0.000442414137069,0.473255576015,-0.00809226176536,0.137239384611,0.00898953642402,0.937728499222,0.347246994672,-0.00199357946495
0.140900656581,0.0986795574427,-0.152021288872,-2.49131894112,-0.00630699004978,2.59147191048,-0.714308202267,0.0699862167239,0.000476140237879,0.000910957460292,-0.00220333854668,-0.00147243589163,-9.16818680707e-05,1.91142735275e-05,-0.000153734348714,0.473215245015,-0.00808854243539,0.137210452015,0.00897472416325,0.937727075949,0.347251003564,-0.0020311494684
0.14090283215,0.0986804515123,-0.152019575238,-2.49135065079,-0.00630802242085,2.59147119522,-0.714307129383,0.0699862167239,0.000400953344069,4.87481702294e-05,0.00037549022818,-0.0016465956578,-6.257100722e-06,-0.00273602129892,-2.34843046201e-05,0.473199013587,-0.00808674394797,0.137198532696,0.00896901806922,0.937726485528,0.347252653543,-0.00204678980595
0.140903457999,0.098679676652,-0.152020350099,-2.49138236046,-0.00630759168416,2.59147191048,-0.714307546616,0.0699855610728,0.000120696306112,-0.000209289384657,0.000376026408048,-0.00189168809447,4.52155582025e-05,0.00401521334425,-0.00022800086299,0.473183392782,-0.00808679381236,0.137187537742,0.00896349818644,0.937726553432,0.347252529506,-0.00206085579924
0.140904143453,0.0986795201898,-0.152017861605,-2.49142122269,-0.00630785431713,2.59147262573,-0.714308261871,0.0699855610728,0.0020948080346,-3.36962657457e-05,-1.05264361991e-05,-0.00416552415118,-4.61088675365e-05,0.000103869977465,-0.000176968649612,0.47316407647,-0.00808526203073,0.13717365375,0.00895665116588,0.937725902871,0.347254357298,-0.00207858339448
0.140905439854,0.0986800119281,-0.152015060186,-2.49146723747,-0.00630798842758,2.59147143364,-0.714308083057,0.0699855610728,-0.000203859439353,-0.000515181571245,0.000156543464982,-0.00372575316578,-3.49411566276e-05,-6.69641012792e-05,9.83149657259e-05,0.473140630096,-0.0080833028544,0.137156719488,0.00894807871571,0.937725280836,0.347256124119,-0.00210083722396
0.140910103917,0.0986801162362,-0.152001515031,-2.49161481857,-0.00630782963708,2.59147143364,-0.71430927515,0.0699855610728,-0.00387893710285,-0.000254262180533,-0.000276895501884,-0.000583328830544,-3.94507296733e-05,1.16367955343e-05,0.000155335015734,0.473066576973,-0.00807448118532,0.137103407071,0.00892105474589,0.93772218457,0.347264757702,-0.00216958352859
0.140909090638,0.0986818820238,-0.151999637485,-2.4916844368,-0.00630803639069,2.59146976471,-0.714306652546,0.0699855610728,7.45158467907e-05,0.000417744042352,0.000209495599847,-0.00648654485121,-0.000372863287339,2.25293224503e-05,-4.09029707953e-05,0.473030893027,-0.00807411004236,0.137077345555,0.00890811229603,0.937722569117,0.347263836551,-0.00220372730241
0.140909180045,0.0986805185676,-0.151996418834,-2.49175643921,-0.00630798982456,2.59147047997,-0.714308917522,0.0699855610728,-0.000354131072527,-0.00037256849464,0.000271808647085,-0.00308927427977,-6.50069050607e-05,-8.40440188767e-05,2.94337387459e-05,0.472995154151,-0.0080724635032,0.137052090778,0.00889536680741,0.937721723288,0.347266238952,-0.00223631254586
0.140910759568,0.098679445684,-0.151993319392,-2.49186658859,-0.00630699330941,2.59146857262,-0.71430850029,0.0699855610728,0.000151082422235,-0.000291700300295,-0.000102718913695,-0.00623615831137,6.85146878823e-05,0.000119145872304,0.0002794895845,0.472936756898,-0.00807026287563,0.137010694264,0.00887411600919,0.93772136415,0.34726739831,-0.00229064154206
0.140908315778,0.0986785367131,-0.151983365417,-2.49205517769,-0.00630770204589,2.59147000313,-0.714308440685,0.0699855610728,1.67020007211e-05,-0.000108964544779,0.000233570652199,-0.00527136679739,3.13744894811e-05,4.19180878453e-06,3.19251303154e-05,0.472848664473,-0.00806659637618,0.136947670865,0.00884263280558,0.937720248959,0.347270667244,-0.00237189695498
0.140909597278,0.0986801609397,-0.151975989342,-2.49217486382,-0.00630799960345,2.59147024155,-0.714308798313,0.0699855610728,-5.86955138715e-05,-0.000429455714766,-0.000257042382145,-0.0062037720345,-5.74053228775e-05,-2.82723322016e-05,-0.000637940480374,0.472785008255,-0.00806232356323,0.136901444317,0.00881972756128,0.937718764355,0.347274847211,-0.00243137058708
0.140908807516,0.098677739501,-0.151957824826,-2.49231410027,-0.00630793999881,2.59146881104,-0.714307367802,0.0699855610728,-0.000146908772876,0.000266226270469,0.0019987646956,-0.00342117482796,7.45981305954e-05,0.000150361505803,9.76944647846e-06,0.472715269564,-0.00805376012459,0.136852206535,0.00879401712378,0.937716230276,0.347281886019,-0.00249560992728
0.140905231237,0.0986781641841,-0.151915624738,-2.49249505997,-0.00630694907159,2.59146952629,-0.714307308197,0.0699862167239,-0.000120226482977,0.000286933180178,0.00209464738145,-0.00844129454345,-1.14165495688e-05,0.000161351228599,1.48002311562e-06,0.47262457035,-0.00803479937095,0.136786651687,0.00875957905645,0.937709980595,0.347299019555,-0.00257929633986
0.140911027789,0.0986738801003,-0.151756852865,-2.49318790436,-0.00630724430084,2.59147143364,-0.71430683136,0.0699862167239,-0.000446287594968,7.51597326598e-05,0.0045646992512,-0.0179653335363,1.98447560251e-05,8.28063421068e-05,0.000169422870385,0.472278299094,-0.00795442447132,0.136538521587,0.00862939088542,0.937682517331,0.347373911063,-0.0028975685208
0.140915200114,0.0986778438091,-0.151701524854,-2.49354290962,-0.00630792789161,2.5914709568,-0.714307248592,0.0699862167239,0.000441088865045,-0.000386810017517,0.00447378447279,-0.0229452066123,-5.89243136346e-05,-9.68108724919e-05,-0.00032250667573,0.472099160273,-0.00792563016508,0.136408666455,0.00856313814222,0.937672473151,0.347401227102,-0.00306477640512
0.140914186835,0.0986784175038,-0.151648342609,-2.49386000633,-0.00630759680644,2.59147071838,-0.714307963848,0.0699862167239,0.000212474755244,5.54101861781e-05,0.00281576719135,-0.021425422281,2.04605057661e-05,3.37749224855e-05,0.00585175305605,0.471939710605,-0.0079002049081,0.136294104143,0.00850390343878,0.937663737596,0.347424925037,-0.00321247143028
0.140916138887,0.0986808463931,-0.151574403048,-2.4943048954,-0.00630811462179,2.59146928787,-0.714308619499,0.0699862167239,8.43016605359e-05,-2.62721605395e-05,0.00269618164748,-0.0209498107433,-5.20523062733e-05,-0.000191862272914,0.000244226248469,0.471715404221,-0.00786338013779,0.136132611258,0.00842072067132,0.937650880997,0.347459656181,-0.00342108791525
0.140913307667,0.0986803397536,-0.151469558477,-2.4949297905,-0.00630750879645,2.59146976471,-0.714307427406,0.0699862167239,0.000263772119069,0.000878805178218,0.0048879138194,-0.0163941308856,2.19550147449e-05,0.000100582663435,-0.000550194294192,0.471401485864,-0.00781368735977,0.135907983084,0.00830438372837,0.937634110966,0.347504733703,-0.00371091684042
0.140919223428,0.098676905036,-0.151424705982,-2.49526882172,-0.00630691135302,2.59146928787,-0.714308321476,0.0699862167239,-9.52628543018e-05,0.00104379816912,0.00205093133263,-0.0187298599631,-6.16980323684e-05,0.000210749916732,-0.000178355214302,0.471231564925,-0.00778901350319,0.135787689476,0.00824198666072,0.937625535109,0.347527654811,-0.00386709123341
0.140913754702,0.0986783131957,-0.151361078024,-2.49568724632,-0.00630669062957,2.59146928787,-0.714308083057,0.0699862167239,-0.000856564322021,0.0010112025775,0.00560486549512,-0.0225242804736,-5.22355949215e-05,-0.000155816072947,7.16222275514e-05,0.471020762361,-0.00776073683572,0.135636668915,0.00816421290367,0.937615845038,0.347553406188,-0.0040623015735
0.140914350748,0.0986789166927,-0.151309579611,-2.49606871605,-0.00630754930899,2.59147047997,-0.714308083057,0.0699862167239,0.000869568786584,-0.000216020664084,0.00287453108467,-0.0218060463667,-3.90788736695e-05,-0.00014603722957,3.99466625822e-05,0.470828926054,-0.00773554524913,0.135499532975,0.00809416788478,0.937606930362,0.347576976248,-0.00423955811273
0.140912860632,0.0986816436052,-0.151151463389,-2.49713540077,-0.00630758190528,2.59147047997,-0.714309513569,0.0699862167239,3.76255957235e-05,-0.00107057217974,0.00461889989674,-0.0238878969103,0.000101823490695,0.00366877112538,-0.000174594999407,0.470291329619,-0.00765973784886,0.135115580325,0.00789642296414,0.937580036363,0.34764764275,-0.00473688653035
0.140916898847,0.098679959774,-0.151093885303,-2.49749708176,-0.0063068815507,2.5914683342,-0.714308798313,0.0699862167239,-0.000644497806206,-0.000108112326416,0.00386031717062,-0.0198411066085,-8.46836992423e-05,8.83664470166e-05,0.00031372657395,0.47010904565,-0.00762989957764,0.134986520102,0.00782895082254,0.937569705064,0.347674697535,-0.00490510492996
0.140914291143,0.0986762493849,-0.151034131646,-2.49780893326,-0.00630788272247,2.59146809578,-0.714309334755,0.0699862167239,-6.74511466059e-05,0.000437963346485,0.00337237026542,-0.0233057811856,-9.58106611506e-05,-0.000127463688841,-0.000207099627005,0.47000877236,-0.00761261730533,0.134916663641,0.00779199952092,0.937563499957,0.347690962527,-0.00499625407768
0.140916660428,0.0986809134483,-0.150947019458,-2.49827098846,-0.006307750009,2.59146738052,-0.714309334755,0.0699862167239,-8.68184433784e-05,0.000357588287443,0.00373700307682,-0.0180158764124,9.08240908757e-05,-0.000117083865916,-0.000220117828576,0.46970965417,-0.00755720141284,0.134702110718,0.00768080401241,0.937543572651,0.347743066004,-0.00527393237409
0.140917688608,0.0986824855208,-0.150835886598,-2.49880671501,-0.00630796514452,2.59146690369,-0.714309453964,0.0699862167239,-0.000112571258796,-0.00010854042921,0.00260589201935,-0.017312830314,-7.83414907346e-06,0.000196325956495,0.000129503008793,0.469448423342,-0.00750480342767,0.13451594843,0.00758350393555,0.937524741649,0.347792224654,-0.00551519910461
0.140916407108,0.0986834540963,-0.150791347027,-2.49898433685,-0.00630707340315,2.59146714211,-0.714309334755,0.0699862167239,-0.000484451680677,-0.000112178371637,0.00206856406294,-0.0106435492635,-1.44947364333e-06,0.000225513795158,0.000559429754503,0.469358781461,-0.00748384336102,0.134451871295,0.00754954787773,0.937517393259,0.347811451419,-0.00559782208304
0.140915691853,0.0986810550094,-0.150732189417,-2.4991838932,-0.00630779284984,2.59146690369,-0.714309096336,0.0699862167239,0.000283613539068,-0.000660939316731,0.000286770664388,-0.0111854374409,7.14078196324e-05,0.00549174100161,1.79268463398e-05,0.4692537753,-0.00745395303117,0.134378150562,0.00750984405801,0.937506666291,0.347839670942,-0.00569349695163
0.140919983387,0.0986795574427,-0.150663018227,-2.49936580658,-0.0063072424382,2.59146595001,-0.714309036732,0.0699862167239,0.000214732222958,0.000809910183307,0.0014510715846,-0.00724941678345,8.40318261908e-06,-0.00305185723118,5.64953961657e-06,0.469167220427,-0.00741991132069,0.134316698926,0.00747601509956,0.937494552817,0.347871738446,-0.00577286007921
0.140918463469,0.0986823290586,-0.150500983,-2.49962663651,-0.00630750600249,2.59146690369,-0.714309453964,0.0699862167239,-0.000495020183735,-0.000507004791871,0.00355752022006,-0.00326052261516,-6.88911241014e-05,5.68904906686e-05,-0.000435370689956,0.46903583515,-0.00734212417378,0.134221416485,0.00742214741035,0.937466616583,0.347946148993,-0.00589335286616
0.140919059515,0.0986814722419,-0.15045158565,-2.49967288971,-0.00630657933652,2.59146642685,-0.714310050011,0.0699862167239,-0.000239531786065,-0.000620380800683,0.00659722136334,-0.00543078081682,-5.43249234397e-06,4.26935293945e-05,7.11599977876e-06,0.469012756359,-0.00731780761252,0.134204942955,0.00741145855703,0.937457999379,0.347969243231,-0.00591397783732
0.140918269753,0.098677828908,-0.150411620736,-2.49969792366,-0.00630829809234,2.59146690369,-0.714310288429,0.0699862167239,-8.19750675873e-06,0.00090487865964,0.0019235231448,0.000327879970428,6.98416406522e-05,0.000787965022027,-0.00049604504602,0.468999916947,-0.00729553409587,0.134196143334,0.00740538620296,0.937449710695,0.347991522133,-0.00592455768094
0.140918567777,0.0986784175038,-0.150342166424,-2.4997150898,-0.00630789669231,2.59146595001,-0.714310050011,0.0699855610728,-0.000257200066699,2.53694433923e-05,0.00253388588317,0.000151167041622,-0.000140157266287,-0.000123553501908,-6.44169631414e-05,0.468992417817,-0.00726485037053,0.134190501771,0.00739955717012,0.937438970718,0.34802046729,-0.00593100039467
0.140917122364,0.0986799225211,-0.150258302689,-2.49971985817,-0.00630772486329,2.59146642685,-0.714309155941,0.0699855610728,-6.68801731081e-05,0.000199015499675,0.00319856451824,-0.00024258258054,-5.5845703173e-05,-0.000121861419757,-1.9309925392e-06,0.468989973747,-0.0072233433154,0.134187203542,0.00739459433221,0.937424379897,0.348059840793,-0.00593286300885
0.140919625759,0.0986818000674,-0.150212585926,-2.49972462654,-0.00630757585168,2.59146738052,-0.71430939436,0.0699855610728,0.000137901035487,0.00031265875441,0.00290567101911,-0.000342808256391,2.80269123323e-05,-0.000102243953734,-5.58137835469e-05,0.468987830796,-0.00720145397396,0.134184729898,0.00739182320523,0.937416534474,0.348080999854,-0.00593456583726
0.140917539597,0.0986807122827,-0.150152549148,-2.49972724915,-0.006307750009,2.59146714211,-0.714310288429,0.0699855610728,7.72232742747e-05,0.000276365521131,0.00223583937623,-8.60569198267e-05,-6.99271840858e-05,-7.2900831583e-05,0.000148797873408,0.468986916532,-0.00717322768303,0.134183847739,0.00738875134766,0.937406339284,0.348108520791,-0.00593454825328
0.140915423632,0.0986809059978,-0.15008687973,-2.49973297119,-0.00630743987858,2.59146738052,-0.714309453964,0.0699855610728,0.000169813414686,0.00043571513379,0.00429192278534,-2.73692676274e-05,-7.28369559511e-05,-0.000105482911749,-0.000117199866509,0.468984311214,-0.00714229675597,0.134181268815,0.00738470823123,0.93739554284,0.348137649466,-0.00593624952515
0.140919208527,0.0986778885126,-0.149895340204,-2.49973678589,-0.00630752928555,2.59146714211,-0.714308977127,0.0699855610728,-0.000146711987327,-0.000293709599646,0.00694703496993,0.000301342515741,-7.66850280343e-05,-0.000179995724466,-6.7555147325e-06,0.468983777408,-0.00704733850178,0.1341799124,0.00737569062433,0.937361840375,0.348228613612,-0.00593394842029
0.140917137265,0.0986810401082,-0.149810597301,-2.49973797798,-0.00630732998252,2.59146666527,-0.714311301708,0.0699855610728,-0.000191493774764,-0.0001187477028,0.00221322034486,3.12382780976e-06,1.38582790896e-05,3.5145363654e-05,0.000149184561451,0.468982794877,-0.00700719864256,0.134177378123,0.00737116951373,0.937347158076,0.348268209572,-0.00593506481403
0.140919014812,0.0986780226231,-0.149749368429,-2.49974012375,-0.00630777375773,2.59146618843,-0.714309096336,0.0699855610728,-0.000595501449425,-0.00131652224809,0.00346682616509,0.000838561332785,0.000544935639482,0.00016161162057,0.000460546347313,0.46898247052,-0.00697649117988,0.134177532073,0.0073683793477,0.937336566783,0.348296791788,-0.00593397621752
0.140923842788,0.0986800938845,-0.149487271905,-2.49974226952,-0.00630633858964,2.59146666527,-0.714309096336,0.0699855610728,0.000421320291935,0.000869438867085,0.00642622215673,0.000125843565911,-3.17099111271e-05,-0.00481501687318,-0.000246739393333,0.468982198269,-0.00684682653228,0.13417397097,0.00735568754777,0.937290588061,0.348420808276,-0.00593190009336
0.140923514962,0.0986795723438,-0.149399995804,-2.49974346161,-0.00630706036463,2.59146738052,-0.714310884476,0.0699855610728,-0.000256573170191,-0.000238089487539,0.00498819397762,3.81069330615e-05,-9.23805941966e-07,-2.84192665276e-05,-0.000425828038715,0.468982205936,-0.00680457053364,0.134173226155,0.00735188265508,0.937275122272,0.348462510738,-0.00593070716395
0.140915438533,0.098680652678,-0.149300202727,-2.49974656105,-0.00630736118183,2.59146690369,-0.714311778545,0.0699855610728,0.000239179367782,0.000514011189807,0.00953576806933,-0.000373751856387,-2.66111856035e-05,-1.8941502276e-05,0.000203312767553,0.468980666492,-0.00675989602846,0.134170867137,0.0073466708702,0.937259051595,0.348505829197,-0.00593155402552
0.140922605991,0.0986815541983,-0.149204224348,-2.49975252151,-0.00630776630715,2.59146761894,-0.714311599731,0.0699855610728,2.78951647488e-05,4.01953511755e-05,0.00487083895132,-5.82764296269e-05,-8.54103418533e-05,0.00209896010347,-1.12168609121e-05,0.468978179265,-0.00671255072113,0.134167870574,0.00734170408806,0.937242106588,0.348551476997,-0.0059330085022
0.140923127532,0.0986783728004,-0.149030581117,-2.49975275993,-0.00630729179829,2.59146714211,-0.714312553406,0.0699855610728,0.000559218751732,-0.000540407607332,0.00790757127106,-0.00188582367264,-1.63936401805e-05,2.44269922405e-05,-4.44974612037e-05,0.468979140441,-0.00662517095976,0.134167811211,0.00733367822703,0.937210915356,0.348635568348,-0.00592937351707
0.140925750136,0.0986783578992,-0.148853048682,-2.49975538254,-0.00630739796907,2.59146785736,-0.714311659336,0.0699855610728,-6.1046484916e-05,0.000155569927301,0.00697234086692,9.06062923605e-05,-0.00263748597354,-0.000125802078401,-0.000212547005503,0.468978587465,-0.00653307708524,0.134165446009,0.00732490719145,0.937178275041,0.348723509872,-0.00592788952947
0.140921190381,0.0986814126372,-0.14874958992,-2.49975800514,-0.00630760239437,2.59146809578,-0.714312493801,0.0699855610728,-0.000425898440881,0.00016996661725,0.0066355173476,-0.000589444709476,-0.000154619381647,2.78246607195e-05,0.000199729794986,0.468977148493,-0.00648959611967,0.134162614463,0.00731996540393,0.937162540183,0.348765879926,-0.00592891812533
0.140925303102,0.0986778959632,-0.148507684469,-2.49976587296,-0.0063063330017,2.59146857262,-0.714312255383,0.0699855610728,0.000264300295385,-0.00021653524891,0.000266741641099,3.69373469766e-06,-2.77548315353e-05,0.00135261763353,-0.000317187048495,0.468974878286,-0.0063699437605,0.134159761515,0.00730780513972,0.937120155805,0.34888003504,-0.00592709078688
0.140921220183,0.0986799970269,-0.14843377471,-2.49976754189,-0.00630759214982,2.5914683342,-0.714312195778,0.0699855610728,3.80204437533e-05,0.000291472213576,0.0052412012592,-7.39597671782e-05,3.68245273421e-05,-0.000113284382678,1.31286788019e-05,0.468973806813,-0.00633604344244,0.134157648341,0.00730419699773,0.937107872848,0.348913084769,-0.0059280954066
0.140928179026,0.0986816510558,-0.148379921913,-2.49976968765,-0.00630761310458,2.59146809578,-0.714313387871,0.0699862167239,-0.000290606927592,0.000871362397447,0.00413453252986,0.000134522240842,7.98638939159e-05,-0.000494595326018,-0.00244136247784,0.468972579054,-0.00630665386334,0.134155714424,0.00730118689079,0.937097108435,0.348942037999,-0.00592923571757
0.140922680497,0.0986825451255,-0.148347109556,-2.49976992607,-0.0063075623475,2.5914683342,-0.71431261301,0.0699862167239,-0.000702265067957,0.000478423055029,0.00278228591196,0.000376360956579,7.8289580415e-05,-4.86280114274e-05,-0.000190421196749,0.468972415675,-0.00629330594849,0.134155002704,0.00729958228529,0.937092520722,0.348954392071,-0.00592921972901
0.140926912427,0.0986793264747,-0.148319229484,-2.49977326393,-0.0063067227602,2.59146976471,-0.71431428194,0.0699862167239,9.08863294171e-05,0.000579721294343,0.00237345951609,-6.72362830301e-06,-2.01548064069e-05,5.65239715797e-05,6.23256710242e-05,0.468971800904,-0.00627765033398,0.13415523123,0.00729812892308,0.937086795526,0.348969816499,-0.00592805399004
0.140925690532,0.0986778736115,-0.148284807801,-2.49976801872,-0.00630756560713,2.59147334099,-0.714314877987,0.0699862167239,-0.000588664319366,0.000251794059295,0.00137593247928,0.000601165229455,0.000267806753982,-8.71058364282e-05,0.000197525936528,0.468975635013,-0.00626147004358,0.13415783832,0.00729848631032,0.937080817697,0.348985949758,-0.00592281686552
0.14092297852,0.0986800789833,-0.14824564755,-2.49978017807,-0.00630744220689,2.59147047997,-0.714315891266,0.0679919198155,-0.000369848188711,-0.000218795059482,0.000593786942773,0.000270722375717,-0.00198767450638,-3.55713018507e-05,-0.000147731188918,0.468968547005,-0.00624378928085,0.134151960666,0.0072937799365,0.937074332971,0.349003331977,-0.00593036391317
0.140923902392,0.0986790060997,-0.148212403059,-2.49977707863,-0.00630710180849,2.59147119522,-0.714316248894,0.0679919198155,-0.000118268944789,-0.000475660985103,0.00373704801314,1.30337302835e-05,5.41818553756e-05,-3.33193165716e-05,-0.00012305182463,0.468970602142,-0.0062271463444,0.134153387272,0.00729298808956,0.937068402983,0.349019317919,-0.00592755107308
0.140927329659,0.0986808240414,-0.148195371032,-2.49977755547,-0.00630754092708,2.59147047997,-0.714318215847,0.0679919198155,-0.000272302306257,-0.000459429400507,0.000657329394016,-0.00026397529291,2.33990322158e-05,-2.65330600087e-05,-8.97750505828e-05,0.46896980599,-0.00621681217059,0.134152194858,0.00729180935675,0.937064223959,0.349030539954,-0.00592887495595
0.140924692154,0.0986820980906,-0.148185372353,-2.49977970123,-0.00630674231797,2.59147143364,-0.714315772057,0.0679919198155,-0.000362934137229,-0.000462553784018,-0.000236843246967,-6.89884109306e-05,2.25580479309e-05,-0.000984457554296,-0.000123458783492,0.468969265843,-0.00621392741656,0.134151699327,0.00729143854825,0.937063682962,0.349032004865,-0.00592859703113
0.14092348516,0.0986816063523,-0.148165851831,-2.49978041649,-0.00630700727925,2.59147047997,-0.714315652847,0.0679919198155,0.000141657830682,0.00047551424359,0.00018175074365,1.70612056536e-05,-6.32450610283e-06,0.000135027235956,-0.000262409099378,0.468968403673,-0.0062047902404,0.13415060133,0.00728986690384,0.937060514194,0.349040520295,-0.00593004695703
0.140923291445,0.0986803174019,-0.148163110018,-2.49977898598,-0.00630732951686,2.59147000313,-0.714316904545,0.0679919198155,-0.000279584928649,-0.000413697765907,1.72640084202e-05,7.85612646723e-05,6.57216151012e-05,-0.000175178982317,9.40162572078e-05,0.468970609667,-0.00620141860578,0.134153276379,0.00729075933003,0.937058929244,0.349044824476,-0.00592605647055
0.140925854445,0.0986790880561,-0.148150399327,-2.49977684021,-0.00630719540641,2.59147119522,-0.714319765568,0.0679919198155,-0.00336163793691,4.24576592195e-06,0.000899626349565,0.000333266565576,-5.64168731216e-05,-3.28199257638e-06,0.000431172054959,0.468970931273,-0.00619609732456,0.134152994302,0.00729023915872,0.937056685662,0.349050848989,-0.00592661579586
0.140924274921,0.0986792221665,-0.148113951087,-2.49977946281,-0.00630746223032,2.59147167206,-0.714318335056,0.0647617802024,0.000199714908376,-0.00186510558706,-0.000365704792785,0.000540024368092,0.000225310970563,-9.91041451925e-05,7.78400208219e-05,0.468969798564,-0.00617913975711,0.134151781324,0.00728826047415,0.937050850184,0.349066545941,-0.00592719316373
0.140925958753,0.0986786410213,-0.148108407855,-2.49977850914,-0.00630724150687,2.5914721489,-0.714318573475,0.0647617802024,9.55529103521e-05,-0.000472132291179,0.000341655046213,-0.000113654430606,-0.000112942616397,7.37319351174e-05,-0.000429526087828,0.468970582786,-0.00617511483199,0.134152503338,0.00728829315228,0.937049346244,0.349070602545,-0.00592601135795
0.140926375985,0.0986793935299,-0.148091718554,-2.49978423119,-0.00630724430084,2.5914721489,-0.714320898056,0.0647617802024,0.00164877786301,-0.00120950781275,0.00117176002823,-0.000252203637501,5.76958955207e-05,0.000203359973966,0.000117571609735,0.468967548176,-0.00616735221943,0.13414988759,0.00728642046831,0.937046211995,0.34907900527,-0.0059289483133
0.14092412591,0.0986814945936,-0.148079112172,-2.49978017807,-0.00630575185642,2.59147286415,-0.714323461056,0.0647617802024,-0.000140351970913,0.000535273109563,-0.000474941305583,0.000702012854163,8.75839687069e-05,-9.23199622775e-05,-0.000173123451532,0.468969368634,-0.006162270752,0.134150328542,0.00728609533401,0.937044191725,0.349084460663,-0.00592744281008
0.140921413898,0.098682038486,-0.148065418005,-2.49977970123,-0.00630639307201,2.59147310257,-0.714323282242,0.0647617802024,0.000279831932858,-0.00193324685097,-0.00341101340018,-0.000411582819652,-0.00010424725042,-8.69215946295e-05,0.000356509175617,0.468969584391,-0.00615692534611,0.134150170271,0.00728569287609,0.937042223307,0.349089756103,-0.00592724980325
0.140924885869,0.0986813381314,-0.148053660989,-2.49978160858,-0.00630631111562,2.59147357941,-0.714324057102,0.0647617802024,0.00053196871886,0.00444097304717,0.000585676752962,-0.00010737208504,5.7296732848e-05,-9.21401369851e-05,-9.22555627767e-05,0.468968924076,-0.00614956244924,0.134149773641,0.00728496968326,0.937039457537,0.349097192697,-0.00592739176944
0.140924528241,0.0986808463931,-0.148044317961,-2.49978089333,-0.00630675069988,2.59147167206,-0.714323103428,0.0647617802024,0.000418030802393,-7.9519362771e-05,0.000200293099624,0.000364992883988,-1.69534050656e-05,4.98140470881e-05,0.00018356833607,0.46896944385,-0.00614423974478,0.134150358537,0.00728468143267,0.937037682773,0.349101967436,-0.00592709863071
0.140926882625,0.0986785963178,-0.148027196527,-2.49977874756,-0.00630674045533,2.59147191048,-0.714323103428,0.0647617802024,0.000464594195364,0.00380470138043,0.000207411168958,0.000403977086535,-8.12733287603e-06,0.000171564854099,-0.000358394405339,0.468970739827,-0.00613577503928,0.134151758964,0.00728443047342,0.937034714311,0.349109974224,-0.00592510181079
0.140925988555,0.0986777916551,-0.148013472557,-2.49978232384,-0.0063061141409,2.59147334099,-0.714323163033,0.0647617802024,-0.000927972665522,0.000278335530311,0.000862519256771,0.000321661878843,0.000118689953524,-8.8700093329e-05,-0.00018959074805,0.468969350233,-0.00612940524456,0.134150856933,0.0072833234533,0.937032494615,0.349115948143,-0.00592551039265
0.140925109386,0.0986787378788,-0.148005604744,-2.49978280067,-0.00630630366504,2.59147238731,-0.714322686195,0.0647617802024,0.000152957756654,0.000564167508855,0.000326130335452,-1.20096819956e-05,-8.2869300968e-05,8.9667038992e-05,-0.00470337225124,0.468968734548,-0.00612602923704,0.134150110332,0.00728265995409,0.937031335096,0.349119056489,-0.00592654996203
0.140925228596,0.0986784026027,-0.147995054722,-2.49978089333,-0.00630679540336,2.59147357941,-0.714323937893,0.0647617802024,0.00013218112872,-0.000125106584164,0.000475449545775,0.000421518954681,0.00014262383047,0.000102766905911,-0.000181358627742,0.468970062105,-0.0061208498605,0.134150973747,0.00728288246521,0.93702919381,0.349124828044,-0.00592483760728
0.140924319625,0.0986790284514,-0.147925332189,-2.49978041649,-0.00630645593628,2.59147262573,-0.714323222637,0.0547870136797,0.000504197028931,0.000336567813065,-0.000139395066071,-0.000283314322587,-2.17354881897e-05,5.83265864407e-05,-0.000155781657668,0.468970196641,-0.00608738948978,0.134150276598,0.00727950120682,0.937017436507,0.349156461109,-0.00592434781783
0.140925019979,0.0986793935299,-0.14790789783,-2.49978160858,-0.00630618166178,2.59147405624,-0.714324295521,0.0547870136797,3.35571530741e-05,-0.000377688353183,0.0025943913497,0.000300681946101,-2.38309094129e-05,-1.77977544809e-05,0.00013557416969,0.468970052596,-0.00607832879207,0.134149840228,0.00727869075608,0.937014068064,0.349165524446,-0.00592394590186
0.140924334526,0.098682962358,-0.147857934237,-2.49978423119,-0.00630678981543,2.59147357941,-0.7143227458,0.0547870136797,0.000299839972286,-0.000953287642915,0.000650485220831,-0.000621549668722,9.31255199248e-05,0.000123974779854,-3.47711284121e-05,0.468967925521,-0.00605475083228,0.134146700699,0.00727560788938,0.937005763072,0.349187828606,-0.00592668036131
0.140925854445,0.0986801832914,-0.147844389081,-2.4997792244,-0.00630665756762,2.59147334099,-0.714324176311,0.0547870136797,-0.000126924336655,0.00054751028074,0.000166969926795,-1.1891585018e-05,-9.83717200143e-06,-0.00011543763685,-0.000215495427256,0.468971004021,-0.0060473612804,0.134149654761,0.00727610895311,0.937002930411,0.349195483507,-0.00592288980944
0.140924155712,0.0986788347363,-0.147832125425,-2.49977850914,-0.00630635488778,2.59147405624,-0.71432363987,0.0547870136797,-8.5027750174e-06,0.000353466690285,0.00120055489242,-2.32431866607e-05,6.8923793151e-05,-7.29767925804e-05,-9.438736015e-06,0.468971734885,-0.00604262301553,0.134150527746,0.00727589385046,0.937001409201,0.349199595357,-0.00592138598945
0.140924111009,0.0986805856228,-0.147815585136,-2.49978280067,-0.00630593439564,2.59147238731,-0.714326798916,0.0547870136797,0.00018665920652,0.000742342846934,0.00223848386668,-0.00010945397662,-1.88631176457e-07,-0.000107588421088,0.000404783757403,0.46896899155,-0.00603416900899,0.134147907869,0.00727377491883,0.936997887926,0.349209030978,-0.00592474393976
0.140924081206,0.0986800044775,-0.147789150476,-2.499781847,-0.00630634045228,2.59147310257,-0.714324653149,0.0547883249819,-4.91413993586e-05,0.0037409698125,1.53890086949e-05,0.000273171754088,0.000119790049212,6.99751908542e-05,-9.58419406061e-08,0.468969830561,-0.00602133036434,0.134148391959,0.0072730422809,0.936993623708,0.349220511666,-0.00592333555806
0.140923932195,0.0986798480153,-0.147763699293,-2.49977946281,-0.00630664080381,2.59147238731,-0.714324831963,0.0547883249819,0.000225616953685,-0.000364754610928,0.000209701320273,-0.000290447060252,-4.18167546741e-05,4.77796202176e-05,-0.000100244556961,0.468970990615,-0.00600903235073,0.134149071503,0.00727227933257,0.936989160161,0.349232523593,-0.00592214873729
0.1409252882,0.098680332303,-0.147741794586,-2.49978399277,-0.00630717957392,2.59147238731,-0.714325249195,0.0547883249819,-0.00264734285884,0.00132081471384,0.000532496604137,3.86281353713e-05,-8.39930216898e-05,-5.53119680262e-05,0.00020687012875,0.468968684751,-0.00599779305251,0.134147079524,0.00727056733034,0.936984965991,0.349243776502,-0.00592423983937
0.140926033258,0.0986768677831,-0.147723197937,-2.49978256226,-0.00630691926926,2.59147286415,-0.714326679707,0.0547883249819,8.42712979647e-05,0.000219973851927,0.001633543754,5.07012700837e-05,4.32286360592e-05,5.33773018105e-05,8.79489452927e-05,0.468970258649,-0.00598829342219,0.134149104187,0.00727037063374,0.936981412114,0.349253363796,-0.00592137027171
0.140923053026,0.0986813306808,-0.14769423008,-2.49978089333,-0.00630527595058,2.5914721489,-0.714325606823,0.0547883249819,-3.60273261322e-05,-0.000541283574421,0.00151692563668,-0.000458446738776,8.65178517415e-05,-3.03391771013e-05,1.73019034264e-05,0.468970764301,-0.00597761698752,0.134148002549,0.0072687116433,0.936977926385,0.349262737322,-0.00592210282469
0.140925556421,0.0986823886633,-0.147680282593,-2.49978470802,-0.00630703056231,2.59147310257,-0.714328050613,0.0547883249819,-0.000118763142382,0.000541552144568,-0.000269557262072,-0.000115968068712,0.00290117692202,0.00012485642219,-0.000140059433761,0.468968274013,-0.00596781932469,0.134145498568,0.00726752334631,0.936973774758,0.349273861148,-0.00592436705812
0.140926808119,0.0986802205443,-0.147658377886,-2.49978280067,-0.00630650715902,2.59147357941,-0.714327216148,0.0547883249819,-4.48725899105e-07,-0.000137105205795,-4.34047215094e-05,0.000603004358709,6.36108325125e-06,-1.70179810084e-05,-0.000195164961042,0.468969846607,-0.00595649886569,0.134147068638,0.00726706747574,0.93696998932,0.349284068501,-0.00592182590706
0.140924960375,0.0986786410213,-0.147634282708,-2.49978065491,-0.00630682660267,2.59147453308,-0.714327216148,0.0547883249819,0.000222214846872,0.00096148630837,0.00366299063899,0.000336753553711,2.44905750151e-05,4.80353992316e-05,5.4964912124e-05,0.468971516701,-0.00594561567708,0.134148477261,0.00726676795794,0.93696608978,0.34929457805,-0.00591930038758
0.140926986933,0.0986787080765,-0.147605076432,-2.49978303909,-0.00630642240867,2.59147357941,-0.714328408241,0.0547883249819,0.000182834104635,0.000430145621067,0.000406786653912,-0.000533643993549,1.87529967661e-05,-5.65050831938e-05,0.000417021481553,0.468970193546,-0.00593046087868,0.134147307886,0.00726475612539,0.936960520804,0.349309538745,-0.00592043919809
0.140922516584,0.0986803844571,-0.147556960583,-2.49978137016,-0.00630591483787,2.59147381783,-0.714327633381,0.0526219829917,0.000106874147605,-0.00050185789587,0.000768581638113,-0.00043533850112,0.000148589126184,0.000102233294456,0.00515039730817,0.468970883836,-0.00590919177185,0.134146805405,0.00726260719324,0.936953160682,0.349329338384,-0.00591964981515
0.140925511718,0.0986823514104,-0.147542998195,-2.49978280067,-0.00630489969626,2.59147262573,-0.714329063892,0.0526219829917,0.000516422383953,0.000620595121291,0.000481737341033,-0.000437292008428,-5.61018032386e-06,-8.8765656983e-05,0.000262743822532,0.4689695733,-0.00590101989441,0.134145181717,0.00726106203064,0.936950111596,0.349337516497,-0.00592153794225
0.140926539898,0.0986797809601,-0.147526815534,-2.49978399277,-0.00630656117573,2.59147310257,-0.714329302311,0.0526219829917,-0.000108453015855,0.000239366330788,0.00160922470968,-0.000115700167953,-0.000120178461657,-1.57927479449e-05,4.72950068797e-06,0.468969638086,-0.00589266724941,0.134145876812,0.00726088333154,0.936946839365,0.349346313352,-0.00592054146189
0.140925437212,0.098678894341,-0.147455453873,-2.49978375435,-0.00630677258596,2.5914747715,-0.714329659939,0.0526219829917,-0.000157530390425,-7.9436103988e-05,0.00049778650282,-0.000253750535194,-0.000123428486404,-9.04462649487e-06,0.000174981672899,0.468970513904,-0.00585847717737,0.134146013429,0.00725813623657,0.936934557856,0.349379346841,-0.00591822954603
0.140923216939,0.0986802056432,-0.147441089153,-2.49978017807,-0.00630600098521,2.59147310257,-0.714329063892,0.0526219829917,0.000202328854357,0.00075642025331,-0.000181430164957,0.000286655820673,-0.000133162378916,0.000145755679114,0.000175876382855,0.468971727836,-0.00585253659118,0.134146432384,0.00725749773738,0.936932671142,0.349384428497,-0.00591770933822
0.140925124288,0.0986783280969,-0.147423520684,-2.49978351593,-0.00630688108504,2.59147357941,-0.71433031559,0.0526219829917,-4.1731276724e-05,0.000249176839134,-0.000695915543474,-0.000145851125126,-3.50224727299e-05,-0.000103659964225,-6.49627691018e-05,0.468970580401,-0.00584309132642,0.134146032076,0.00725661178712,0.936928942389,0.349394441741,-0.005917961255
0.140923410654,0.0986774638295,-0.147410959005,-2.49978375435,-0.00630680238828,2.5914721489,-0.714329361916,0.0526219829917,-0.000485563505208,8.12504804344e-05,-0.000178550078999,0.000471788021969,-0.00015071730013,-8.63697423483e-05,-0.000187654586625,0.468970344476,-0.00583776428264,0.134146135066,0.00725582320264,0.936927243455,0.349399010919,-0.00591813800445
0.140924617648,0.098677136004,-0.147391453385,-2.49977040291,-0.00630653975531,2.59148335457,-0.714330554008,0.0526219829917,2.16764578909e-06,-0.00212542060763,-0.000354106770828,0.000716872338671,9.33877672651e-05,-0.00425816327333,5.48064235772e-07,0.468979682706,-0.00582765106681,0.13415187426,0.00725924246184,0.936923484045,0.349409222955,-0.00590618690852
0.140924319625,0.0986752584577,-0.147384732962,-2.49974560738,-0.00630657374859,2.59149098396,-0.714330911636,0.0526219829917,-4.50454572274e-05,0.000154675799422,-0.00285967648961,0.000846815528348,-9.48227389017e-05,-6.19121783529e-05,0.000363439059583,0.468994890367,-0.00582412814643,0.134162631585,0.00726508454966,0.936922241124,0.349412717188,-0.00588943019002
0.140924692154,0.0986756682396,-0.147376835346,-2.49974250793,-0.00630700401962,2.59149670601,-0.71433109045,0.0526219829917,0.000491626095027,-0.00061841175193,-9.03963664314e-05,-0.000901284569409,-0.000477697612951,1.25101278172e-05,0.000438194809249,0.468997044065,-0.00582040549586,0.134163541671,0.00726613485913,0.936920784316,0.349416659178,-0.00588601527784
0.140923142433,0.0986766219139,-0.147365391254,-2.49975395203,-0.00630719354376,2.59149765968,-0.714332222939,0.0526219829917,-0.00046071613906,0.000963211932685,7.24372512195e-05,0.000379774952307,-8.58392086229e-05,-1.10280643639e-05,-0.000143775629112,0.468991308266,-0.00581562772521,0.134159026658,0.00726369000816,0.936918834498,0.349421849971,-0.00589124934532
0.140920415521,0.0986788123846,-0.147357046604,-2.4997522831,-0.00630665756762,2.59150457382,-0.714333236217,0.0478578656912,1.59178966896e-06,-0.000329833157593,0.00035271976958,-0.000178791349754,3.09913120873e-05,-2.58099953498e-05,-1.32030218083e-05,0.468993247678,-0.00581287638852,0.134159145646,0.00726444264182,0.936917758917,0.349424770635,-0.00588814505025
0.140922904015,0.0986778214574,-0.147353455424,-2.49975204468,-0.00630675395951,2.59150743484,-0.714333772659,0.0478578656912,-0.000132682835101,0.00382014131173,-0.000478876085253,0.00063538789982,4.6561279305e-05,4.18906165578e-05,-0.00531134521589,0.468994216644,-0.00580993500202,0.13415991259,0.0072649583723,0.936916595623,0.349427912486,-0.00588616071662
0.140924945474,0.0986753255129,-0.147344052792,-2.49974894524,-0.00630612485111,2.59150767326,-0.714335203171,0.0478578656912,-1.77993970283e-05,0.000201350776479,0.00108186830766,-0.000131364809931,5.97870421188e-05,-4.25376383646e-05,0.00527240429074,0.468996366953,-0.00580430497654,0.134162127063,0.00726524198114,0.936914462137,0.349433677114,-0.00588318632994
0.140926495194,0.0986762270331,-0.147337213159,-2.49975013733,-0.00630726898089,2.59150719643,-0.714333713055,0.0478578656912,0.000163885997608,0.000490695005283,0.000356710806955,-0.000515891297255,0.000115975155495,-5.78245526413e-05,-0.000154579378432,0.46899586396,-0.00580045390232,0.134161528336,0.00726500804322,0.936913136609,0.349437223448,-0.00588393261963
0.140924736857,0.0986762866378,-0.147329032421,-2.49975252151,-0.0063071064651,2.59150910378,-0.714335441589,0.0478578656912,3.92998008465e-05,0.00299496925436,0.000330754439346,-0.000615432218183,7.58379683248e-05,0.00549592776224,3.24983302562e-05,0.468994728685,-0.00579717286853,0.134160426824,0.00726431257772,0.936911696541,0.349441088791,-0.00588453891051
0.140923902392,0.0986763313413,-0.147325947881,-2.49975037575,-0.0063056871295,2.5915081501,-0.71433442831,0.0478578656912,-0.000292061158689,-0.000279012630926,0.000242442780291,-0.000585872970987,-8.48938871059e-05,-0.00137252861168,0.000170818108018,0.468995599362,-0.0057960065785,0.134161064743,0.00726403886587,0.936911699749,0.349441097887,-0.00588382585826
0.140924304724,0.098677046597,-0.147323280573,-2.49975299835,-0.00630696117878,2.59151077271,-0.714336454868,0.0478578656912,5.11642865604e-05,0.00290228612721,-2.7226848033e-05,0.000365094048902,7.2509959864e-05,-2.36880441662e-05,-0.000216054962948,0.468994719317,-0.00579459363674,0.134160008754,0.00726413904537,0.936910615668,0.349443995066,-0.00588426121014
0.140920862556,0.0986779332161,-0.147321909666,-2.4997522831,-0.00630680844188,2.59151053429,-0.714336037636,0.0478578656912,0.000583956076298,0.00020240205049,-0.000806093215942,0.000658375851344,3.09335555357e-05,-0.000217178399907,-1.69902541529e-05,0.468994838067,-0.00579555904671,0.13415982202,0.00726402134691,0.936911072465,0.349442769617,-0.00588444863353
0.140922263265,0.0986764580011,-0.147310450673,-2.49975132942,-0.00630684383214,2.59151291847,-0.714337289333,0.0453579351306,0.000263735098997,-0.000288377283141,-0.000179580820259,-0.000313272874337,0.000123057470773,0.00155900383834,0.000132151457365,0.468996176433,-0.00578928631698,0.134160971269,0.00726425688307,0.936908619904,0.349449381475,-0.00588200604199
0.140920698643,0.0986756235361,-0.147310078144,-2.4997484684,-0.00630689924583,2.59151291847,-0.714337766171,0.0453579351306,-0.000344519765349,0.000188768419321,0.000224169838475,-7.97536049504e-05,-0.000266335555352,-0.000243145725108,0.000140862262924,0.468997778561,-0.00578981139419,0.134162374239,0.00726484449557,0.936908740901,0.349449074097,-0.00588026849492
0.14092117548,0.0986758098006,-0.147310137749,-2.49974894524,-0.00630645081401,2.59151244164,-0.714337468147,0.0453579351306,-0.000151507541887,-0.000218749642954,0.000400499702664,-0.000373726157704,-1.13599326141e-05,1.69042541529e-05,8.22898255137e-06,0.468997398839,-0.00578960602943,0.134162076878,0.00726455283754,0.936908787142,0.349448947888,-0.00588076135239
0.140922144055,0.0986748933792,-0.147301524878,-2.49974584579,-0.0063071846962,2.59151697159,-0.714338541031,0.0453579351306,-0.000569831754547,0.000692295434419,-0.000151298503624,0.000578080071136,-5.50453842152e-05,-3.70958732674e-05,-8.79054205143e-05,0.469000171429,-0.00578495456735,0.134163937769,0.00726578152186,0.936906828102,0.349454243164,-0.00587669080061
0.140923500061,0.0986756458879,-0.147295489907,-2.49974536896,-0.00630703661591,2.59151792526,-0.714340806007,0.0453579351306,0.000356822623871,8.06652969914e-05,0.000344417872839,-0.000564825139008,4.65318444185e-05,0.000290984462481,3.69382996723e-06,0.46900049957,-0.00578139759763,0.134163798745,0.00726564097198,0.936905167837,0.34945870402,-0.00587629244506
0.140928819776,0.0986731871963,-0.147288262844,-2.49974632263,-0.00630726991221,2.5915184021,-0.714340686798,0.0453579351306,0.000116188261018,-0.000325959146721,0.00110557570588,-0.000595864199568,-6.65085171931e-05,-3.24895372614e-05,0.000403896789066,0.469000658757,-0.00577533149313,0.13416458938,0.00726556470331,0.936902977404,0.349464596271,-0.00587521403792
0.140926599503,0.0986746028066,-0.147254049778,-2.49974226952,-0.00630709901452,2.5915210247,-0.714344918728,0.0453579351306,-0.000103486701846,-0.000987095874734,1.18374155136e-05,-0.000117813433462,4.35120964539e-05,3.90641935155e-06,0.000452624401078,0.469003093397,-0.00575976092671,0.134165362388,0.00726498424528,0.936896709629,0.349481460475,-0.0058723045296
0.140927523375,0.0986748114228,-0.147242352366,-2.49974250793,-0.00630724849179,2.59152150154,-0.714348375797,0.0453579351306,-4.18767413066e-05,-0.000366249441868,0.000305319699692,-0.000100521661807,-5.52460587642e-05,-8.58945786604e-05,0.000270385877229,0.469003018411,-0.00575404906883,0.134165013827,0.00726449446876,0.936894068337,0.349488551555,-0.0058722954504
0.140927508473,0.0986772254109,-0.147230669856,-2.49974370003,-0.00630701892078,2.59152126312,-0.714348077774,0.0453579351306,0.00326937669888,-0.000521792040672,0.00113481655717,-0.000315253710141,-6.20743448962e-05,5.82512293477e-05,-0.000247754971497,0.469001981322,-0.0057480423174,0.134163493067,0.00726340849297,0.936891943042,0.349494245996,-0.00587381146375
0.140926703811,0.0986785665154,-0.147218093276,-2.49974632263,-0.00630760518834,2.59152197838,-0.714348256588,0.0453579351306,-0.000396065850509,0.00151120207738,0.000376749259885,-0.000261322304141,-8.087324386e-05,-3.37969868269e-05,0.000163036282174,0.469000581687,-0.00574237165391,0.134161911282,0.00726249543971,0.936889774812,0.349500053328,-0.00587523801832
0.140926122665,0.098679125309,-0.147195756435,-2.49974489212,-0.00630765547976,2.59152340889,-0.714351058006,0.0442238748074,0.000405198195949,0.000393536494812,0.000104901504528,0.000319826300256,-4.50464976893e-05,-6.78078959027e-06,-7.26231664885e-05,0.469001571324,-0.00573179806608,0.134162128211,0.00726193230692,0.936885500185,0.349511546576,-0.00587387249876
0.140927746892,0.0986767858267,-0.14718541503,-2.49974417686,-0.00630758795887,2.59152340889,-0.714353442192,0.0442238748074,7.12719920557e-05,6.04925617154e-06,3.46045562765e-05,0.000324693712173,7.91569400462e-05,3.83250735467e-05,-0.000186794015463,0.469002433142,-0.00572593951064,0.134163394422,0.00726182412887,0.93688302298,0.34951821638,-0.0058722454341
0.140926077962,0.0986757799983,-0.147180959582,-2.49974346161,-0.00630772998556,2.59152340889,-0.714355289936,0.0442238748074,0.00011431027815,0.00306196836755,-3.61618185707e-05,-0.000107337822556,-5.7383938838e-05,6.02945401624e-05,0.000144082398037,0.469002932996,-0.00572429089286,0.134164127329,0.00726187690057,0.936882151535,0.349520566078,-0.00587135881692
0.14092245698,0.0986742600799,-0.147175371647,-2.49974703789,-0.0063078799285,2.59152317047,-0.714355409145,0.0442238748074,-0.000203324059839,-0.0019637059886,0.000291940988973,-7.39461029298e-05,6.15593526163e-05,7.72787752794e-05,0.000364584935596,0.46900128574,-0.00572339038672,0.134163307803,0.0072610733748,0.936881792724,0.349521524634,-0.00587254455592
0.140921995044,0.0986750721931,-0.147176504135,-2.49974370003,-0.00630638794973,2.59152412415,-0.714357495308,0.0442238748074,8.72630189406e-05,-9.07670691959e-05,-0.000107452404336,5.4404441471e-05,-9.43220366025e-05,0.000230301928241,-0.00029208950582,0.469003161798,-0.00572420802149,0.134164356929,0.00726149525264,0.936881960585,0.349521097808,-0.00587064652399
0.140922188759,0.098675891757,-0.147171199322,-2.49974441528,-0.00630787108094,2.59152412415,-0.714356780052,0.0442238748074,-3.77163451049e-05,0.000217102526221,0.000120754775708,-8.25550159789e-05,-2.2068297767e-05,-0.000147887534695,-0.000304901710479,0.469002623857,-0.00572154325777,0.134163608584,0.0072613598114,0.936880853023,0.349524054817,-0.00587151452425
0.140926212072,0.0986769497395,-0.147163048387,-2.49974513054,-0.00630756281316,2.59152460098,-0.714357972145,0.0442238748074,-1.49298366523e-05,0.000187518686289,0.000193807907635,-0.000266200629994,-6.86298735673e-05,2.06848344533e-05,0.000200060618226,0.469002237644,-0.00571579060402,0.134162924534,0.00726081122166,0.936878619415,0.34953004649,-0.0058719154568
0.140924289823,0.0986774265766,-0.147157356143,-2.49974346161,-0.00630766199902,2.59152364731,-0.714359283447,0.0442238748074,0.000157098140335,-0.00124602660071,0.0015452435473,0.000277912127785,-0.000142654331285,4.2051600758e-05,0.000110191111162,0.469002312249,-0.00571466892458,0.134162489074,0.00726051633753,0.936877867995,0.349532052916,-0.00587273646698
0.140921607614,0.0986751690507,-0.14715090394,-2.49974489212,-0.00630851555616,2.59152698517,-0.714359939098,0.0441910400987,-0.000137900715345,0.000225824813242,0.000609141774476,7.33711494831e-05,3.64259831258e-05,0.000126261453261,0.000227688651648,0.469003241379,-0.00571203020858,0.134163956634,0.00726112417119,0.936876833578,0.349534862913,-0.00586975936036
0.140924051404,0.0986758545041,-0.147147029638,-2.49973845482,-0.00630844477564,2.59152889252,-0.714364647865,0.0441910400987,0.000181727096788,0.00193356431555,-0.000197649744223,-5.78141662118e-05,-4.48094433523e-05,5.66697162867e-05,1.64927114383e-05,0.469006803441,-0.00570899900999,0.134166069127,0.00726232710919,0.93687492151,0.34954002369,-0.00586613804158
0.140926271677,0.0986779779196,-0.147143229842,-2.49974560738,-0.00630850484595,2.5915210247,-0.714364826679,0.0441910400987,-0.000133631328936,0.000682013400365,-0.000423018529546,-0.00135457015131,1.55998823175e-05,-0.000979666248895,8.30674543977e-05,0.469001067648,-0.00570620096175,0.134161829108,0.00725930385966,0.936873824673,0.349542891813,-0.00587414833532
0.140919730067,0.0986785963178,-0.147143229842,-2.4997856617,-0.00630864175037,2.5915081501,-0.714363276958,0.0441910400987,-0.000382174359402,0.000705518817995,-0.000191362880287,-0.00181804480962,-3.29169597535e-05,-0.00284890201874,7.97296524979e-05,0.46897784104,-0.00570940542206,0.134146164401,0.00724990026794,0.93687520195,0.349538972958,-0.00589923612382
0.140917152166,0.0986784994602,-0.147142022848,-2.499781847,-0.00630820728838,2.59150886536,-0.714363336563,0.0441910400987,0.000474311324069,-1.56115493155e-06,0.000163620599778,0.00205598934554,-1.56119513122e-05,0.000132564309752,-0.00468416512012,0.468983296078,-0.0057095692877,0.13415036408,0.00725177353286,0.936875226298,0.349538961589,-0.00589373790726
0.140922933817,0.0986763164401,-0.147140309215,-2.49976181984,-0.00630794325843,2.59150910378,-0.714365243912,0.0425428077579,0.000314415025059,0.000482247793116,0.000210712503758,-0.00095592107391,-0.000102772872197,-8.6058927991e-05,0.000194562235265,0.46899057455,-0.00570633433781,0.134155772067,0.00725424288695,0.936873914242,0.34954255039,-0.00588641882057
0.140918627381,0.0986761897802,-0.147138208151,-2.49978160858,-0.00630891649053,2.59150695801,-0.714369058609,0.0425428077579,-0.000440975854872,-0.00114262884017,-0.00229544681497,0.00144947238732,0.000156852169312,0.000214632309508,0.000158663387992,0.468980109816,-0.00570741742405,0.134148584538,0.00725048826819,0.936873480862,0.349543616508,-0.00589670433587
0.140918523073,0.098676726222,-0.147138744593,-2.4997625351,-0.00630768062547,2.59150767326,-0.714367747307,0.0425428077579,0.00305649405345,0.000445252138888,-3.08919843519e-05,0.000428009603638,2.5932706194e-05,4.4362324843e-05,-0.000145191166666,0.468989797807,-0.00570764729147,0.134155192229,0.0072536672538,0.93687401426,0.349542274339,-0.00588760143822
0.140919223428,0.0986766219139,-0.147135704756,-2.4997780323,-0.00630883965641,2.59150743484,-0.714370071888,0.0425428077579,-0.000598900311161,-7.8717188444e-05,0.000154278008267,0.000192997526028,8.31253491924e-05,0.000116511488159,0.000134736634209,0.46898194742,-0.00570592088651,0.134149681249,0.00725102670035,0.936872776509,0.349545522294,-0.00589497897935
0.140920192003,0.0986764878035,-0.147132605314,-2.49977898598,-0.00630868365988,2.59150743484,-0.714371144772,0.0425428077579,0.000347994558979,-0.00023312625126,0.000109913911729,-0.000141785494634,4.12979788962e-05,-0.00211146962829,-1.41970795084e-05,0.468981506478,-0.00570395236432,0.134149381898,0.00725069379009,0.93687190532,0.349547858774,-0.00589530100939
0.14092078805,0.0986761301756,-0.147130817175,-2.49977707863,-0.0063085174188,2.59150719643,-0.714372694492,0.0425428077579,-3.18219281326e-05,-0.000147526734509,0.000232630642131,0.000517634558491,-6.6054499257e-06,0.000662557547912,-0.000122961311718,0.468982497058,-0.00570278293051,0.134150193428,0.00725090489183,0.936871247058,0.349549635423,-0.00589430881858
0.140920564532,0.0986773297191,-0.147130191326,-2.49977087975,-0.0063085258007,2.59150791168,-0.714372813702,0.0425428077579,0.000392112502595,-0.000712768465746,0.00179187895264,-0.000476561370306,-1.8099344743e-05,-2.76545397355e-05,-0.000139986732393,0.468985551062,-0.00570260164573,0.134151902202,0.00725197357708,0.936871153639,0.349549908378,-0.0058916549438
0.140920773149,0.0986770316958,-0.147130414844,-2.49977612495,-0.00630864361301,2.59150886536,-0.714373648167,0.0425428077579,-0.000179518363439,0.00156732660253,-0.000512707862072,-4.8718356993e-05,-1.07446885522e-05,6.59926299704e-05,-0.000212087645195,0.468983168964,-0.00570261973012,0.134150257025,0.00725127872764,0.93687099107,0.349550326883,-0.00589353124684
0.140919178724,0.0986798480153,-0.147128477693,-2.49976992607,-0.00630824221298,2.59150838852,-0.714374244213,0.0425428077579,0.000315497600241,-0.000808358308859,8.51669483382e-06,-0.000474839092931,0.000135679365485,0.00319150299765,-0.00455609569326,0.468985638988,-0.00570247474223,0.134151103513,0.0072518015796,0.936870882947,0.349550628699,-0.00589217468434
0.140920117497,0.0986777469516,-0.14712703228,-2.49976968765,-0.00630873115733,2.59150719643,-0.714374601841,0.0425428077579,0.00320519716479,0.000949818058871,9.53644848778e-05,-0.00033566262573,0.000111984583782,-0.000157476912136,-0.000121415243484,0.468985921009,-0.00570129370789,0.134152049154,0.00725191567773,0.936870338856,0.349552093973,-0.00589161919139
0.140918761492,0.0986776351929,-0.147126346827,-2.49977517128,-0.00630875770003,2.59150767326,-0.714375376701,0.0425428077579,0.000217584267375,-0.000135288719321,-0.00048965762835,0.000299529230688,4.20219585067e-05,-0.000598667480517,0.000107858431875,0.468983270816,-0.00570160661656,0.134150184945,0.00725100756892,0.936870315511,0.349552136843,-0.00589390521123
0.140918672085,0.0986766517162,-0.147127985954,-2.49977040291,-0.00630844058469,2.59150743484,-0.714377462864,0.0425428077579,-0.000374396739062,-8.91202071216e-05,0.00110754719935,-0.000307010224788,-1.1866353816e-05,0.00177422317211,-0.000127717517898,0.468985816493,-0.00570239444166,0.134152329337,0.00725190793943,0.936870304443,0.3495521916,-0.00589130870289
0.140919148922,0.0986756831408,-0.147126019001,-2.49977684021,-0.00630863057449,2.59150743484,-0.714378714561,0.0425428077579,0.000181433671969,0.000460173905594,-0.000381640071282,-0.000363580824342,-8.59566262079e-06,-9.06789573492e-05,1.49794996105e-05,0.468982762569,-0.00570121033156,0.134150472475,0.0072508249001,0.936869632807,0.349553971547,-0.00589383783628
0.14091975987,0.0986799001694,-0.147125259042,-2.4997754097,-0.00630840938538,2.59150695801,-0.714379191399,0.0424311719835,-0.00310692680068,-0.000295033212751,5.25745090272e-05,0.00040957951569,-8.23888476589e-05,0.000235719475313,-2.604445217e-05,0.468982556261,-0.00570066078448,0.134148980257,0.00725045543729,0.936869330437,0.349554762942,-0.00589541965136
0.140919491649,0.0986758694053,-0.147123754025,-2.49977350235,-0.00630867574364,2.59150743484,-0.714380085468,0.0424311719835,-0.000130869346322,-0.00368683109991,-1.20996146507e-05,0.000384819490137,-3.38720783475e-05,1.93327505258e-05,-0.000243579401285,0.468984421253,-0.00569994769423,0.134151558706,0.00725130256953,0.936868933934,0.349555859921,-0.00589234433998
0.140917763114,0.0986764505506,-0.147125512362,-2.49977564812,-0.00630834978074,2.59150791168,-0.714379489422,0.0424311719835,-0.000261926965322,0.00047156677465,-9.8439057183e-05,0.000201749862754,-9.41895414144e-05,0.00655270647258,5.68554569327e-05,0.468983322844,-0.00570142646831,0.134150598422,0.00725092745907,0.93686961857,0.349554015346,-0.00589337704472
0.140920713544,0.0986787229776,-0.147125214338,-2.49977040291,-0.00630810903385,2.5915081501,-0.714380264282,0.0424311719835,4.41057782155e-05,0.00103453162592,-0.000217923283344,0.000263055408141,7.4443538324e-05,0.000591122487094,-0.000180728631676,0.468985585462,-0.00570013342728,0.134151411471,0.00725160304845,0.936869019834,0.349555630659,-0.00589191728991
0.140917316079,0.0986775904894,-0.147122964263,-2.499771595,-0.00630853930488,2.59150695801,-0.71437984705,0.0424311719835,-0.000334957934683,0.00010536427726,0.00040625128895,-9.78969983407e-05,0.000197987159481,0.000240522465901,-3.14540957334e-05,0.468984931516,-0.00570062299758,0.134151393075,0.00725129846736,0.936869234333,0.349555052268,-0.00589249947514
0.140914574265,0.098675340414,-0.147124379873,-2.49976968765,-0.00630814069882,2.59150695801,-0.714381039143,0.0424311719835,0.000500068359543,-0.000303445209283,0.000309407711029,0.0011017145589,7.19443996786e-05,-0.0054818270728,2.60548440565e-05,0.468986318609,-0.00570251392137,0.134153124906,0.00725183387508,0.936869819796,0.349553505619,-0.00589050571025
0.14091783762,0.0986618995667,-0.147123411298,-2.49975991249,-0.00630923639983,2.59150648117,-0.714385807514,0.0424311719835,-9.41270045587e-05,-0.000809233053587,6.07403744652e-05,0.00424202345312,-1.92729257833e-05,-0.0018073489191,-0.000100971279608,0.468993821288,-0.00570015811401,0.134162788577,0.00725514333001,0.936868131912,0.349558142834,-0.00587969105754
0.140931352973,0.0986159965396,-0.147108376026,-2.49972677231,-0.00630868272856,2.59151387215,-0.714386999607,0.0424311719835,3.35276090482e-05,-0.000456193170976,0.00159477477428,0.00275253970176,4.77502362628e-05,3.95489150833e-05,-0.000505299831275,0.469021347015,-0.00568511702684,0.13419640303,0.00726645980079,0.936863202854,0.349571816681,-0.00583801059121
0.140932872891,0.098599255085,-0.147101208568,-2.49970793724,-0.00630899472162,2.59151625633,-0.714387536049,0.0424311719835,-0.000253608362982,-0.000567733251955,-0.00045002772822,0.00080398056889,-0.000167742618942,-5.47675554117e-05,-1.57153699547e-05,0.469034712406,-0.00568041628845,0.134211028252,0.00727176773222,0.936861615176,0.349576264325,-0.00581983774907
0.140929967165,0.0985997989774,-0.14709430933,-2.49970602989,-0.00630782591179,2.5915157795,-0.714388787746,0.0424311719835,1.8199414626e-05,0.000226702453801,0.000183970812941,-0.000552245415747,0.000128989355289,-0.00013054406736,9.8852753581e-05,0.469035467996,-0.00567839049336,0.134211364667,0.00727135724915,0.936860882342,0.349578246763,-0.00581924193126
0.140930831432,0.0986015498638,-0.147084742785,-2.49971055984,-0.00630829995498,2.59151697159,-0.714390993118,0.0424311719835,0.000151106607518,-0.000297527119983,0.000115242226457,0.000137781404192,0.000118522926641,-9.94548972812e-05,-0.000701847311575,0.46903312873,-0.00567341109882,0.134208976048,0.0072702532283,0.936858605168,0.349584333669,-0.00582157024879
0.140925556421,0.0986004918814,-0.147063806653,-2.49971318245,-0.00630794465542,2.59151744843,-0.7143907547,0.0424397103488,-0.0036215048749,0.000401135883294,0.000162896118127,-0.000309324386762,0.0057924259454,4.30409636465e-05,0.000213513209019,0.4690321471,-0.00566566955081,0.134208426257,0.00726893834089,0.936855990064,0.349591366309,-0.00582174417474
0.140923589468,0.0985995605588,-0.147064954042,-2.49971246719,-0.00630857562646,2.5915157795,-0.71439409256,0.0424397103488,-2.92302029266e-05,-0.000805556715932,-7.70058613853e-05,0.000406076898798,1.96335950022e-05,-0.000104366969026,-8.70186340762e-05,0.469032311014,-0.00566714962338,0.134208976538,0.00726906263769,0.936855857831,0.349591716628,-0.00582183192981
0.140926256776,0.0986013188958,-0.147061109543,-2.49970817566,-0.00630849367008,2.59151744843,-0.714395225048,0.0424397103488,0.00347496313043,-0.000601688458119,0.000586593698245,-9.64403661783e-05,4.30337895523e-05,-3.30907460011e-05,1.15264019769e-05,0.46903452601,-0.00566406268844,0.134209807371,0.0072697378984,0.93685453383,0.349595283952,-0.00581983483225
0.140932321548,0.0986036136746,-0.147052899003,-2.49971556664,-0.00630898261443,2.59151554108,-0.714395940304,0.0424397103488,0.00037171546137,-0.000850743323099,0.000267458119197,-0.000365462125046,1.58234543051e-05,-4.67087229481e-05,0.000232077465625,0.469029979021,-0.00565733073004,0.134205888527,0.00726761056106,0.936851838815,0.349602460675,-0.00582521434367
0.140926390886,0.0986014530063,-0.147048026323,-2.49971199036,-0.00630889181048,2.59151649475,-0.714394927025,0.0424397103488,-0.000624816515483,-0.000175962544745,-0.000181651455932,-0.000112830275611,-2.50415341725e-05,9.70418909674e-07,-0.000321653351421,0.469032401211,-0.00565766968764,0.13420821216,0.00726838690714,0.936852228776,0.349601453391,-0.00582198088697
0.140925735235,0.0986030474305,-0.147050082684,-2.49970960617,-0.00630846340209,2.59151649475,-0.714395344257,0.0424397103488,-0.000684585771523,-0.000441643991508,0.000820471032057,1.79072230821e-05,-7.5411357102e-05,0.000178916554432,-0.000147405036842,0.469033652848,-0.00565879451397,0.134208702956,0.00726871389368,0.936852639579,0.34960036064,-0.00582108568087
0.140926197171,0.09860355407,-0.147046998143,-2.49971461296,-0.00630901986733,2.5915157795,-0.714395642281,0.0384517721832,-3.27871202899e-05,-0.000463317148387,0.000216242842725,-8.91512681847e-05,-0.000114745293104,-4.57497772004e-05,-7.8475830378e-05,0.469030507333,-0.00565733182649,0.134206234969,0.00726755326913,0.936851931715,0.349602223672,-0.00582456877734
0.140923723578,0.0985992476344,-0.147045642138,-2.49971246719,-0.00630853418261,2.59151601791,-0.71439987421,0.0384517721832,0.000333245232468,-7.80875143391e-06,-0.00386753911152,-0.000574535923079,-3.75815543521e-05,1.26524491861e-05,0.00015833825455,0.469032481438,-0.00565768790247,0.134209006352,0.00726823899236,0.936851477819,0.349603480021,-0.00582131027353
0.140924736857,0.098603643477,-0.147042870522,-2.49971485138,-0.00630844151601,2.59151768684,-0.714398980141,0.0384517721832,0.00047758850269,0.000484206131659,0.000254650833085,0.000101146091765,1.32737077365e-05,-0.0001855729206,-0.000233442246099,0.469030791573,-0.005655987534,0.134206244545,0.00726749423974,0.936850973655,0.349604806158,-0.00582373473463
0.140926867723,0.0986020863056,-0.147037282586,-2.49971342087,-0.00630920240656,2.59151649475,-0.714400172234,0.0384517721832,9.60008546826e-05,-0.000293416029308,-3.99921964345e-06,-0.000355671887519,-0.000128721643705,4.97703103974e-06,0.000167655452969,0.469031587352,-0.00565225656566,0.134207333732,0.00726764130332,0.936849313291,0.3496092671,-0.00582285324589
0.140929400921,0.0986042246222,-0.147035375237,-2.49971699715,-0.00630891090259,2.59151625633,-0.714399456978,0.0384517721832,0.000365640968084,0.000669841305353,-0.000116701798106,-0.000418974290369,0.00013060013589,-0.000202259630896,4.54172914033e-05,0.469029141413,-0.00564993798306,0.134204788921,0.00726649551546,0.936848623214,0.349611089576,-0.00582588674009
0.140926480293,0.0986046716571,-0.147033169866,-2.4997150898,-0.00630922429264,2.59151649475,-0.714400172234,0.0384517721832,9.57117663347e-05,0.00035483497777,-0.000496499182191,-0.000206425043871,9.89117106656e-05,-4.79965565319e-05,-1.19744427138e-05,0.469030244818,-0.00565051604031,0.13420551191,0.00726688633933,0.936848654168,0.34961101593,-0.00582484111751
0.14092643559,0.0986044034362,-0.147032961249,-2.49971580505,-0.00630905246362,2.5915157795,-0.714401304722,0.0384517721832,-0.000460063136416,0.000690068001859,0.000201208749786,-1.33689036375e-06,6.8586494308e-05,6.97267023497e-06,-0.000343284627888,0.469029779532,-0.00565042414202,0.134205317921,0.00726660870683,0.936848454589,0.349611547785,-0.00582536462119
0.140924662352,0.0986031889915,-0.147032290697,-2.49971842766,-0.00630906922743,2.59151673317,-0.714400231838,0.0384517721832,0.000408267369494,0.00060424534604,-3.89590859413e-05,0.000300803832943,-1.03621732706e-05,-8.79532890394e-05,0.0002900158579,0.469028988609,-0.00565076499274,0.13420504349,0.00726644645764,0.936848818859,0.349610572702,-0.00582550419855
0.140923500061,0.0986055061221,-0.14703334868,-2.49971747398,-0.00630905339494,2.59151649475,-0.71440076828,0.0384517721832,0.000540001725312,-0.000585148343816,0.000215628213482,0.000155936504598,0.0001553484326,-2.41711932176e-05,0.000175728433533,0.469028858484,-0.00565202307763,0.134204277117,0.0072663302047,0.936849124149,0.349609742729,-0.00582636254655
0.140920445323,0.0986046642065,-0.147033542395,-2.49971437454,-0.0063095218502,2.5915157795,-0.714405417442,0.0385798215866,-8.34520033095e-05,-0.000415021320805,0.000240581372054,0.000850137555972,-0.000158404320246,1.71176452568e-05,-0.000224484159844,0.469030899258,-0.00565339931906,0.134206147505,0.00726715168288,0.936848793793,0.349610645362,-0.00582429490708
0.140923365951,0.0986007377505,-0.147031188011,-2.49970841408,-0.00630952976644,2.59151649475,-0.714405834675,0.0385798215866,0.000445579586085,0.000274707272183,0.000221339287236,0.000181787399924,-0.000104106373328,6.42883387627e-05,5.11223297508e-05,0.469034380437,-0.0056508994737,0.134209699355,0.0072684513155,0.936847834162,0.349613264169,-0.00581983197791
0.140929222107,0.0985992476344,-0.147026523948,-2.49971079826,-0.0063093570061,2.59151697159,-0.714404702187,0.0385798215866,-6.53763781884e-05,0.00019287528994,-0.00317691778764,-0.000457046204247,1.31941339987e-06,-8.07246105978e-05,9.54570350586e-05,0.469033500644,-0.00564571694725,0.134209463259,0.00726801001212,0.936846158151,0.349617761591,-0.00582000471264
0.140925779939,0.0985986441374,-0.147026434541,-2.49971246719,-0.0063097612001,2.59151554108,-0.714406311512,0.0385798215866,-0.000241612317041,-0.000174423141289,-0.000524145609234,0.000585749337915,-7.21460455679e-05,-2.25629428314e-05,-6.98032672517e-05,0.469032562422,-0.00564741832253,0.134209110491,0.00726763732635,0.936846474137,0.349616904402,-0.00582109848725
0.140920996666,0.0985979065299,-0.147028476,-2.49971199036,-0.00630926527083,2.59151649475,-0.714407801628,0.0385798215866,-5.13356862939e-05,-0.000233621787629,0.000247945979936,-0.000359380472219,5.33370002813e-05,-2.75559068541e-05,0.00013545944239,0.469033124997,-0.00565061147379,0.134209718967,0.00726792152196,0.936847481909,0.349614215082,-0.0058200735414
0.140924781561,0.0985997989774,-0.147022947669,-2.49971270561,-0.00631034327671,2.59151673317,-0.714407861233,0.0385798215866,-0.000181661846,0.00049182336079,0.000238748514676,3.59872174158e-05,8.83140601218e-05,5.67686838622e-05,8.57023042045e-05,0.469032480701,-0.00564624548166,0.134208569449,0.00726765571398,0.936845679895,0.349619030096,-0.0058212303224
0.140925109386,0.0985972955823,-0.147022619843,-2.49970793724,-0.00630941428244,2.59151721001,-0.714408636093,0.0385798215866,-1.88172016351e-05,0.000323964399286,0.000535635335837,0.000109750137199,1.50365003719e-05,-5.01386239193e-05,8.26096402307e-06,0.469035426543,-0.00564592899306,0.134211518694,0.00726859480658,0.936845670115,0.349619100049,-0.00581742926355
0.140923976898,0.0985951647162,-0.147023096681,-2.49971032143,-0.00630962569267,2.59151673317,-0.714408993721,0.0385798215866,0.000320094433846,-2.6019393772e-05,0.000104767925222,-0.000168987375218,-1.02091971712e-05,5.91506031924e-05,0.000228804827202,0.469034288103,-0.00564621541706,0.134211341562,0.00726829868632,0.93684555902,0.349619391459,-0.00581817668561
0.140923425555,0.0985988005996,-0.147023007274,-2.49971055984,-0.00630948645994,2.59151673317,-0.71441257,0.037984225899,0.000135396665428,0.000522270856891,-0.000407425977755,-0.000443953351351,-0.000118791947898,4.9589201808e-05,-2.56098269347e-06,0.469033753627,-0.00564684361225,0.134209796297,0.00726792075626,0.936845238098,0.349620234216,-0.00581968160774
0.140921339393,0.0985960289836,-0.147021204233,-2.49971485138,-0.00630967225879,2.59151649475,-0.714411318302,0.037984225899,-7.20892276149e-05,0.000120848875667,-0.000527761119884,0.00339027680457,-4.23113524448e-05,3.02347798424e-05,-0.0001159227686,0.469032071691,-0.00564688623135,0.134209519585,0.00726737643815,0.936845488215,0.349619562672,-0.00582044103497
0.140920683742,0.0985969081521,-0.147024586797,-2.49971413612,-0.00630920333788,2.59151625633,-0.714412033558,0.037984225899,0.000369439832866,-0.000294552824926,-0.000229138298891,5.67133683944e-05,-2.8063357604e-05,0.000121710232634,-0.000241280591581,0.469032291206,-0.0056489353125,0.134209600761,0.00726747950609,0.936846148367,0.349617791865,-0.00582042341847
0.140926986933,0.0985984355211,-0.14701846242,-2.49970960617,-0.00630919495597,2.59151721001,-0.714413702488,0.037984225899,3.69387853425e-05,-0.000216018699575,0.000291975069558,-0.000460979208583,5.02474358655e-05,2.9619286579e-05,-0.000205221527722,0.469034445184,-0.00564293908348,0.134210314353,0.00726794352665,0.936843674004,0.349624440655,-0.00581873334553
0.140921458602,0.0986018553376,-0.147020027041,-2.49970889091,-0.00630924291909,2.59151792526,-0.714414179325,0.037984225899,-6.07760339335e-05,0.000116286246339,-0.00171137903817,0.000871536089107,0.00209153536707,2.73535588349e-05,9.44875719142e-05,0.469034254825,-0.00564638722828,0.134209056745,0.00726789337472,0.936844810029,0.34962138016,-0.00581978248755
0.140919700265,0.0985925197601,-0.147019743919,-2.49969506264,-0.00630995444953,2.59151864052,-0.714418113232,0.037984225899,0.000132894303533,-0.00170152494684,0.000558400992304,0.000403565791203,-2.4286147891e-05,4.64632976218e-05,0.000209003745113,0.469043227455,-0.00564680731944,0.134218370061,0.00727161570325,0.936844309356,0.349622831851,-0.0058085081137
0.140922009945,0.0985695943236,-0.147017985582,-2.4996972084,-0.0063100066036,2.59151887894,-0.71441835165,0.037984225899,-0.000195609420189,-0.00112259062007,-0.000288574403385,1.14209376534e-06,0.000129933701828,3.07183108816e-05,-0.00035274180118,0.469046725517,-0.00564423598575,0.134228242467,0.00727367563154,0.936843627437,0.349624787745,-0.00579817677829
0.140924349427,0.0985352396965,-0.147016778588,-2.49970316887,-0.00630962196738,2.59151959419,-0.714420616627,0.037984225899,0.000224559204071,-0.00212853518315,9.36214382818e-06,-0.00036091110087,6.7690598371e-05,1.0943772395e-05,-7.29536768631e-05,0.469050648289,-0.005641590872,0.134242099841,0.00727628180534,0.936842784956,0.349627229156,-0.00578379793457
0.140927448869,0.0985269844532,-0.147013261914,-2.49969172478,-0.00630904687569,2.59152030945,-0.714418768883,0.037984225899,-0.00070236081956,8.2539707364e-05,-0.000488571706228,-0.000360033765901,0.000248941767495,-1.59636674653e-05,-0.000252733065281,0.469058239695,-0.00563814562796,0.134250040129,0.00727903830197,0.936842074266,0.349629238713,-0.00577395955874
0.140920549631,0.0985309332609,-0.147016838193,-2.49969625473,-0.00630941009149,2.59152150154,-0.714417934418,0.037984225899,1.9613204131e-05,-0.000607831927482,0.000223588198423,-0.000157244096044,-7.52832129365e-05,-7.84170915722e-05,6.06180801697e-05,0.469055386301,-0.00564325398836,0.1342467247,0.00727825168611,0.936843977104,0.349624096953,-0.00577755423058
0.140922039747,0.0985282957554,-0.147015988827,-2.49969601631,-0.00630886852741,2.59152078629,-0.714417815208,0.037984225899,0.000119233045552,-0.000124151949422,0.000493953644764,0.000524018134456,-2.61851091636e-05,-3.28699134116e-05,0.000515103398357,0.469057554981,-0.00564053611004,0.134249887622,0.00727890589237,0.936842993585,0.349626772141,-0.00577432149967
0.140926629305,0.0985277295113,-0.147002622485,-2.49969768524,-0.00630934536457,2.5915210247,-0.714419960976,0.037984225899,-3.10956711473e-05,0.000387748412322,-0.00048097159015,0.000427840277553,-5.80873856961e-05,6.55079056742e-05,0.000463254546048,0.469055264289,-0.00563340368463,0.134247559144,0.00727761233309,0.936840111625,0.349634482712,-0.00577665945064
0.14092361927,0.0985274091363,-0.147004872561,-2.49969553947,-0.00630916794762,2.59152030945,-0.714420557022,0.037984225899,-0.000165703007951,6.40879370621e-05,-0.000102500860521,0.00131405924913,6.62254315102e-05,-0.00126478227321,-8.95850898814e-05,0.469056231122,-0.00563588937666,0.134248425617,0.00727795041873,0.93684095321,0.349632233805,-0.0057758631925
0.140922099352,0.09852668643,-0.147004425526,-2.49969649315,-0.00630934350193,2.59152007103,-0.714419662952,0.036936186254,0.000212034850847,0.000531306082848,-5.82945867791e-05,-0.000102809273812,3.04227050947e-05,0.000125739417854,3.64858096873e-05,0.469055831857,-0.00563637440413,0.134248397295,0.00727783769314,0.936841273147,0.349631375292,-0.00577608030211
0.140923500061,0.0985254198313,-0.147002592683,-2.49969553947,-0.00630956701934,2.59152007103,-0.714421391487,0.036936186254,-0.000391911162296,1.04237426513e-06,-0.000217278648051,-2.82124892692e-05,-8.55028847582e-05,0.000166066092788,0.000130342537886,0.4690565761,-0.00563479753579,0.134249311463,0.00727811318697,0.936840378573,0.349633784212,-0.00577501229484
0.140933945775,0.0985247418284,-0.1469925493,-2.49969696999,-0.00630908552557,2.59151983261,-0.714422047138,0.036936186254,0.000460598326754,-0.000243419883191,0.000513784762006,0.000146987542394,4.12964509451e-05,-0.000161072588526,0.000452079606475,0.469055325269,-0.00562698716247,0.134248234792,0.00727722779846,0.936837476607,0.349641558116,-0.00577623626363
0.140934839845,0.0985254049301,-0.146987274289,-2.49969673157,-0.00630988553166,2.5915210247,-0.714422643185,0.036936186254,0.000214173429413,-0.000284940295387,-5.21677902725e-05,-9.91552733467e-05,0.00211731367745,6.6536689701e-05,-0.000244772294536,0.469056293599,-0.00562204525111,0.134248869029,0.00727748462517,0.936835468368,0.34964695585,-0.0057748918275
0.140922963619,0.0985255092382,-0.146993100643,-2.49970149994,-0.00630916189402,2.59152030945,-0.714423835278,0.036936186254,-0.000380632263841,0.000305422116071,-0.00129207863938,-0.000282024673652,0.000113358415547,8.26336981845e-05,1.79618018592e-05,0.469053623327,-0.005630435282,0.134247100679,0.007276552677,0.936838455711,0.349638926706,-0.0057775686737
0.1409111619,0.0985262021422,-0.147001713514,-2.49969935417,-0.00630874326453,2.59152007103,-0.714422047138,0.036936186254,-0.000126777289552,-0.000354170770152,4.96857537655e-05,0.000667960557621,2.82021956082e-05,1.46956790559e-05,-0.000220040339627,0.469053474069,-0.0056396611192,0.134246605177,0.00727677891363,0.936842220218,0.349628826838,-0.00577806510982
0.140929758549,0.0985118374228,-0.146986484528,-2.49969029427,-0.00630965968594,2.59151983261,-0.71442425251,0.036936186254,0.000267686700681,-0.000205658216146,0.000951948692091,0.00155434489716,0.000139957468491,-0.000141616881592,7.90699573372e-07,0.469061927914,-0.00562364327989,0.134257342966,0.00727976385964,0.936836020575,0.349645578757,-0.00576580730464
0.140934690833,0.0985008478165,-0.14698189497,-2.49967837334,-0.00630922196433,2.59151864052,-0.714421570301,0.0369368419051,-0.000503050163388,-0.000284189736703,0.000391317793401,0.00152609474026,-2.45665669354e-05,-0.000117485447845,0.000432259810623,0.469069892572,-0.00561874736704,0.134266548287,0.00728255730254,0.936834937767,0.349648595073,-0.00575529221045
