imanlab/tactile_prediction_flat_dataset/train/data_sample_2021-11-24-16-03-47/robot_state.csv
position_panda_joint1,position_panda_joint2,position_panda_joint3,position_panda_joint4,position_panda_joint5,position_panda_joint6,position_panda_joint7,position_panda_finger,velocity_panda_joint1,velocity_panda_joint2,velocity_panda_joint3,velocity_panda_joint4,velocity_panda_joint5,velocity_panda_joint6,velocity_panda_joint7,ee_state_position_x,ee_state_position_y,ee_state_position_z,ee_state_orientation_x,ee_state_orientation_y,ee_state_orientation_z,ee_state_orientation_w
-0.126438945532,-0.0826980471611,0.104597873986,-2.32927560806,0.0588935315609,2.22124028206,-0.814127624035,0.0746945217252,-1.00415882116e-05,5.25841187482e-06,-0.000469485035865,0.000362947699614,0.00205432809889,-5.00022324559e-05,0.00467280298471,0.489867337156,-0.00440125074338,0.257633692242,-0.0224628616133,0.929245364048,0.368757629365,-0.00403530824076
-0.126435399055,-0.0827051177621,0.104596473277,-2.32933807373,0.0588937439024,2.22124576569,-0.814075350761,0.0746945217252,0.000814085709862,-0.00047119599185,-8.03146031103e-05,-0.00689647998661,-4.07596708101e-05,9.97362221824e-05,-0.000167169651832,0.489844288285,-0.00440000173572,0.257610507662,-0.0224721713622,0.929254660712,0.368733373867,-0.00405903183402
-0.126434400678,-0.0827046111226,0.104597486556,-2.32953715324,0.0588943660259,2.22124934196,-0.81400424242,0.0746945217252,-4.76067943964e-05,-0.000131843378767,0.000188404432265,-0.00626286724582,-3.55438969564e-05,-0.000190159844351,0.000726450001821,0.489754311491,-0.0043964619907,0.257511012179,-0.0225162751475,0.929267744743,0.368696538919,-0.00416386929838
-0.126430034637,-0.08270252496,0.104598544538,-2.32968401909,0.0588939450681,2.22125291824,-0.81398165226,0.0746945217252,-0.000249883218203,-0.000482194649521,-0.000258249929175,-0.00900085549802,-2.53865146078e-05,5.60235832836e-07,0.0023876321502,0.489708329807,-0.00439468743952,0.257459864729,-0.0225384060049,0.929270396148,0.368687896504,-0.00421731591111
-0.126427412033,-0.0827016234398,0.104597859085,-2.32986783981,0.0588937141001,2.2212574482,-0.813955008984,0.0746945217252,-1.61595198733e-05,-0.000524798640981,-0.000264117785264,-0.00813802611083,-7.77729292167e-05,4.74737535114e-05,0.00228496920317,0.489636252842,-0.00439289289918,0.257380136963,-0.0225733217631,0.929274820309,0.368673646785,-0.00430062017208
-0.126418992877,-0.082701548934,0.104596100748,-2.33040857315,0.0588944591582,2.22125887871,-0.813890695572,0.0746932029724,3.43777501257e-05,0.00054804503452,9.07163848751e-05,-0.014694086276,7.38422313589e-05,-7.48246884541e-06,0.00107790064067,0.489421726021,-0.0043868049199,0.257145967257,-0.0226784384105,0.929285065696,0.368638381417,-0.00454956432043
-0.126416146755,-0.0827026069164,0.104596823454,-2.33057951927,0.0588936656713,2.22125911713,-0.813869535923,0.0746932029724,-8.72546661412e-06,0.000380106299417,0.000114072397992,-0.00764960749075,-9.93952562567e-05,6.77422867739e-05,-9.54384813667e-06,0.489353911996,-0.00438430530051,0.257072458955,-0.0227110286544,0.92928806728,0.368627830603,-0.00462810724539
-0.126416951418,-0.0827008485794,0.10459626466,-2.33074951172,0.058894507587,2.22125911713,-0.813848376274,0.0746932029724,-0.000456175592262,-7.59376780479e-05,0.000214773142943,-0.00832798983902,6.81443498252e-06,0.000168097059941,-0.000156241832883,0.489286190804,-0.00438398561566,0.256998000424,-0.0227448067743,0.929292131724,0.368614499936,-0.00470720743915
-0.126403003931,-0.0827001780272,0.104599162936,-2.33117938042,0.0588946603239,2.22126126289,-0.813801229,0.0746938660741,-8.67213093443e-05,-0.000204299358302,0.00018962789909,-0.0117471832782,0.00515310140327,-0.00016023174976,0.000564509944525,0.489115714266,-0.00437359213722,0.256811745842,-0.0228279510407,0.929297297893,0.368593754338,-0.00490517355801
-0.126384615898,-0.0827004164457,0.104599915445,-2.33137011528,0.0588939525187,2.22126173973,-0.813769102097,0.0746938660741,0.000380816520192,-6.46372864139e-05,0.000315083394526,-0.00291613256559,-4.13822199334e-05,-1.23048384921e-05,0.00385723239742,0.489040028696,-0.00436336332651,0.256729347765,-0.0228644928753,0.929299405537,0.368584991245,-0.00499337032137
-0.126374691725,-0.0827018246055,0.104598864913,-2.33144450188,0.0588939487934,2.22126126289,-0.813746392727,0.0746938660741,0.000638606783468,8.69217037689e-05,-0.000523277325556,-0.00523369060829,-5.85010639043e-06,3.24122593156e-05,0.00299423513934,0.489010469359,-0.00435864426816,0.256697808601,-0.022878682651,0.929301867166,0.36857743955,-0.0050275541126
-0.126365348697,-0.0827041789889,0.104598417878,-2.33153533936,0.0588931851089,2.22126293182,-0.813713014126,0.0746938660741,0.000599681341555,-0.000242734022322,0.000222163769649,-0.00462607992813,-3.56039672624e-05,8.15125385998e-05,0.000502584676724,0.488974900396,-0.00435397148012,0.256659782053,-0.0228950682984,0.929306214955,0.368564903254,-0.00506818192553
-0.126359671354,-0.0827034711838,0.104598082602,-2.33156704903,0.058893609792,2.22126531601,-0.813695788383,0.0746938660741,0.00153395335656,-0.000151948814164,0.0001097856657,-0.00385089707561,5.68617797398e-05,-0.000118200776342,0.000537465210073,0.488962779979,-0.00435117624548,0.256645916642,-0.022901011416,0.92930843285,0.368558748798,-0.00508219232382
-0.12634947896,-0.0827036798,0.104598172009,-2.33160400391,0.0588943250477,2.22126460075,-0.813667476177,0.0746938660741,0.000970155815594,-0.000434231798863,-0.000333289179252,-0.00158020993695,-6.39084682916e-05,3.56050841219e-05,0.00557329086587,0.488947979566,-0.00434586644368,0.256629973534,-0.0229084558742,0.929311780931,0.3685496012,-0.0050997658396
-0.126339271665,-0.0827006399632,0.104597248137,-2.33162307739,0.0588943846524,2.22126364708,-0.813647031784,0.0746938660741,0.00121790822595,0.000625543121714,-0.0026531459298,-0.000937494856771,-0.00251318071969,-5.14874363944e-06,0.00257392902859,0.488939446857,-0.00434068808948,0.256619213278,-0.0229133705953,0.929313780279,0.368544089364,-0.00511166408525
-0.126319125295,-0.0826989710331,0.10459960252,-2.33166432381,0.0588937401772,2.22126626968,-0.813596427441,0.0746938660741,0.00043360205018,0.000235505474848,0.00020691480313,-0.0019913490396,2.29099314311e-05,8.03527218523e-05,0.00211073202081,0.488924115344,-0.00433008421291,0.256601717208,-0.0229204476962,0.929318880416,0.368530531873,-0.00513014049246
-0.126313254237,-0.0827003642917,0.104596972466,-2.3316886425,0.0588933825493,2.22126722336,-0.813554465771,0.0746938660741,0.000971554953139,-0.000103889688035,-0.000120377553685,-0.000129038453451,-0.000281987973722,-1.38996001624e-05,0.00462455814704,0.488914765387,-0.00432842776214,0.256591961653,-0.0229244903891,0.929325958117,0.368512283365,-0.00514081733549
-0.12630829215,-0.0827027857304,0.104597680271,-2.33170557022,0.0588937066495,2.22126841545,-0.813530147076,0.0746938660741,0.000101243269455,-0.000313315016683,0.000370435416698,-0.00123098795302,-0.00214326218702,1.34590309244e-05,0.000362205290003,0.488908172828,-0.00432521152696,0.256585623014,-0.0229271078547,0.929329685063,0.368502624823,-0.00514775370548
-0.126296758652,-0.0827013105154,0.10459857434,-2.33173036575,0.0588947832584,2.22126960754,-0.813492059708,0.0746938660741,5.96913705522e-05,-0.00155628169887,0.000119866977911,-0.00119408650789,8.90429364517e-05,2.61090481217e-05,0.00129046011716,0.488898842584,-0.00431926018383,0.256574564603,-0.0229321103766,0.92933425028,0.36849063935,-0.00515926022808
-0.126273587346,-0.0827011018991,0.104596480727,-2.331792593,0.0588945299387,2.22127175331,-0.813422441483,0.0746938660741,0.00144960451871,-0.000690268469043,0.000400145712774,-0.00059334730031,4.45334953838e-05,-0.000133367226226,0.00341862626374,0.488874620382,-0.0043086881974,0.256547728433,-0.0229435580774,0.929343106162,0.368467186896,-0.0051880667841
-0.126266717911,-0.0826989039779,0.104597769678,-2.33181881905,0.0588949322701,2.2212703228,-0.813397526741,0.0746938660741,0.000713764049578,6.12827716395e-05,3.99065575039e-05,-0.00511403894052,-9.30574460654e-05,-3.54699550371e-05,0.000351650291122,0.488863734195,-0.00430448514941,0.256535195685,-0.022949501588,0.929346181787,0.368458861614,-0.0052020915554
-0.126251235604,-0.0827022492886,0.104598902166,-2.33184146881,0.0588941164315,2.2212703228,-0.813351750374,0.0746938660741,0.000211699967622,0.000556224200409,-0.000225189127377,-0.000566824164707,9.47290609474e-05,-0.00482264719903,0.0087095592171,0.488855035687,-0.0042963884984,0.256527013444,-0.0229526018789,0.929351453519,0.368445232612,-0.00521192464533
-0.12624335289,-0.0827031806111,0.104598209262,-2.33186602592,0.0588939748704,2.22127366066,-0.81329870224,0.0746938660741,0.000266365677817,0.00229135481641,0.000886400579475,-0.000144974939758,-1.97852441488e-05,0.0026882099919,0.00157554761972,0.488846097501,-0.00429282449727,0.256517118341,-0.0229562640208,0.929359891576,0.368423577095,-0.00522201084328
-0.126234084368,-0.0827006623149,0.104597352445,-2.33190870285,0.0588938482106,2.22127461433,-0.813245296478,0.0746938660741,0.000311479874654,-0.000477032735944,-0.000570468429942,-0.000335190998157,5.67136594327e-05,0.000133655921672,0.0023287741933,0.488828578952,-0.00428855675015,0.256497002172,-0.0229649903882,0.929368531974,0.368400930895,-0.00524354769137
-0.126229330897,-0.0827005580068,0.104597002268,-2.33193302155,0.0588941648602,2.22127437592,-0.813211143017,0.0746938660741,-7.37605614631e-06,-0.00339192477986,0.000433352979599,-0.0014596588444,5.50048462173e-05,1.88186168089e-05,-0.000193253799807,0.488819440468,-0.00428617709981,0.256486932143,-0.0229696181808,0.929373588842,0.368387725092,-0.00525477779593
-0.126226812601,-0.08270201087,0.104596532881,-2.33194756508,0.0588938333094,2.22127580643,-0.813189208508,0.0746938660741,0.000342934858054,-0.000424917234341,-0.000516088388395,0.000169118822669,9.20461170608e-05,5.38233471161e-05,0.0032253798563,0.488814082988,-0.00428517578684,0.256481464538,-0.0229716276869,0.929377217093,0.368378364455,-0.0052605089917
-0.126216694713,-0.0827010422945,0.104598008096,-2.33196163177,0.0588934645057,2.22127628326,-0.813158869743,0.0746938660741,-0.000611040741205,0.00199168617837,-0.000719046744052,0.000160709008924,0.000217490945943,-3.10358554998e-05,0.00238294689916,0.488808559833,-0.00427949287999,0.256474940564,-0.022974198751,0.929380615389,0.368369526806,-0.00526776380758
-0.126201927662,-0.0827007219195,0.104596875608,-2.3319838047,0.0588931143284,2.22127747536,-0.813024282455,0.0746938660741,0.00142711657099,0.000319292186759,0.000207505348953,-0.0010943725938,-0.000115380491479,-2.26429783652e-05,0.0015008316841,0.488800027034,-0.00427276636834,0.256465296145,-0.0229778581891,0.929402834179,0.368313071218,-0.00527930940095
-0.12619908154,-0.0827013999224,0.104598037899,-2.33199429512,0.0588944107294,2.22127723694,-0.812985658646,0.0746938660741,-0.00384565652348,-0.000546872674022,0.000622448453214,-0.000509273610078,2.40052904701e-05,0.000142440083437,0.00286292121746,0.488795874254,-0.00427060993434,0.256461069076,-0.0229800943582,0.929409335536,0.368296454794,-0.00528425501612
-0.126198336482,-0.0827010646462,0.104597367346,-2.33200097084,0.0588942989707,2.22127771378,-0.812960803509,0.0746938660741,-0.000469393125968,-0.000128823870909,0.000129296313389,6.75628980389e-05,4.63323231088e-05,6.33023864793e-06,0.004319046624,0.488793296071,-0.00427055265321,0.256458060659,-0.0229812900752,0.92941388057,0.368284863121,-0.00528755056229
-0.126190707088,-0.0827012956142,0.104598551989,-2.33201909065,0.0588938072324,2.22128248215,-0.812903523445,0.0742361694574,0.000619576254394,0.00316840247251,0.00351484352723,-0.00156088231597,-4.09377098549e-05,-8.52384036989e-05,3.28005298798e-05,0.48878718509,-0.00426630128972,0.256450717188,-0.0229833550777,0.929422779974,0.368262174917,-0.00529449381535
-0.126186415553,-0.0827015042305,0.104598127306,-2.33202362061,0.0588948093355,2.22128295898,-0.812882483006,0.0742361694574,0.000460912211565,-0.000105732688098,-8.11249119579e-05,6.58272037981e-05,-0.000115348600957,5.84127410548e-05,0.000139484443935,0.488785526469,-0.0042642738916,0.256448904717,-0.022984393535,0.929426048205,0.368253834364,-0.00529638871918
-0.126187473536,-0.0827011838555,0.104596681893,-2.33203053474,0.0588944740593,2.22128415108,-0.812856256962,0.0742361694574,-0.000167319827597,0.000357949465979,-0.000297538848827,-0.000248442811426,-3.52200077032e-05,7.33279603082e-06,6.85840277583e-05,0.488783000437,-0.00426550794415,0.256445861482,-0.0229854317519,0.929431301693,0.368240465811,-0.00529947019696
-0.126187622547,-0.0827031806111,0.104598708451,-2.33203721046,0.0588946305215,2.2212831974,-0.812830269337,0.0742361694574,-0.00026798908948,0.000557073857635,-8.62928209244e-05,0.00069669703953,6.74166658428e-05,-2.23604765779e-05,-0.000161993710208,0.488780290677,-0.00426455792103,0.256443856979,-0.0229863574483,0.929435750276,0.368229136982,-0.00530243729509
-0.126183211803,-0.0827040150762,0.104596070945,-2.33204555511,0.0588937588036,2.22128582001,-0.812786877155,0.0742361694574,0.00142197799869,-0.000186390592717,-5.44497197552e-05,0.000398581614718,-9.79751494015e-05,-0.00012294917542,0.00134955858812,0.488777614077,-0.00426378386767,0.256440875584,-0.0229868868771,0.929443334711,0.368209918013,-0.00530533263155
-0.126181304455,-0.082700394094,0.104595988989,-2.33204984665,0.0588940158486,2.2212870121,-0.812765359879,0.0742361694574,0.000373685616069,-0.00116461608559,0.00065688759787,0.000282403547317,-5.57783314434e-05,8.34969396237e-05,0.00233067409135,0.488775903186,-0.00426282276986,0.256437360624,-0.0229883755788,0.929446979051,0.368200579023,-0.00530857924586
-0.12618021667,-0.0827006325126,0.104597941041,-2.332051754,0.0588944368064,2.22128725052,-0.812751948833,0.0742361694574,0.000268699106527,0.00229623960331,1.06802451683e-06,-0.000373647781089,2.93495631922e-05,0.000127767547383,-0.00055819778936,0.48877518857,-0.004261286856,0.25643659416,-0.0229886392156,0.929449099996,0.36819519657,-0.00530941528016
-0.126181557775,-0.0826996862888,0.104597657919,-2.33205747604,0.0588948465884,2.22128844261,-0.812722802162,0.0742361694574,-8.85375557118e-05,-0.00260932324454,0.000315184035571,-5.53344252694e-05,-7.21620835975e-06,0.00456595700234,0.00172384374309,0.488773137985,-0.00426202182758,0.25643383001,-0.0229898477949,0.929454645966,0.368181081322,-0.00531215888129
-0.126173362136,-0.0827019140124,0.104598492384,-2.33206486702,0.058893982321,2.22128772736,-0.812690854073,0.0659050345421,0.000147248822032,0.00272956490517,-4.78732999909e-06,-0.000223623341299,-3.03119486489e-05,-9.37024742598e-05,-0.000292841985356,0.488770237716,-0.00425769208753,0.25643164884,-0.0229904478767,0.929458765996,0.368170594107,-0.00531553751784
-0.126171514392,-0.082703538239,0.104597948492,-2.33206987381,0.0588932931423,2.22128939629,-0.812676548958,0.0659050345421,0.000150069667143,0.00166931585409,1.44449472828e-06,-7.20764728612e-05,4.60788214696e-05,0.000196468172362,0.00333819002844,0.48876873711,-0.00425715108881,0.256430407546,-0.0229904075994,0.929461101923,0.368164683309,-0.00531665489747
-0.126167654991,-0.0827031135559,0.104599431157,-2.33207130432,0.0588938482106,2.22128939629,-0.812658011913,0.0659050345421,-9.32042894419e-05,0.000816380779725,-0.000289931107545,3.18417332892e-05,-4.31130865763e-05,-7.0493806561e-05,0.00272477813996,0.488768160696,-0.00425447359725,0.256429578226,-0.0229908700412,0.929463588765,0.368158360836,-0.00531771424136
-0.126171812415,-0.082703538239,0.104596324265,-2.33207345009,0.0588937550783,2.22128939629,-0.81264680624,0.0659050345421,-0.000145071157021,0.000393031776184,-0.000273697893135,0.000141172626172,2.09374211408e-05,-7.82617571531e-05,5.94672237639e-05,0.48876730943,-0.0042580040737,0.256428870679,-0.0229912528791,0.929466972828,0.368149781743,-0.00531851487434
-0.126166641712,-0.0826989710331,0.104595988989,-2.33208346367,0.0588941313326,2.22129058838,-0.812613070011,0.0617286376655,0.000190490740351,0.000628514448181,-0.000227822063607,-0.00147179106716,0.000617168901954,5.70385527681e-05,0.000261261215201,0.488763261825,-0.00425551766887,0.256422423636,-0.0229940921393,0.92947231248,0.368136029922,-0.00532496170518
-0.126158937812,-0.0827009677887,0.104602530599,-2.33208537102,0.0588949471712,2.22129178047,-0.812600255013,0.0617286376655,4.990436355e-05,0.000132531917188,-1.65819201356e-05,-0.00110955710988,5.51355296921e-05,1.44416289913e-05,0.000221767724724,0.488762978396,-0.00424853736591,0.256422637951,-0.0229937141484,0.929472164095,0.368136431449,-0.005324735293
-0.126154378057,-0.0826999768615,0.104599252343,-2.33208727837,0.0588938035071,2.22129249573,-0.812587022781,0.0617286376655,0.000814282393549,-0.000200387090445,9.64837236097e-05,-8.91829113243e-05,-6.30990689388e-06,0.000109890155727,0.00307552912273,0.488762301543,-0.00424801541603,0.256421400773,-0.0229938419445,0.929474237423,0.368131170254,-0.00532600898735
-0.126151636243,-0.0827016457915,0.104598298669,-2.33208465576,0.0588941499591,2.22129273415,-0.812575101852,0.0617286376655,-1.49998022607e-05,0.000396703515435,-1.72788634245e-06,-3.55322990799e-05,-5.44194335816e-05,-0.002965452848,0.000388183339965,0.488763536192,-0.00424712505882,0.256423370586,-0.0229930023587,0.929476150734,0.368126420246,-0.00532404541552
-0.126149296761,-0.0826986581087,0.10459908098,-2.33209180832,0.0588951893151,2.22129607201,-0.812528312206,0.0617286376655,0.00053013820434,-0.000456076959381,-0.000230282574194,-1.3706639038e-05,6.61493140797e-06,0.000150281528477,-0.000275657337625,0.488761218316,-0.00424546914507,0.256419100258,-0.0229946198594,0.929484312541,0.368105660131,-0.00532755675958
-0.126150175929,-0.082699008286,0.104597352445,-2.33208942413,0.0588943697512,2.22130322456,-0.812508821487,0.0617286376655,0.000112802619697,0.000644154904876,-6.11122086411e-05,2.56246621575e-05,1.96088458324e-05,0.00255964626558,-6.70779190841e-05,0.488763758855,-0.0042469590798,0.256420889025,-0.0229922876276,0.929488367035,0.368095628643,-0.0053233554456
-0.126149535179,-0.0827003344893,0.104598328471,-2.33208584785,0.0588940568268,2.22130584717,-0.812490284443,0.0617286376655,0.000389784690924,-0.000619002326857,6.62925140205e-06,-8.79739309312e-05,0.00015329591406,-0.00025219496456,0.0020402634982,0.48876586692,-0.00424628715705,0.256423287228,-0.0229905191973,0.929491486101,0.368087908,-0.00532024067571
-0.1261420995,-0.0826998576522,0.104599870741,-2.33210492134,0.0588938966393,2.22129940987,-0.812452316284,0.0617286376655,-0.000586750800721,0.000253917154623,0.000361274578609,0.000351114314981,0.000763241318054,0.000262978865067,0.00021140948229,0.488756848973,-0.00424172743197,0.256414274294,-0.0229954569111,0.929496713986,0.368074216909,-0.00533274625538
-0.126144975424,-0.0827030315995,0.104593642056,-2.33209943771,0.0588943324983,2.22131037712,-0.812440633774,0.0617286376655,-0.000255133898463,-0.000765758217312,9.29590460146e-05,0.000413115427364,8.28428237583e-05,0.00152926240116,0.000301033462165,0.488761666016,-0.00424630946019,0.256419112111,-0.0229916896848,0.929500708319,0.368064496225,-0.0053236963603
-0.126147463918,-0.082702614367,0.104594759643,-2.33209180832,0.0588942877948,2.22131156921,-0.812428832054,0.0617286376655,8.25124443509e-05,-0.000583117769565,3.25502173837e-06,0.00350649352185,-0.000170685190824,-0.000491536804475,-4.84220072394e-06,0.488765055748,-0.00424715272088,0.256422162135,-0.0229899521727,0.929502881501,0.368059173049,-0.00531979311134
-0.126139760017,-0.0827008858323,0.104597806931,-2.3321185112,0.0588937550783,2.22130680084,-0.812416255474,0.0500419400632,0.000346473272657,0.000410944834584,0.000299356761388,-0.000719747971743,-2.94184701488e-05,0.000272606615908,0.00241715298034,0.488753149797,-0.00424165420976,0.256409508139,-0.0229962166499,0.929503342711,0.368057388088,-0.00533560381247
-0.126132518053,-0.0827022492886,0.104598671198,-2.33209776878,0.0588948205113,2.22130966187,-0.812403738499,0.0500419400632,0.000866479706019,0.000278141727904,-0.000204217605642,0.000274423829978,-0.000124926838907,0.000165620382177,0.000879618339241,0.488762186754,-0.00423773308548,0.256419374194,-0.0229915535501,0.92950433168,0.368055346373,-0.00532424120815
-0.126133054495,-0.0827020779252,0.104597568512,-2.33211565018,0.0588942319155,2.22131061554,-0.812395811081,0.0500419400632,1.15422617455e-05,2.74191024801e-05,-6.25432676316e-06,-0.000774667074438,-7.85410884419e-05,-0.000128311716253,-0.000207855191547,0.488755253399,-0.00423852098578,0.256411638364,-0.0229946776336,0.92950601294,0.368050789105,-0.00533226337235
-0.126136690378,-0.082699470222,0.104596801102,-2.33212447166,0.0588948875666,2.22131037712,-0.812388539314,0.0500419400632,-0.000295907113468,0.00019340205472,0.000211412043427,-0.000428789760917,-1.42792587212e-05,0.000134652960696,-0.000172207757714,0.488751476245,-0.00424051491702,0.25640654483,-0.0229973248051,0.929508205355,0.368045011018,-0.00533748795004
-0.126136124134,-0.0827018171549,0.104594908655,-2.33211493492,0.0588947311044,2.22131037712,-0.81238168478,0.0500419400632,0.000284354086034,-0.0022703029681,-0.00029555929359,0.000150364838191,-0.00245914584957,0.000140314441524,8.75644400367e-05,0.488755447167,-0.00424123714927,0.256411816493,-0.0229949049129,0.929509713475,0.36804143121,-0.00533211966927
-0.126129388809,-0.0827024802566,0.104596681893,-2.33211541176,0.0588949285448,2.22131299973,-0.812373399734,0.0500419400632,0.000362521735951,0.000696413801052,0.000159077069839,-0.000558388419449,-7.08340594429e-05,-0.000115721719339,-0.00583973154426,0.48875592304,-0.0042371149461,0.256412138497,-0.0229942467905,0.929509724921,0.368041458819,-0.00533105679377
-0.126124426723,-0.0827013105154,0.104599043727,-2.33211827278,0.0588938519359,2.22131299973,-0.81236577034,0.0500419400632,-0.000276933016721,0.000357844226528,-0.000313932017889,0.000507582444698,0.000140862204717,-1.79905891855e-05,-1.22669007396e-05,0.488754903256,-0.00423359645098,0.256410499083,-0.0229945200321,0.929509714394,0.36804143911,-0.00533307385308
-0.126124233007,-0.082701601088,0.104598015547,-2.33212089539,0.0588941313326,2.22131276131,-0.812359213829,0.0500419400632,0.00048566138139,0.000222531190957,-0.000259136286331,1.10456849143e-05,-9.05552587938e-05,-4.41912889073e-05,0.00245237746276,0.488753640579,-0.00423401036786,0.25640931098,-0.0229951840544,0.929511044907,0.368038017122,-0.00533446746717
-0.126123279333,-0.0826999843121,0.104597121477,-2.33212065697,0.0588942877948,2.22131299973,-0.812354981899,0.0500419400632,-0.000441120588221,-0.000179632013896,-0.000560422369745,0.000284556590486,-4.02990372095e-05,0.000105519349745,0.000293171498924,0.488753667434,-0.00423394468882,0.25640865367,-0.0229955542423,0.929511824133,0.368036018787,-0.00533496404791
-0.126121923327,-0.0827017873526,0.104598976672,-2.33211922646,0.0588944740593,2.22131228447,-0.812349617481,0.0500419400632,-6.19331622147e-05,0.000392852467485,0.000209799938602,9.30299866013e-05,-1.33946077767e-05,0.000253892882029,0.000265870243311,0.488754229516,-0.00423238047689,0.256410081245,-0.0229949696248,0.9295122451,0.368035006884,-0.00533394540404
-0.126120269299,-0.0826999023557,0.104597911239,-2.33212471008,0.0588938780129,2.22131252289,-0.812344491482,0.04939840734,-2.3491184038e-05,-0.00019362749299,-8.7023305241e-05,0.000414243870182,1.89106194739e-05,3.24658940372e-05,-0.000102103505924,0.48875195433,-0.00423211461242,0.256406816646,-0.022996247629,0.929513002234,0.368032965754,-0.00533732841787
-0.126118585467,-0.0826996639371,0.104598231614,-2.33212518692,0.0588945522904,2.22131323814,-0.812338352203,0.04939840734,-0.000492178660352,-0.000275161582977,-0.00071433535777,0.000254534912528,7.34427449061e-05,3.70290217688e-05,0.000231184400036,0.488751917344,-0.00423106303683,0.256406554545,-0.0229964556802,0.929513841257,0.368030833817,-0.00533731981771
-0.126119419932,-0.0827028378844,0.104596368968,-2.33212304115,0.0588939450681,2.22131323814,-0.812336504459,0.04939840734,-0.000244935887167,-9.17227807804e-05,0.000247091520578,0.00023999842233,-6.86174607836e-05,-0.00551521591842,1.42844301081e-05,0.488752930537,-0.00423235780695,0.256409087356,-0.0229950997628,0.929514666098,0.368028869496,-0.00533495996646
-0.126117795706,-0.0827022716403,0.104596108198,-2.33212399483,0.0588942915201,2.2213139534,-0.812332749367,0.04939840734,0.000130243759486,-0.000455973204225,-0.000510485726409,0.000292137410725,-1.321174841e-05,0.000110507578938,0.000113170986879,0.488752742441,-0.00423177201005,0.256408403049,-0.0229954167417,0.929515106118,0.368027732642,-0.00533535353025
-0.12611566484,-0.0827004462481,0.104599140584,-2.33211970329,0.0588948465884,2.22131824493,-0.81232881546,0.04939840734,-1.59629926202e-05,-0.00246772286482,0.000145366851939,-6.10884962953e-05,0.000124820653582,0.000402326899348,0.00386358378455,0.488755284106,-0.00422927827761,0.256409710962,-0.0229941842009,0.92951498573,0.368028157865,-0.00533230714576
-0.126110494137,-0.0827008262277,0.104599066079,-2.33212780952,0.0588943213224,2.22131681442,-0.812324047089,0.04939840734,6.73739341437e-05,7.69757607486e-05,0.000154344859766,0.000324880704284,-1.93531814148e-05,-7.45161669329e-05,0.000333450472681,0.488751786703,-0.0042267906169,0.256406271183,-0.022995755765,0.929514845455,0.368028350017,-0.00533671846881
-0.126109182835,-0.0827030614018,0.104596629739,-2.33212423325,0.0588936135173,2.22131800652,-0.812319993973,0.04939840734,-0.000455547793536,-0.00194339419249,0.000105048740807,0.00010024720541,2.7840533221e-05,5.5779612012e-05,6.66900232318e-05,0.488753552505,-0.00422733041909,0.256408970579,-0.0229941021815,0.929515623266,0.368026532519,-0.00533370561182
-0.126109778881,-0.0827049612999,0.104597352445,-2.33212256432,0.0588944479823,2.22131919861,-0.812317728996,0.04939840734,-0.000229805606068,-0.000479457346955,-0.00354682514444,7.17148141121e-05,-6.02503168921e-05,0.00208450248465,0.000171378080267,0.488754714439,-0.00422735390855,0.256410749755,-0.0229933315359,0.929516250822,0.368025028804,-0.00533141831185
-0.126107871532,-0.0827045217156,0.104598000646,-2.33212208748,0.058894790709,2.22131824493,-0.812314450741,0.04939840734,0.000409496104112,0.00208567432128,0.000377571763238,-0.000107134466816,-8.13579972601e-05,-0.000626159599051,-0.000296709826216,0.488754672973,-0.0042260514847,0.256410663302,-0.0229936299932,0.929516410501,0.368024600626,-0.00533184831947
-0.126099780202,-0.0827029049397,0.104599893093,-2.33212590218,0.0588937103748,2.22131848335,-0.812306463718,0.04939840734,-1.08630056275e-05,-0.00215512490831,-0.000304985383991,-0.000426051876275,-1.72815487076e-06,-7.31525651645e-05,-0.000220423156861,0.488753116625,-0.00422128657091,0.256408234452,-0.0229942057118,0.929515921476,0.368025759572,-0.00533462288991
-0.126102253795,-0.0827053338289,0.104598358274,-2.33212447166,0.0588945820928,2.22131896019,-0.81230455637,0.04939840734,0.000451948377304,0.000232143313042,-2.72914985544e-05,0.000113475580292,9.64025184658e-06,1.61305033544e-05,0.000282820430584,0.488753966703,-0.00422316646267,0.256410082141,-0.0229936162251,0.929517117374,0.36802280685,-0.00533248952736
-0.126101210713,-0.082706823945,0.104597762227,-2.3321185112,0.0588947199285,2.22131872177,-0.812303960323,0.0430484414101,-1.93131272681e-05,-8.30901772133e-05,0.000411832384998,5.47377203475e-05,0.00559077225626,-5.59401996725e-05,-0.000240000968915,0.488756404219,-0.00422296677796,0.256413367097,-0.0229922184567,0.929517170167,0.368022808804,-0.00532917816687
-0.126099273562,-0.0827095359564,0.104597955942,-2.33211565018,0.0588940009475,2.22131848335,-0.81230032444,0.0430484414101,-0.000161478877999,-0.000248778495006,0.000566590693779,0.000268654868705,8.82180829649e-05,-8.90136070666e-05,0.000391704350477,0.488757700656,-0.00422205013835,0.256415897212,-0.0229907791444,0.929517383162,0.368022392775,-0.00532696677669
-0.126093819737,-0.0827051624656,0.104598149657,-2.33212161064,0.0588938631117,2.22131919861,-0.812295079231,0.0430484414101,0.000491311366204,0.000781453039963,6.87676074449e-05,9.17091747397e-05,7.47625927033e-06,-0.000155046000145,-0.000178132278961,0.488755175465,-0.00421924776128,0.25641125342,-0.0229927540225,0.929517276203,0.368022474566,-0.00533145394799
-0.126093864441,-0.0827066674829,0.104598812759,-2.33212280273,0.0588941909373,2.22131967545,-0.812293708324,0.0430484414101,0.000238632695982,0.00017499513342,-7.91565471445e-05,6.77056596032e-05,-0.000131780077936,4.3915992137e-05,-0.000120798860735,0.488754867675,-0.0042186814105,0.256411442822,-0.0229926950134,0.929517339714,0.36802232071,-0.00533125592722
-0.126092508435,-0.0827090516686,0.104598775506,-2.33212065697,0.0588938035071,2.22131824493,-0.812292635441,0.0430484414101,0.00062694150256,-0.00285702617839,5.58902102057e-05,-0.000307101232465,0.000140909076435,1.66576182892e-06,0.000561824941542,0.488755647314,-0.00421834002443,0.256413472693,-0.0229917768926,0.929517371504,0.368022318631,-0.00532981621102
-0.126093491912,-0.0827089473605,0.104596704245,-2.33211755753,0.0588945969939,2.22131943703,-0.812291562557,0.0430484414101,-0.000247070653131,-0.000795302388724,-8.30725766718e-05,0.000337738572853,-2.96417128993e-05,4.36600166722e-05,0.000272482080618,0.48875713143,-0.00421975436566,0.256414873019,-0.0229913141528,0.929518228306,0.368020214102,-0.0053277027411
-0.126076102257,-0.0827063694596,0.104601338506,-2.33212447166,0.0588948577642,2.22131848335,-0.812284767628,0.0430484414101,0.000250980752753,-0.00010056058818,0.000112298512249,-0.000143833822221,9.07784924493e-05,0.000104855957034,-0.000203409756068,0.488754062423,-0.0042089209282,0.256410533097,-0.0229933279035,0.929515431533,0.368027077846,-0.00533282944289
-0.126076385379,-0.0827084630728,0.104598015547,-2.33212304115,0.058894764632,2.22131967545,-0.812283992767,0.0430484414101,-8.67702401592e-05,-0.000450108171208,-0.000136620787089,7.9510255091e-06,8.11776553746e-05,-9.74339563982e-05,-9.81719713309e-05,0.488755041352,-0.00421071464521,0.25641228049,-0.0229923886842,0.929516245217,0.368025113287,-0.00533062989825
-0.126076921821,-0.0827070847154,0.104598015547,-2.33212161064,0.0588949471712,2.22131991386,-0.812280416489,0.0430484414101,8.45990361995e-05,-0.000416207010858,0.00178286456503,-0.000622767547611,0.00559753458947,9.77150120889e-05,0.000434210087406,0.488755594137,-0.00421083051992,0.256412286221,-0.0229924915744,0.929516916049,0.368023414334,-0.00533050623028
-0.126072496176,-0.0827061757445,0.104597873986,-2.33212304115,0.0588940083981,2.22131896019,-0.812281310558,0.0408742167056,0.000179700000444,9.2666632554e-05,-0.000145286845509,-1.52219372467e-05,-3.85951498174e-05,-3.03966189676e-05,-0.00012042470189,0.488754720073,-0.00420893960095,0.256411109155,-0.0229928071123,0.92951595163,0.368025806654,-0.00533214846378
-0.126068130136,-0.0827032625675,0.104598782957,-2.33212351799,0.0588938556612,2.22132134438,-0.812279284,0.0408742167056,-0.000646610802505,0.000789423938841,-0.000124909201986,0.00052167638205,-3.2198982808e-05,-2.48812375503e-05,0.000261256733211,0.488754681538,-0.00420625802344,0.256409562092,-0.02299305333,0.929515274336,0.368027492121,-0.00533282308346
-0.126064941287,-0.0827066525817,0.104599282146,-2.33212208748,0.0588939748704,2.22132062912,-0.812274813652,0.0408742167056,-0.000253238540608,0.000425295467721,0.000389179534977,0.000514805084094,1.30297958094e-05,2.14354586205e-05,0.0003551292466,0.488755541082,-0.00420461021288,0.256411882307,-0.0229920511136,0.929515516628,0.368026969847,-0.0053309551188
-0.126062422991,-0.0827083736658,0.104597128928,-2.33211874962,0.0588957704604,2.22132229805,-0.812275826931,0.0408742167056,-0.00371283455752,-0.000494851032272,-9.07278590603e-05,-5.05879870616e-05,-2.1078665668e-05,-6.24017557129e-05,0.000200841182959,0.488757385782,-0.00420425787393,0.256414315574,-0.0229913609704,0.929515479686,0.3680271553,-0.00532756891714
-0.126065075397,-0.0827067196369,0.104596622288,-2.3321211338,0.0588943809271,2.22132325172,-0.812272489071,0.0408742167056,3.58362267434e-05,-0.000271695666015,-0.000313182972604,-0.000174007058376,-8.76969497767e-05,-9.25009371713e-05,0.000310580275254,0.488756498589,-0.00420595310386,0.256412555542,-0.0229915403061,0.929516525954,0.368024478312,-0.00532917435086
-0.126052618027,-0.0827166736126,0.104599244893,-2.33210682869,0.0588945969939,2.22132492065,-0.812266945839,0.0408742167056,0.000251532997936,-0.000103581500298,0.000107772204501,0.000573047087528,3.74436713173e-05,-2.89090148726e-05,-0.000171467458131,0.488763382876,-0.00419877092399,0.256423698395,-0.0229859406488,0.92951487476,0.368029164079,-0.00531772539346
-0.126039966941,-0.0827329307795,0.104599200189,-2.33210015297,0.0588938854635,2.22132754326,-0.81226503849,0.0408742167056,-6.70879453537e-05,-0.000339129153872,-0.000380292563932,0.000460332637886,-2.02571318368e-05,-8.8719833002e-05,3.024893158e-05,0.488767903374,-0.00419292649539,0.256434687831,-0.0229798818939,0.929512931779,0.368034609947,-0.00530662306781
-0.126033753157,-0.08273640275,0.104600213468,-2.33209991455,0.0588944591582,2.22132778168,-0.81226503849,0.0408742167056,0.00104976037983,-0.000125645747175,0.000293937366223,-0.000407212268328,-3.95627066609e-05,7.96046515461e-05,6.26123946859e-05,0.488768348246,-0.00418937137487,0.256436493527,-0.0229790988523,0.929511681528,0.368037841378,-0.00530489564893
-0.126022994518,-0.0827323496342,0.104599371552,-2.33210659027,0.0588944777846,2.22132921219,-0.812263429165,0.0385903306305,0.000349673151504,-0.000113537913421,0.000194552543689,-0.000614590302575,-2.14557185245e-05,-2.23654024012e-05,8.57478298713e-05,0.488765740401,-0.00418446640714,0.256431759706,-0.0229810764908,0.929510142727,0.368041542047,-0.00530920929355
-0.12602339685,-0.0827333331108,0.104596480727,-2.33210396767,0.0588941425085,2.22132897377,-0.812261343002,0.0385903306305,5.07871081936e-05,0.000108184773126,-0.00026730177342,-0.000249125732807,0.000115059359814,5.66297785554e-05,0.000347640947439,0.488766792956,-0.00418611207631,0.256433364048,-0.0229803680705,0.929511097435,0.368039197428,-0.0053076614648
-0.126017838717,-0.0827357023954,0.104596942663,-2.33210062981,0.0588944293559,2.22133135796,-0.812260866165,0.0385903306305,0.00048187241191,-0.00242609926499,-0.00369727262296,0.000844052119646,0.00495120882988,0.000126751299831,-0.000447628146503,0.488768855598,-0.00418321624924,0.256436151235,-0.0229787157685,0.929510146964,0.368041753225,-0.00530404377222
-0.126008227468,-0.0827369391918,0.104599200189,-2.33209061623,0.0588948503137,2.22133517265,-0.812259554863,0.0385903306305,0.00083830114454,0.00259789125994,0.000359019846655,0.000321666651871,-2.96316138702e-05,0.000111473367724,-0.000127154271468,0.488773830399,-0.00417750479645,0.256441384619,-0.0229757045494,0.929508309491,0.368046679088,-0.00529729022961
-0.125988975167,-0.0827413350344,0.104601308703,-2.33208847046,0.0588940307498,2.22133731842,-0.812258183956,0.0385903306305,0.000462576397695,-0.000433303444879,-0.000175766152097,0.000260420347331,-1.0190525245e-05,-1.3723184793e-06,-0.000247976160608,0.488775574301,-0.00416726711512,0.256444607819,-0.0229733457707,0.92950458915,0.368056271628,-0.0052938391134
-0.125980690122,-0.0827449634671,0.104599922895,-2.33208560944,0.0588941276073,2.22133684158,-0.812257528305,0.0385903306305,-0.000347283203155,-0.000445792567916,0.00266935979016,-0.000320006569382,-5.21062393091e-05,-1.65431265486e-05,7.80740883783e-05,0.488776914329,-0.00416391357477,0.256447574623,-0.0229720815309,0.929503462003,0.368059235128,-0.00529119228038
-0.125979557633,-0.0827459022403,0.104599349201,-2.33209180832,0.0588946118951,2.22133612633,-0.8122574687,0.0385903306305,0.000397884577978,-7.09329615347e-05,0.000211207385291,-0.000384586222935,-1.08345329863e-05,-0.00015041216102,4.70299964945e-05,0.488774365495,-0.00416354448947,0.256445295933,-0.022973402302,0.929503409373,0.368059246985,-0.00529387794412
-0.125971451402,-0.0827472358942,0.104599773884,-2.33209514618,0.0588943958282,2.22133636475,-0.812257349491,0.0385903306305,2.99168914353e-05,0.000360582402209,1.11333401946e-05,-0.000195190979866,-5.35284088983e-05,-3.92627916881e-05,0.0003518491867,0.488773223953,-0.00415940447629,0.256444516197,-0.022973562723,0.929501842448,0.368063179882,-0.00529486551738
-0.125909000635,-0.0827507451177,0.104599744081,-2.3320941925,0.0588952563703,2.22133564949,-0.812255561352,0.0385903306305,0.0042342194356,0.000144253164763,-0.000441124720965,-0.000358607037924,-2.63637266471e-05,5.14806924912e-05,0.000166792946402,0.488773977027,-0.00412881763037,0.256446577785,-0.0229728228977,0.929490783701,0.368091167591,-0.00529381228253
-0.125863015652,-0.0827577933669,0.104601636529,-2.33209180832,0.0588952079415,2.22133660316,-0.812255144119,0.0385903306305,0.00137541780714,-0.000471517094411,-0.00341128837317,-0.00125399162062,0.000121121491247,0.000192550156498,3.6386976717e-05,0.488775867588,-0.00410553188945,0.256451098918,-0.0229702473034,0.929482087817,0.368113343845,-0.00528979527671
-0.125790327787,-0.0827743783593,0.10460498929,-2.33208417892,0.0588935390115,2.22132825851,-0.812254369259,0.0385903306305,0.00468684080988,-0.00313358032145,-5.99750310357e-05,-0.000394486356527,0.000280397449387,-0.000186878198292,9.73375499598e-05,0.488778617881,-0.00406865595269,0.256461745393,-0.0229656054235,0.929468053656,0.368149150541,-0.00528401747013
-0.125720500946,-0.0828560888767,0.104602612555,-2.3320710659,0.0588935092092,2.22126698494,-0.812254846096,0.0354856103659,0.000709673971869,-0.0120557323098,0.000618855294306,-0.000817732419819,7.44465942262e-05,-0.0101836007088,0.00019707417232,0.488776781744,-0.00403554100009,0.25650209448,-0.0229561841067,0.929455269354,0.368182204036,-0.00527069219517
-0.125702872872,-0.0834985077381,0.104597330093,-2.33126163483,0.0588937774301,2.2188179493,-0.812252104282,0.0354856103659,-1.25944861793e-05,-0.0262448098511,-0.00238680304028,0.0495739914477,-1.72710024344e-05,-0.138358041644,0.000422491983045,0.488571276928,-0.00399565594826,0.257051380723,-0.0232157546633,0.929428472361,0.368224921867,-0.00584380871939
-0.125712752342,-0.0839846208692,0.104590706527,-2.3299882412,0.0588927231729,2.21552443504,-0.812242150307,0.0354856103659,-0.000264631555183,-0.027713412419,-0.00160341220908,0.0843274965882,-0.000178614354809,-0.203959465027,4.24384415965e-05,0.48842106306,-0.00396668435376,0.257483815947,-0.0234899644793,0.929406510875,0.368253362183,-0.00642028318511
-0.125715881586,-0.0845896303654,0.104582607746,-2.32796216011,0.0588878206909,2.21070694923,-0.812207400799,0.0354856103659,-0.000170209648786,-0.0385809578001,-0.00224344735034,0.141829907894,-2.78530278592e-05,-0.332610189915,0.00118429085705,0.488204530113,-0.00391130205193,0.258264442391,-0.0239640069088,0.92936872223,0.368299661131,-0.0074070107704
-0.125725582242,-0.085559040308,0.104576438665,-2.32416462898,0.0588845163584,2.20180130005,-0.811871826649,0.0354856103659,2.75363872788e-05,-0.0582906380296,-0.000100781944639,0.218118324876,-0.00188304297626,-0.510262131691,0.0240458939224,0.487806552049,-0.00380479024527,0.25966349505,-0.0248657672906,0.929344754688,0.368258045406,-0.00927535603957
-0.125768959522,-0.088605299592,0.104562036693,-2.31230330467,0.0588731393218,2.1744761467,-0.810766220093,0.0347869172692,-0.00130983092822,-0.109802171588,0.000743474578485,0.401385873556,-0.000227208569413,-0.869193434715,0.0393933318555,0.486613163787,-0.00348460824921,0.26412756131,-0.0275636068646,0.929262749438,0.368088866223,-0.0148854402123
-0.12588326633,-0.091824054718,0.104555860162,-2.30104279518,0.0588598884642,2.1511554718,-0.809078395367,0.0347869172692,-0.00308487727307,-0.144729956985,0.000429957173765,0.530911147594,-5.44869362784e-05,-1.05671942234,0.0922016277909,0.486001626708,-0.00325682961549,0.26878187224,-0.0294760277579,0.929329147734,0.367588766299,-0.0188943783864
-0.126048311591,-0.0947804301977,0.104554533958,-2.2901289463,0.0588543713093,2.12965035439,-0.80706101656,0.0347869172692,-0.00852732732892,-0.174838408828,-0.00146201765165,0.603805661201,5.0701553846e-05,-1.1938996315,0.120406121016,0.485567230826,-0.00307425953324,0.273340341711,-0.0311249956589,0.929473335305,0.366892968596,-0.0223629801417
-0.12645457685,-0.101570412517,0.104541353881,-2.26887559891,0.0588408336043,2.09103894234,-0.803145825863,0.0347869172692,-0.017081014812,-0.244965568185,0.00188286299817,0.76864361763,-0.00175904028583,-1.37517678738,0.129929348826,0.485302103465,-0.0028265104342,0.282701706701,-0.0332983347246,0.929803658511,0.365548321537,-0.0270333466305
-0.126784786582,-0.106196828187,0.104549311101,-2.25490069389,0.0588317774236,2.06707191467,-0.800910711288,0.0347869172692,-0.0220804996789,-0.295545935631,0.000224947289098,0.877604186535,-0.000607946887612,-1.42119050026,0.133202522993,0.485280777597,-0.002692872823,0.289695921878,-0.0345002679869,0.930002005545,0.364727715682,-0.0296596407476
-0.127163246274,-0.111825972795,0.104533366859,-2.23842000961,0.0588123425841,2.04101467133,-0.798257648945,0.0347869172692,-0.0280401725322,-0.319838255644,-0.000551136501599,0.942586898804,-0.00191278592683,-1.47167658806,0.149226605892,0.485601296408,-0.00258075632104,0.297818231022,-0.0353119471365,0.930273830714,0.363801772645,-0.0314950183778
-0.127684980631,-0.117907896638,0.104510769248,-2.22162246704,0.058652177453,2.01618719101,-0.79564756155,0.0347869172692,-0.0356443412602,-0.379500806332,-0.00156018929556,1.02714526653,-0.0282474756241,-1.46144521236,0.159265756607,0.486137670135,-0.00257820999491,0.306439181767,-0.0356310377847,0.930590884431,0.362874205243,-0.0324552894604
-0.129873767495,-0.138809025288,0.104337178171,-2.16979265213,0.0582952983677,1.948554039,-0.788399398327,0.0347869172692,-0.0508006624877,-0.488391637802,-0.00732984486967,1.13968527317,-0.00248915259726,-1.33408486843,0.133500188589,0.488569041085,-0.00296405451771,0.335002988408,-0.0342659600933,0.931798329652,0.360076116919,-0.0303793769975
-0.130879342556,-0.147403165698,0.104120030999,-2.15050792694,0.0582684092224,1.92631030083,-0.786005914211,0.0347869172692,-0.0680326074362,-0.531900346279,-0.0196070615202,1.1439769268,-0.0028978176415,-1.27120995522,0.150172963738,0.48960488704,-0.00327279962238,0.346337721578,-0.0330056377912,0.932333250808,0.359008879187,-0.0278919641154
-0.132113546133,-0.156640470028,0.103819206357,-2.13111710548,0.0581928826869,1.90536677837,-0.783590197563,0.0347869172692,-0.0799922049046,-0.556707620621,-0.0198848769069,1.13307249546,-0.00625797500834,-1.21287178993,0.136589571834,0.490645010157,-0.00374258993703,0.358178026518,-0.0312857221438,0.932951103753,0.357804281756,-0.0244854495239
-0.13387337327,-0.168890938163,0.103283911943,-2.10763096809,0.0579035431147,1.88167667389,-0.781040608883,0.0347869172692,-0.0867177397013,-0.584195196629,-0.0343528874218,1.0938334465,-0.0245731323957,-1.07712984085,0.110923431814,0.491802161253,-0.00455409010814,0.373224744135,-0.0285314126592,0.933718406878,0.356355354314,-0.0191508821294
-0.136411517859,-0.185669645667,0.101865544915,-2.07881855965,0.0563364438713,1.85499668121,-0.778291285038,0.0357206948102,-0.101488560438,-0.640652596951,-0.0580292902887,1.02197909355,-0.102431364357,-0.913849234581,0.0791030079126,0.49293206563,-0.00631425953928,0.39281035841,-0.0237695173321,0.934730977254,0.354391593798,-0.0109365505609
-0.138284385204,-0.196901157498,0.100775122643,-2.06193208694,0.0539242960513,1.84058952332,-0.77719026804,0.0357206948102,-0.112824492157,-0.665655732155,-0.0744371041656,0.972342014313,-0.171138033271,-0.789176642895,0.053048402071,0.49335184509,-0.00792678668837,0.405107882709,-0.0197466733646,0.935266995984,0.353353233699,-0.00521603619544
-0.14049744606,-0.209053844213,0.0991168394685,-2.04555058479,0.0498954430223,1.82748639584,-0.776485621929,0.0357206948102,-0.135100841522,-0.687840998173,-0.104460589588,0.876373291016,-0.259060889482,-0.661333143711,0.0276205167174,0.493500879488,-0.0102892431536,0.417753581628,-0.014650232774,0.935804790418,0.352212708596,0.000986153563039
-0.143190994859,-0.222258731723,0.096907697618,-2.02983927727,0.0442855767906,1.81596386433,-0.776199996471,0.0357206948102,-0.153424471617,-0.690357327461,-0.122027777135,0.772025465965,-0.330044299364,-0.559944808483,0.00207512662746,0.493356734744,-0.0134622867384,0.430759947481,-0.00842663989147,0.936356300262,0.350863889711,0.0077718262149
-0.149017393589,-0.243835777044,0.0924475863576,-2.00829124451,0.0320979841053,1.80167901516,-0.776194095612,0.0357206948102,-0.213929802179,-0.683290541172,-0.167129814625,0.616119861603,-0.464103758335,-0.376471400261,-0.00373298861086,0.492350595265,-0.0203937570454,0.450490681601,0.00320781519449,0.937390390111,0.347777765866,0.0184280141368
-0.152673915029,-0.254618644714,0.0896087884903,-1.99927139282,0.0238237343729,1.7963116169,-0.776212632656,0.0357206948102,-0.234323427081,-0.664714515209,-0.198133945465,0.53606402874,-0.566495656967,-0.295183002949,-0.00324305985123,0.491416471371,-0.025275279859,0.46025630224,0.0104406774577,0.938060701942,0.345508151347,0.0236056934816
-0.162142753601,-0.27656263113,0.0807479768991,-1.98280537128,0.00112043973058,1.78865635395,-0.776983439922,0.0357206948102,-0.309772342443,-0.579086005688,-0.295276939869,0.400630563498,-0.715137839317,-0.145636111498,-0.0618905387819,0.489021157237,-0.0384084804266,0.478410799986,0.027010768352,0.939744502037,0.339216119113,0.0329106898291
-0.180672675371,-0.30107614398,0.0607137344778,-1.9656932354,-0.0404067225754,1.78589737415,-0.783888995647,0.0360168516636,-0.429771840572,-0.35331338644,-0.486925363541,0.299446105957,-0.87283039093,0.00151016935706,-0.243399709463,0.48479411836,-0.064717211769,0.498687316576,0.0524228980348,0.942535800965,0.327341952923,0.0415373230444
-0.185971066356,-0.304937601089,0.0545368678868,-1.96213269234,-0.050963435322,1.78591001034,-0.787293195724,0.0360168516636,-0.452549606562,-0.286115348339,-0.544692099094,0.299451798201,-0.884211540222,0.00647962046787,-0.313034236431,0.483646362825,-0.0724057851488,0.502538805059,0.0583446735091,0.943235564194,0.324179573014,0.0425461354492
-0.195639386773,-0.309431016445,0.0425275489688,-1.95586311817,-0.0687855407596,1.78644979,-0.794819056988,0.0360168516636,-0.508068025112,-0.153811991215,-0.645883262157,0.322787165642,-0.882518947124,0.0517550855875,-0.424276441336,0.481677273128,-0.0866038614449,0.508277738368,0.0678898024995,0.944466132159,0.318560957542,0.0435156976087
-0.206537082791,-0.311001777649,0.0289217028767,-1.94933021069,-0.0858587995172,1.78771841526,-0.804136097431,0.0360168516636,-0.569276273251,-0.0112876556814,-0.710961937904,0.33507707715,-0.831263065338,0.0850966051221,-0.504422962666,0.479693467347,-0.10216579285,0.512820286386,0.0764880437464,0.945863256271,0.31240750118,0.0435181858019
-0.246224477887,-0.299807608128,-0.0235286150128,-1.92599761486,-0.126444637775,1.79914653301,-0.840065300465,0.0360168516636,-0.711066663265,0.403916716576,-1.02483022213,0.413890689611,-0.450769662857,0.302565455437,-0.659316837788,0.472904445546,-0.159918803097,0.521273598583,0.0962049761735,0.952117577493,0.287131832506,0.0420955061599
-0.261317372322,-0.290209472179,-0.0457617379725,-1.91683483124,-0.134784176946,1.80608797073,-0.854193389416,0.0360247343779,-0.73426681757,0.524045825005,-1.10751056671,0.465056031942,-0.318886160851,0.367952108383,-0.692838251591,0.470732402185,-0.177991822986,0.521807036644,0.0992296805379,0.954428378694,0.278338861192,0.0418021349212
-0.275323271751,-0.279000997543,-0.0672896131873,-1.90787112713,-0.139569476247,1.81340205669,-0.867454528809,0.0360247343779,-0.74532020092,0.636613488197,-1.16521036625,0.480344831944,-0.183629319072,0.402117609978,-0.695191144943,0.468243064277,-0.197602556602,0.521467696471,0.101241210098,0.957076386265,0.268376846067,0.0415797597122
-0.29835742712,-0.256578594446,-0.104298271239,-1.89319479465,-0.14148773253,1.82647538185,-0.88898897171,0.0360247343779,-0.739732921124,0.784007489681,-1.23899459839,0.46305385232,0.0034902242478,0.422733187675,-0.698261022568,0.463407898528,-0.229882276294,0.518629496273,0.101755612283,0.961804946695,0.250762052074,0.0411756337383
-0.311627030373,-0.242023587227,-0.126927375793,-1.88482189178,-0.141132250428,1.833968997,-0.901718437672,0.0360247343779,-0.728637635708,0.838740468025,-1.23986017704,0.445586889982,0.0367185398936,0.400968283415,-0.71954625845,0.459698908418,-0.248939297475,0.51593833425,0.101245714469,0.964628289104,0.240020751699,0.0403931628807
-0.322501301765,-0.22903855145,-0.145415991545,-1.87851035595,-0.13999247551,1.83968365192,-0.912590205669,0.0360247343779,-0.729233682156,0.871553659439,-1.23696875572,0.392759919167,0.109811924398,0.37001645565,-0.730824172497,0.456214527961,-0.264337693519,0.512773922154,0.100125691855,0.966904306291,0.231401778524,0.0390400422014
-0.33698374033,-0.211208030581,-0.170257553458,-1.87124526501,-0.13632953167,1.84655451775,-0.927252829075,0.0360247343779,-0.699005126953,0.892134130001,-1.22009027004,0.308612883091,0.240417942405,0.319707006216,-0.741747915745,0.450729013252,-0.284381415165,0.50747553483,0.0973254046999,0.969997116675,0.219719289343,0.0368346688053
-0.370535284281,-0.169210508466,-0.225250080228,-1.86158072948,-0.119277596474,1.85813033581,-0.962364494801,0.0360247343779,-0.682054460049,0.862447559834,-1.06226217747,0.0705009922385,0.473683357239,0.182253673673,-0.706938922405,0.434801692033,-0.326520633169,0.490311388089,0.0848876252881,0.976955055843,0.193562917025,0.0297709049979
-0.38143119216,-0.156190156937,-0.241546928883,-1.86125171185,-0.111314803362,1.86049008369,-0.973666608334,0.0360247343779,-0.667044699192,0.798232376575,-0.987704336643,-0.0220961775631,0.51762253046,0.1153915748,-0.694094002247,0.428817323046,-0.338350729305,0.483434421861,0.0790344433879,0.979089088331,0.185475084058,0.027149710126
-0.393665552139,-0.141387149692,-0.258991569281,-1.8622149229,-0.101039350033,1.86165428162,-0.986854076385,0.0360306426883,-0.627089560032,0.769204378128,-0.868393003941,-0.0809298306704,0.552777647972,0.0164681784809,-0.691845357418,0.421691355379,-0.350531511546,0.474786142508,0.0711082383404,0.98137895756,0.176849234982,0.0237341079867
-0.419978141785,-0.109684087336,-0.293525189161,-1.87041795254,-0.0741979554296,1.8609585762,-1.0166914463,0.0360306426883,-0.488855451345,0.580254256725,-0.585337281227,-0.258507609367,0.595662713051,-0.0400293581188,-0.56669485569,0.40486420456,-0.373005437521,0.452547602754,0.0490441331846,0.985874874371,0.159382151092,0.0155799452573
-0.428090035915,-0.100045271218,-0.303134024143,-1.87560319901,-0.0634436383843,1.85987043381,-1.02652513981,0.0360306426883,-0.408752828836,0.496268063784,-0.48187187314,-0.311726629734,0.603264689445,-0.0926838517189,-0.520338237286,0.399875570894,-0.377923600322,0.445017532048,0.0408777581938,0.987005650733,0.15482611044,0.0133315239256
-0.435760885477,-0.090540073812,-0.312056392431,-1.88253319263,-0.0514496825635,1.85715126991,-1.03667271137,0.0360306426883,-0.316253393888,0.416234493256,-0.372028440237,-0.340978711843,0.541792154312,-0.166806459427,-0.450829088688,0.39448124502,-0.381900089676,0.43614869108,0.0306307783373,0.988084039329,0.150465461816,0.0105750243149
-0.439918756485,-0.0849247053266,-0.316756367683,-1.88776278496,-0.0436261296272,1.85416483879,-1.04315948486,0.0360306426883,-0.246070891619,0.339705049992,-0.261520773172,-0.351347595453,0.516020953655,-0.229820087552,-0.416460424662,0.391295707779,-0.383310650138,0.430265840918,0.0233941480886,0.988603124566,0.148471434068,0.00853281296531
-0.446043998003,-0.0731552019715,-0.321591436863,-1.90455377102,-0.0203275177628,1.83704078197,-1.06131005287,0.0360385216773,0.0201848372817,0.134965568781,0.0244725961238,-0.313177317381,0.412508308887,-0.454034179449,-0.316446751356,0.385603142386,-0.379307746395,0.414105055661,-0.000746085569486,0.988765020129,0.149464907046,0.00184921213814
-0.445448666811,-0.0720309838653,-0.32097157836,-1.90794408321,-0.0160087943077,1.83182668686,-1.06457686424,0.0360385216773,0.0778443291783,0.0766615122557,0.090284332633,-0.298582285643,0.37854719162,-0.494060963392,-0.281714320183,0.38534821708,-0.376853174274,0.411500265996,-0.00570896260355,0.988485754917,0.151205698805,0.000395497396874
-0.442585557699,-0.0712371245027,-0.317384392023,-1.91384267807,-0.00848913285881,1.81982898712,-1.07018780708,0.0360385216773,0.17804402113,0.0130155524239,0.230237275362,-0.239009335637,0.314317256212,-0.585597813129,-0.217259153724,0.385900849289,-0.370720155954,0.407554962719,-0.0146927558828,0.987633114597,0.156073251313,-0.00246856181143
-0.438178658485,-0.0714867636561,-0.311546742916,-1.91797661781,-0.00258426112123,1.80737674236,-1.07412672043,0.0360385216773,0.260532975197,-0.0358186475933,0.355624586344,-0.166969567537,0.274154275656,-0.649054229259,-0.173460587859,0.387701909993,-0.363269819452,0.404816545599,-0.0227482292556,0.986453309078,0.162368854621,-0.00536113989785
-0.427938848734,-0.0741042643785,-0.297445058823,-1.9214195013,0.00541405566037,1.78628337383,-1.07796418667,0.0360385216773,0.392879337072,-0.112160637975,0.525437831879,-0.0596711821854,0.225133791566,-0.698109388351,-0.0781344994903,0.393179650397,-0.348689708103,0.403117061868,-0.0335581155105,0.983891030012,0.175340382414,-0.00938317306009
-0.421956479549,-0.0757674574852,-0.289297491312,-1.92196881771,0.00839017610997,1.77651405334,-1.07886373997,0.0360385216773,0.453582346439,-0.132597655058,0.624575436115,-0.0191488526762,0.197718411684,-0.701389551163,-0.0553768277168,0.396603098212,-0.341038415897,0.403094807905,-0.0377027987912,0.982435040096,0.182413276671,-0.0111931740957
-0.402263879776,-0.0823679044843,-0.262134760618,-1.92158937454,0.0151326833293,1.75199460983,-1.07938754559,0.0360385216773,0.605684399605,-0.210850194097,0.825607359409,0.0213672928512,0.17241871357,-0.612758338451,0.0018338188529,0.408326361084,-0.317353864764,0.405207849088,-0.0460490811228,0.977562296407,0.204990063595,-0.015182631297
-0.368255466223,-0.0940702930093,-0.216911748052,-1.91881155968,0.0223494134843,1.72518062592,-1.07777762413,0.0360411517322,0.773853302002,-0.25701162219,1.03745400906,0.0976895540953,0.118420444429,-0.505679965019,0.0989602580667,0.427312887591,-0.280155853894,0.410927753109,-0.0516980474658,0.968874901338,0.241369733396,-0.0186919485031
-0.354436397552,-0.0984291359782,-0.198579534888,-1.91684269905,0.0243272725493,1.71728885174,-1.07564198971,0.0360411517322,0.844603121281,-0.264412850142,1.12393295765,0.130511716008,0.124078281224,-0.431998342276,0.145153090358,0.435763889319,-0.263218090555,0.414017460223,-0.052293815267,0.964675748859,0.257444340766,-0.0197095801076
-0.337234169245,-0.103692866862,-0.175420448184,-1.91389667988,0.0266476236284,1.70934569836,-1.07195997238,0.0360411517322,0.887501358986,-0.261437237263,1.1782002449,0.154916584492,0.104993894696,-0.362512737513,0.220422908664,0.444510692548,-0.245146189268,0.417538015137,-0.051974167103,0.960092591124,0.274063665704,-0.0202486852797
-0.320982277393,-0.108266748488,-0.153697550297,-1.91091918945,0.0282073989511,1.70349562168,-1.06743550301,0.0360411517322,0.91680431366,-0.247255653143,1.22905182838,0.175464391708,0.0842975527048,-0.297767132521,0.288607478142,0.452749416759,-0.227270573333,0.421005651391,-0.0508479778157,0.955457456523,0.289984240662,-0.0206075662079
-0.293805748224,-0.114922091365,-0.117196135223,-1.90523338318,0.0306188184768,1.69644033909,-1.05741012096,0.0360411517322,0.939216256142,-0.217144623399,1.27611744404,0.209065362811,0.101191706955,-0.207584366202,0.401663482189,0.465711415714,-0.19702849254,0.426768782995,-0.0478618023073,0.947548158903,0.315339738575,-0.0205568335083
-0.278676092625,-0.118372857571,-0.0967332497239,-1.90184605122,0.0323803499341,1.69347774982,-1.05042338371,0.0360411517322,0.972476184368,-0.213201135397,1.29351770878,0.209117278457,0.119337722659,-0.167251840234,0.467557966709,0.472374061781,-0.179796865317,0.429995308261,-0.0459819062,0.943091722063,0.328724812079,-0.0200914332377
-0.261491626501,-0.121946163476,-0.0734494253993,-1.89805233479,0.0347165651619,1.69089984894,-1.04169797897,0.0360450893641,0.951309263706,-0.187988504767,1.28914129734,0.209387600422,0.119159802794,-0.127534240484,0.500817835331,0.479376247417,-0.159904913882,0.433493057925,-0.0438280358862,0.937943462162,0.343464410915,-0.0193226079994
-0.242513656616,-0.125394105911,-0.0476936921477,-1.89380097389,0.0372180379927,1.68883466721,-1.03130710125,0.0360450893641,0.951876819134,-0.1668163836,1.28982555866,0.215099185705,0.135615080595,-0.0881321057677,0.534309864044,0.486356758317,-0.137652806269,0.437153134372,-0.0413119391515,0.932121001031,0.359314024513,-0.0183628590681
-0.199690714478,-0.132640197873,0.0106339100748,-1.8849850893,0.0434483774006,1.68613672256,-1.0046569109,0.0360450893641,0.886851012707,-0.140985146165,1.20161008835,0.146975010633,0.129635587335,-0.0398351624608,0.595474183559,0.498622914916,-0.086122968979,0.444780646471,-0.0357878132322,0.918591371911,0.393272151083,-0.0156888093608
-0.185993775725,-0.13483658433,0.0296188686043,-1.88287627697,0.0456536188722,1.68545162678,-0.995211660862,0.0360450893641,0.837531745434,-0.13456210494,1.17172932625,0.112305417657,0.140737742186,-0.0424121320248,0.586010932922,0.501329652305,-0.0691330745288,0.446793262257,-0.0343192658489,0.914111026416,0.403728948055,-0.0150384692844
-0.171503528953,-0.137314409018,0.0499434582889,-1.88118445873,0.0480538234115,1.68459665775,-0.984575152397,0.0360450893641,0.793284058571,-0.137813806534,1.11111712456,0.0794974640012,0.134703427553,-0.0471107177436,0.587056875229,0.503420094628,-0.0508955446244,0.448708141364,-0.0329302597303,0.909318464128,0.414539984739,-0.0145646668946
-0.156420961022,-0.140226483345,0.0714440867305,-1.88009500504,0.0505042858422,1.68356406689,-0.972663164139,0.0360450893641,0.717852592468,-0.144878581166,1.03033483028,0.0348820872605,0.115332596004,-0.0576952248812,0.601817131042,0.504696290209,-0.0316449051997,0.450504849659,-0.0315611894228,0.904293416642,0.425502194036,-0.014324471676
-0.141173928976,-0.143422082067,0.0932371094823,-1.87976098061,0.0531093589962,1.68207406998,-0.959586620331,0.0360450893641,0.647219538689,-0.144515007734,0.9441395998,-0.00583581067622,0.119013473392,-0.0804563835263,0.576777279377,0.504959443038,-0.0120717282067,0.452011901672,-0.0304406033694,0.89928508014,0.436061343377,-0.0144989238681
-0.113667927682,-0.149738803506,0.134054169059,-1.88016152382,0.0576394796371,1.67664718628,-0.932723879814,0.0360516570508,0.465588003397,-0.126268953085,0.723840534687,-0.0118015212938,0.09199655056,-0.13744880259,0.523045063019,0.502622666333,0.023934124479,0.454185054837,-0.0288191516192,0.890304124022,0.454154987522,-0.0164702833408
-0.107082396746,-0.151528015733,0.144319668412,-1.88046145439,0.0591010861099,1.67462229729,-0.925174295902,0.0360516570508,0.406927704811,-0.115227095783,0.643082857132,-0.0254470668733,0.0929001793265,-0.123600743711,0.488540709019,0.501514740069,0.0322859819325,0.454634083117,-0.0286483325909,0.888370449166,0.457910770446,-0.0171739358361
-0.100794069469,-0.153437316418,0.154558807611,-1.88094854355,0.0604072883725,1.6724627018,-0.917186975479,0.0360516570508,0.340810835361,-0.10739108175,0.557501792908,-0.0319347158074,0.0641868710518,-0.134252250195,0.455128341913,0.500020767964,0.041524501789,0.455085637245,-0.028401077371,0.886339889839,0.461807912914,-0.0181226302415
-0.0870979502797,-0.160391435027,0.181308358908,-1.88340640068,0.0638763457537,1.6635658741,-0.88918286562,0.0360516570508,0.0817040875554,-0.0882001072168,0.220068633556,-0.0386879965663,0.0464443676174,-0.110345572233,0.364628016949,0.494602423387,0.0626272976005,0.456295972699,-0.0279508611089,0.883574985192,0.466946381131,-0.0217961401567
-0.0862568691373,-0.161874160171,0.184176340699,-1.88402950764,0.0645830333233,1.66160190105,-0.883222222328,0.0360516570508,0.025509364903,-0.0738503858447,0.12977463007,-0.0292593222111,0.0417767353356,-0.121127597988,0.335732460022,0.493616019798,0.0646097832263,0.456538026675,-0.0280745698741,0.884110906343,0.465890582679,-0.0224875177493
-0.0862907469273,-0.162751793861,0.185727193952,-1.88437306881,0.0652340874076,1.65970623493,-0.877415895462,0.0360516570508,-0.0200326126069,-0.0333878174424,0.0397267900407,-0.0119712194428,0.0303505808115,-0.10000436753,0.312412559986,0.49290938861,0.0654812417634,0.456642338803,-0.0283779599217,0.885105056647,0.463945707291,-0.0231972077656
-0.0907365381718,-0.163786783814,0.184216424823,-1.88476276398,0.0655301883817,1.65541982651,-0.863219201565,0.0360628217459,-0.180643841624,0.00297748646699,-0.082173153758,-0.00347954640165,0.0036735557951,-0.0628358200192,0.28228649497,0.49211721073,0.0625179415545,0.456677650411,-0.0291328640837,0.889664943566,0.455001885539,-0.0249168266196
-0.0941733047366,-0.163727462292,0.182499364018,-1.88489484787,0.0655305013061,1.65458786488,-0.85847890377,0.0360628217459,-0.21863861382,0.00804761983454,-0.11644449085,-0.0106526641175,6.43369203317e-05,-0.0346765108407,0.270962923765,0.492222788973,0.0599409107016,0.456556845354,-0.029454891135,0.891878577802,0.450604667056,-0.0253070256798
-0.0981575772166,-0.163498818874,0.180094078183,-1.88508367538,0.0655354335904,1.65410745144,-0.853937029839,0.0360628217459,-0.250698208809,0.0204754862934,-0.165520831943,-0.012182964012,-3.42384410033e-05,-0.0215278100222,0.258988469839,0.492490184208,0.0565420116617,0.456349831416,-0.02985911272,0.894449404731,0.445436319728,-0.0255964939996
-0.103412926197,-0.162874877453,0.176351740956,-1.88529467583,0.065533824265,1.65369617939,-0.849125802517,0.0360628217459,-0.266215711832,0.0371642746031,-0.212020546198,-0.00978004094213,-3.7861882447e-05,-0.0232624150813,0.234881386161,0.492893878085,0.0522466167548,0.455997824705,-0.0304270973938,0.897320921188,0.43956576565,-0.02590933204
-0.112227581441,-0.161254405975,0.168994486332,-1.88551473618,0.0655165761709,1.6532548666,-0.842357695103,0.0360628217459,-0.29713255167,0.0599569790065,-0.268608361483,-0.00309926667251,-0.000821292807814,-0.0143528990448,0.198358207941,0.493707316268,0.0441370342348,0.455197397981,-0.0315992582458,0.902231848431,0.4292781877,-0.0264464704254
-0.1168102175,-0.160233587027,0.164735645056,-1.88564217091,0.0654966309667,1.65308868885,-0.839402139187,0.0360628217459,-0.317603200674,0.0651832595468,-0.299261987209,-0.0117359533906,-0.00314418319613,-0.0149680832401,0.194937124848,0.494126863777,0.039692249568,0.454697106295,-0.0322825860295,0.904706803007,0.423967078923,-0.0267460445461
-0.122104234993,-0.158917561173,0.159608051181,-1.88582277298,0.0654880180955,1.65295350552,-0.836053431034,0.0360628217459,-0.31176418066,0.0838729441166,-0.309374243021,-0.0103178042918,3.17968697345e-05,-0.00857917964458,0.199349746108,0.494590641019,0.0344491701074,0.454041561124,-0.0331262980943,0.90755435298,0.417746424798,-0.0271232189928
-0.12829720974,-0.157137870789,0.1536796242,-1.88607096672,0.0654761046171,1.65282428265,-0.832505762577,0.0360628217459,-0.320469647646,0.0917126387358,-0.314837485552,-0.0149560514838,-0.000723642413504,-0.00915765576065,0.176825895905,0.495088194214,0.0283420590462,0.453137288981,-0.0341743146205,0.910737173189,0.410639015758,-0.0276679599625
-0.138239711523,-0.154152810574,0.143476650119,-1.8867815733,0.0654486268759,1.6527415514,-0.827543020248,0.0360674150288,-0.315887600183,0.115069612861,-0.33524236083,-0.0261916778982,-0.00323968171142,2.59854641627e-05,0.150351420045,0.495717439521,0.0181731980314,0.45148662809,-0.0359833746508,0.915713683522,0.399191612385,-0.0286304530481
-0.143651545048,-0.152151837945,0.137659564614,-1.88722741604,0.0654114559293,1.65273654461,-0.824772417545,0.0360674150288,-0.323573827744,0.117454074323,-0.351731210947,-0.0276207830757,-0.00253340229392,-6.60774312564e-05,0.166868850589,0.496014151953,0.0124900680474,0.450377206498,-0.0370772079581,0.918418690326,0.392776220446,-0.0293126294127
-0.148757323623,-0.150368154049,0.13218921423,-1.88774681091,0.0653855577111,1.65272343159,-0.822251260281,0.0360674150288,-0.31532278657,0.115292608738,-0.332970201969,-0.0346063971519,-0.000799779372755,-0.00112557946704,0.150401264429,0.496198541405,0.00713963182684,0.449331039577,-0.0381059876131,0.920907936484,0.386754509681,-0.0299575558301
-0.15467658639,-0.148039951921,0.126161336899,-1.88842463493,0.0653346925974,1.65271866322,-0.819511830807,0.0360674150288,-0.306773215532,0.129055932164,-0.306375086308,-0.0364251807332,-0.00967986136675,-0.00169905961957,0.149064272642,0.496354817139,0.00108732963414,0.447947906365,-0.0393464480708,0.923644426817,0.379974018773,-0.0308638068667
-0.172252878547,-0.139966458082,0.10784034431,-1.89169549942,0.0649745389819,1.6526863575,-0.811106741428,0.0360674150288,-0.238193273544,0.129065603018,-0.261524051428,-0.0634905770421,-0.00396740762517,-6.0941605625e-05,0.0972801446915,0.496200237465,-0.0173940647097,0.442574271994,-0.0435885453019,0.931642782948,0.359077370764,-0.0347160652815
-0.176112130284,-0.137813732028,0.103682175279,-1.89280569553,0.0649099871516,1.65264248848,-0.809567689896,0.0360733270645,-0.223016828299,0.118960559368,-0.227297022939,-0.0683887898922,-0.000182019794011,-0.00834355317056,0.0909237414598,0.495998011271,-0.0216549792342,0.440959588437,-0.0447775180265,0.933345533566,0.354356691931,-0.0359502909669
-0.185467898846,-0.132130011916,0.0941962003708,-1.89639317989,0.0648529753089,1.6523951292,-0.804684221745,0.0360733270645,-0.154256120324,0.107441112399,-0.153950840235,-0.0757466033101,-0.00170033529866,-0.00302457879297,0.0943827852607,0.495269073147,-0.0307062834761,0.436762646586,-0.0477021323192,0.93706522569,0.343635254951,-0.0393456556109
-0.187781557441,-0.130272999406,0.0918086767197,-1.89761269093,0.0648237764835,1.65232205391,-0.803397297859,0.0360733270645,-0.123178288341,0.106556110084,-0.12863907218,-0.0725766420364,-0.00241258996539,-0.00539556518197,0.0673998147249,0.49501591271,-0.0330764446411,0.435306948606,-0.0486425321807,0.938008200343,0.340776600936,-0.0405688069029
-0.189549833536,-0.128646492958,0.0899403616786,-1.89877831936,0.0647912696004,1.65219986439,-0.802277743816,0.0360733270645,-0.0986644625664,0.099653981626,-0.101769275963,-0.0710178017616,-0.00345139764249,-0.00536148203537,0.0781638398767,0.494763918082,-0.0349075390927,0.433982444669,-0.0494753262447,0.938739353056,0.338495535419,-0.0417299808877
-0.191110193729,-0.126832038164,0.0883277505636,-1.90001070499,0.0647437274456,1.65203392506,-0.801024198532,0.0360733270645,-0.0739510655403,0.100626409054,-0.0759652480483,-0.0682417303324,-0.000930482055992,-0.0150039205328,0.070548042655,0.494512496278,-0.0365085386744,0.432530838801,-0.0503470261075,0.939400687809,0.336360573257,-0.0430475220091
-0.192936301231,-0.12250444293,0.0861241668463,-1.90293824673,0.064666993916,1.65140855312,-0.797600626945,0.0360733270645,-0.0035900385119,0.0829835012555,-0.00847833231091,-0.0449943579733,0.000269473064691,-0.0135011319071,0.0501271225512,0.493975559942,-0.0385339898984,0.429115402739,-0.0522794602235,0.940426343961,0.332738500569,-0.0463706755236
-0.192860782146,-0.121272958815,0.0861582756042,-1.90368950367,0.0646703466773,1.65118634701,-0.796761572361,0.0360752977431,0.0128859765828,0.06451793015,0.00541622843593,-0.0426929630339,0.000418563315179,-0.00461687566712,0.0573669858277,0.493868679525,-0.038486490586,0.42809398336,-0.0528132704913,0.940493391468,0.332315850923,-0.0474248244928
