imanlab/tactile_prediction_flat_dataset/train/data_sample_2021-11-24-15-55-56/robot_state.csv
position_panda_joint1,position_panda_joint2,position_panda_joint3,position_panda_joint4,position_panda_joint5,position_panda_joint6,position_panda_joint7,position_panda_finger,velocity_panda_joint1,velocity_panda_joint2,velocity_panda_joint3,velocity_panda_joint4,velocity_panda_joint5,velocity_panda_joint6,velocity_panda_joint7,ee_state_position_x,ee_state_position_y,ee_state_position_z,ee_state_orientation_x,ee_state_orientation_y,ee_state_orientation_z,ee_state_orientation_w
0.548941969872,-0.0983154624701,-0.582415997982,-2.56105446815,-0.0860290005803,2.5061507225,-0.686681509018,0.0670194029808,0.000107652092993,2.33963419305e-06,-0.000336465949658,0.000179682203452,4.45540426881e-05,4.79839509353e-05,-0.000262801448116,0.451560823684,-0.011274689579,0.186307526383,0.00417964749677,0.935232360321,0.353734052171,0.0139707829503
0.548945367336,-0.0983173176646,-0.582413196564,-2.56105446815,-0.0860272720456,2.50615024567,-0.686680436134,0.0670194029808,0.000356090458808,-0.00174500932917,8.58837593114e-05,3.01229829347e-05,-3.61398087989e-05,-1.77988367795e-05,0.000266413640929,0.45156103979,-0.0112716904558,0.186308252671,0.00417898720913,0.935231691935,0.353735791837,0.0139716758093
0.548944652081,-0.0983151346445,-0.58241635561,-2.56105494499,-0.0860277116299,2.50615024567,-0.686679184437,0.0670194029808,-0.000127932056785,-0.000562806962989,0.000198295791051,7.17230868759e-05,6.43287785351e-05,2.44432194449e-05,-0.000226392352488,0.451560477428,-0.0112735701755,0.186307160236,0.00417909115193,0.935232545134,0.353733588917,0.0139703069328
0.548943638802,-0.0983174592257,-0.582415640354,-2.5610575676,-0.0860290080309,2.50615024567,-0.68667858839,0.0670194029808,-0.000242878246354,-1.06462557596e-05,-0.000207407094422,-0.000304751185467,0.000111745073809,-1.54133176693e-05,-1.5581426851e-05,0.451559547185,-0.0112735194726,0.186307023669,0.00417877675431,0.935232503218,0.353733710772,0.0139701216567
0.548942446709,-0.0983166992664,-0.582414925098,-2.56105446815,-0.0860292613506,2.50614976883,-0.686680018902,0.0670200586319,3.4367221815e-05,0.00031712432974,-7.32939370209e-05,-7.7192329627e-05,-0.000102910773421,-5.16547479492e-05,-0.00025136381737,0.451560798308,-0.0112739335006,0.186307931377,0.00417948537916,0.935232313833,0.3537341712,0.0139709296441
0.548943042755,-0.0983211770654,-0.582414209843,-2.56105494499,-0.0860272347927,2.50615096092,-0.686678409576,0.0670200586319,-0.000237906104303,-0.000112649431685,-0.000289698655251,0.000450750289019,2.37056337937e-05,-0.000144796198583,7.67059173086e-05,0.451561409232,-0.0112728627036,0.186309571493,0.00417860032686,0.935232620837,0.353733261251,0.0139736821485
0.548944115639,-0.0983202904463,-0.582414090633,-2.56105589867,-0.0860286355019,2.50615119934,-0.686677694321,0.0670200586319,9.3099741207e-05,-0.000294466590276,0.000245827715844,-0.000323353422573,1.37338529385e-05,4.31110202044e-05,0.000240829831455,0.451560921396,-0.0112724406322,0.186308883901,0.0041789325085,0.935232339813,0.353734035569,0.0139727898504
0.548946082592,-0.0983191877604,-0.582413852215,-2.56105685234,-0.0860281139612,2.50615119934,-0.68667858839,0.0670200586319,-3.6539206576e-06,-0.000471560430015,0.000179801878403,-5.92570140725e-05,-2.29145043704e-05,0.000107686915726,-0.000224654679187,0.45156036313,-0.0112714674848,0.18630809484,0.00417870532421,0.935231868042,0.353735322142,0.0139718637172
0.54894477129,-0.0983187407255,-0.582413136959,-2.56105947495,-0.0860296562314,2.5061507225,-0.686677217484,0.0670200586319,-0.00335992895998,-2.65593771474e-05,-6.27691624686e-05,-0.000396446994273,1.0075425962e-05,-7.57870147936e-05,0.000308723130729,0.451558841899,-0.0112717435355,0.186306681539,0.00417864872562,0.935231990144,0.35373508008,0.0139698358228
0.548943698406,-0.0983199924231,-0.582414746284,-2.56105732918,-0.0860282406211,2.5061519146,-0.686678469181,0.0670200586319,0.000189003694686,-0.000253533013165,-0.000341206992744,-0.000762519834097,1.41182936204e-05,-0.000132912915433,-0.000280089647276,0.451560352222,-0.0112728580431,0.186308257754,0.00417866855509,0.935232440909,0.353733788737,0.0139723509901
0.548944115639,-0.09832239151,-0.582413673401,-2.56105875969,-0.0860274508595,2.50615143776,-0.686678230762,0.0670200586319,0.00022355542751,-0.000288488081424,0.00064728531288,-0.000363611849025,-6.78169235471e-05,-1.67237249116e-05,3.32578929374e-05,0.451559903761,-0.0112719226286,0.186308583875,0.00417790827476,0.935232318901,0.353734105183,0.0139727335199
0.548944115639,-0.0983218774199,-0.582416236401,-2.56105732918,-0.0860276594758,2.5061507225,-0.686676561832,0.0670200586319,0.00047598517267,0.000250683835475,-3.6693560105e-05,-0.00419313786551,2.12735676541e-06,4.09718159062e-05,0.000305952766212,0.451560305911,-0.0112731516294,0.18630882449,0.00417805827469,0.935233048126,0.353732174518,0.0139727563211
0.548943638802,-0.098322533071,-0.582416057587,-2.5610575676,-0.0860297754407,2.50615143776,-0.686677694321,0.0670200586319,0.000184131306014,-1.7660569938e-05,-0.000265717128059,-0.000252690457273,2.243187555e-05,-4.06049866797e-06,-0.000137344613904,0.451560433698,-0.0112733495437,0.186309050724,0.00417869129273,0.93523259433,0.353733353181,0.0139731018606
0.548940896988,-0.0983212888241,-0.582417488098,-2.56105875969,-0.0860286355019,2.5061507225,-0.68667703867,0.0670200586319,0.00019624370907,-0.00049933954142,-0.00159376021475,4.02720652346e-05,-6.05930290476e-05,-0.00010436969751,2.92314107355e-05,0.451559468026,-0.0112753704106,0.186307883509,0.00417803986195,0.935233680198,0.353730543429,0.0139717478198
0.548943936825,-0.0983216911554,-0.582413673401,-2.56105875969,-0.0860286578536,2.5061507225,-0.686676084995,0.0670200586319,-2.83711033262e-05,-0.000424686382757,2.73174173344e-05,0.000113930684165,8.17608379293e-05,9.14904376259e-05,-0.000303927925415,0.451559662073,-0.0112721339235,0.186308250655,0.00417819172475,0.935232568471,0.353733473408,0.0139719383358
0.548946559429,-0.0983237922192,-0.582411468029,-2.56105995178,-0.0860286206007,2.5061507225,-0.686676263809,0.0670200586319,0.000245078175794,0.000388752348954,0.000622879771981,-0.000232972233789,-4.11980508943e-05,7.68712652643e-06,0.000126376748085,0.45155943855,-0.0112697798035,0.186308630068,0.00417783106225,0.935231675657,0.353735817787,0.0139724541723
0.548945486546,-0.0983226448298,-0.582414627075,-2.56105995178,-0.0860285386443,2.50615119934,-0.686675548553,0.0670200586319,0.00310051883571,0.000236552645219,-0.000202929135412,7.12615510565e-05,-8.39156637085e-05,3.10806572088e-05,-9.40608224482e-05,0.451559326621,-0.0112717243295,0.186308163769,0.00417786267053,0.935232563546,0.353733484397,0.0139720881986
0.548945188522,-0.0983219221234,-0.582415401936,-2.56105899811,-0.0860284715891,2.50615143776,-0.686676979065,0.0670200586319,-0.000172731859493,-0.000244322320214,0.000486059521791,5.08523007738e-05,-6.3476858486e-05,2.87173515972e-05,8.14436425571e-05,0.451559626113,-0.011272238251,0.186308240967,0.00417806499285,0.935232542034,0.353733532557,0.0139722483264
0.548944294453,-0.0983213856816,-0.582415342331,-2.56105852127,-0.0860275551677,2.50615334511,-0.686676681042,0.067020714283,0.00248723430559,-0.000459489529021,-2.50268331001e-05,0.000134068133775,2.21341797442e-05,0.000128611136461,0.000279820436845,0.45156027269,-0.0112726482034,0.186308436236,0.00417830111384,0.935232834002,0.353732719144,0.0139732278431
0.548944652081,-0.098321415484,-0.582414150238,-2.5610601902,-0.0860287845135,2.50615286827,-0.6866761446,0.067020714283,-0.000356539560016,-0.000249490927672,-0.000834140810184,-0.000181127135875,-0.000116887029435,-9.98715331662e-05,-0.000245669594733,0.451559453735,-0.0112717879289,0.186307857023,0.00417820949215,0.935232479832,0.353733694204,0.0139722762112
0.54894477129,-0.0983219891787,-0.582414984703,-2.56105995178,-0.0860296040773,2.50615525246,-0.686677098274,0.067020714283,6.67265412631e-05,0.000204146315809,0.000336000928655,-8.32591031212e-05,-0.000133217617986,-1.22420869957e-05,0.000162427022588,0.451560108403,-0.0112722851534,0.186308288782,0.00417887754635,0.935232305141,0.35373409688,0.0139735748509
0.548943519592,-0.0983227193356,-0.582414090633,-2.56105971336,-0.0860283523798,2.50615310669,-0.686674773693,0.067020714283,-0.000188290869119,-0.000126295315567,-0.000615830707829,-0.000226198448217,4.80816379422e-05,-6.3472551119e-05,0.000101419194834,0.451559847236,-0.0112723550192,0.186308479044,0.00417818298118,0.935232967382,0.353732370583,0.0139731598497
0.548943638802,-0.098323635757,-0.582414984703,-2.56105923653,-0.0860285907984,2.5061545372,-0.686674714088,0.067020714283,0.000146101752762,-0.00028220898821,-0.000154635883518,-0.000252952100709,-4.22103694291e-05,-2.26716092584e-05,0.000167947539012,0.451560860198,-0.0112721784085,0.186309389669,0.00417841777862,0.935233117116,0.353731901936,0.0139749315993
0.548944234848,-0.098324239254,-0.582413971424,-2.56106114388,-0.086029522121,2.50615406036,-0.686677277088,0.067020714283,-0.000236698906519,0.000403603742598,-4.50040861324e-05,4.06046565331e-05,-1.48406870721e-05,-0.000140149437357,4.26471560786e-05,0.451559514472,-0.0112719947924,0.186308503101,0.00417825241938,0.935232216399,0.353734346008,0.0139733945741
0.548945903778,-0.0983234494925,-0.582412421703,-2.56106305122,-0.0860280841589,2.50615572929,-0.686675548553,0.067020714283,0.000176300105522,-0.000392953777919,-6.44089959678e-05,-9.54213755904e-05,-0.000211687030969,0.000237191081396,-9.39995061344e-06,0.451558977551,-0.0112704647627,0.186307681579,0.0041778202349,0.935232241881,0.35373429737,0.0139730495452
0.548944890499,-0.0983243137598,-0.582413434982,-2.56106281281,-0.0860284417868,2.50615620613,-0.686674058437,0.067020714283,8.30266799312e-05,-0.00058961234754,1.55849429575e-05,0.000529174925759,-9.80852473731e-06,-2.24367922783e-05,-4.39845025539e-05,0.451559295981,-0.0112711969437,0.186308168287,0.00417797403163,0.935232686689,0.353733082561,0.0139739854428
0.548943579197,-0.0983266979456,-0.582414090633,-2.56106114388,-0.0860283896327,2.50615501404,-0.686674654484,0.067020714283,-0.000318467471516,0.000247830204898,-1.88908343262e-05,0.000135187627166,1.68871320056e-05,7.89984769654e-05,5.96267345827e-05,0.451560005866,-0.0112723087742,0.186309510076,0.00417777515045,0.935233093958,0.353731961279,0.0139751714118
0.54894298315,-0.0983271226287,-0.582415044308,-2.56105995178,-0.0860275030136,2.50615596771,-0.686673998833,0.067020714283,0.000772931147367,0.00022080547933,-8.59509673319e-05,0.000414085487137,-3.06606343656e-05,-4.03881967941e-05,-0.000299625011394,0.451560879619,-0.0112725959395,0.186310302245,0.00417789950912,0.93523344586,0.353730971391,0.0139766399806
0.548943817616,-0.0983265638351,-0.582413256168,-2.56106305122,-0.0860286131501,2.50615620613,-0.686674237251,0.067020714283,0.000166350509971,6.47754714009e-05,-1.63831873579e-06,0.00042102302541,-0.000117287723697,3.56066520908e-05,0.000228397213505,0.451559457733,-0.0112714325858,0.186308931973,0.00417778413482,0.935232777587,0.353732805837,0.0139749636114
0.548945307732,-0.0983251407743,-0.582412064075,-2.56106543541,-0.0860291868448,2.50615668297,-0.686672747135,0.0667889118195,0.000193304178538,-0.000144998513861,-7.73167193984e-05,0.000198295485461,-5.2535224313e-06,0.00146761955693,0.000165347053553,0.451558308639,-0.0112702920088,0.186307524446,0.00417772915544,0.935232484159,0.353733645804,0.0139733554893
0.54894387722,-0.0983262434602,-0.582414925098,-2.56106066704,-0.0860286056995,2.50615787506,-0.686672866344,0.0667889118195,0.000567059963942,-0.000147532016854,0.000138047646033,0.000529804034159,1.59513401741e-05,0.000101357873064,0.000207021352253,0.451560862326,-0.0112722319677,0.186309869093,0.00417845598886,0.935233301517,0.353731344819,0.0139766811929
0.548944115639,-0.0983257442713,-0.582413315773,-2.56106185913,-0.0860286206007,2.50616145134,-0.686674356461,0.0667889118195,0.000330520764692,0.00078601995483,0.000229523284361,-0.000254045706242,-2.54750466411e-05,7.92180071585e-05,0.000216732936678,0.451561048682,-0.0112713891618,0.186309585205,0.00417892466565,0.935232684958,0.35373293331,0.0139775946596
0.548945069313,-0.0983283892274,-0.582413971424,-2.56106114388,-0.0860281810164,2.50616121292,-0.686675906181,0.0667889118195,-0.000209574354813,-0.00015112006804,-0.000243400092586,0.000205567339435,-4.44296201749e-05,-0.000106722662167,0.000296308397083,0.451561524861,-0.0112707765943,0.18631064821,0.00417855368817,0.93523228327,0.353733946794,0.0139789337689
0.548942923546,-0.0983275547624,-0.582416534424,-2.56106352806,-0.086027905345,2.50616168976,-0.686673223972,0.0667889118195,3.34902688337e-05,-0.000148662540596,0.000148318256834,0.000483930751216,6.87050851411e-05,1.88427384273e-06,-0.000184744392755,0.45156047139,-0.01127309156,0.186309558077,0.00417813702228,0.935233750336,0.353730115363,0.0139778601704
0.548943638802,-0.0983248800039,-0.582415699959,-2.56106519699,-0.0860301107168,2.50616288185,-0.686674058437,0.0667889118195,-0.000505076081026,-0.00384378456511,-0.000124343248899,0.000351840688381,4.08794076066e-05,-0.000310919451294,1.68545084307e-05,0.451559642738,-0.0112726696015,0.186308016924,0.00417892464918,0.935233019505,0.353732106358,0.0139761380013
0.548944950104,-0.0983278378844,-0.582413434982,-2.56106472015,-0.0860281065106,2.50616526604,-0.686674714088,0.0667889118195,-0.000947733409703,0.000286832539132,0.000234505700064,0.000399962882511,-9.92452078208e-06,-1.62639025802e-05,0.00024812479387,0.451560804113,-0.0112707411131,0.186309606812,0.00417863527108,0.93523252443,0.353733299275,0.013979160397
0.54894298315,-0.0983280912042,-0.582414507866,-2.56106448174,-0.08602873981,2.50616526604,-0.686674237251,0.0667889118195,-0.000129723179271,0.000207505334402,0.000106496234366,-0.00150195742026,1.95022457774e-05,-0.000203833580599,-0.000140673102578,0.451560906361,-0.0112721248907,0.186309771175,0.00417880511921,0.935233056341,0.3537318847,0.0139793185224
0.548943161964,-0.0983259826899,-0.582415282726,-2.56106448174,-0.0860284715891,2.50616717339,-0.686674118042,0.0667889118195,0.000324909895426,-0.000374062423361,-0.000129471765831,0.000295138917863,-8.62749730004e-05,5.02049078932e-05,0.000288765062578,0.451561041796,-0.011272513473,0.18630913266,0.00417919502126,0.935233217765,0.35373145782,0.0139792042521
0.548944354057,-0.0983260199428,-0.582416594028,-2.56106519699,-0.0860288366675,2.50616765022,-0.686674237251,0.0667889118195,4.09325184592e-05,-2.82714190689e-05,0.000424639205448,0.000233522077906,-1.51797178205e-06,-7.20272364561e-05,0.000201982154977,0.451560804873,-0.011272537612,0.18630887778,0.00417917382821,0.935233160801,0.353731613944,0.0139790709877
0.548944830894,-0.0983262956142,-0.58241558075,-2.56106710434,-0.0860284045339,2.50616788864,-0.686674177647,0.0667889118195,-0.000157503338414,-4.4023290684e-05,-0.000278381310636,-0.000336724770023,4.72620158689e-05,-1.38684927151e-05,-8.41160435812e-05,0.451560100672,-0.0112716768856,0.186308257331,0.00417888218654,0.935232910847,0.353732303499,0.013978431925
0.548944473267,-0.0983309745789,-0.582415938377,-2.5610640049,-0.0860285460949,2.50616884232,-0.686674177647,0.0657428428531,-0.000265945214778,0.000130045125843,-0.000116105955385,1.45902104123e-05,-5.12635269843e-05,-1.60252475325e-05,-0.000242935027927,0.451562252844,-0.0112718343671,0.186311356205,0.0041790735533,0.935233046206,0.353731776459,0.0139826548689
0.548944234848,-0.0983312055469,-0.582413077354,-2.56106543541,-0.0860299542546,2.50616812706,-0.686674773693,0.0657428428531,1.44345258377e-05,-0.000309311202727,0.000237974294578,-8.25206370791e-06,-3.24179090967e-05,-0.000183270924026,-0.000157748916536,0.451561512377,-0.0112707111786,0.186310880306,0.00417919168733,0.935232279863,0.353733840343,0.0139816644261
0.548944115639,-0.0983280912042,-0.58241468668,-2.56106686592,-0.0860277712345,2.50616884232,-0.686674118042,0.0657428428531,-0.000325169181451,-0.000101604433439,0.000372644048184,-0.000132854445837,4.51312880614e-05,2.32384372794e-05,-0.000237596424995,0.451560572409,-0.0112715207129,0.186309162975,0.00417862568456,0.935233014898,0.353731969161,0.0139800075692
0.548945248127,-0.0983300805092,-0.582413911819,-2.56106710434,-0.0860287472606,2.50617170334,-0.686674118042,0.0657428428531,-0.000205608419492,-0.000964840291999,0.000140769392601,0.000416150520323,-1.4849127183e-05,0.000103703911009,2.70825489679e-06,0.451561357839,-0.0112705451587,0.186310111982,0.0041791556167,0.93523251095,0.353733210722,0.0139821471534
0.548945188522,-0.0983297079802,-0.582412838936,-2.56106710434,-0.0860280022025,2.50617432594,-0.686673820019,0.0657428428531,0.000603587715887,-5.88440088904e-05,3.40095102729e-05,-0.000308481801767,-2.63798665401e-05,-0.000142236967804,4.48787213827e-05,0.451561896039,-0.0112700671128,0.186310243986,0.00417943797593,0.935232473762,0.353733260489,0.0139832910584
0.548943221569,-0.0983321294188,-0.582414329052,-2.56106758118,-0.0860287323594,2.50617527962,-0.686674714088,0.0657428428531,-0.000277413841104,0.000255514692981,-0.000280830572592,-0.000549794407561,-6.88858781359e-05,0.000131769513246,-8.94055920071e-05,0.45156213384,-0.0112714398633,0.18631102831,0.0041794414037,0.935232804459,0.353732333612,0.0139846193006
0.548942387104,-0.0983307287097,-0.582416057587,-2.5610704422,-0.0860290527344,2.50617790222,-0.686674952507,0.0657428428531,-3.78339755116e-05,4.62507014163e-05,-3.46540182363e-05,0.00239466899075,8.35483369883e-05,0.000104469283542,6.74297371006e-06,0.451561147114,-0.0112725749593,0.186309573133,0.0041794708012,0.935233151973,0.353731446777,0.0139838020808
0.548943221569,-0.0983308106661,-0.582415640354,-2.56106925011,-0.0860285609961,2.5061788559,-0.686675071716,0.0657428428531,0.000255171267781,-0.00055226276163,-0.000354861520464,-0.000476381537737,4.58214744867e-05,-8.62892702571e-05,-5.95870005782e-05,0.451561936945,-0.0112720158752,0.186310174964,0.00417971489866,0.935232974984,0.353731868533,0.0139848974021
0.548944354057,-0.0983303561807,-0.582412600517,-2.56106853485,-0.0860290750861,2.50617933273,-0.686674952507,0.0657428428531,3.21664701914e-05,0.000478686444694,6.8602115789e-05,0.000383365841117,2.51148630923e-05,0.000106637140561,-0.0037905308418,0.451562388317,-0.0112702629707,0.186310403118,0.00418023444726,0.935232187578,0.353733931576,0.0139852169968
0.548946022987,-0.0983290970325,-0.582412540913,-2.56106901169,-0.086028046906,2.5061788559,-0.686674296856,0.0657428428531,0.000248162512435,0.000328338879626,5.2954423154e-05,-0.000331720657414,-1.08794265543e-05,0.00064475327963,-5.91808930039e-05,0.451561922468,-0.0112695054585,0.186309693709,0.00417987555912,0.935232150632,0.353734071434,0.0139842574335
0.548945367336,-0.0983305200934,-0.582415282726,-2.56106829643,-0.086028650403,2.50618028641,-0.686674892902,0.0639317557216,-0.000238485372392,-0.00078538688831,9.45105421124e-05,5.08616139996e-05,7.55411820137e-05,0.000133863286464,-0.000496451801155,0.451562686722,-0.0112709412751,0.186310584865,0.00418017713251,0.935232545557,0.353732959886,0.01398587236
0.548943400383,-0.0983303338289,-0.582415997982,-2.56107115746,-0.0860277414322,2.50618028641,-0.686675131321,0.0639317557216,-0.000401262135711,0.000370032445062,0.000502476759721,0.000298980856314,7.03909390722e-05,-3.48429748556e-05,0.000118409530842,0.451561288523,-0.0112719997118,0.186309367393,0.00417937182943,0.935233099158,0.353731558542,0.0139845367549
0.548942863941,-0.0983317270875,-0.582415044308,-2.56107139587,-0.0860292688012,2.50618219376,-0.686674296856,0.0639317557216,0.000509898294695,-0.000227225624258,-0.000189544516616,-0.00012756169599,-1.14650465548e-05,-2.02425235329e-05,0.00594244850799,0.451561693501,-0.0112717214155,0.186309988125,0.00417985579917,0.935232969009,0.353731843466,0.0139858888677
0.548943400383,-0.0983326584101,-0.582414567471,-2.56107020378,-0.0860280022025,2.50618481636,-0.686674237251,0.0639317557216,9.90557527984e-05,0.000134059446282,0.000523609633092,-0.000227871481911,-1.08088261186e-05,-0.000104160018964,9.47467997321e-05,0.451563031929,-0.0112712108743,0.186311087573,0.00418018887259,0.935232928611,0.353731852692,0.0139882571939
0.548944950104,-0.0983335897326,-0.582415223122,-2.56107211113,-0.0860270932317,2.50618577003,-0.686676323414,0.0639317557216,0.000117379349831,-0.000608218659181,0.000392824178562,-7.8795288573e-05,-7.76713131927e-05,-4.3168765842e-05,0.000225953059271,0.451562530433,-0.0112704329596,0.186310945752,0.0041795918198,0.935232455346,0.353733097735,0.0139885929489
0.548944950104,-0.0983325913548,-0.582413196564,-2.56107330322,-0.0860277861357,2.50618600845,-0.686675548553,0.0639317557216,0.000641877180897,-0.000446322519565,-0.000286139897071,-0.000160213792697,1.85744067949e-06,-1.75073764694e-05,0.00014878512593,0.45156187514,-0.0112697834143,0.186309983842,0.00417978488625,0.935232195495,0.353733829776,0.0139873966703
0.548943042755,-0.0983337163925,-0.582416892052,-2.56107497215,-0.0860302075744,2.50618958473,-0.686674773693,0.0639317557216,0.00016784145555,-0.000199925256311,-6.95482885931e-05,-0.000308929505991,-0.000185784476344,0.000116150338727,0.00033813418122,0.451561923498,-0.0112722290452,0.186309999959,0.0041804815065,0.935232947923,0.353731784749,0.0139885967116
0.548939526081,-0.0983342304826,-0.58241724968,-2.56107544899,-0.0860268175602,2.50619244576,-0.686674296856,0.0639317557216,-0.000280993903289,0.000598152633756,0.000126521190396,-0.000707492814399,1.51686335812e-05,-7.15313508408e-05,0.00013684851001,0.451562329818,-0.0112736941318,0.186310268235,0.00417983338268,0.935234171292,0.353728490501,0.0139903014163
0.548943758011,-0.0983350276947,-0.582414090633,-2.5610730648,-0.0860273465514,2.50620007515,-0.686673939228,0.0639317557216,0.000561348802876,-0.00120375666302,3.98887023039e-05,0.000672999827657,0.000283398432657,-0.000173624648596,0.000992463552393,0.451565301516,-0.011270398805,0.186312307923,0.00418168386626,0.935232804624,0.353731880266,0.0139954008397
0.54894387722,-0.0983337312937,-0.582415282726,-2.56108522415,-0.0860279425979,2.50619864464,-0.68667447567,0.0615789182484,-0.000219672248932,-0.000252579484368,-0.000161858799402,0.000173226784682,3.85779367207e-06,1.92282623175e-05,0.00581018347293,0.451559179738,-0.0112706876656,0.186306890884,0.00417933195807,0.935232878866,0.353731982037,0.0139885682469
0.54894131422,-0.098333902657,-0.582415759563,-2.56108045578,-0.0860287696123,2.50620055199,-0.686674714088,0.0615789182484,-0.000241955043748,-0.000597202626523,0.000189827187569,0.000313632568577,5.37435553269e-05,0.000425692385761,0.000706891762093,0.451561753253,-0.0112721324239,0.186308967599,0.00418081127628,0.935233178031,0.353731057499,0.0139915036251
0.548943698406,-0.0983375757933,-0.582414865494,-2.5610742569,-0.0860273018479,2.5062057972,-0.686674535275,0.0615789182484,-8.74751276569e-06,0.000402288947953,0.000229776313063,-0.00010944063979,7.33179913368e-05,-0.00012968966621,0.00495749106631,0.451566284948,-0.0112704791812,0.186313325081,0.00418209178128,0.935232798863,0.353731755856,0.0139988079538
0.548944294453,-0.0983371660113,-0.582414984703,-2.56108212471,-0.0860283300281,2.50620532036,-0.686676025391,0.0615789182484,-0.000114582624519,-0.000447012891527,-0.000337468285579,-0.000672227411997,5.25699670106e-06,-5.73644865653e-05,-0.000433105480624,0.451562459561,-0.011270074945,0.186310015142,0.00418084343084,0.93523229183,0.353733275653,0.0139946507358
0.548944056034,-0.0983353331685,-0.582415521145,-2.56108188629,-0.0860266759992,2.5062057972,-0.686675548553,0.0615789182484,0.00059033249272,-0.00383616681211,8.58983403305e-05,0.000393810565583,7.83951763879e-05,5.47690106032e-05,-0.000237308428041,0.451562428431,-0.0112704644572,0.186309446192,0.00418063770416,0.935232752049,0.35373207755,0.0139942402868
0.548945069313,-0.0983351320028,-0.582414150238,-2.56108093262,-0.0860277712345,2.50620746613,-0.686675190926,0.0615789182484,-0.000414118723711,0.00239479448646,2.63477231783e-05,-0.000478158413898,-1.02033809526e-05,-0.00016473227879,-0.0021230711136,0.451563249325,-0.0112695090945,0.186309936847,0.00418146662725,0.935232232109,0.353733401107,0.0139952844855
0.548945367336,-0.0983361005783,-0.582414329052,-2.56108379364,-0.0860274881124,2.50620508194,-0.686674237251,0.0615789182484,0.000105992417957,0.000350460992195,-0.000283160014078,-0.000218356435653,-5.27178308403e-05,-2.13326711673e-05,-0.000543990987353,0.451561517114,-0.0112692774968,0.186308945361,0.00418035055939,0.935232423647,0.353732984842,0.0139933394783
0.548943638802,-0.0983359962702,-0.582415401936,-2.56108045578,-0.086028136313,2.50621318817,-0.686675131321,0.0552525892854,3.42585008184e-05,-0.000156724825501,-0.000276277569355,0.000590362935327,0.000108606443973,-1.18524430945e-05,-0.000140159289003,0.451564778679,-0.0112706300836,0.186310962726,0.00418245377254,0.935232623705,0.353732223394,0.0139985876376
0.548944294453,-0.0983414202929,-0.582414507866,-2.56107640266,-0.0860275998712,2.50621533394,-0.686675846577,0.0552525892854,-9.66866646195e-05,-0.000159419578267,-0.000124844169477,-0.000690175103955,-7.50461767893e-05,-1.74036140379e-05,-9.44304019868e-07,0.451567838878,-0.0112696254222,0.186314844666,0.0041829509118,0.935232268051,0.353732935723,0.0140041989332
0.548943400383,-0.0983395949006,-0.582413733006,-2.5610897541,-0.0860288217664,2.5062148571,-0.686675190926,0.0552525892854,-0.000557897379622,-0.000995714683086,-0.000538792286534,0.000172308427864,5.51931952941e-05,2.17524666368e-05,0.000117294614029,0.451561273456,-0.0112694257908,0.186308854049,0.00418087218188,0.935232212203,0.353733400374,0.0139968107283
0.548944711685,-0.0983403548598,-0.582416415215,-2.56108784676,-0.0860273763537,2.50621604919,-0.686674118042,0.0552525892854,0.000165989884408,-0.000616580364294,0.000100929712062,0.00108155375347,6.3920932007e-05,0.000143053766806,0.00496235536411,0.451562479273,-0.0112699217456,0.186309943421,0.00418081509193,0.935232839932,0.353731664955,0.0139987425059
0.548943042755,-0.0983387678862,-0.582416594028,-2.56107759476,-0.0860266461968,2.50621843338,-0.68667447567,0.0552525892854,5.6137170759e-05,-0.00327746942639,-0.000837982399389,0.00012469291687,0.000141694938065,-1.49780580614e-05,4.26608530688e-05,0.451567564585,-0.0112711820708,0.186313610092,0.00418310409598,0.935233223439,0.35373042044,0.014003883643
0.548943161964,-0.0983408838511,-0.582415163517,-2.56108307838,-0.0860272198915,2.50621771812,-0.686675071716,0.0552525892854,-0.000125376667711,-0.000181799099664,1.21158818729e-05,-0.000447703147074,3.08876296913e-05,-0.000193274579942,0.000107941523311,0.451565140854,-0.0112701832172,0.186312214481,0.00418196970303,0.935232744472,0.35373177415,0.014002015504
0.548944413662,-0.0983427166939,-0.582413673401,-2.56108260155,-0.0860264822841,2.50621914864,-0.68667525053,0.0552525892854,-0.000512701750267,0.000246289127972,-0.000519080727827,-0.000202413488296,3.74391565856e-05,0.000104484432086,-1.47268633555e-06,0.451565942792,-0.0112687887739,0.186313268933,0.00418196118247,0.935232314756,0.35373283564,0.014003903481
0.548943638802,-0.0983399227262,-0.582414329052,-2.56107997894,-0.0860275179148,2.50622200966,-0.686674356461,0.0552525892854,0.000173688938958,0.000366762280464,-0.000170415325556,-1.0443894098e-05,-6.46910193609e-05,-0.000157185641001,0.000324178778101,0.451567418838,-0.0112697723342,0.186313498715,0.00418344950666,0.935232580902,0.353732071412,0.0140049887603
0.548943996429,-0.0983402505517,-0.582414150238,-2.56108546257,-0.0860282406211,2.5062212944,-0.686675429344,0.0552525892854,0.00224905926734,-0.000392085610656,-0.00021558557637,-2.18531695282e-05,-5.58732062927e-05,0.000181057723239,-0.00034982318175,0.451564750907,-0.0112693586104,0.186311394646,0.0041824743823,0.935232184178,0.353733241711,0.014002213371
0.548946142197,-0.0983427390456,-0.582413256168,-2.56108355522,-0.0860265791416,2.50622153282,-0.686674952507,0.0525149479508,-0.000221629597945,7.57888046792e-05,-0.000272652454441,-0.000329637667164,1.55199813889e-06,5.97261423536e-05,-0.000364110484952,0.451566042756,-0.0112677769467,0.186313135866,0.00418218797809,0.935231955897,0.353733754014,0.0140046038616
0.548944532871,-0.0983439683914,-0.582414090633,-2.56108307838,-0.0860287770629,2.50622296333,-0.686676204205,0.0525149479508,-0.00066843413515,-8.0949968833e-05,6.79430013406e-05,3.60769954568e-05,0.000151614294737,0.000297487451462,-0.00016450714611,0.451566699736,-0.0112689102078,0.186313905243,0.0041830092044,0.93523184282,0.353733992823,0.0140058779675
0.548943042755,-0.0983458459377,-0.582413852215,-2.56107783318,-0.0860270708799,2.50623083115,-0.68667525053,0.0525149479508,-0.000264338654233,-0.000299837323837,-0.000489104771987,0.00103794410825,6.60802515995e-06,-0.00014942753478,-5.44288232049e-05,0.451571071439,-0.0112693616256,0.18631743682,0.00418461931078,0.935232423837,0.353732151122,0.0140131122334
0.548940241337,-0.0983445346355,-0.582419097424,-2.56109142303,-0.0860284939408,2.50623488426,-0.686675071716,0.0525149479508,0.000105153383629,-0.000142548742588,-0.000110003769805,2.28451499424e-05,0.000315490178764,0.000216417960473,-0.000334376614774,0.451565304462,-0.0112725832153,0.186311829495,0.00418299637678,0.935233621924,0.353729208299,0.0140079207891
0.548944234848,-0.0983504951,-0.58241468668,-2.56108021736,-0.0860263928771,2.50623583794,-0.686675786972,0.0525149479508,0.000125046062749,-0.000599806837272,-0.000102227917523,0.000811589008663,-0.00021159152675,0.000715911155567,3.55676093022e-06,0.451569226328,-0.0112690137432,0.186316240302,0.00418330816075,0.935232722618,0.353731384328,0.0140129191823
0.54894721508,-0.0983572304249,-0.582409799099,-2.56106805801,-0.0860269069672,2.50624060631,-0.686675071716,0.0525149479508,-0.000463957665488,0.00058258860372,-0.000418012932641,-0.000485207157908,-1.3338682038e-05,0.0002816367778,-0.000178628091817,0.451579301025,-0.0112651002358,0.186326635386,0.00418708158894,0.935230927743,0.35373549085,0.0140279128864
0.548947095871,-0.0983606055379,-0.58241212368,-2.56107378006,-0.0860265642405,2.50624299049,-0.686675846577,0.0490116290748,-0.000468665966764,-0.0012925772462,-0.000261646113358,-0.000955650408287,1.23235504361e-05,-8.64495304995e-05,-0.000175299472176,0.451577518523,-0.0112656671243,0.186325825341,0.00418586437788,0.935231223552,0.35373471706,0.0140280670638
0.548945724964,-0.0983685776591,-0.582413911819,-2.56107664108,-0.0860280841589,2.50624489784,-0.686675965786,0.0490116290748,2.95478930639e-05,-0.000111042660137,0.000144417906995,1.22400551845e-05,-3.45859880326e-05,3.02703538182e-05,0.000141549680848,0.451577545408,-0.0112664296763,0.186327856693,0.00418525134712,0.935231487816,0.353733893534,0.0140313976604
0.54894644022,-0.0983718633652,-0.582413256168,-2.56107664108,-0.0860298350453,2.50624895096,-0.686675846577,0.0490116290748,-0.000623048341367,0.000214762127143,0.000406568811741,0.000269053591182,-0.000140772317536,-0.00541095016524,-0.000104063539766,0.451578856883,-0.0112656404698,0.186329501315,0.00418611592742,0.935230976885,0.353735100276,0.0140347720559
0.548939883709,-0.0983884185553,-0.582417070866,-2.56105923653,-0.0860294252634,2.50625944138,-0.686674654484,0.0490116290748,-0.000739951035939,-0.000913231458981,-0.000870417628903,0.000709091429599,-3.90256427636e-05,0.00217537162825,0.000316604564432,0.451591185048,-0.0112695220473,0.186343552492,0.00418934496987,0.935232969655,0.353728955085,0.0140558841471
0.548927247524,-0.0985598862171,-0.582424938679,-2.56106162071,-0.0860279202461,2.50685930252,-0.686674237251,0.0490116290748,0.000154748020577,-0.00713056651875,-0.000368447566871,0.000810025259852,0.000252203288255,0.00472257519141,0.00564402434975,0.451740881698,-0.0112607025815,0.186464145373,0.00426803745091,0.935231914074,0.353716017278,0.0144232299149
0.548930764198,-0.0985802933574,-0.582422733307,-2.56106734276,-0.0860274285078,2.50688838959,-0.68667536974,0.0490116290748,0.000410233420553,-0.000478583300719,0.000522137677763,-0.0012073405087,-4.55194676761e-05,5.60227199458e-05,-9.3532660685e-05,0.451747124751,-0.0112561276518,0.1864724326,0.00426961864109,0.935230453849,0.353718992182,0.014444473168
0.54893642664,-0.0985824540257,-0.582419991493,-2.56108736992,-0.0860306322575,2.5069038868,-0.686675488949,0.0490116290748,1.25510041471e-05,-0.000560156768188,2.85636469926e-05,-0.000403298647143,-0.00011751994316,0.00262974249199,5.40387736692e-05,0.451741507413,-0.0112515520021,0.18646687138,0.00426904824597,0.93522833202,0.353724653897,0.0144433765015
0.548924863338,-0.0985795706511,-0.582427620888,-2.56107807159,-0.0860299542546,2.50692081451,-0.68667536974,0.0490116290748,2.39686596615e-05,0.000744289020076,-7.24983474356e-05,0.00102946313564,-1.11148601718e-05,0.00478439452127,-3.186081085e-05,0.451748875791,-0.0112604954012,0.186470867208,0.0042733746215,0.93523175898,0.353715097816,0.0144542217615
0.548930168152,-0.0985850766301,-0.582423388958,-2.56108498573,-0.0860296338797,2.50694727898,-0.686674594879,0.0461873076856,0.000162127384101,0.000779073336162,0.000337180419592,-0.000735598441679,2.99716703012e-06,-0.000116506285849,0.000143070283229,0.45175219063,-0.0112553533849,0.186472829692,0.00427580202426,0.935230028238,0.353719148035,0.0144663677926
0.548929572105,-0.0985813960433,-0.582423210144,-2.56108951569,-0.0860289558768,2.5069630146,-0.686676323414,0.0461873076856,-7.22955810488e-05,0.00062091415748,-0.000264978967607,0.000878354068846,2.69558204309e-05,0.00150457560085,-0.000102805046481,0.451753009517,-0.0112555000834,0.186471135473,0.00427761966815,0.935229790638,0.353719606171,0.0144699885716
0.548930466175,-0.0985832586884,-0.582422435284,-2.56108260155,-0.0860283225775,2.50697922707,-0.6866761446,0.0461873076856,0.000344424770446,0.000505486212205,5.83233049838e-05,0.000533790269401,-3.61347556463e-05,0.00301911588758,-0.000295000209007,0.451760000047,-0.0112547005907,0.186476126045,0.00428120160136,0.935229510059,0.353719819491,0.0144818442306
0.548928916454,-0.0985816866159,-0.582424461842,-2.56108617783,-0.0860292986035,2.50699567795,-0.686675906181,0.0461873076856,-0.000259732245468,-4.16545371991e-05,-5.87201793678e-05,-0.000496495515108,0.000120156277262,-7.64603319112e-05,-0.00628844322637,0.451761634209,-0.0112562075322,0.186475623181,0.00428349593072,0.935229932123,0.353718460682,0.0144870970824
0.548916757107,-0.098609700799,-0.582429587841,-2.56104922295,-0.0860309004784,2.5070707798,-0.686675429344,0.0461873076856,-0.000668057706207,-0.00413612416014,-0.000767595833167,0.00136917538475,-2.94517258226e-06,0.00460498919711,-0.000106469247839,0.451798403239,-0.0112626429689,0.186507837018,0.00430028997039,0.935232264211,0.35370937564,0.014553238629
0.548908412457,-0.0986911505461,-0.582433402538,-2.56103610992,-0.0860298201442,2.50723719597,-0.686674773693,0.0461873076856,0.000420070806285,-0.00725321983919,9.67824089457e-05,-0.00068629096495,6.76579002175e-05,0.00980394147336,0.000217050939682,0.451850498372,-0.0112609721683,0.186559590618,0.00432138092305,0.935233126418,0.353701676168,0.0146781769518
0.548905849457,-0.0988914519548,-0.582435786724,-2.56104016304,-0.0860326960683,2.50743889809,-0.686674535275,0.0461873076856,-3.76430398319e-05,-0.0100541636348,-0.000128895233502,-0.000450148538221,2.55478116742e-05,0.0161433927715,0.000302143307636,0.451920581222,-0.0112454495705,0.186658433314,0.00433531645304,0.935231057334,0.353698526271,0.0148804108939
0.548906624317,-0.0991644635797,-0.582435131073,-2.56105089188,-0.0860295891762,2.50758743286,-0.686674296856,0.0461873076856,0.00013324637257,-0.0158152710646,0.000823364825919,-0.000709260813892,-1.17229146781e-05,0.00475659966469,0.000118097632367,0.451978291098,-0.0112231318142,0.186766582885,0.00433027942004,0.935228869934,0.35369635438,0.0150697745989
0.548913836479,-0.0993982926011,-0.582431018353,-2.56108856201,-0.0860296264291,2.507604599,-0.686675548553,0.0461873076856,0.000211371661862,-0.00802832562476,0.000279879546724,-0.000701785436831,1.51801577886e-05,-0.000105298211565,-0.000138947070809,0.451993728108,-0.0111987422564,0.186842205624,0.00430416923452,0.935225196519,0.353701867865,0.0151754498303
0.548913836479,-0.0994331091642,-0.582431137562,-2.56109213829,-0.0860284790397,2.50760555267,-0.686676561832,0.0435540750623,-7.9891520727e-05,9.61850382737e-05,-0.000355439755367,-0.000426129176049,-5.34690980203e-06,0.000169182327227,0.000463872536784,0.451996600415,-0.0111959350029,0.186854100318,0.00430006858849,0.935224999207,0.353701752127,0.015191461321
0.548913300037,-0.0994205996394,-0.582430481911,-2.56109166145,-0.0860300660133,2.50760889053,-0.686675608158,0.0435540750623,-0.000193151223357,0.000271728553344,0.000215534906602,-9.19878402783e-06,-2.63050787908e-05,-9.98136820272e-05,-0.00017205576296,0.451995993985,-0.0111969293482,0.186849870869,0.00430233659577,0.935224967636,0.353702000749,0.0151869734204
0.548916935921,-0.099416166544,-0.582430481911,-2.56109499931,-0.0860295370221,2.50761175156,-0.68667536974,0.0435540750623,1.80678562174e-05,-0.000474614265841,0.00401217490435,0.000131134554977,-8.99805309018e-05,7.80906921136e-05,-0.000219503752305,0.45199454015,-0.01119544982,0.186847138546,0.00430238591614,0.935224437503,0.353703500694,0.0151846716938
0.548913538456,-0.0994211062789,-0.582432806492,-2.56109452248,-0.0860313102603,2.50762057304,-0.686673879623,0.0435540750623,0.000404945662012,-1.38123496072e-05,-0.00171373633202,0.000293824938126,-0.000179518348887,-9.30988244363e-05,-8.1385136582e-05,0.451997206216,-0.0111976787691,0.186849983071,0.00430385310623,0.9352253736,0.353700723272,0.0151912957054
0.548918366432,-0.0994270443916,-0.582429528236,-2.56109762192,-0.086030639708,2.50762176514,-0.686675310135,0.0435540750623,-0.000117981959193,-8.59818283061e-06,-0.000122277095215,0.000446276710136,4.94942214573e-05,7.95330779511e-05,-0.00139323365875,0.451996870713,-0.0111934489048,0.186851205086,0.00430281397059,0.935223735617,0.353704974051,0.0151934574111
0.548916816711,-0.0994246453047,-0.582429051399,-2.56109499931,-0.086031652987,2.50762724876,-0.686675727367,0.0435540750623,-0.000118858239148,0.000229529163335,0.0030855552759,-0.000501406088006,-3.57341959898e-05,-5.91822811202e-07,-0.000438393442892,0.451998974296,-0.0111942358984,0.186851863129,0.00430474036098,0.935223687643,0.353704968676,0.0151959896305
0.548910677433,-0.0994235351682,-0.582434356213,-2.56109690666,-0.086030818522,2.50763082504,-0.686674416065,0.0435540750623,-0.000527065538336,-0.00350338546559,6.91700552125e-05,0.00044152510236,-1.87540899788e-05,-0.000238822016399,0.000130829488626,0.451998547865,-0.0111992699349,0.186850897215,0.00430462840844,0.935226035439,0.353698750226,0.0151962688109
0.548920094967,-0.099424302578,-0.582428336143,-2.56109786034,-0.0860295519233,2.50763654709,-0.6866761446,0.0435540750623,0.00051787198754,6.70190202072e-05,0.000340543076163,-3.25664223055e-05,-0.000119699267088,-6.93815163686e-05,-0.00021027958428,0.451999649406,-0.0111921682827,0.186851500982,0.00430511441039,0.935223132026,0.353706298544,0.0151991239628
0.548922002316,-0.0994235873222,-0.582426249981,-2.56109976768,-0.0860318243504,2.50763893127,-0.686675786972,0.0435540750623,0.000221584370593,0.000694351212587,-0.000365506333765,6.22359038971e-06,-0.000201814007596,8.2358790678e-05,-9.53889102675e-05,0.451999315061,-0.0111903457054,0.186850944393,0.00430583829377,0.93522213548,0.353708926103,0.0151990902955
0.548919439316,-0.0994183346629,-0.582428812981,-2.56110644341,-0.0860306769609,2.50763916969,-0.686674296856,0.0435540750623,5.05991629325e-05,-0.000107226864202,4.56760099041e-05,-5.85573397984e-05,6.41433289275e-05,-7.62372292229e-05,-0.000102499390778,0.451995329122,-0.0111928628393,0.186845952595,0.00430471547909,0.93522346696,0.353705671741,0.0151932134943
0.548929214478,-0.0994070693851,-0.582423210144,-2.56113910675,-0.0860298499465,2.50763893127,-0.68667447567,0.0425375550985,0.000548656273168,0.00128416856751,0.00195476436056,-0.00313711841591,-6.34874741081e-05,-0.0038250987418,0.000791258062236,0.451978953866,-0.0111856234995,0.186828992918,0.00429941582085,0.935220859536,0.353713505522,0.0151728247013
0.548931717873,-0.0994094014168,-0.582420289516,-2.561160326,-0.0860289409757,2.50763893127,-0.686675012112,0.0425375550985,-0.000992588116787,-0.000992771121673,-0.000364037783584,-0.000596215249971,9.47869048105e-05,-0.000156401991262,4.52238673461e-05,0.451969416543,-0.0111822148305,0.18682155689,0.00429498005185,0.935219878782,0.353716517577,0.0151643119193
0.548909068108,-0.0994101017714,-0.582437694073,-2.56126523018,-0.0860298871994,2.50764489174,-0.686675608158,0.0425375550985,0.000272300268989,0.000123620135128,-0.000335818942403,-0.00432022521272,3.62091013812e-05,0.000107349485916,7.43691562093e-05,0.451921224607,-0.0111962187418,0.186780474758,0.00427550734221,0.935226458971,0.35370130453,0.0151187743135
0.548908650875,-0.0994379967451,-0.582435667515,-2.56126475334,-0.0860313475132,2.50767230988,-0.686677277088,0.0425375550985,0.000378457654733,-0.00109684013296,-0.000263078429271,0.00258660456166,8.68082424859e-05,0.00105403363705,0.000412521068938,0.451930885143,-0.0111932839801,0.186793904319,0.00427789761626,0.935225328899,0.353703117569,0.0151455632184
0.548908829689,-0.099483974278,-0.582434952259,-2.56124782562,-0.0860301554203,2.50772452354,-0.686674177647,0.0425375550985,0.000405441038311,-0.00318128895015,7.32930275262e-05,-0.00137734645978,-8.82809035829e-05,0.00295662786812,0.00214115600102,0.451957328719,-0.0111882177127,0.186825482068,0.00428506212013,0.93522497352,0.353701292768,0.015207969207
0.548910021782,-0.0995292365551,-0.582435011864,-2.5612847805,-0.0860306024551,2.50783491135,-0.686674535275,0.0425375550985,-0.000101079771412,-0.0016205101274,-2.04222287721e-05,-0.001388875884,-7.88896795711e-05,0.00210566748865,0.000115538430691,0.4519680554,-0.0111833910588,0.18683606965,0.00429131386155,0.935223853834,0.35370201136,0.015258266275
0.548903822899,-0.0995362326503,-0.582436740398,-2.5612757206,-0.0860299766064,2.50786685944,-0.686676025391,0.0425375550985,-2.78023562714e-05,0.000298642378766,-0.000113234891614,0.000589344184846,6.06976573181e-05,0.00019538711058,-0.000331485294737,0.451979954967,-0.0111864600117,0.186845299657,0.00429730711555,0.93522482785,0.353698380051,0.0152810392075
0.548904955387,-0.0995374247432,-0.582438886166,-2.56127953529,-0.0860312953591,2.50790309906,-0.686675906181,0.0425375550985,0.00013287877664,-0.000464563781861,-2.54028545896e-05,-0.000594108307268,0.000127940147649,0.00257546780631,0.000797847984359,0.451986123982,-0.0111864546713,0.186847630148,0.00430253256689,0.935224564447,0.353698328015,0.0152968857291
0.548905611038,-0.0995379388332,-0.582437574863,-2.56127548218,-0.0860289931297,2.50791668892,-0.686674118042,0.0425375550985,0.000152770720888,0.000744250894058,-0.00013756089902,-2.67211544269e-06,2.75795409834e-05,-3.26860686073e-06,0.000499541463796,0.451991042456,-0.0111854523624,0.186850750659,0.00430480631524,0.935224763206,0.353697394053,0.015305686979
0.548909425735,-0.0995383113623,-0.582435667515,-2.56128168106,-0.0860296860337,2.50792551041,-0.686675965786,0.0425375550985,0.000334060227033,-9.33973642532e-05,-0.00234662578441,-0.000248622178333,5.7269102399e-05,0.000205212112633,-0.000262442074018,0.451990179218,-0.011182613239,0.186849323685,0.0043052553081,0.93522324919,0.353701328501,0.0153071503903
0.548912346363,-0.0995438918471,-0.582434356213,-2.56128931046,-0.0860301554203,2.50794434547,-0.686675012112,0.0427962802351,-0.000408776046243,0.000459620350739,-0.000489413330797,-0.000254277110798,2.25626608881e-05,-6.93214460625e-05,-3.59379300789e-05,0.451991561507,-0.0111795550045,0.186850350373,0.00430646137327,0.935222302765,0.353703458888,0.0153154058767
0.548907518387,-0.0995423570275,-0.582437515259,-2.56128811836,-0.086030639708,2.50794816017,-0.686674296856,0.0427962802351,-0.000719359144568,0.000285901216557,0.00142075587064,0.000573303434066,-4.12275694543e-05,4.14827045461e-05,0.0031799338758,0.451992515223,-0.0111836224291,0.186850418196,0.00430746171546,0.935223874254,0.353699231739,0.0153167865766
0.548909664154,-0.0995426028967,-0.582435429096,-2.56128907204,-0.0860297083855,2.50795388222,-0.6866761446,0.0427962802351,0.000210608370253,0.000552115030587,-6.08624895904e-06,4.61064955743e-05,-0.000175200824742,0.00135047582444,-0.000170950341271,0.451993398287,-0.0111814860501,0.1868505869,0.00430807204959,0.935222808371,0.353701938498,0.0153191907593
0.54891294241,-0.099538706243,-0.582433640957,-2.56128811836,-0.0860309153795,2.50795602798,-0.686675190926,0.0427962802351,-2.02973114938e-05,-0.000620706763584,-2.98512331938e-05,0.000241594098043,0.000174949091161,0.00268902909011,0.000272516423138,0.451993892841,-0.011179710065,0.186849872998,0.0043092619092,0.935221996502,0.353704089831,0.0153187480887
0.548908829689,-0.0995453819633,-0.582436203957,-2.56129050255,-0.0860302969813,2.50796365738,-0.686675727367,0.0427962802351,7.8695893535e-06,-0.000405919970945,0.00337577355094,2.81716238533e-05,0.000188050456927,4.03019221267e-05,0.000116619448818,0.451995164215,-0.0111819991602,0.186852126748,0.00430915479589,0.935223072044,0.353700995427,0.0153245626375
0.548914313316,-0.0995401963592,-0.58243393898,-2.56129431725,-0.0860303863883,2.50796508789,-0.686675012112,0.0423799529672,0.000168580605532,0.000195174157852,-0.000537059211638,-0.00241143326275,0.000103086691524,-0.000107657135231,0.00019425926439,0.451992839238,-0.0111788445809,0.186848501131,0.00430911387627,0.935221865363,0.353704355872,0.0153206529859
0.548913598061,-0.0995345935225,-0.582432985306,-2.56130599976,-0.0860292091966,2.50796604156,-0.686675906181,0.0423799529672,-0.00114092440344,3.89606138924e-05,-6.97895520716e-05,-0.000365943735233,6.35709002381e-05,-0.000158766430104,0.000137737006298,0.45198720866,-0.0111786146214,0.186842204297,0.00430735779303,0.935221792518,0.353704883987,0.0153133992886
0.548919439316,-0.0995287001133,-0.582432031631,-2.56133651733,-0.086028970778,2.50796484947,-0.686676621437,0.0423799529672,-0.000270114920568,0.00351901305839,0.000104064318293,-0.000629689136986,-7.28605591576e-05,-4.46985322924e-05,7.06368591636e-05,0.45197204829,-0.011174895634,0.186827804773,0.00430180362721,0.935220478785,0.353709181721,0.0152959144598
0.548914909363,-0.0995263084769,-0.582433521748,-2.5613553524,-0.0860298871994,2.50796556473,-0.68667536974,0.0423799529672,-0.000216934742639,-0.0021557402797,-0.000692194444127,-0.00226003630087,1.79065300472e-05,-0.000100901190308,-0.000295760342851,0.451963032439,-0.0111771425333,0.186819477821,0.00429875988997,0.935221606133,0.353706654365,0.0152862823929
0.548916399479,-0.0995268151164,-0.582431435585,-2.56137442589,-0.0860308930278,2.50796556473,-0.686675548553,0.0423799529672,0.000128543833853,-0.000344884872902,0.000532208650839,-0.00201066303998,-3.73404436687e-05,-0.000113566449727,0.0001663902367,0.451954246406,-0.0111748856222,0.186812176615,0.0042954243053,0.935220760821,0.353709302155,0.01527766715
0.548913955688,-0.0995254516602,-0.582432925701,-2.561388731,-0.0860290527344,2.50796365738,-0.686675608158,0.0423799529672,-0.000386088126106,0.000389262335375,-3.23627027683e-05,-0.000311982992571,9.94144502329e-05,-0.000159440809512,-6.86938947183e-05,0.451946924951,-0.0111761338473,0.18680578358,0.00429193738508,0.935221697316,0.353707214399,0.0152696532683
0.548910200596,-0.09952390939,-0.582431674004,-2.56139016151,-0.0860293656588,2.50796484947,-0.686673760414,0.0423799529672,0.000282082852209,-0.000112767113023,0.000342375133187,0.00134648405947,-0.000169653591001,0.000174759887159,0.00475232861936,0.451946304118,-0.0111773584879,0.186804775744,0.0042921532267,0.935222420017,0.353705338567,0.0152687809701
0.548915147781,-0.0995676890016,-0.58242636919,-2.56138944626,-0.0860315412283,2.50796198845,-0.686674714088,0.0423799529672,-0.000138152972795,-0.00518174190074,-3.3515105315e-05,0.00116943800822,0.000104727281723,-0.000259090069449,-2.48050400842e-05,0.451951639189,-0.0111696392413,0.186821540471,0.00428856889556,0.935219919746,0.353711114347,0.0152891189867
0.548918485641,-0.0996762514114,-0.582425475121,-2.56139302254,-0.0860308930278,2.50795650482,-0.686674594879,0.0423799529672,0.000634686904959,-0.00684307375923,0.000212829487282,-0.00115354522131,1.97029712581e-05,-0.000185384560609,-8.9810375357e-05,0.45196237384,-0.0111593353104,0.186860852185,0.00427672500694,0.935218728858,0.353712278214,0.0153382770383
0.548925101757,-0.0998753458261,-0.5824213624,-2.56136870384,-0.0860306844115,2.50795125961,-0.686674416065,0.0423799529672,0.000283314759145,-0.0136969424784,-0.00038038706407,-0.000182231407962,-0.000139765354106,-0.000395643000957,0.00402828073129,0.45200086061,-0.0111390912094,0.186952957137,0.00426105114991,0.935215836761,0.353715082408,0.0154538757867
0.548935651779,-0.101055964828,-0.582418262959,-2.56019067764,-0.0860330909491,2.50787782669,-0.686676204205,0.04353043437,-0.000532614940312,-0.0343580283225,-0.00451613357291,0.0601645186543,2.90922216664e-05,-0.00615663547069,-7.95246669441e-05,0.45270832659,-0.0110882952299,0.187890184937,0.00437374744927,0.935208875012,0.35368134149,0.0165752465898
0.548927426338,-0.101617202163,-0.582425057888,-2.55922865868,-0.0860362127423,2.50778627396,-0.686674833298,0.04353043437,0.000803135917522,-0.0507059581578,0.00116808677558,0.0934897959232,1.1143231859e-05,-0.0162646993995,-0.000438367686002,0.453444199881,-0.0110829436677,0.188758617247,0.00454750325704,0.935207389112,0.353635426526,0.0175625839764
0.548956096172,-0.10278788954,-0.5824046731,-2.55698013306,-0.0860399603844,2.50736093521,-0.686674654484,0.04353043437,0.00351105141453,-0.0661965981126,0.000402182544349,0.128563180566,-0.000277189450571,-0.0346292592585,-0.000266539747827,0.45427338802,-0.0110649038382,0.189741694737,0.00473988401695,0.935198690195,0.353601890367,0.0186184363115
0.548990249634,-0.104445435107,-0.582379579544,-2.55390071869,-0.086041174829,2.50654506683,-0.686674833298,0.04353043437,0.00150482496247,-0.0975685939193,0.00105220149271,0.172530859709,-1.7994627342e-05,-0.0400782488286,5.10166682943e-05,0.455726795587,-0.0110357131492,0.191527845501,0.00504560256041,0.935184461561,0.353533179091,0.0204659648259
0.549004852772,-0.110966257751,-0.582010507584,-2.54205965996,-0.0860482752323,2.50413632393,-0.686675012112,0.0439132712781,0.000543717644177,-0.178872361779,0.0173522848636,0.339153140783,-0.00035863526864,-0.0721735209227,-1.84408727364e-05,0.461421090537,-0.01086359157,0.198600314376,0.00633472411498,0.935064413461,0.353314283342,0.0279898342479
0.548996925354,-0.115026965737,-0.581542789936,-2.53451609612,-0.0860478430986,2.5024831295,-0.686675012112,0.0439132712781,0.00013840556494,-0.224981144071,0.0273933056742,0.414749860764,-0.00235107773915,-0.0927560180426,-6.10924616922e-05,0.465153924961,-0.0106725523257,0.203378593211,0.00719822129675,0.93491958753,0.353253207695,0.0329502868137
0.549000442028,-0.118694894016,-0.581064045429,-2.52797436714,-0.0860498547554,2.50112938881,-0.686674952507,0.0439132712781,0.000725922058336,-0.256743639708,0.0363093800843,0.450637280941,6.38331257505e-05,-0.0989376530051,0.000248518510489,0.468017580325,-0.0104909127647,0.207147303811,0.00786236256681,0.934776844036,0.353229890731,0.0368656898606
0.549080610275,-0.135187223554,-0.578244507313,-2.49970674515,-0.0860534161329,2.49686813354,-0.68667536974,0.0439132712781,0.00567847955972,-0.385844707489,0.0715271532536,0.624018967152,9.25598506001e-05,-0.0804157555103,3.30421207764e-05,0.481219023161,-0.00935367681542,0.22539175551,0.0111363080569,0.933753971392,0.353329935977,0.0560130304462
0.549172222614,-0.141263455153,-0.577060163021,-2.48972058296,-0.0860507637262,2.49577999115,-0.68667280674,0.0439132712781,0.00992098636925,-0.428061574697,0.0869021564722,0.701667428017,-4.83738585899e-05,-0.0623028539121,8.49591087899e-05,0.485815151545,-0.00886485622139,0.23215162568,0.0123334567865,0.933256251132,0.353410529816,0.0631003380958
0.549286067486,-0.148826733232,-0.575566887856,-2.47732853889,-0.0860554724932,2.49481034279,-0.686673343182,0.0439132712781,0.00544685916975,-0.461117148399,0.0977837145329,0.724757790565,-0.00464141648263,-0.0587586537004,-0.00046518057934,0.49145951575,-0.00828006405645,0.240713624247,0.0138749962918,0.932559788984,0.353473515095,0.0720846603666
0.549524068832,-0.158114939928,-0.573672533035,-2.4625825882,-0.0860517248511,2.49384069443,-0.686671853065,0.0439132712781,0.0142969256267,-0.507700204849,0.106583327055,0.801197350025,2.54532806139e-05,-0.0360406525433,0.000110843378934,0.498029352147,-0.00751649408903,0.251221003447,0.0157000432798,0.931586980637,0.353566688255,0.0830048359488
0.550229549408,-0.17448861897,-0.570171356201,-2.43687009811,-0.0860472694039,2.49310970306,-0.686670958996,0.0439132712781,0.0332306623459,-0.567422568798,0.116503536701,0.87973088026,-0.000345691398252,-0.0109418286011,-7.5820928032e-05,0.509122869125,-0.006077011799,0.270194488049,0.0189834778062,0.929506612071,0.353743087419,0.102581253037
0.550876796246,-0.18414375186,-0.568223893642,-2.42168807983,-0.0860540568829,2.4930434227,-0.68667191267,0.0439132712781,0.0448651202023,-0.578865587711,0.115425556898,0.864120483398,0.000483097974211,-0.00342641561292,1.94650397134e-06,0.515390413727,-0.00525707595525,0.281697270028,0.0209471500402,0.928083977518,0.35377699016,0.114294306493
0.55153799057,-0.19366940856,-0.566346347332,-2.40732502937,-0.0860474184155,2.4931075573,-0.686668455601,0.0439139269292,0.0365125723183,-0.614565253258,0.117582380772,0.919266581535,0.000967690197285,0.00584232062101,0.000113577050797,0.521109638364,-0.00449223339208,0.292945888101,0.0227660178407,0.926590338043,0.35373965585,0.125619701642
0.552297055721,-0.205383419991,-0.564010322094,-2.39003205299,-0.0860386788845,2.49306154251,-0.686667740345,0.0439139269292,0.0388797856867,-0.63462126255,0.128049626946,0.924763262272,-0.000602348649409,0.0174790713936,-0.000331542803906,0.527976198752,-0.00359549977079,0.307550438868,0.0250087881676,0.924521916123,0.353586960173,0.140035882548
0.554294407368,-0.237754166126,-0.55782353878,-2.34527373314,-0.0860454589128,2.49347233772,-0.686666667461,0.0439139269292,0.0375865660608,-0.655974030495,0.125829637051,0.842082738876,-0.00031472730916,-0.00398914190009,0.0003151736164,0.542840142359,-0.00185987099273,0.344789113981,0.030204713439,0.918599391138,0.352609298715,0.17586789368
0.555043756962,-0.249563574791,-0.555750072002,-2.33031320572,-0.0860358998179,2.49359846115,-0.686668515205,0.0439139269292,0.0481188595295,-0.650034666061,0.106521032751,0.820366322994,-0.000167701888131,0.00608230056241,0.000739777169656,0.547277625322,-0.00141964066377,0.358273561204,0.031837649638,0.916241791764,0.352060157644,0.188523176746
0.555734395981,-0.259900689125,-0.554128527641,-2.3173263073,-0.0860409811139,2.49362254143,-0.686668038368,0.0439139269292,0.0411222502589,-0.633460044861,0.096445761621,0.763479411602,0.000148681676365,-0.00167434033938,0.000111614361231,0.550837980882,-0.00120626257891,0.370120658636,0.0332137605808,0.914109837048,0.351435964343,0.19948136396
0.556570410728,-0.284889876842,-0.550691664219,-2.28885698318,-0.0860288888216,2.49363398552,-0.68666857481,0.0439139269292,0.00271955039352,-0.603869915009,0.0714382976294,0.628361403942,0.00148668047041,0.000805599847808,1.50442210725e-05,0.557598738536,-0.00157692388503,0.397558721429,0.0360210265669,0.909024063314,0.349250038351,0.224504227916
0.556583821774,-0.297385126352,-0.549577116966,-2.27624964714,-0.08603040874,2.4936068058,-0.68666779995,0.0439139269292,0.000459513306851,-0.572152733803,0.0393405295908,0.561778366566,0.00153336301446,-0.0161628816277,-7.14062553016e-05,0.560058313332,-0.00239429456621,0.410506401261,0.0371431142107,0.906613132604,0.347693151326,0.236183168442
0.555893301964,-0.321935206652,-0.549103081226,-2.25500965118,-0.0860259979963,2.49318099022,-0.686668694019,0.0439152382314,-0.0368900373578,-0.463336467743,-0.00713957473636,0.373566031456,-0.000203772287932,-0.0119555704296,-0.000236356660025,0.563134785874,-0.00535563053074,0.433558358915,0.0386606830481,0.902444352932,0.343726987962,0.256809849638
0.55504488945,-0.328791886568,-0.549304187298,-2.24979948997,-0.0860253050923,2.49287462234,-0.686668515205,0.0439152382314,-0.0636952072382,-0.405152380466,-0.0250337831676,0.283460855484,7.38113449188e-05,-0.0234669130296,5.57602725166e-05,0.563683732999,-0.00686568201584,0.44009787113,0.039036189858,0.901388939256,0.342082211802,0.262590776901
0.553517520428,-0.335898458958,-0.549950122833,-2.24506521225,-0.0860264077783,2.49230051041,-0.686668932438,0.0439152382314,-0.0936278551817,-0.338914215565,-0.0422606430948,0.218777105212,-0.00015343510313,-0.0352185033262,0.000390518602217,0.563956895817,-0.00893050204392,0.445979207828,0.0393180164326,0.900631753057,0.340050244465,0.26773563432
0.547783970833,-0.347582519054,-0.553717136383,-2.23875403404,-0.0860292986035,2.48926353455,-0.686668932438,0.0439152382314,-0.145517230034,-0.12489554286,-0.123874664307,0.0565535239875,-0.00409361580387,-0.074474260211,-4.0067545342e-05,0.563642272115,-0.0155809010362,0.454139528439,0.039562777788,0.900782764224,0.334284569644,0.274370232469
0.545177102089,-0.349101632833,-0.55629324913,-2.23821616173,-0.0860325023532,2.48797178268,-0.686669707298,0.0439152382314,-0.157969370484,-0.0662671849132,-0.16961158812,0.0069442121312,-0.000599041290116,-0.0782424882054,-0.000181199196959,0.56338196778,-0.0186398622253,0.454648296204,0.0395941659304,0.901631802981,0.3318291877,0.274557432506
0.542178452015,-0.349470168352,-0.559414565563,-2.23830938339,-0.0860438868403,2.48647379875,-0.686669111252,0.0439152382314,-0.185741230845,0.0201922822744,-0.189246162772,-0.0120273660868,-0.00262017291971,-0.100910954177,0.000195750748389,0.563060078341,-0.0220864058998,0.454156190284,0.0396201068972,0.902852784677,0.329126436395,0.273793507726
0.53169631958,-0.342536062002,-0.573008239269,-2.24003648758,-0.086051993072,2.48025202751,-0.686669588089,0.0439152382314,-0.234739899635,0.257333874702,-0.339875161648,-0.0574277155101,-0.0001261641155,-0.14513207972,0.000344723259332,0.562135214788,-0.0349522727412,0.447319892391,0.0399022922299,0.908661223349,0.319311954709,0.266049738801
0.528015553951,-0.338186442852,-0.578150033951,-2.24094748497,-0.0860530659556,2.47818470001,-0.686670005322,0.0439152382314,-0.253702402115,0.316567480564,-0.354727387428,-0.0624543577433,-1.97722383746e-05,-0.12112185359,-0.000186560617294,0.561849246448,-0.0395297347262,0.443851565577,0.0401075434658,0.910940978778,0.315852511099,0.262326340751
0.523220181465,-0.33183991909,-0.585039138794,-2.24212479591,-0.0860565900803,2.47584962845,-0.686668753624,0.0439152382314,-0.266229748726,0.379228919744,-0.409038156271,-0.0705245062709,4.45103723905e-05,-0.125131636858,-4.59863767901e-05,0.561497155597,-0.045572599865,0.43908847071,0.040479732367,0.913931004687,0.311261396147,0.257308866713
0.517224609852,-0.32278624177,-0.594298005104,-2.24364328384,-0.086057767272,2.47338056564,-0.686667919159,0.0439152382314,-0.306301504374,0.479048758745,-0.473000615835,-0.0700619295239,0.000405187078286,-0.103800259531,9.69637403614e-05,0.561033608918,-0.0534426961201,0.432641019138,0.0410765307258,0.917776300782,0.30524099388,0.25065377652
0.508163511753,-0.307809144258,-0.608990430832,-2.24601626396,-0.0860608816147,2.47111701965,-0.686667621136,0.0439152382314,-0.326411664486,0.555607438087,-0.540697336197,-0.0849038437009,-0.000174907021574,-0.0623499825597,2.31551603065e-05,0.560239250221,-0.0657140439642,0.422540989106,0.042293805216,0.923514851482,0.295735234078,0.240566465122
0.503227710724,-0.299235016108,-0.617203831673,-2.2473025322,-0.0860620811582,2.47033810616,-0.686669647694,0.0439152382314,-0.333574563265,0.588187873363,-0.557995975018,-0.08884883672,5.79061234021e-05,-0.0418431870639,0.000163060554769,0.559697536179,-0.072524013449,0.416961878366,0.0430661983968,0.926579014481,0.290414538858,0.23506600729
0.497749000788,-0.289567232132,-0.626497328281,-2.24876284599,-0.0860629528761,2.46974945068,-0.686668753624,0.0439152382314,-0.34320384264,0.618079185486,-0.607284188271,-0.092171408236,-0.000369031913579,-0.0266923755407,-5.90515628573e-06,0.558959781996,-0.0801907068353,0.410757728222,0.043974677517,0.929923819761,0.284382545371,0.228985774122
0.490609526634,-0.276134192944,-0.639700353146,-2.25077199936,-0.0860664099455,2.46952652931,-0.686668932438,0.0439152382314,-0.340826779604,0.65258461237,-0.6323107481,-0.0901657566428,0.00071350496728,-0.00210391613655,0.00121013540775,0.557750254367,-0.0907771322724,0.402304337779,0.0452954879916,0.934359005114,0.275985609074,0.220801973721
0.480635493994,-0.257953435183,-0.658421278,-2.2535097599,-0.0860615521669,2.46953606606,-0.686666190624,0.0439152382314,-0.358534276485,0.636202394962,-0.691081047058,-0.10027525574,0.000827466021292,0.000586596317589,-0.000321529747453,0.555495167221,-0.105777110308,0.390985099753,0.0471682782106,0.940264574919,0.26393725732,0.209797060439
0.473587244749,-0.244897529483,-0.672251224518,-2.25553297997,-0.0860592499375,2.46964430809,-0.686665832996,0.0439152382314,-0.355529755354,0.64554810524,-0.710288703442,-0.105773955584,-4.32905289927e-06,0.00822717417032,7.82704155426e-05,0.553439432732,-0.116696322237,0.382929484063,0.0485183331008,0.944363764965,0.255075031454,0.201890511887
0.468352764845,-0.235251873732,-0.683074772358,-2.25712704659,-0.0860575959086,2.46980762482,-0.686665177345,0.0439152382314,-0.343309402466,0.629682481289,-0.730934977531,-0.114730514586,0.00248519261368,0.0142965400591,-0.00030492717633,0.551610968685,-0.125094273602,0.376957119205,0.0495132256856,0.947381715216,0.248186151936,0.196010101353
0.461716473103,-0.223063871264,-0.69758695364,-2.2593832016,-0.0860473290086,2.47035264969,-0.686663389206,0.0439158976078,-0.33087900281,0.582318484783,-0.727163910866,-0.115119986236,0.00224387459457,0.0410845130682,-6.29261849099e-05,0.548894805417,-0.136135568054,0.369362104396,0.0507873241401,0.951171454848,0.23901832584,0.188583537966
0.446932315826,-0.199082702398,-0.730355679989,-2.26518368721,-0.0860314816236,2.47243785858,-0.686662137508,0.0439158976078,-0.307180255651,0.45952218771,-0.667482197285,-0.135146021843,0.00204377877526,0.0668454915285,0.000183363867109,0.541433569244,-0.160803872141,0.35388352601,0.0533582478332,0.958903321509,0.218004345781,0.173584049669
0.441281884909,-0.191362082958,-0.742760717869,-2.26792693138,-0.0860191732645,2.47350382805,-0.686659991741,0.0439158976078,-0.281475037336,0.36062720418,-0.629204154015,-0.144721239805,0.00109817855991,0.0439001768827,-0.000221907146624,0.538057935943,-0.170038591437,0.348482873229,0.0541323309314,0.961581261299,0.209897795869,0.168446085286
0.4367646873,-0.185990169644,-0.752402365208,-2.27023625374,-0.0859738811851,2.47409367561,-0.686656296253,0.0439158976078,-0.285533368587,0.303477197886,-0.581587016582,-0.141478583217,0.00905801448971,0.0313580147922,0.000177483452717,0.535166619455,-0.177204722901,0.344461210185,0.0545672958925,0.963603258292,0.203481938202,0.164579073233
0.424926072359,-0.176903769374,-0.775917768478,-2.27735161781,-0.0852958858013,2.4745850563,-0.686641395092,0.0439158976078,-0.208807900548,0.0579066611826,-0.380180001259,-0.1398422122,0.0098669892177,0.000323860062053,6.03385051363e-05,0.526692631344,-0.194884253903,0.335391919216,0.0544164015311,0.968408563966,0.186768207395,0.156017130093
0.419353246689,-0.177026227117,-0.786697030067,-2.2815322876,-0.0848535522819,2.47458791733,-0.686591923237,0.0439158976078,-0.1058793962,-0.0461998730898,-0.2529553473,-0.095341719687,0.0183179099113,-0.00111435283907,0.00945837981999,0.522471415727,-0.202350822047,0.332661614113,0.0535285493014,0.970238826818,0.179156609115,0.153864298811
0.41769939661,-0.178975954652,-0.791079461575,-2.28326034546,-0.0845534726977,2.47459173203,-0.686220765114,0.0439158976078,-0.0513546541333,-0.136156395078,-0.158306449652,-0.0666621550918,0.0155969746411,0.000185604745639,0.0208019148558,0.520780072788,-0.205140461194,0.332234313241,0.0528093510355,0.970864212083,0.17592721187,0.153894346738
0.417616069317,-0.184563830495,-0.793279230595,-2.28450798988,-0.0838267803192,2.47459697723,-0.685812532902,0.0439165532589,0.0337080620229,-0.230259299278,-0.00452856533229,-0.0257502514869,0.0293456632644,0.000707746541593,0.0152626223862,0.519987643206,-0.206042054504,0.333630120338,0.0515425910189,0.970905481285,0.174136282103,0.156084793207
0.418975621462,-0.188624516129,-0.792853415012,-2.28473067284,-0.0831975787878,2.47461795807,-0.685379862785,0.0439165532589,0.119661279023,-0.243564486504,0.0462301261723,0.00132785085589,0.0409269630909,-9.53807684709e-05,0.0363777130842,0.520303033863,-0.205041345235,0.335143937874,0.0506693437522,0.970580025154,0.174372457075,0.158117925244
0.422028422356,-0.193399399519,-0.791335880756,-2.28457212448,-0.082378461957,2.4747812748,-0.684610486031,0.0439165532589,0.203291982412,-0.302726596594,0.124542310834,0.00948479771614,0.0537462607026,0.0234590247273,0.0526781976223,0.521302444349,-0.202668455437,0.337241998864,0.0496303839715,0.969951828328,0.17566870973,0.160843961111
0.426059395075,-0.19914264977,-0.788501501083,-2.28444051743,-0.081388540566,2.47540569305,-0.683595061302,0.0439165532589,0.2682094872,-0.353294461966,0.209937572479,0.00752885034308,0.0545546337962,0.0463879816234,0.0634327158332,0.522800026175,-0.19912490977,0.339889039673,0.0484310571772,0.9690316876,0.177835523861,0.164336688763
0.436176806688,-0.209601014853,-0.780344188213,-2.28379106522,-0.0795828029513,2.4770565033,-0.680670797825,0.0439165532589,0.399750053883,-0.346959471703,0.326464444399,0.0385080054402,0.0706225112081,0.0543249100447,0.121992073953,0.526706582813,-0.189757213405,0.345284101774,0.0461546931147,0.966781253143,0.184004179821,0.171307368131
0.443976461887,-0.215845659375,-0.773743331432,-2.28295016289,-0.0782160386443,2.47802901268,-0.678480327129,0.0439165532589,0.466154664755,-0.334040552378,0.407710909843,0.0619357265532,0.0672201141715,0.0568181723356,0.126506373286,0.529681373956,-0.182368397083,0.348919898149,0.0446123135115,0.965073372968,0.189024465838,0.175820582638
0.452291160822,-0.221392869949,-0.766190588474,-2.28160905838,-0.0772822573781,2.47920131683,-0.676252782345,0.0439165532589,0.528163909912,-0.318014234304,0.483450978994,0.0899516120553,0.0406436957419,0.0737552568316,0.139933973551,0.532944598329,-0.174287682225,0.352680318317,0.0434029501853,0.963142770931,0.194863118733,0.180279092988
0.460615485907,-0.226175248623,-0.758435606956,-2.28017759323,-0.0767874419689,2.48031616211,-0.673979878426,0.0439165532589,0.566508054733,-0.309380114079,0.529950857162,0.0989407598972,0.0273272916675,0.0711590275168,0.16225554049,0.535685717741,-0.167210582019,0.355747573047,0.0425397299875,0.961439740664,0.200107582147,0.18379595127
0.474569857121,-0.232106134295,-0.744944155216,-2.27739667892,-0.0761094391346,2.48201751709,-0.669893085957,0.0439165532589,0.627900958061,-0.227194413543,0.627587854862,0.135898336768,0.0341428481042,0.0851558893919,0.208605587482,0.54127381324,-0.151971987154,0.361567377005,0.0410102237196,0.957843367174,0.211366512822,0.190206315507
0.491953253746,-0.237648367882,-0.727183222771,-2.27353811264,-0.0750989094377,2.48444676399,-0.663991808891,0.0439165532589,0.697949290276,-0.183682769537,0.728974163532,0.164432257414,0.0374237969518,0.0985070392489,0.23442940414,0.547437730391,-0.13370610419,0.367888843668,0.0393976700946,0.953561834748,0.224365688927,0.197047426337
0.506281852722,-0.240429952741,-0.712116837502,-2.26996517181,-0.0745433270931,2.48680520058,-0.65877866745,0.0439165532589,0.738924264908,-0.0967355370522,0.7789311409,0.192087501287,0.0185126885772,0.123493157327,0.279067546129,0.552264972103,-0.118282337688,0.37269679459,0.0383970682711,0.949909759372,0.235220748088,0.202159129289
0.529805362225,-0.24169293046,-0.687077462673,-2.26389479637,-0.0742707401514,2.49070453644,-0.649731218815,0.0439165532589,0.768168032169,0.0111424690112,0.852700054646,0.204706609249,0.00521923974156,0.134880200028,0.303704440594,0.559366417722,-0.0924004106538,0.379346930097,0.0371468662363,0.943811640916,0.253255673666,0.209048463863
0.55617582798,-0.240071073174,-0.657588720322,-2.25707411766,-0.0741060823202,2.49546122551,-0.638314783573,0.0439165532589,0.777801811695,0.0878095030785,0.872670710087,0.192863002419,0.00164108723402,0.146022900939,0.374492883682,0.56607223937,-0.0619843669243,0.385639051268,0.0357532295106,0.936670169918,0.273634663674,0.215626459155
0.570281028748,-0.23799957335,-0.641600728035,-2.25375437737,-0.0740827843547,2.49788546562,-0.631165623665,0.0439165532589,0.77039450407,0.142846852541,0.876456618309,0.173983439803,0.00113221164793,0.130605280399,0.415594100952,0.568914831423,-0.0453025239574,0.388244175524,0.0348230700738,0.932899622818,0.284225646899,0.218406567819
0.583084464073,-0.235277161002,-0.626753568649,-2.2510406971,-0.0740736424923,2.5001270771,-0.623526513577,0.0439165532589,0.75373250246,0.166906997561,0.879234433174,0.142642498016,-0.000460653041955,0.1267234236,0.470495849848,0.57103742569,-0.0298008247386,0.390056981734,0.0338223784401,0.92957253154,0.293515653119,0.220452979979
0.595815479755,-0.232189461589,-0.611671626568,-2.24870562553,-0.0740722417831,2.50213742256,-0.615102410316,0.0439165532589,0.718040585518,0.197024300694,0.87599337101,0.130092203617,-0.000459297356429,0.111159935594,0.508457660675,0.572616408312,-0.0140652376023,0.391425549691,0.0326038837496,0.926326516322,0.302560761652,0.222065659467
0.630137264729,-0.220048308372,-0.571114122868,-2.24403500557,-0.074093170464,2.5070514679,-0.58752477169,0.0439165532589,0.642841219902,0.280232727528,0.748186230659,0.0563537739217,-0.000763657095376,0.086188390851,0.608969032764,0.574388036492,0.027272159718,0.392118134866,0.0287665460529,0.918702936862,0.324231599244,0.223676707244
0.640021681786,-0.215363889933,-0.559659063816,-2.24333190918,-0.0741037577391,2.508228302,-0.577407896519,0.0439165532589,0.587023794651,0.30053037405,0.692342817783,0.0322465337813,-0.00101575849112,0.072576828301,0.647008955479,0.574131168452,0.0419730015385,0.391066371551,0.0270659960297,0.91656734013,0.330770495698,0.223075372291
0.64999383688,-0.209808543324,-0.547825694084,-2.24306917191,-0.0741119533777,2.50930666924,-0.565652191639,0.0439165532589,0.51960593462,0.322032511234,0.621531963348,0.00133991998155,-0.00098090339452,0.0499271973968,0.65133780241,0.573542371229,0.0539052620092,0.389530295498,0.0255588641212,0.915158941101,0.335504744379,0.221962661652
0.664400398731,-0.199290692806,-0.530607044697,-2.24330687523,-0.0741776898503,2.50989961624,-0.545058488846,0.0439198352396,0.409295707941,0.343559592962,0.491654902697,-0.0132468491793,-0.000388703716453,-0.000353407929651,0.681230127811,0.571935184446,0.0723279181542,0.385376797173,0.0230596901839,0.913877264278,0.341481835331,0.218372966148
0.671314120293,-0.19257722795,-0.521998882294,-2.24368262291,-0.0742880403996,2.50989699364,-0.532109379768,0.0439198352396,0.317091852427,0.364657700062,0.398738890886,-0.0189469698817,-0.0136374868453,-0.000454432447441,0.670151472092,0.570866180955,0.0813797614106,0.382331389564,0.021763713012,0.913884226096,0.343284856015,0.215632718761
0.676051735878,-0.186260044575,-0.516096055508,-2.24399733543,-0.0744917243719,2.50988841057,-0.520963191986,0.0439198352396,0.25659045577,0.372114032507,0.307761788368,-0.023680916056,-0.0129600604996,-0.00154614669736,0.657386243343,0.570091412108,0.0876097257042,0.379330774269,0.0209520829275,0.914398050346,0.343651961846,0.21293319268
0.679274320602,-0.180718660355,-0.512279093266,-2.2444229126,-0.0747290179133,2.50987911224,-0.511336088181,0.0439198352396,0.17752251029,0.373715341091,0.214925691485,-0.0266155563295,-0.00878068059683,-0.00152751465794,0.642395496368,0.569520731349,0.0917514072454,0.376526255607,0.0204104861144,0.915233394387,0.343008132745,0.210420213877
0.681873559952,-0.172896951437,-0.509005486965,-2.24500107765,-0.0750680789351,2.50987076759,-0.498038649559,0.0439198352396,0.0704209059477,0.362411409616,0.0997790619731,-0.0259429980069,-0.0159669294953,-0.000874332268722,0.60873490572,0.569050601531,0.0952667815093,0.372454447548,0.0199682651723,0.917064619865,0.340346915944,0.206779418381
0.67992079258,-0.156381040812,-0.51022964716,-2.24575281143,-0.0753116756678,2.50984883308,-0.472541809082,0.0439198352396,-0.156040906906,0.34831520915,-0.142521396279,-0.00340480287559,-0.000774016312789,-0.000870186253451,0.506843566895,0.569583819126,0.0938058454429,0.363699032409,0.0202665664945,0.92310600012,0.328458241866,0.198946630677
0.676408410072,-0.150130182505,-0.513564288616,-2.24564218521,-0.0753428637981,2.50992107391,-0.463652253151,0.0439198352396,-0.228128373623,0.333584010601,-0.225614443421,0.0117759061977,-0.00149879592936,0.0127323102206,0.482950240374,0.570405628602,0.0900296925446,0.36048969749,0.0208735284045,0.926113771953,0.321603225466,0.196084018381
0.671847939491,-0.144701376557,-0.518296062946,-2.24540495872,-0.075351908803,2.51030039787,-0.455927968025,0.0439198352396,-0.290946722031,0.309118688107,-0.320837765932,0.0170702654868,7.21275864635e-05,0.0329735986888,0.437530368567,0.571469654588,0.0848421439214,0.357761271708,0.021646697535,0.929179596527,0.314037260998,0.193745441941
0.664772152901,-0.13854239881,-0.526199519634,-2.24482607841,-0.0753605365753,2.5111758709,-0.447590589523,0.0439198352396,-0.371815532446,0.290601730347,-0.414288938046,0.0488041564822,-2.95596510114e-05,0.0572763010859,0.374176472425,0.57302915287,0.0768655332222,0.354942347767,0.0228351778191,0.932945547447,0.304037698372,0.191447741714
0.653449356556,-0.131177514791,-0.539221942425,-2.24290442467,-0.075366191566,2.51328873634,-0.438022434711,0.0439198352396,-0.470351994038,0.251863747835,-0.545130729675,0.0959258899093,-0.00014477991499,0.0910241827369,0.331919968128,0.575997329861,0.0620496853749,0.35192637825,0.0251543243926,0.938599837572,0.287277150728,0.189392299819
0.645014941692,-0.127004981041,-0.548962235451,-2.24083399773,-0.0753673911095,2.51512932777,-0.432299017906,0.0439198352396,-0.517353415489,0.234440982342,-0.600997745991,0.145111948252,0.000184857402928,0.13834387064,0.341260403395,0.578072810697,0.0516167321363,0.350924927605,0.0268044345972,0.941987546905,0.276054701324,0.189036465601
0.635764241219,-0.123315453529,-0.559659540653,-2.23809146881,-0.0753639116883,2.51777911186,-0.426556706429,0.0439218059182,-0.563660621643,0.200965449214,-0.647600114346,0.181333258748,-0.000224549512495,0.185779795051,0.331213653088,0.580223079197,0.0408078624944,0.350628234369,0.0285291566269,0.945122352486,0.26460143997,0.189514916849
0.624024391174,-0.119537912309,-0.573117613792,-2.23362135887,-0.0753565505147,2.52187585831,-0.419988662004,0.0439218059182,-0.607496023178,0.181501582265,-0.700742006302,0.2684019804,0.000531769066583,0.220611989498,0.316283851862,0.583195436024,0.0262333305226,0.351313962742,0.0309804347222,0.948798276612,0.249414387298,0.191349173139
0.60514819622,-0.115212358534,-0.59502530098,-2.22381567955,-0.0753416195512,2.52918815613,-0.411724060774,0.0439218059182,-0.652822494507,0.111940421164,-0.747840225697,0.378115981817,-0.000437092647189,0.259842723608,0.253908663988,0.588075117346,0.00229370121456,0.354815978595,0.0353850952453,0.953520525391,0.225604362781,0.196593931436
0.593388497829,-0.113557048142,-0.608419895172,-2.21637248993,-0.075335688889,2.53405547142,-0.407164543867,0.0439218059182,-0.659119784832,0.0718391686678,-0.753217339516,0.436260849237,-1.4986881979e-05,0.271436870098,0.260276734829,0.591027644511,-0.0127175714938,0.358306041335,0.0383155006384,0.955816895199,0.210991651872,0.201068415707
0.581372797489,-0.112836427987,-0.621876597404,-2.20813918114,-0.0753171890974,2.53869318962,-0.40260797739,0.0439218059182,-0.672444820404,0.00930800288916,-0.73577773571,0.493543177843,0.00221105711535,0.25777053833,0.250497698784,0.593728259994,-0.0281187621828,0.362654307428,0.0412965542367,0.957773666925,0.196100457339,0.206176642412
0.570161700249,-0.112927101552,-0.634249866009,-2.19895505905,-0.0753065943718,2.54309368134,-0.398319393396,0.0439218059182,-0.652142882347,-0.0185194276273,-0.718818128109,0.568798542023,0.00157894741278,0.250473320484,0.243978068233,0.59627382269,-0.0426133543014,0.367932769261,0.0442375658621,0.959130605458,0.182131670312,0.211989560595
0.557201981544,-0.113904245198,-0.648506104946,-2.18731021881,-0.0752714201808,2.54791474342,-0.393410384655,0.0439218059182,-0.646277725697,-0.0816312283278,-0.701822698116,0.583648264408,-0.000122054254462,0.228982821107,0.249372646213,0.598917969368,-0.0596006776423,0.37499986155,0.0477264952757,0.960243832484,0.165896423463,0.219390838913
0.539132773876,-0.118624672294,-0.667807817459,-2.16862893105,-0.0751413032413,2.55458950996,-0.385813087225,0.0439218059182,-0.565477073193,-0.225340291858,-0.598912358284,0.641743183136,0.00672404561192,0.205078721046,0.249064475298,0.602154825832,-0.0835238097215,0.387871004467,0.0524225542784,0.960696494498,0.14274598099,0.232244926457
0.53023904562,-0.122678443789,-0.677367269993,-2.1586971283,-0.0749717503786,2.55736017227,-0.381991267204,0.0439218059182,-0.534641623497,-0.27839422226,-0.578887104988,0.603017926216,0.0143531775102,0.156403630972,0.231060102582,0.603294441676,-0.0955829601004,0.395363147825,0.054529094468,0.960491598304,0.131068712136,0.239381410796
0.513500869274,-0.136290043592,-0.695150315762,-2.13718962669,-0.0746997445822,2.56201672554,-0.374391973019,0.0439231209457,-0.410199522972,-0.485942065716,-0.415868461132,0.550715684891,0.00460514472798,0.0946097970009,0.206430196762,0.60468964695,-0.118899922858,0.41378764409,0.0578682923418,0.958742010264,0.108345774467,0.256371237353
0.498559117317,-0.164815664291,-0.709969103336,-2.11421275139,-0.0743459761143,2.56442070007,-0.364304184914,0.0439231209457,-0.206284672022,-0.683681964874,-0.203353911638,0.409951448441,0.00445277057588,0.00160959176719,0.205145284534,0.603865816965,-0.14056461922,0.439721728356,0.0577321836904,0.954577400811,0.0852613739743,0.279605934533
0.495721399784,-0.176215007901,-0.712549686432,-2.10820269585,-0.0742352753878,2.56440615654,-0.361007302999,0.0439231209457,-0.143970072269,-0.756371378899,-0.113345168531,0.336888283491,0.00405104504898,0.00139274925459,0.214015260339,0.603126749607,-0.145325828199,0.448797673068,0.0564378046334,0.952769131807,0.0793574013788,0.287659795974
0.493812829256,-0.190024599433,-0.713937759399,-2.10251116753,-0.0741350874305,2.56433010101,-0.357161253691,0.0439231209457,-0.0655659884214,-0.807294547558,-0.0430835820735,0.295179635286,0.00313568254933,-0.0081330742687,0.216578930616,0.602289106643,-0.148498863172,0.457801048835,0.0545135485015,0.950790104148,0.0746274052715,0.295731636717
0.493538469076,-0.206597045064,-0.714172899723,-2.09680151939,-0.0740995556116,2.56382513046,-0.352208554745,0.0439231209457,0.0315852425992,-0.79961425066,0.0204153992236,0.248689606786,0.00190569763072,-0.038452167064,0.237064763904,0.601242150121,-0.150463553902,0.468605838765,0.0514183683158,0.948246410546,0.070148158944,0.305391767688
0.495539546013,-0.228087693453,-0.711944937706,-2.0908241272,-0.0740756243467,2.56165003777,-0.345249950886,0.0439231209457,0.101795122027,-0.762292385101,0.138139933348,0.191394358873,0.000966918130871,-0.115867435932,0.260073453188,0.599847557763,-0.149973253195,0.481685740786,0.0463259380294,0.945037544336,0.0665492569414,0.316747759817
0.497840940952,-0.241313576698,-0.708823204041,-2.08765268326,-0.0740602388978,2.55924224854,-0.340680420399,0.0439231209457,0.15098837018,-0.715645432472,0.192483261228,0.153157398105,0.00120980560314,-0.151478976011,0.245671570301,0.599012135699,-0.147933657111,0.489389113767,0.0426222465734,0.943114155252,0.0656180400609,0.323130479477
0.500835955143,-0.252660959959,-0.70517128706,-2.08523821831,-0.0740461498499,2.55639219284,-0.336754709482,0.0439244322479,0.197391480207,-0.631423890591,0.234073415399,0.127787277102,0.000545471382793,-0.171764746308,0.223679751158,0.59836584289,-0.145159340442,0.495415464171,0.0392686145887,0.941599715135,0.065779048419,0.327904054324
0.504994809628,-0.263641655445,-0.699959218502,-2.08303332329,-0.0740441605449,2.55274128914,-0.332277238369,0.0439244322479,0.234981074929,-0.532940328121,0.298233509064,0.100759834051,0.000313314085361,-0.206345483661,0.244582474232,0.597835382607,-0.140274182839,0.50186341745,0.0350682430716,0.939978517694,0.067156201519,0.332717070324
0.512853443623,-0.277402549982,-0.690100073814,-2.08104276657,-0.0740446969867,2.54623246193,-0.32467725873,0.0439244322479,0.274513870478,-0.379750460386,0.35407564044,0.0343663692474,0.000303337321384,-0.222978174686,0.255311667919,0.597434590859,-0.130666625608,0.509051959667,0.0287823173331,0.938231840675,0.0709062149479,0.337438734767
0.518079400063,-0.283232688904,-0.683501839638,-2.08074069023,-0.0740515142679,2.54214119911,-0.319990456104,0.0439244322479,0.29566681385,-0.269253373146,0.375819265842,0.00460382271558,-9.76116643869e-06,-0.230242520571,0.257243096828,0.597435389018,-0.123873794859,0.511793173084,0.0252242011891,0.937615424215,0.0739821323919,0.33877381794
0.523269474506,-0.28677508235,-0.676979601383,-2.08086705208,-0.0740654096007,2.5381937027,-0.315584987402,0.0439244322479,0.311985880136,-0.151168897748,0.390548825264,-0.0120583595708,-0.000565075257327,-0.233173921704,0.26388630271,0.597646918498,-0.116908664312,0.513267522304,0.0221609798334,0.937345760407,0.07738522319,0.338973956724
0.528380811214,-0.2882578969,-0.67065089941,-2.08118247986,-0.0740992203355,2.53445410728,-0.311312675476,0.0439244322479,0.319355130196,-0.0358178690076,0.402579665184,-0.0258368793875,-0.00381969381124,-0.230811417103,0.26056677103,0.598097468167,-0.109467538665,0.513706176556,0.0194338917891,0.937367988406,0.0811592405698,0.338196326885
0.535309135914,-0.28770506382,-0.661651015282,-2.0821621418,-0.0742651075125,2.52966070175,-0.305658817291,0.0439244322479,0.319979637861,0.173082381487,0.408585548401,-0.0892950445414,-0.028058199212,-0.174732655287,0.209733009338,0.599403632481,-0.0947027456478,0.511781627754,0.0155446859778,0.938041584114,0.0893483530461,0.334444645204
0.544236421585,-0.282234936953,-0.650573432446,-2.08474779129,-0.0751439481974,2.52478122711,-0.299821138382,0.0439244322479,0.31478664279,0.283445030451,0.383186638355,-0.114498324692,-0.0439280420542,-0.156177014112,0.182179749012,0.600352505422,-0.0867925613056,0.509034238884,0.0144348084995,0.938756293246,0.0943277484905,0.331105019208
0.549842536449,-0.276545554399,-0.64367300272,-2.08711409569,-0.0761153772473,2.52193713188,-0.296695232391,0.0439244322479,0.298593431711,0.34331548214,0.375991135836,-0.145427048206,-0.0644125342369,-0.158902838826,0.165793254972,0.601368925869,-0.0783568207448,0.505114074551,0.0137370625167,0.939720337126,0.0999590682032,0.326718786537
0.554667592049,-0.269769966602,-0.637432456017,-2.08978295326,-0.0774661973119,2.51924371719,-0.293854534626,0.0439244322479,0.271406590939,0.441479533911,0.362174808979,-0.164472192526,-0.0890223830938,-0.156871825457,0.15956902504,0.602290863683,-0.0707169629195,0.50042816219,0.0136301814649,0.94087182572,0.105251968224,0.321708639288
0.55959123373,-0.260827839375,-0.631113171577,-2.09300255775,-0.0791314169765,2.51654338837,-0.291076183319,0.0439244322479,0.264700561762,0.542703747749,0.326537191868,-0.198528289795,-0.0946824029088,-0.147799566388,0.149726077914,0.603304937271,-0.0627749125986,0.494354183488,0.0140577392558,0.942315689466,0.110975877853,0.315480388576
0.570822238922,-0.230495944619,-0.6174300313,-2.10360884666,-0.0857477337122,2.50899791718,-0.284691721201,0.0439237765968,0.193113192916,0.698662161827,0.239639297128,-0.246084913611,-0.187225610018,-0.157797142863,0.108175858855,0.605450961213,-0.0443873646304,0.473270634072,0.0179277844485,0.947183599296,0.125574857553,0.294538246426
0.573355019093,-0.22050768137,-0.614350378513,-2.10712313652,-0.0883118137717,2.50688791275,-0.283192008734,0.0439237765968,0.168038740754,0.729649543762,0.204964503646,-0.257494986057,-0.17838896811,-0.151700586081,0.108188256621,0.605852000005,-0.0400613029041,0.466210400245,0.0197567170292,0.948733793629,0.129496264835,0.287653572968
0.576484978199,-0.204550653696,-0.610617637634,-2.11290860176,-0.0920204147696,2.50358843803,-0.280930161476,0.0439237765968,0.132348462939,0.768083453178,0.155150309205,-0.290510058403,-0.166168183088,-0.169774577022,0.0941948369145,0.606182950191,-0.0345238589126,0.454724997312,0.0227491693625,0.951253479973,0.134676579212,0.276516746028
0.578781485558,-0.189719066024,-0.608160078526,-2.11867189407,-0.094927072525,2.50011754036,-0.279119551182,0.0439237765968,0.110819898546,0.765658676624,0.104852363467,-0.307804226875,-0.14588470757,-0.196448162198,0.0982200577855,0.60607535699,-0.0304477136313,0.443665583732,0.025457151307,0.953684708951,0.138682441116,0.26571524152
0.580531001091,-0.174836561084,-0.606571853161,-2.12468600273,-0.0975831225514,2.49645161629,-0.277269184589,0.0439237765968,0.0827780663967,0.775114774704,0.0667560249567,-0.321332842112,-0.137874603271,-0.193007752299,0.103273659945,0.605722231944,-0.0277590960285,0.434160752805,0.0277460410867,0.95576824785,0.141441838685,0.256381394735
0.581560075283,-0.156773194671,-0.605779230595,-2.13237738609,-0.0999955683947,2.49212598801,-0.27494212985,0.0439237765968,0.0228797849268,0.766034424305,0.00648990133777,-0.341685175896,-0.0877908617258,-0.17375048995,0.0954596251249,0.604652182334,-0.0250342918202,0.418387685419,0.03135470308,0.959235962055,0.144378767655,0.240910819262
0.580606818199,-0.12286747992,-0.607531607151,-2.14875006676,-0.104545354843,2.48333859444,-0.271653920412,0.0439237765968,-0.0482209995389,0.696713328362,-0.0947358757257,-0.360527515411,-0.0968948751688,-0.202271670103,0.0715154334903,0.601166156845,-0.0248642936243,0.391023685045,0.0377934069247,0.96513248652,0.146501377908,0.213607789698
0.579575359821,-0.111236721277,-0.609551548958,-2.15482926369,-0.105921894312,2.47970819473,-0.270491838455,0.0439237765968,-0.0678148716688,0.665737807751,-0.133245289326,-0.349453568459,-0.0606515146792,-0.219427987933,0.0726836398244,0.59939644734,-0.0262148007454,0.38131674109,0.0400016270892,0.967265467828,0.146076096201,0.20361522141
0.577890276909,-0.099269784987,-0.612361073494,-2.16136932373,-0.107100039721,2.4756629467,-0.268963336945,0.0439237765968,-0.0971439182758,0.597903072834,-0.159466713667,-0.33983373642,-0.0563635677099,-0.207025483251,0.088193193078,0.597349126934,-0.0283327381464,0.371684977766,0.042092152739,0.969434274376,0.144799429206,0.193542148739
0.571388959885,-0.0743631273508,-0.622467815876,-2.17644715309,-0.11038377136,2.46577000618,-0.265991449356,0.0439250916243,-0.177485376596,0.472482293844,-0.26851066947,-0.288438886404,-0.0684201642871,-0.202768430114,0.0515585765243,0.591163185851,-0.0376949558551,0.34924045953,0.0473410385596,0.974651548152,0.138580493989,0.169140864764
0.56844329834,-0.0673427581787,-0.626893222332,-2.18091154099,-0.111318171024,2.46250677109,-0.265164554119,0.0439250916243,-0.18871678412,0.40076354146,-0.284449249506,-0.268645018339,-0.0437005348504,-0.194950297475,0.0503316260874,0.588877112342,-0.042188376148,0.342568995571,0.0489771627199,0.976317418924,0.135296055527,0.161556529092
0.560000061989,-0.054618857801,-0.639413237572,-2.19001293182,-0.112117290497,2.45575475693,-0.263605922461,0.0439250916243,-0.245108425617,0.255778580904,-0.344482511282,-0.202855467796,-0.0200361069292,-0.160646215081,0.0397160612047,0.583982761138,-0.0539127158081,0.3309137297,0.0516124339751,0.979606859918,0.125835183425,0.147892065268
0.552075862885,-0.0487787500024,-0.649723827839,-2.19523572922,-0.112820550799,2.45118284225,-0.262303292751,0.0439250916243,-0.291852325201,0.162598177791,-0.366636157036,-0.145109921694,-0.0278097242117,-0.158558145165,0.0406800061464,0.580359725857,-0.0643735051098,0.32464845399,0.0531920611233,0.981789448153,0.116973217504,0.139919084516
0.546335995197,-0.0464335270226,-0.656737446785,-2.19758439064,-0.113286994398,2.44842815399,-0.261801868677,0.0439250916243,-0.310516834259,0.0788343250751,-0.38264298439,-0.107451640069,-0.0247644037008,-0.140988633037,0.0111014833674,0.578197007186,-0.0716907398852,0.321847169617,0.0540887388164,0.983012049752,0.110801089793,0.135958951795
0.541835963726,-0.0457179695368,-0.662172734737,-2.19880819321,-0.113612629473,2.44640278816,-0.261585772038,0.0439250916243,-0.323308289051,0.0374236777425,-0.391249656677,-0.069214001298,-0.0242534894496,-0.141535490751,0.0150985205546,0.576671012823,-0.0773860148174,0.320511701874,0.0546102124843,0.983822263757,0.105973815251,0.133719961882
0.534787356853,-0.0456185415387,-0.670393526554,-2.19962406158,-0.113969117403,2.44337654114,-0.261175185442,0.0439250916243,-0.35315310955,-0.0154761038721,-0.398298621178,-0.0172823201865,-0.00696809217334,-0.14584736526,0.0167321711779,0.574587237464,-0.0861401645041,0.319476854387,0.0552468673673,0.984903013434,0.0983667579235,0.131292872648
0.524152874947,-0.0468435660005,-0.682335853577,-2.19923377037,-0.114011272788,2.43940114975,-0.260430663824,0.0439250916243,-0.363445878029,-0.0824215114117,-0.402127593756,0.0305546354502,-1.82376497833e-05,-0.11432697624,0.0328925773501,0.57189287236,-0.0990644789674,0.319447518155,0.0558997352698,0.986212230603,0.086749124054,0.129364774878
0.517373740673,-0.0488485023379,-0.689740896225,-2.19839692116,-0.114037528634,2.43738865852,-0.259829580784,0.0439250916243,-0.371245115995,-0.13739131391,-0.410555630922,0.0574133060873,0.000328796944814,-0.123255521059,0.0292279291898,0.57034707363,-0.10718437062,0.320342251705,0.0561371117767,0.986844213531,0.0792930387304,0.129227460736
0.510459959507,-0.0515916384757,-0.697092056274,-2.19710636139,-0.114046297967,2.43485379219,-0.259243160486,0.0439250916243,-0.400376349688,-0.156278505921,-0.416079610586,0.0857379883528,2.17686283577e-05,-0.156572595239,0.0321817547083,0.568730571424,-0.115349265744,0.321706392761,0.0562185165067,0.987398203011,0.0717324524788,0.129378213202
0.504034519196,-0.0541276335716,-0.703973472118,-2.19551753998,-0.114054888487,2.43205165863,-0.258777409792,0.0439250916243,-0.400815427303,-0.166377723217,-0.413695991039,0.109656795859,-0.00267174048349,-0.187284007668,0.0305487215519,0.567056526406,-0.123436438594,0.323180728768,0.0563046163017,0.987893464363,0.0642697827103,0.129482384824
0.485290586948,-0.0641375109553,-0.723232209682,-2.1890900135,-0.114067249,2.42071652412,-0.2575712502,0.0439250916243,-0.398742437363,-0.23890799284,-0.397551506758,0.155160710216,0.000435508904047,-0.297549188137,0.0267673246562,0.562048044188,-0.144711980414,0.328636914396,0.0558171940208,0.988912905067,0.0444105376752,0.130243659669
0.478041797876,-0.0685653164983,-0.730419993401,-2.18628263474,-0.114073418081,2.41501331329,-0.256897985935,0.0439250916243,-0.39425110817,-0.245528042316,-0.388232678175,0.154852151871,-0.000293847784633,-0.322743326426,0.0470153912902,0.559724743844,-0.152922878508,0.330960308393,0.0553589921127,0.989251728338,0.0365323667036,0.130314181319
0.471899330616,-0.0724530294538,-0.736276865005,-2.18366622925,-0.114081986248,2.40962004662,-0.256190568209,0.0439250916243,-0.385129094124,-0.24886123836,-0.358328491449,0.168176397681,-0.00211504474282,-0.348526597023,0.0416218675673,0.557656668124,-0.159733791239,0.333013984932,0.0548785754418,0.989505114267,0.0298845736025,0.130287692265
0.463839560747,-0.0780022442341,-0.743788361549,-2.17997813225,-0.114114992321,2.40184569359,-0.255412220955,0.0439250916243,-0.37808072567,-0.274334281683,-0.346125006676,0.1803676337,-0.000850364915095,-0.393238812685,0.0313441008329,0.554775188228,-0.168545148722,0.335904786029,0.0540932871595,0.98977724591,0.0212898318142,0.130236947605
0.45291942358,-0.0857741087675,-0.753375887871,-2.17434716225,-0.114402502775,2.38951039314,-0.254850506783,0.0439250916243,-0.37679669261,-0.248843640089,-0.326399981976,0.192444831133,-0.0135401133448,-0.448619872332,0.020789405331,0.55056623186,-0.180116313251,0.339959574981,0.0529045091505,0.990088196798,0.0102091543095,0.129700610403
0.44701641798,-0.0897968038917,-0.758196890354,-2.17127418518,-0.114772580564,2.38205933571,-0.254603862762,0.0439250916243,-0.362094819546,-0.250033944845,-0.292577564716,0.194916769862,-0.024843165651,-0.469028890133,0.0161776598543,0.548099028982,-0.186125821777,0.341967968096,0.0522522013719,0.99026172582,0.00449728149085,0.128961994347
0.440322041512,-0.0945230200887,-0.763454675674,-2.16752314568,-0.115504004061,2.37264871597,-0.254264354706,0.0439250916243,-0.344543278217,-0.236112371087,-0.265164732933,0.2040104568,-0.0447208061814,-0.504243373871,0.0274522341788,0.545136094607,-0.19281224459,0.344302266456,0.0514797202399,0.990455965369,-0.00183502384686,0.127841509124
0.418889164925,-0.108638107777,-0.778593361378,-2.1540145874,-0.122739888728,2.33466815948,-0.252431303263,0.0439264029264,-0.303334861994,-0.175785571337,-0.172602504492,0.213300168514,-0.185121700168,-0.629809319973,0.0178915727884,0.534177856658,-0.213298775277,0.350984222671,0.0500166799121,0.991269683847,-0.0202577961374,0.120301151325
0.414428681135,-0.11102937907,-0.781140804291,-2.15078473091,-0.125842034817,2.32508468628,-0.252089858055,0.0439264029264,-0.289208263159,-0.146246999502,-0.160679757595,0.215303957462,-0.229497522116,-0.651138842106,0.0181941390038,0.531664039212,-0.217307259407,0.352152189145,0.050242544642,0.991500787532,-0.0233250840571,0.117719221806
0.40941670537,-0.113417498767,-0.783772170544,-2.14693140984,-0.130356118083,2.31300020218,-0.251690864563,0.0439264029264,-0.268446952105,-0.125712633133,-0.131376832724,0.211391076446,-0.291689842939,-0.686593055725,0.0227111913264,0.528628262043,-0.221731507926,0.353292902498,0.0508022349312,0.991824879781,-0.0263941621536,0.114043363136
0.401670783758,-0.116705879569,-0.787385702133,-2.14021992683,-0.139996483922,2.29083633423,-0.250940799713,0.0439264029264,-0.230149850249,-0.103721052408,-0.0981832742691,0.209037736058,-0.334773957729,-0.750161290169,0.0278288256377,0.523395398761,-0.22848787633,0.35485334678,0.0524147787204,0.992461373943,-0.0303372459763,0.106549347291
0.394177049398,-0.119114086032,-0.789795875549,-2.13281488419,-0.153770938516,2.26325702667,-0.249614670873,0.0439264029264,-0.193198263645,-0.0346373841166,-0.0466423220932,0.211844548583,-0.446240693331,-0.827310740948,0.0362658575177,0.517379233026,-0.234704468907,0.355824157184,0.0551671074872,0.993314677971,-0.0328894994431,0.0959209117162
0.391422718763,-0.119556069374,-0.790417730808,-2.12963461876,-0.160789638758,2.25059342384,-0.249062865973,0.0439264029264,-0.173729121685,-0.02091091685,-0.0321111641824,0.214641869068,-0.493823289871,-0.869480609894,0.0307688526809,0.514588572951,-0.237146780386,0.355968672198,0.0569039634584,0.993738683635,-0.0333020091001,0.0902016822372
0.384668260813,-0.119760528207,-0.791091561317,-2.11830282211,-0.189748466015,2.20450949669,-0.247980967164,0.0439264029264,-0.0922137275338,0.0104719176888,0.00126050354447,0.227825671434,-0.637015581131,-0.994484186172,0.0219216197729,0.505979528586,-0.243349192682,0.356131189112,0.0643305914555,0.994981562836,-0.03131693469,0.0699465075661
0.383387327194,-0.119464293122,-0.791058659554,-2.11415100098,-0.201696500182,2.18634796143,-0.247405856848,0.0439264029264,-0.0532937273383,0.0189477093518,0.00086093932623,0.228699848056,-0.686415314674,-1.02736985683,0.0465228520334,0.502731285799,-0.245100100109,0.356028832756,0.0675596860812,0.995375159283,-0.0298033343118,0.0614470671622
0.382846415043,-0.119114339352,-0.791032552719,-2.11026215553,-0.213720366359,2.16830921173,-0.246555387974,0.0439270585775,-0.0192793924361,0.0193924959749,0.00347246625461,0.226052165031,-0.723929226398,-1.08306705952,0.0578333437443,0.499568252833,-0.246516015477,0.35585949424,0.0708187668724,0.995690004343,-0.0281361810339,0.0528627706957
0.382787436247,-0.118702352047,-0.790910482407,-2.10598635674,-0.227649271488,2.14730024338,-0.245515689254,0.0439270585775,0.00420468859375,0.0270102415234,0.011066400446,0.224772766232,-0.743751049042,-1.11237120628,0.0546109974384,0.495928059715,-0.2478633323,0.3556289622,0.0745946816681,0.995956431913,-0.0260356077492,0.0427617355379
0.382981419563,-0.117719836533,-0.789936006069,-2.09910869598,-0.249960884452,2.11406135559,-0.243931278586,0.0439270585775,0.0122872907668,0.038053072989,0.0480629019439,0.249079108238,-0.799654304981,-1.18026006222,0.0609677545726,0.490339217035,-0.249692308499,0.355451580624,0.0809533490487,0.996109387591,-0.0223985044339,0.0266636443216
0.383178472519,-0.117093943059,-0.788973927498,-2.09490346909,-0.263979166746,2.09381723404,-0.242865145206,0.0439270585775,0.0124724432826,0.0405090041459,0.0602715797722,0.237666785717,-0.835500895977,-1.19516015053,0.0627544820309,0.486968059342,-0.250754879486,0.355500034942,0.0851282376479,0.996025206944,-0.0201082622422,0.0168115369841
0.383521825075,-0.116401150823,-0.787897646427,-2.09068584442,-0.278255432844,2.07309126854,-0.242002680898,0.0439270585775,0.0284239221364,0.0475539490581,0.0662624463439,0.253165632486,-0.844336271286,-1.21542930603,0.0371624529362,0.483509427974,-0.251790442968,0.355598736071,0.0894504048922,0.995811643675,-0.0177020661013,0.00666572875773
0.384128123522,-0.11545599252,-0.786632478237,-2.08580112457,-0.294357210398,2.04936528206,-0.241291493177,0.0439270585775,0.0345370881259,0.0581460297108,0.0710196793079,0.256293714046,-0.852508068085,-1.26180744171,0.033922675997,0.479585488788,-0.252932647617,0.355817851158,0.0944340206481,0.99540664723,-0.0149384523537,-0.00496636038099
0.386269450188,-0.112545996904,-0.783003211021,-2.07324647903,-0.335943698883,1.98788607121,-0.238524213433,0.0439270585775,0.0550312027335,0.0610724911094,0.0860875919461,0.276366591454,-0.897448241711,-1.27356898785,0.0691024810076,0.469403738096,-0.255894180541,0.356894484359,0.107852063678,0.993503648552,-0.00877134000867,-0.035234868627
0.387213200331,-0.11143938452,-0.781430065632,-2.06842780113,-0.351954609156,1.96469581127,-0.237335056067,0.0439277179539,0.0548857301474,0.0642502307892,0.0830293223262,0.267382800579,-0.887172043324,-1.28920269012,0.0749523341656,0.465582505286,-0.257084481253,0.357632763597,0.113262334239,0.992448905006,-0.00666813614454,-0.0466084783523
0.387963414192,-0.110679864883,-0.780448377132,-2.06524944305,-0.3624766469,1.94921886921,-0.236408114433,0.0439277179539,0.0702503547072,0.076012916863,0.0728197172284,0.270700603724,-0.872504234314,-1.29139959812,0.0837471038103,0.462179207312,-0.2581415479,0.35837084445,0.118056357278,0.991373921421,-0.00508004955155,-0.0566977709183
0.389856249094,-0.109010063112,-0.778752803802,-2.05886030197,-0.383084833622,1.91824901104,-0.234614819288,0.0439277179539,0.0937705263495,0.0566803440452,0.0692637488246,0.260282248259,-0.848813474178,-1.28889107704,0.0622360296547,0.457923870001,-0.259432099739,0.359407236935,0.123985113543,0.989855633575,-0.00327857937978,-0.0693019979135
0.394169211388,-0.106295615435,-0.775904417038,-2.04732084274,-0.421970278025,1.85926747322,-0.231233820319,0.0439277179539,0.0948590785265,0.0540110953152,0.0586335808039,0.246131926775,-0.835028409958,-1.29353880882,0.0842266604304,0.448016922943,-0.262471445674,0.362352304929,0.137623077623,0.985630502182,3.69875827359e-06,-0.097940805375
0.395618677139,-0.105443283916,-0.774935126305,-2.04335927963,-0.435136556625,1.83875715733,-0.229779034853,0.0439277179539,0.0892046913505,0.0411074571311,0.0633352100849,0.239971846342,-0.812321841717,-1.28183352947,0.0915051177144,0.444521974006,-0.263590878489,0.363601053528,0.142311998677,0.9839384994,0.000603643434772,-0.107758803552
0.397502809763,-0.104587838054,-0.773633658886,-2.03840065002,-0.451847612858,1.81192970276,-0.228143841028,0.0439277179539,0.087220788002,0.0442898608744,0.0608580633998,0.234372451901,-0.778853535652,-1.2614505291,0.0632755681872,0.439893511569,-0.264992230594,0.365368067296,0.148203400757,0.981589865375,0.00122833149249,-0.120480617092
