imanlab/tactile_prediction_flat_dataset/train/data_sample_2021-11-24-16-19-56/robot_state.csv
position_panda_joint1,position_panda_joint2,position_panda_joint3,position_panda_joint4,position_panda_joint5,position_panda_joint6,position_panda_joint7,position_panda_finger,velocity_panda_joint1,velocity_panda_joint2,velocity_panda_joint3,velocity_panda_joint4,velocity_panda_joint5,velocity_panda_joint6,velocity_panda_joint7,ee_state_position_x,ee_state_position_y,ee_state_position_z,ee_state_orientation_x,ee_state_orientation_y,ee_state_orientation_z,ee_state_orientation_w
0.249687999487,0.110893033445,-0.242613703012,-2.54188418388,-0.0120924720541,2.67061281204,-0.627603650093,0.0676248446107,-6.17900077486e-05,0.000312777003273,3.71481110051e-05,0.000464821205242,0.000193053376279,-5.1911410992e-05,0.000291979929898,0.46273044037,-0.00193365448339,0.121816063369,0.0185136805541,0.947936607413,0.317880259069,0.00505693005075
0.249685749412,0.110889963806,-0.242615327239,-2.5418856144,-0.012091871351,2.67061400414,-0.627598822117,0.0676248446107,0.000315367651638,-0.000208176221349,0.000292536366032,0.000414411304519,-3.99395412387e-06,5.20591966051e-05,4.93801926496e-05,0.462730590088,-0.00193531759176,0.121817073184,0.0185137066084,0.94793807408,0.317875860495,0.00505839700634
0.249688744545,0.11089129746,-0.242614254355,-2.54188656807,-0.0120921479538,2.6706135273,-0.62759745121,0.0676248446107,0.000427207764005,-0.000458086840808,0.000140174350236,0.000190783714061,-9.73712417363e-07,-5.23217422597e-05,2.30804107559e-05,0.462729722914,-0.00193350572709,0.121816087592,0.0185134259933,0.947937617813,0.317877258346,0.00505708491953
0.249691233039,0.11089374125,-0.242612600327,-2.54188656807,-0.0120922196656,2.67061448097,-0.627596795559,0.0676248446107,-0.000557727937121,0.000226543706958,2.96510879707e-05,-0.00025136070326,-1.05614453787e-05,0.000110871449579,-0.000245251314482,0.462729428267,-0.00193167831363,0.12181505998,0.0185133908909,0.947937049893,0.31787896539,0.00505636707512
0.249691471457,0.110893473029,-0.242611005902,-2.54188537598,-0.0120927253738,2.67061328888,-0.627589523792,0.0676248446107,-0.000584706082009,0.000511847669259,-0.000122300218209,6.00581879553e-05,-4.15030299337e-05,-5.05097777932e-05,-0.000207232791581,0.462729834634,-0.00193078751347,0.121815462885,0.0185134065129,0.947937845515,0.317876588947,0.00505655107467
0.249682158232,0.110894091427,-0.242619231343,-2.54188632965,-0.0120916627347,2.67061400414,-0.627586603165,0.0676248446107,0.000344382890034,0.000218471497647,6.44276442472e-05,-0.000607986701652,3.74725022994e-05,-0.000104334518255,0.00193576980382,0.46272938401,-0.00193908395744,0.12181502658,0.0185136014012,0.947941234979,0.317866477797,0.00505604308028
0.249687924981,0.110892422497,-0.242614880204,-2.54189157486,-0.012092015706,2.67061161995,-0.627585589886,0.0676248446107,0.000133171444759,-0.000444565928774,-1.55229790835e-05,-0.000543037313037,-0.00452625425532,-7.78079265729e-06,0.000208251512959,0.462726493634,-0.00193432468217,0.121813679951,0.0185123033649,0.947939798426,0.317870880463,0.00505333809967
0.249689862132,0.110893934965,-0.24261367321,-2.54188966751,-0.0120915742591,2.67061448097,-0.627583265305,0.0676248446107,-0.000163986114785,0.000337223260431,0.00246154656634,-4.37507042079e-05,-5.14991806995e-05,9.87123803498e-06,0.000197013825527,0.462727813323,-0.00193269170075,0.121813963903,0.0185127577492,0.947939665259,0.317871224396,0.00505501909431
0.249690800905,0.110892504454,-0.242614999413,-2.54188990593,-0.012092044577,2.6706135273,-0.627581238747,0.0676248446107,0.000146386140841,0.000120212964248,-0.000232227117522,-0.000499869463965,-0.000665504252538,-8.8680521003e-05,-0.001526398235,0.462727758808,-0.00193301996312,0.121814399611,0.0185128390326,0.947940022034,0.317870154998,0.00505506350194
0.249687716365,0.110893905163,-0.242616295815,-2.54188895226,-0.0120919486508,2.67061281204,-0.627578496933,0.0676248446107,-0.00019043951761,-0.000207202581805,2.42788828473e-05,0.0004784410703,-0.000172246232978,0.00020298716845,-0.000449829938589,0.462727808478,-0.00193513603974,0.121814053234,0.0185128825953,0.947941164503,0.317866754944,0.00505446429805
0.249688431621,0.110894382,-0.242615416646,-2.54189038277,-0.0120920641348,2.67061233521,-0.627578616142,0.0676248446107,0.000154312627274,-0.000166583311511,0.000172594329342,0.00157169532031,-8.82563326741e-05,5.78946528549e-05,8.67438357091e-05,0.462726866631,-0.00193443102642,0.121813288533,0.0185125452708,0.947940890459,0.317867609915,0.0050533274892
0.249693527818,0.110893830657,-0.242614105344,-2.54188704491,-0.0120919542387,2.67061328888,-0.627574205399,0.0676248446107,-0.000142912016599,-9.79115575319e-05,-0.00300157628953,0.00186898116954,-1.53276801029e-06,-3.82807702408e-05,-0.000440109841293,0.462728915105,-0.00193135679749,0.121814763604,0.0185131012433,0.947940562146,0.31786851798,0.0050557577924
0.249688029289,0.110895305872,-0.242617413402,-2.54189038277,-0.012092391029,2.67061400414,-0.627570390701,0.0676248446107,-0.000249912583968,-1.40813008329e-05,-0.00353985233232,0.000491381855682,-5.51845841983e-05,-3.37376550306e-05,0.000181928684469,0.462727046826,-0.0019356238188,0.121813054965,0.0185129278655,0.947942515449,0.317862735899,0.00505368394189
0.249686732888,0.110896676779,-0.242617949843,-2.54189157486,-0.0120922271162,2.6706135273,-0.627569019794,0.0676248446107,-4.81662027596e-06,-0.000172831059899,-0.000128127649077,1.59832179634e-05,-3.59408040822e-05,-4.35864276369e-05,0.000397248135414,0.4627260466,-0.00193657028931,0.121811990465,0.0185126163454,0.947943058934,0.31786115663,0.00505221238723
0.249693110585,0.11089360714,-0.242610991001,-2.54189300537,-0.0120920008048,2.6706135273,-0.627569258213,0.0676248446107,0.000733934692107,-0.000347143533872,0.000119384654681,0.000273945595836,-5.82153552386e-05,-3.00487045024e-05,6.91571040079e-06,0.462725921363,-0.00193011585372,0.1218127799,0.018512041748,0.947940957338,0.317867441356,0.00505322918196
0.249686181545,0.110894948244,-0.2426173985,-2.54188966751,-0.0120921041816,2.67061424255,-0.627565741539,0.0676248446107,0.00325907673687,0.00198271637782,-0.000796069391072,0.000344217056409,-0.00242243381217,7.3052055086e-05,-4.93579063914e-05,0.462727537417,-0.00193643552203,0.121813484709,0.0185130167712,0.947943580462,0.31785954377,0.00505436395235
0.249683111906,0.110895819962,-0.24261918664,-2.54189276695,-0.0120925502852,2.67061281204,-0.62756228447,0.0676248446107,-6.39934078208e-05,-0.000422973651439,3.33993957611e-05,-0.000487212702865,-4.43583303422e-05,0.00017182227748,-4.34877874795e-05,0.462725448892,-0.00193882599297,0.121811911049,0.0185124905484,0.947944865412,0.317855784361,0.00505171947414
0.249689742923,0.110896684229,-0.242614090443,-2.54189324379,-0.0120916338637,2.67061257362,-0.627563416958,0.0676248446107,0.000805090356153,-6.46706539555e-05,0.00337006477639,0.000245689152507,1.64430639416e-05,0.000133561567054,5.37402702321e-05,0.462724966853,-0.00193333269204,0.121811270468,0.0185118409267,0.947942969405,0.317861485886,0.0050511365643
0.249702394009,0.110897690058,-0.242607429624,-2.54189229012,-0.0120914559811,2.67061400414,-0.627560734749,0.0676248446107,0.00172419694718,-0.0005702318158,0.000233902115724,-0.000248740485404,0.00500794639811,-3.93060508941e-05,0.000207081742701,0.462725472179,-0.00192387389181,0.121811273472,0.0185115693113,0.947940310364,0.31786941739,0.00505202597215
0.24968983233,0.110898882151,-0.242614150047,-2.54189443588,-0.0120920259506,2.67061424255,-0.627558648586,0.0676248446107,-0.00194151420146,0.000751981744543,-0.000545549264643,-1.24840507851e-05,-3.83860460715e-05,4.8899291869e-05,-0.000174925269675,0.462724264152,-0.00193344728761,0.121810028223,0.0185119020418,0.947943661608,0.317859431534,0.0050502844583
0.249686703086,0.110897421837,-0.242618501186,-2.54189229012,-0.0120916916057,2.6706135273,-0.627553641796,0.0676248446107,0.000453324493719,0.000258611078607,0.00413520541042,-0.000349233538145,-4.13544366893e-05,-3.42436142091e-05,8.57825580169e-05,0.462725526569,-0.00193688752122,0.121811415584,0.0185123540918,0.947945676369,0.317853374457,0.00505167644737
0.249698206782,0.110900014639,-0.242610216141,-2.54189682007,-0.0120923258364,2.67061281204,-0.627552449703,0.0676248446107,0.000221438996959,0.00115777866449,-7.51813495299e-05,-0.000103795253381,-4.71846142318e-05,-4.70799059258e-05,-0.000449367827969,0.462722491666,-0.00192778208338,0.121808511987,0.0185110790676,0.947942682135,0.317862435704,0.00504806841812
0.249700665474,0.110901072621,-0.242607519031,-2.54189753532,-0.0120927104726,2.67061376572,-0.627552032471,0.0676248446107,-5.63686226087e-05,-7.47521062294e-06,0.00403786962852,0.000257931649685,0.000170431289007,-9.14778429433e-05,-0.000356206961442,0.462722107199,-0.00192540914912,0.121807843984,0.0185109933462,0.947941876805,0.317864848401,0.00504768897421
0.249697908759,0.110899403691,-0.242606177926,-2.54189419746,-0.012092590332,2.67061471939,-0.62754881382,0.0676248446107,-0.000419462361606,-0.000580783816986,0.0034064068459,-0.000304464803776,-8.98810540093e-05,-0.000133662004373,0.000240340683376,0.462724369107,-0.00192589571975,0.121809819202,0.0185116093882,0.947942603751,0.317862598462,0.005050593909
0.249692246318,0.110900111496,-0.242610350251,-2.54189419746,-0.0120908264071,2.67061400414,-0.627548515797,0.0676248446107,7.94086881797e-05,0.000744838209357,-7.44267017581e-05,-4.01437173423e-05,0.00296748359688,-2.25010317081e-05,-0.000109993845399,0.462724073503,-0.00193053425827,0.121809488505,0.0185113447294,0.947944465742,0.317857071479,0.0050499291368
0.249691605568,0.110901117325,-0.242612197995,-2.54189515114,-0.0120919970796,2.67061424255,-0.627545118332,0.0676248446107,-0.00181882386096,-5.01207578054e-05,-0.00100550230127,-0.000324043066939,2.12188751902e-05,-8.75703335623e-05,0.000210639176657,0.462723433219,-0.00193181062344,0.121808754072,0.0185115513558,0.94794523317,0.3178547855,0.0050489998694
0.249688059092,0.11090310663,-0.242615804076,-2.54189872742,-0.0120920874178,2.6706135273,-0.627544522285,0.0676248446107,-0.00373517326079,0.000242286667344,-0.00310974102467,-0.000224544812227,-0.00450689718127,-0.000112096611701,0.000288267299766,0.462721030889,-0.00193535119989,0.121806603896,0.0185110526875,0.947946473755,0.317851164163,0.00504588475443
0.24968752265,0.110902175307,-0.242615133524,-2.54189968109,-0.0120918378234,2.67061376572,-0.627543091774,0.0676248446107,0.000236537918681,3.75061244995e-05,-0.000639233214315,0.000155797111802,-4.25869184255e-05,-6.72384776408e-05,-0.000509561330546,0.462720776947,-0.00193523331115,0.121806703757,0.0185108795972,0.947946721612,0.31785043249,0.00504604560716
0.249692291021,0.110902749002,-0.242611348629,-2.54189658165,-0.0120915602893,2.67061328888,-0.627540826797,0.0676248446107,8.17218242446e-05,0.000565913505852,0.00295403948985,0.00288019352593,7.17060538591e-05,-1.17270992632e-05,5.0531783927e-05,0.462722151374,-0.00193118590765,0.121807428051,0.0185109699978,0.947945753,0.317853298558,0.00504714207847
0.249698415399,0.110903665423,-0.242605626583,-2.54189634323,-0.0120915900916,2.67061400414,-0.627539515495,0.0676248446107,8.65480542416e-05,-0.00181228527799,0.000164184908499,-3.50141563104e-05,-0.000400340533815,-6.35830565443e-06,0.000124337704619,0.462722231946,-0.0019256310588,0.121807092787,0.0185107378131,0.947944079242,0.317858301522,0.005047282246
0.249693766236,0.110903419554,-0.242607817054,-2.54189515114,-0.0120918285102,2.6706135273,-0.627539217472,0.0676248446107,-0.000539158878382,0.00159962137695,-0.000253340578638,3.06082256429e-05,0.000897754274774,-9.09650989342e-05,-2.75004313153e-05,0.462722881408,-0.00192829892504,0.121807695679,0.0185110403805,0.947945021567,0.31785546413,0.0050478788975
0.249689042568,0.110905021429,-0.2426109761,-2.54189729691,-0.0120922382921,2.67061400414,-0.627534866333,0.0676248446107,-0.000255947816186,-0.00205158628523,-0.000681440753397,0.000565906753764,-0.000311157142278,3.01695981761e-05,0.00051318097394,0.462721464714,-0.00193264669336,0.121806224155,0.0185110024763,0.94794706,0.317849417037,0.00504598872784
0.249687850475,0.110906414688,-0.242613822222,-2.54189872742,-0.0120918657631,2.67061424255,-0.627534866333,0.0676248446107,-1.75221593963e-05,0.000167191479704,0.000342908169841,-0.00348398182541,-0.00488019827753,-8.93831838766e-06,0.000404910417274,0.462720501017,-0.00193465431208,0.121805162737,0.0185108511079,0.94794775772,0.31784736532,0.00504470733869
0.249693050981,0.110903732479,-0.24261020124,-2.54189252853,-0.0120909716934,2.67061495781,-0.627533257008,0.0676248446107,-0.0038245881442,0.000582050066441,-0.000181523544597,-0.000262721703621,-5.32383965037e-05,0.000140819945955,-0.000354913150659,0.462724402481,-0.00193025248209,0.121808531473,0.0185115948228,0.947946700853,0.3178503977,0.00504951177934
0.249692380428,0.110907606781,-0.242608875036,-2.54189729691,-0.0120912324637,2.67061448097,-0.627530455589,0.0676248446107,-0.000354797026375,0.000548244221136,0.000324918481056,-0.000538222608157,1.78505597432e-05,1.74328361027e-05,-8.84458131623e-05,0.462721037064,-0.00193019882233,0.121805082579,0.0185106177898,0.947947042912,0.317849504458,0.00504510346824
0.249696716666,0.110911257565,-0.24260777235,-2.54190206528,-0.0120918666944,2.67061424255,-0.627531409264,0.0676248446107,0.000396053277655,-0.000750992272515,0.00011190863006,-0.000600145838689,1.42676317409e-05,-9.58253367571e-05,0.000424288533395,0.462717779778,-0.00192793074112,0.121801759005,0.0185097760942,0.947945971806,0.31785281458,0.00504090048718
0.249689474702,0.110908903182,-0.242610663176,-2.54189896584,-0.0120910909027,2.67061471939,-0.627526581287,0.0676248446107,0.000166488869581,-0.000194617066882,-0.000158500683028,0.000133743553306,-2.83231693174e-05,-4.46702979389e-05,0.000171554347617,0.46271996276,-0.00193249190066,0.121803968462,0.018510417131,0.947948430936,0.317845397608,0.00504377348381
0.249692350626,0.110911622643,-0.242610573769,-2.54190063477,-0.0120919244364,2.67061448097,-0.627525627613,0.0676248446107,0.000873847515322,0.000466255442007,2.17922133743e-05,-2.03392537514e-05,-2.80871718132e-05,-2.16933294723e-05,0.000626282009762,0.462718750466,-0.00193170962909,0.121802427699,0.0185102924316,0.947948110871,0.317846389333,0.0050418891963
0.249689921737,0.110913746059,-0.242608577013,-2.54189991951,-0.0120919412002,2.67061424255,-0.62752187252,0.0676248446107,-0.000619648781139,-0.000626639055554,0.00347927538678,-0.000177622685442,-0.00450230948627,-3.04482036881e-05,-0.000244797760388,0.462718368789,-0.00193156535667,0.121801398501,0.0185100722124,0.947948668875,0.317844756995,0.00504068894684
0.249690949917,0.110912978649,-0.242609754205,-2.541898489,-0.0120917577296,2.67061495781,-0.627520680428,0.0676248446107,-0.00384554336779,0.000395943789044,0.000178320959094,0.000352884293534,0.000130903848913,3.60790836567e-05,-0.00270221009851,0.462719426362,-0.00193158913975,0.121802319156,0.0185104511181,0.947948891088,0.317844049628,0.00504211163843
0.249692410231,0.110911779106,-0.242607921362,-2.54189658165,-0.0120915370062,2.67061567307,-0.627522110939,0.0676248446107,0.000454245338915,0.000147432263475,-0.000180165108759,0.000103359408968,-0.000174312139279,-0.000100293902506,-2.65620565187e-05,0.462720807855,-0.0019299307117,0.121803559883,0.0185107434846,0.947948157735,0.317846189824,0.00504399898768
0.249696418643,0.110914431512,-0.242606341839,-2.54190087318,-0.0120916003361,2.6706161499,-0.627520561218,0.0676248446107,0.000626792956609,4.50077823189e-05,0.00198523211293,0.000441844080342,0.000104859595012,0.000146618520375,-0.000908308604266,0.462718153685,-0.00192750856953,0.121800908359,0.018509961609,0.947947535507,0.317848139753,0.00504093153111
0.249692454934,0.110915973783,-0.242610111833,-2.54189825058,-0.0120915053412,2.67061591148,-0.627514719963,0.0676248446107,-0.000347982102539,-8.38236592244e-05,-0.00189047306776,0.000101119170722,-5.54205180379e-05,-7.47032754589e-05,0.00303341099061,0.462718949209,-0.00193055122192,0.121801086191,0.0185103883175,0.947949341231,0.317842725805,0.00504116313037
0.249693766236,0.11091222614,-0.24260725081,-2.541898489,-0.0120919141918,2.67061543465,-0.627516031265,0.0667015761137,-0.000350308429915,0.0004291353398,0.000338893965818,-5.85778543609e-05,0.000113310270535,0.000114803522592,-8.06544558145e-05,0.462719679692,-0.0019290386095,0.121802668197,0.0185104211984,0.947948763358,0.317844421322,0.00504280466728
0.249694019556,0.110914334655,-0.242606267333,-2.54190039635,-0.0120921116322,2.67061495781,-0.627515971661,0.0667015761137,7.57511952543e-05,0.000243549555307,0.00145059952047,0.000109303829959,-2.84830348392e-05,2.21032023546e-05,0.000242923721089,0.462718156355,-0.00192859040282,0.121801006158,0.0185099625794,0.947948566388,0.317845070127,0.00504062021886
0.249688997865,0.110915400088,-0.242609232664,-2.54189920425,-0.0120919141918,2.67061591148,-0.627513468266,0.0667015761137,0.00263896700926,-5.04858098793e-06,-0.000405510596465,6.30813301541e-05,0.00295877596363,-5.5347547459e-05,0.000452251872048,0.462718878691,-0.00193243249924,0.121801136019,0.0185103817596,0.947950291565,0.317839891707,0.00504117230854
0.24969099462,0.110916160047,-0.242609143257,-2.54190015793,-0.0120910201222,2.67061519623,-0.627511620522,0.0667015761137,0.000208476296393,0.000338972575264,0.000433178181993,0.00011227750656,-1.33319063025e-05,-0.000556521117687,0.00027859970578,0.462717962493,-0.00193144526347,0.121800329511,0.0185098917199,0.947950344255,0.317839781778,0.00503999444052
0.249694213271,0.110915437341,-0.242606341839,-2.54190063477,-0.012091813609,2.67061495781,-0.627511680126,0.0667015761137,0.00102262909058,-0.000465608929517,6.80910088704e-05,0.000265785696683,9.65964682109e-06,8.6679981905e-05,3.30545772158e-05,0.462717841159,-0.00192821382219,0.121800499474,0.0185097583779,0.947949187681,0.317843236906,0.00504012515431
0.249693617225,0.110918052495,-0.242606595159,-2.54190278053,-0.0120909325778,2.6706161499,-0.627512097359,0.0667015761137,-0.00118389225099,-0.000101311918115,-0.000180646762601,0.000203622606932,-0.000340484664775,0.00566208316013,-5.57577768632e-05,0.462716422838,-0.00192912804239,0.121798628323,0.0185093872452,0.947949475221,0.317842429574,0.00503831945968
0.249695450068,0.110914647579,-0.24260725081,-2.54189991951,-0.0120914494619,2.67061686516,-0.627508103848,0.0667015761137,-0.000253382226219,0.000267294322839,-0.00184700323734,0.000450575374998,-5.77518658247e-05,0.000219007401029,-0.000151384578203,0.462718758841,-0.00192838536119,0.121801219833,0.0185101987439,0.947949821902,0.317841294369,0.00504172409312
0.249691948295,0.110913775861,-0.242606535554,-2.5419011116,-0.0120914131403,2.67061710358,-0.62750929594,0.0667015761137,6.75988849252e-05,-0.000101624857052,-0.00225639995188,-3.14838180202e-05,2.28399694606e-05,0.00149310391862,-0.000413770700106,0.462718367075,-0.00192947005704,0.121801215752,0.0185100322251,0.947950051631,0.317840619461,0.00504168906368
0.249691352248,0.110916107893,-0.242607831955,-2.54190278053,-0.0120909409598,2.67061758041,-0.627506494522,0.0667015761137,-0.000481854309328,0.00101908843499,0.000323339161696,0.000334199517965,0.000134407280711,-4.6915069106e-05,0.000475357024698,0.462717071299,-0.00193083178798,0.121799420918,0.0185097245288,0.947950995863,0.317837853373,0.00503966185824
0.249689593911,0.110914774239,-0.2426084131,-2.54190182686,-0.0120916226879,2.67061758041,-0.627507030964,0.0667015761137,-0.000886586261913,4.88422047056e-05,0.000391210545786,0.00021709210705,6.50086440146e-05,2.47772495641e-05,0.000280905427644,0.462717773081,-0.00193143078763,0.121800498099,0.0185100978386,0.947950964402,0.317837905745,0.00504090537144
0.2496894449,0.110917322338,-0.242610618472,-2.54190063477,-0.0120915956795,2.67061758041,-0.62750595808,0.0660298019648,0.000133810244733,-0.000315898942063,-0.000193201354705,0.000143431694596,1.70142448042e-05,9.6917123301e-05,-3.24294196616e-05,0.462717998725,-0.00193293633124,0.121799883497,0.0185103324484,0.947951624297,0.317835933537,0.00504030017
0.249695762992,0.110916614532,-0.242605224252,-2.54190254211,-0.0120917409658,2.67061758041,-0.627504110336,0.0660298019648,0.000545577844605,0.000292392796837,0.000149695100845,0.000117031471746,-8.50444921525e-05,-0.000127161969431,2.73844452749e-05,0.462717201498,-0.00192694547725,0.121799483253,0.0185097261497,0.947949935273,0.31784101348,0.00503985052615
0.249700129032,0.1109174788,-0.242603391409,-2.54190301895,-0.0120915612206,2.67061686516,-0.627505540848,0.0660298019648,0.000875732803252,0.00016957106709,0.000102789024822,0.000183534313692,2.03387080546e-05,-1.33264347824e-06,0.000300378102111,0.462716572767,-0.00192455038219,0.121798827998,0.018509398261,0.947948885123,0.317844178888,0.00503894891526
0.249696061015,0.110916674137,-0.242603197694,-2.54190301895,-0.0120911858976,2.67061710358,-0.627503037453,0.0660298019648,-0.000641546037514,-0.000264268106548,-0.000427238643169,-0.000416113703977,-9.87134117167e-05,-0.00238637183793,3.68075052393e-05,0.462716780455,-0.00192628768894,0.121799207699,0.0185093742948,0.94794995134,0.317840991917,0.0050394804712
0.249689906836,0.110915832222,-0.242608174682,-2.5419023037,-0.0120919467881,2.67061710358,-0.627502858639,0.0660298019648,0.000488533696625,0.000157087197294,8.391540905e-05,0.000561375461984,-7.64481010265e-05,7.65998556744e-05,-0.000595879857428,0.462717329819,-0.0019314991115,0.121799897209,0.0185099845851,0.947951623841,0.317835958952,0.00504006090183
0.249694004655,0.110916368663,-0.242604956031,-2.5419011116,-0.0120912399143,2.670617342,-0.627501487732,0.0660298019648,-0.000194973239559,-1.68931946973e-05,0.000135948008392,0.000278860912658,-0.000256070517935,-0.000293163117021,0.000257174193393,0.462717983853,-0.00192796034513,0.121800083884,0.0185099195138,0.947950758167,0.317838535041,0.00504066474907
0.249693259597,0.110915146768,-0.242605522275,-2.5419023037,-0.0120913768187,2.67061686516,-0.627499163151,0.0660298019648,-0.00153240794316,0.0021416854579,-0.000378077093046,-0.00187193369493,-2.68719850283e-05,1.35417822094e-05,-0.000550831202418,0.46271741436,-0.00192862187221,0.121800147667,0.018509678764,0.947951346144,0.3178367991,0.00504043276313
0.249694436789,0.110920071602,-0.242603972554,-2.54190158844,-0.0120916366577,2.67061638832,-0.627497792244,0.0646652504802,-0.00180723913945,-6.82828758727e-05,0.00187230249867,-0.000332160852849,-0.000187197074411,0.00280596944503,0.000131538894493,0.462716668809,-0.0019275855165,0.121798125918,0.0185094975334,0.947951095859,0.317837592888,0.00503811445923
0.249696850777,0.110919177532,-0.242601901293,-2.5419023037,-0.0120916031301,2.670617342,-0.627497076988,0.0646652504802,0.000122132318211,-0.000578877574299,-0.00253419624642,-0.00121537956875,0.0046488060616,-1.06368897832e-05,0.000304782530293,0.462716685978,-0.00192542464354,0.121798339992,0.0185094278087,0.947950503298,0.317839354433,0.00503873407634
0.249695971608,0.110915966332,-0.242603540421,-2.54190421104,-0.0120917577296,2.670617342,-0.627497076988,0.0646652504802,-0.000269677198958,-0.000382617494324,0.000295373873087,-0.00280071678571,-0.00553396390751,0.00291579752229,0.000113207424874,0.462716362735,-0.00192648400104,0.121799138412,0.0185093816149,0.947950890065,0.31783819325,0.00503938659899
0.249692887068,0.110915333033,-0.242604091763,-2.54190349579,-0.0120921786875,2.670617342,-0.627497017384,0.0646652504802,-9.95539739961e-05,-0.000261136970948,0.000114349990326,0.000334164185915,-2.83003737422e-06,3.80912897526e-05,0.000478116679005,0.462717099276,-0.00192801738255,0.12179983031,0.0185096806798,0.947951455464,0.317836476512,0.00504020749106
0.249693393707,0.110919609666,-0.242603451014,-2.54190039635,-0.0120910927653,2.67061972618,-0.627493023872,0.0646652504802,0.000305948138703,-0.000299375882605,-6.9565976446e-05,0.000427359045716,8.63301684149e-05,-6.88289728714e-05,-0.000252869620454,0.46271809923,-0.00192774089855,0.121799047527,0.0185100400916,0.94795198313,0.317834875798,0.00504058640136
0.249692589045,0.11091864109,-0.242604404688,-2.54189920425,-0.012091669254,2.67062044144,-0.627494394779,0.0646652504802,0.00246601365507,8.96209094208e-05,-0.000256430212175,0.000343551277183,-3.25856271957e-05,-0.000106935280201,0.000168365950231,0.462718807963,-0.00192848397156,0.121799862908,0.0185104063582,0.947951927631,0.317835002975,0.00504165950463
0.249693468213,0.110919006169,-0.242604613304,-2.54190015793,-0.0120922401547,2.67062020302,-0.627493739128,0.0646652504802,0.000517104810569,0.000117745294119,-0.00013035228767,0.000193701460375,-5.87718532188e-05,8.52295197546e-05,-0.000294808851322,0.462718454458,-0.00192825313049,0.121799460278,0.0185104901671,0.947951869096,0.317835181242,0.00504111932786
0.249695494771,0.1109200418,-0.242602303624,-2.54189944267,-0.0120921805501,2.67062449455,-0.627490520477,0.0646652504802,-0.00156495568808,-6.02567051828e-05,3.5610566556e-05,0.000286795228021,9.43036575336e-05,0.000444724486442,-0.000263434776571,0.462719538303,-0.00192621327337,0.121799611397,0.0185110453307,0.947951668118,0.317835717327,0.00504307380971
0.249693095684,0.110918961465,-0.242604553699,-2.54188871384,-0.01209155377,2.67062973976,-0.627492249012,0.0646652504802,-0.00407295161858,8.13756050775e-05,-0.000338706362527,0.00384182226844,0.000168883678271,-0.000222095244681,0.000277390470728,0.462726442852,-0.00192815594011,0.121804327209,0.0185135334712,0.947952107194,0.317834133895,0.0050511943436
0.249684616923,0.110917553306,-0.242610141635,-2.54188513756,-0.012090540491,2.67063164711,-0.627490401268,0.0638641193509,4.16004040744e-05,0.000666584935971,1.28622059492e-05,-0.000891763542313,6.07992569712e-06,0.00176151760388,-0.000114939037303,0.462728996827,-0.00193461863864,0.12180644498,0.0185145417953,0.94795473275,0.317826192509,0.00505444784854
0.249695464969,0.110918663442,-0.242603108287,-2.54188799858,-0.0120913749561,2.67063546181,-0.627490401268,0.0638641193509,0.000243225484155,-0.000826958566904,-1.38923269333e-05,2.42831574724e-05,-6.95505223121e-05,-0.000189353129826,-8.30803910503e-05,0.462728114032,-0.00192629217023,0.121805219012,0.0185143782092,0.947951775747,0.317835020941,0.00505448414357
0.249693214893,0.110922574997,-0.242604091763,-2.54189801216,-0.0120908664539,2.67063498497,-0.627488136292,0.0638641193509,0.000734317931347,-0.000658648728859,-0.000221739683184,-0.00046354130609,-2.43390768446e-05,1.29342811306e-06,0.000338533951435,0.462721737882,-0.00192807099493,0.121799869072,0.018512475363,0.947952789865,0.317832219728,0.00504739873777
0.249689608812,0.110918700695,-0.242605939507,-2.54189586639,-0.0120907081291,2.67063498497,-0.627486824989,0.0638641193509,3.588110485e-05,0.000114640417451,0.000365633080946,0.000518841901794,6.32594528724e-05,-0.00400207843632,-0.000281066750176,0.462723938706,-0.00193046669307,0.121802467357,0.0185131112328,0.947953871186,0.317828908464,0.0050504899046
0.249686941504,0.11091876775,-0.242607921362,-2.54189372063,-0.0120910704136,2.67063760757,-0.627487421036,0.062691308558,0.000218302535359,-0.00237249606289,0.000215263979044,0.000495823973324,4.24216614192e-06,-1.51444110088e-05,0.000310421106406,0.46272560506,-0.0019326203422,0.121803449264,0.0185140350652,0.94795442503,0.31782716853,0.00505264338786
0.249693334103,0.110919862986,-0.242604807019,-2.54189658165,-0.0120899230242,2.67063570023,-0.627485334873,0.062691308558,0.000167036952917,-0.000256013678154,-6.1972772528e-05,0.000434953457443,-4.94839514431e-05,-1.43686729643e-05,0.000195746659301,0.462723489162,-0.00192824529797,0.12180174992,0.0185128145337,0.947953451255,0.317830185462,0.00505003468705
0.249689921737,0.110919468105,-0.242605179548,-2.54189562798,-0.0120912585407,2.67063593864,-0.627484679222,0.062691308558,-0.000298392144032,-0.00330015015788,0.000390534172766,-0.000108892920252,6.83722246322e-05,4.43794488092e-05,-0.000214535786654,0.462724109666,-0.00192999669373,0.121802285053,0.0185133328491,0.947953955185,0.317828642217,0.00505066648902
0.249685004354,0.110918916762,-0.242609918118,-2.54188990593,-0.0120919570327,2.67064356804,-0.627483427525,0.062691308558,0.000346741842804,-0.000318754231557,-3.02757616737e-05,0.000656563905068,-0.00577537668869,-5.96175377723e-05,-0.000200660462724,0.462728842698,-0.00193441199643,0.121805282107,0.0185158156974,0.947955482728,0.317823838394,0.00505715064187
0.249684676528,0.11091633141,-0.242609962821,-2.54189252853,-0.0120895691216,2.67064070702,-0.627481997013,0.062691308558,0.00020484115521,-7.88768884377e-05,0.000480604125187,-0.0011687745573,-0.00010130082228,-0.000117238014354,-4.45855476983e-08,0.462727394905,-0.00193445651911,0.121805265521,0.0185145546481,0.947956152319,0.317821932695,0.00505601956867
0.249690368772,0.110918298364,-0.242605760694,-2.54190015793,-0.0120898392051,2.6706404686,-0.627484023571,0.062691308558,-6.05823652222e-06,0.00138344743755,2.61005388893e-05,-8.94937911653e-05,-9.45928877627e-06,0.00251648738049,-0.00266212434508,0.462722995084,-0.00193000880014,0.121801664399,0.0185130731708,0.947954280528,0.317827675835,0.00505136745352
0.249692469835,0.110919579864,-0.242604613304,-2.54189610481,-0.0120902741328,2.67064118385,-0.627482056618,0.062691308558,7.28034501662e-06,-0.00167825142853,0.000248529802775,-0.000753758708015,-2.08903366001e-05,-9.65651179285e-06,1.59429800988e-05,0.462724981227,-0.00192849859736,0.121802546823,0.0185137788021,0.947953984253,0.31782849219,0.00505301632976
0.249689787626,0.110919833183,-0.242605254054,-2.54189801216,-0.0120909772813,2.6706404686,-0.627481400967,0.062691308558,-0.00048491335474,0.000643890351057,1.34947658808e-05,-0.000137749811984,2.26484098675e-05,0.000201209710212,0.000314261909807,0.46272369996,-0.00193023548673,0.121801526225,0.0185135213477,0.947954573622,0.317826775693,0.00505135797209
0.249688833952,0.110918723047,-0.242605999112,-2.54189586639,-0.0120902704075,2.67064166069,-0.627480506897,0.062691308558,0.000420576398028,0.000260546948994,0.000641368504148,0.000352902367013,5.69108342461e-05,-0.000216005995753,-0.000492322957143,0.462725381531,-0.00193079826131,0.12180307514,0.0185140030456,0.947955020956,0.317825375429,0.00505374684885
0.249690756202,0.110919453204,-0.24260532856,-2.54189515114,-0.0120907900855,2.67064118385,-0.627481579781,0.062691308558,0.000394399045035,0.000129524589283,6.11307477811e-05,-2.81105576505e-06,0.000479567563161,0.000103329199192,-0.000459607690573,0.462725499366,-0.00192962787531,0.121802943629,0.0185140882702,0.947954363699,0.317827335174,0.00505347261045
0.249688521028,0.110920861363,-0.24260622263,-2.54189586639,-0.0120919477195,2.6706404686,-0.627479016781,0.0622126013041,5.498963219e-05,0.00112666701898,1.11688659672e-05,-0.000175621084054,-5.28471173311e-05,-1.14891406611e-07,-6.79185250192e-05,0.462724686138,-0.00193120614411,0.121802011165,0.0185141225539,0.947955109703,0.31782513166,0.00505199239635
0.249689921737,0.11091914773,-0.242606133223,-2.54189682007,-0.0120912771672,2.67064070702,-0.627478480339,0.0622126013041,0.000125073260278,-0.000228307093494,-0.000475832435768,-0.000237160624238,-2.82335113297e-05,3.35000841005e-05,0.000619527359959,0.462724627337,-0.00193040360149,0.121802532424,0.0185139681948,0.947955078382,0.317825223852,0.00505263522763
0.249693617225,0.110916115344,-0.242602571845,-2.54189682007,-0.0120917418972,2.6706404686,-0.62747836113,0.0622126013041,-5.5591637647e-05,0.000154309382197,0.000225857103942,4.24586578447e-05,9.03014151845e-05,-3.82096777685e-06,0.00037073151907,0.462725160501,-0.0019268473753,0.121803759274,0.0185138797543,0.947953866633,0.317828821123,0.00505402254187
0.249690800905,0.110918201506,-0.242604374886,-2.54189586639,-0.0120918024331,2.67064428329,-0.627477169037,0.0622126013041,0.000167147052707,0.000100470584584,-0.000146177335409,0.00011011728202,5.36056541023e-05,8.50121887197e-06,0.000129714637296,0.462726055593,-0.00192909044942,0.121803531404,0.0185146426009,0.947954743175,0.317826143391,0.00505521183835
0.249693125486,0.11091696471,-0.242604345083,-2.54189944267,-0.0120912697166,2.67064189911,-0.627477228642,0.0622126013041,-4.98947410961e-05,0.000147665065015,0.000159743736731,0.000426209327998,5.79648767598e-05,-1.31261765546e-06,-0.000153473345563,0.462723948326,-0.00192799049563,0.121802624673,0.0185136540881,0.947954478014,0.317827026179,0.00505305299968
0.249692603946,0.110915094614,-0.242605805397,-2.54189610481,-0.0120911598206,2.67064285278,-0.627476930618,0.0622126013041,-0.000139366005897,0.000187488141819,-0.00010195964569,-0.000267992145382,-5.5527103541e-05,-0.000260083499597,0.000356259261025,0.462726266544,-0.00192878429381,0.121804726029,0.0185144430333,0.947954823492,0.317825902703,0.00505601392027
0.249691352248,0.110917583108,-0.242603108287,-2.54189801216,-0.0120911719278,2.67064213753,-0.627476751804,0.0622126013041,-0.000272380333627,-0.00352616258897,0.000332291587256,0.000120120959764,-9.94253496174e-05,-0.000105472252471,0.000158503258717,0.462724604118,-0.00192822325594,0.121802849554,0.0185137988679,0.947954644445,0.317826513439,0.00505355034668
0.249694228172,0.110917679965,-0.242602899671,-2.54189801216,-0.0120907267556,2.6706430912,-0.627476274967,0.0622126013041,0.000407945073675,0.00339361024089,6.13779775449e-05,0.00011262040789,4.96521133755e-05,-5.61181732337e-05,-2.16878215724e-05,0.46272473629,-0.00192662855656,0.12180285084,0.0185137889795,0.947954206276,0.317827815504,0.00505388968148
0.249694660306,0.110917970538,-0.24260134995,-2.54189705849,-0.0120910294354,2.67064237595,-0.627475559711,0.0622126013041,-0.00290810409933,0.000259208813077,4.56464549643e-05,0.000593559874687,1.00597635537e-05,2.23266488319e-05,0.000114657334052,0.46272506866,-0.00192584661796,0.121803005882,0.0185138238582,0.947954044832,0.31782829324,0.00505400014577
0.249694854021,0.110917463899,-0.242601335049,-2.54189658165,-0.0120904380456,2.67064237595,-0.627476036549,0.0615959912539,0.000490133243147,-0.000431102089351,0.000152985216118,-0.000420635624323,7.30587998987e-05,0.000183866402949,6.31226721453e-05,0.462725295517,-0.00192543576365,0.121803408147,0.0185137203258,0.947953999687,0.317828424357,0.00505460162288
0.249693676829,0.11091811955,-0.242601841688,-2.54189801216,-0.0120917595923,2.67064189911,-0.627476036549,0.0615959912539,0.00018351394101,-0.000437973736553,1.72879917955e-05,2.16111413209e-08,-8.65964611876e-05,0.000155448768055,1.72128293343e-05,0.462724442418,-0.00192657844165,0.12180257134,0.0185137911694,0.947954107049,0.317828122786,0.00505316939671
0.249693021178,0.110909253359,-0.242602914572,-2.54187965393,-0.0120916422457,2.67064666748,-0.627473413944,0.0615959912539,2.39290311583e-05,-0.000259698106674,1.84734926734e-05,0.00108692841604,-1.48062727021e-05,-2.98461782222e-05,0.000100854667835,0.462736776154,-0.00192665019239,0.121813359974,0.0185177036081,0.947954653551,0.317826019078,0.00506860433466
0.249694541097,0.110892608762,-0.242601677775,-2.54187011719,-0.0120902787894,2.67065143585,-0.627474009991,0.0615959912539,0.00017944094725,0.000147331942571,0.000833351688925,0.000334275508067,-1.36094661229e-06,-6.32574083284e-05,-0.000150939653395,0.462746140066,-0.00192428891024,0.121824544969,0.0185201345402,0.947954217766,0.317826933882,0.00508383940675
0.249699085951,0.110891081393,-0.242600306869,-2.54187560081,-0.0120923062786,2.67065429688,-0.627475857735,0.0615959912539,7.22955883248e-05,0.000359400059097,0.000375756702852,-0.000737501948606,2.01754428417e-05,2.23737006309e-05,-0.000226491232752,0.462744245679,-0.00192154123958,0.121823576779,0.0185201278071,0.947952709139,0.317831443357,0.00508324747737
0.24969740212,0.110892288387,-0.242597594857,-2.54187655449,-0.0120924431831,2.67065405846,-0.627474188805,0.0615959912539,-6.22110819677e-05,0.000833139580209,0.00312743266113,-0.000461990275653,-1.65531128005e-05,-0.000638424069621,0.000775595603045,0.462743440749,-0.00192109230111,0.121822648758,0.0185197735669,0.947952805105,0.317831196058,0.00508210410079
0.249694645405,0.110895238817,-0.242600306869,-2.54187631607,-0.0120913395658,2.67065787315,-0.627475082874,0.0615959912539,0.0026177407708,-0.000251958175795,-0.000189678452443,5.87085560255e-05,-0.00481562875211,-1.8660597334e-06,-0.0053422935307,0.462743792766,-0.00192377695181,0.121821796785,0.0185201969008,0.947953656187,0.317828625353,0.00508258028894
0.249695762992,0.110892958939,-0.242600426078,-2.54187464714,-0.012092503719,2.67065858841,-0.627475440502,0.0615959912539,0.000444266857812,-7.52795895096e-05,0.00227484968491,-1.33415267101e-06,-6.31429575151e-05,8.78747596289e-05,0.00125448580366,0.462745279545,-0.00192319485833,0.12182346492,0.018520905753,0.947953255503,0.317829744126,0.00508476829428
0.249693408608,0.110894359648,-0.242601886392,-2.541877985,-0.0120922364295,2.6706609726,-0.627475857735,0.0615959912539,-0.00104593252763,9.11118331715e-05,-0.00183105492033,0.000104412305518,1.54406243382e-05,0.000181069233804,-3.11816147587e-05,0.462743787462,-0.00192508491894,0.121821919695,0.0185207271997,0.947953835709,0.317828042771,0.00508359570004
0.249705985188,0.110810779035,-0.242591783404,-2.54182553291,-0.0120925521478,2.67068648338,-0.627474486828,0.0615959912539,-7.20727039152e-05,-0.000509117264301,0.000293911551125,0.000332757568685,8.83798493305e-05,0.00251341075636,0.000186419551028,0.462793498042,-0.00190913800012,0.121879771436,0.0185351922733,0.947949864991,0.317837768809,0.00516260767667
0.249706685543,0.11074603349,-0.242593213916,-2.54182100296,-0.0120928511024,2.67069625854,-0.62747490406,0.0615959912539,-7.47369267629e-05,-0.00321194599383,-0.000473540654639,-7.98498513177e-05,-9.8231517768e-05,-0.0001198695536,0.000188486112165,0.462811209766,-0.00190600115347,0.121911269572,0.0185398896434,0.947949750208,0.317837200401,0.00520166336374
0.24970459938,0.110704064369,-0.242593720555,-2.54182100296,-0.0120919123292,2.67069911957,-0.627475202084,0.0615959912539,-8.08372496977e-05,-0.000154704364832,0.000563352019526,0.000345381675288,4.42982091045e-05,0.000199614834855,0.000355072086677,0.462820412274,-0.00190498187174,0.121930341991,0.0185416948622,0.947950217896,0.317835333964,0.00522399424523
0.249700397253,0.110723778605,-0.24259455502,-2.54183459282,-0.0120915807784,2.67070674896,-0.627475082874,0.0615959912539,-0.000158432245371,0.00138943782076,-0.000172923319042,-0.000864040281158,-3.89101260225e-05,-2.60353353951e-05,3.4338561818e-05,0.462812610882,-0.00190878036271,0.121919509001,0.0185402968773,0.947951263721,0.317832473109,0.00521322629582
0.249703124166,0.110723994672,-0.242592260242,-2.54183197021,-0.0120932348073,2.67070937157,-0.627475559711,0.0602668970823,-0.000748661346734,-0.000273988989647,0.000329561735271,-0.000217012013309,-6.21696017333e-06,0.000727611826733,2.93587509077e-05,0.46281288939,-0.00190610312699,0.121918541581,0.0185410068925,0.947949976805,0.317836263232,0.00521363611686
0.249697476625,0.110720030963,-0.242595359683,-2.54182362556,-0.012091060169,2.67071485519,-0.627475082874,0.0602668970823,-0.00025718921097,-0.000755730841774,-4.80931303173e-05,0.000311868148856,-3.3277494822e-06,-5.31902551302e-05,7.32461267035e-05,0.462819628403,-0.00190998467177,0.121924232701,0.0185431465934,0.94795172269,0.317830778825,0.0052229191325
0.24970343709,0.110693097115,-0.242591246963,-2.54181218147,-0.01209253259,2.67072319984,-0.627476394176,0.0602668970823,0.0003192598233,0.000381727848435,0.000467872683657,-0.000196972105186,2.75351158052e-05,4.89628700961e-06,0.000278086168692,0.462832424292,-0.00190347465944,0.121940511524,0.0185470663823,0.947949491202,0.317836840244,0.0052451054584
0.249705821276,0.110689759254,-0.242589354515,-2.54181170464,-0.0120925223455,2.67072868347,-0.627475380898,0.0602668970823,-0.00032247879426,0.000449624931207,0.000212506740354,0.000143470111652,-2.69807078439e-05,0.00266872881912,-0.000128481085994,0.462834548731,-0.00190121589567,0.12194239971,0.0185480450124,0.947948915364,0.317838425486,0.00524965334539
0.249704033136,0.110692165792,-0.242589578032,-2.54181528091,-0.0120917642489,2.67073774338,-0.627476036549,0.0602668970823,0.000291488686344,-7.8559765825e-05,-0.00231107859872,-0.000243281014264,9.31089089136e-05,-0.000311150826747,0.000277084560366,0.462834164539,-0.0019022668865,0.121941178197,0.018548530367,0.947949213026,0.31783748511,0.0052511229552
0.249699518085,0.110697187483,-0.242592230439,-2.54182171822,-0.0120915500447,2.67079234123,-0.627475202084,0.0602668970823,-0.00354673760012,-0.000333159172442,0.000116323208204,-0.00115990673658,9.34532290557e-05,0.0117629105225,8.75395417097e-05,0.462841662406,-0.00190559115858,0.121941783949,0.0185556342525,0.947950141433,0.317833963347,0.00527154868214
0.249708384275,0.110718905926,-0.242580458522,-2.54184603691,-0.0120916627347,2.67102837563,-0.627474188805,0.0573952943087,6.73296672176e-05,0.00101350154728,-0.00018320811796,-0.00042451362242,-2.89264207822e-05,-3.41926852343e-06,0.000271542463452,0.462875849777,-0.00189558319357,0.12194532351,0.0185857058006,0.947945407104,0.317844813526,0.00536198587852
0.249701842666,0.110726475716,-0.242582648993,-2.54185175896,-0.0120917838067,2.67103052139,-0.627473652363,0.0573952943087,-0.00035595567897,-5.65405280213e-05,-0.000207498087548,0.000555447244551,-3.79528828489e-05,-2.94769452012e-05,-0.000117771189252,0.462872227802,-0.00190026554808,0.121940441543,0.0185852119834,0.947946951231,0.317840323582,0.00535685924728
0.249699607491,0.110722720623,-0.242584347725,-2.54183745384,-0.012091724202,2.6710357666,-0.627475202084,0.0573952943087,7.6320466178e-05,-2.94209148706e-05,-0.000210040350794,0.00341458735056,1.64659777511e-05,7.98546352598e-06,-0.000525023962837,0.462881103671,-0.00190155327191,0.121947325354,0.0185882634556,0.947947128395,0.317839436518,0.00536754241172
0.249701783061,0.1107057482,-0.242582783103,-2.54183411598,-0.0120922680944,2.67104482651,-0.627474188805,0.0573952943087,0.000778149056714,-0.00224663410336,0.00027667125687,-0.000108879525214,0.000116845294542,0.00327055086382,-0.000236574254814,0.462888262117,-0.00189880694517,0.121956906953,0.0185907812159,0.947946522578,0.31784085294,0.00538192127583
0.249701574445,0.110697411001,-0.242583170533,-2.54183316231,-0.0120911877602,2.67105484009,-0.627471506596,0.0573952943087,-3.22074338328e-05,0.00054241711041,0.000651779177133,-0.000135137597681,-2.21274149226e-05,-7.70069236751e-05,-0.000174110944499,0.462892632762,-0.00189854854125,0.121961905029,0.018592513888,0.947947113104,0.317838829595,0.00539140756673
0.249708473682,0.110700160265,-0.242576912045,-2.5418343544,-0.0120924739167,2.67106103897,-0.627475082874,0.0573952943087,-0.000320150516927,0.000978025607765,-0.000579882937018,-0.000528630567715,2.32657275774e-05,5.29978751729e-05,-6.66722262395e-05,0.462892789298,-0.00189247631465,0.12196075441,0.0185930663614,0.947944242486,0.317847341132,0.00539244333334
0.249706238508,0.110701434314,-0.242575481534,-2.54183387756,-0.0120921079069,2.67106866837,-0.627472937107,0.0573952943087,-0.000106383457023,-0.000226115967962,0.001280944678,-0.00356695777737,-6.25161337666e-05,0.000124199810671,-0.00019385937776,0.462894420371,-0.00189281822014,0.12196103698,0.0185940722718,0.947944705975,0.31784584437,0.00539572007221
0.249705955386,0.110701501369,-0.242573857307,-2.54183411598,-0.0120927765965,2.67107367516,-0.627471506596,0.0573952943087,-0.00336369918659,0.000183957294212,0.000153077329742,7.01639073668e-05,-2.59994412772e-05,-0.000161602554726,4.28117300544e-06,0.462895356277,-0.00189208502938,0.121961443046,0.01859479056,0.94794455552,0.317846213342,0.00539794182989
0.249700561166,0.110703706741,-0.242576435208,-2.54183411598,-0.0120920250192,2.67108559608,-0.627470135689,0.0573952943087,-0.000412373774452,0.000334210984875,0.000512802624144,-0.000202566574444,-0.000221318608965,0.00254238955677,-0.000122981888126,0.462897498206,-0.00189590537856,0.12196151624,0.0185965290501,0.94794608797,0.317841463514,0.00540251506096
0.249702095985,0.110701940954,-0.242573827505,-2.54183411598,-0.0120915407315,2.67108774185,-0.627472698689,0.0573952943087,0.000725020479877,-0.000600779894739,-0.000168697384652,2.09987993003e-05,-6.23674204689e-05,-6.10579372733e-05,0.000347489811247,0.462898317453,-0.00189381875508,0.121962472395,0.0185966614614,0.947945080576,0.317844426832,0.00540448091806
0.249701708555,0.11070138216,-0.242573603988,-2.54183411598,-0.0120923537761,2.67109274864,-0.627472281456,0.0573952943087,-0.00116156518925,-0.000930866983254,-0.000657840049826,-0.000427255494287,-6.06240018897e-06,-0.000190143284271,5.73290853936e-05,0.46289951674,-0.00189384216146,0.121963184232,0.0185975959543,0.947945017562,0.317844515732,0.00540708906173
0.249703511596,0.110702425241,-0.242573618889,-2.54183769226,-0.0120925502852,2.67110395432,-0.62747079134,0.0570761524141,-0.00052598095499,0.000703684228938,-0.000106606828922,-0.000286226713797,-0.000144498117152,3.51446396962e-06,-1.78613281605e-05,0.462899891612,-0.00189304171675,0.12196251485,0.018598715629,0.947944880896,0.317844804372,0.00541022936781
0.249702364206,0.11070176214,-0.242572069168,-2.54183959961,-0.0120923174545,2.67110610008,-0.627470314503,0.0570761524141,-0.000307636481011,0.000728582381271,0.000138435789268,0.0005977571127,8.4744344349e-05,-1.12117604658e-05,0.000533903366886,0.462899499632,-0.00189279605457,0.121962329175,0.0185986273772,0.947944925932,0.317844667061,0.00541070884357
0.249704539776,0.110703341663,-0.24257119,-2.5418381691,-0.0120924580842,2.67110919952,-0.627470850945,0.0570761524141,-0.00045625428902,7.36443398637e-05,-4.2671643314e-05,4.8244669415e-07,-2.32463607972e-05,7.92585269664e-05,-2.36453633988e-05,0.462900588496,-0.00189140826159,0.121962393475,0.0185992297514,0.94794430372,0.317846463883,0.00541209608986
0.249700382352,0.110723204911,-0.242571383715,-2.5418484211,-0.0120913125575,2.67111372948,-0.627468943596,0.0570761524141,0.000509839388542,-0.000864394707605,-1.67745874933e-05,-0.000503974792082,-7.9251905845e-05,0.000181576251634,-0.000275884143775,0.462892208121,-0.00189454554726,0.1219503591,0.018597355696,0.947945505151,0.317843203855,0.0053995440572
0.249701961875,0.110725231469,-0.242569848895,-2.54185175896,-0.0120924357325,2.67111372948,-0.627469360828,0.0570761524141,-0.00160930748098,0.000336152006639,0.000408548250562,-0.00201012589969,-4.84897873321e-06,5.50003533135e-05,-0.000194718100829,0.462890067635,-0.0018932481803,0.121948274524,0.0185969182596,0.947944808374,0.317845352563,0.00539689268304
0.24970202148,0.110731750727,-0.242570385337,-2.54185724258,-0.0120917828754,2.67111563683,-0.62746912241,0.0570761524141,-0.000479111768072,0.000364374369383,-0.000832135614473,-0.000365510873962,-3.93787449866e-05,-9.34454292292e-05,-0.000321534986142,0.462886318629,-0.00189386699846,0.121943634871,0.0185960022348,0.947945040151,0.3178447981,0.00539199075903
0.249697938561,0.110746525228,-0.242571160197,-2.54185938835,-0.0120916515589,2.67111611366,-0.627470314503,0.0570761524141,-3.71567621187e-05,-0.000217837063246,-0.000490583071951,-8.02395661594e-05,7.9535839177e-06,-0.00012120174506,-0.000194859036128,0.462882287706,-0.00189692457365,0.121936324894,0.0185952271116,0.94794565572,0.317843146694,0.00538378299871
0.249693840742,0.110750235617,-0.242573723197,-2.54186224937,-0.0120917782187,2.67111515999,-0.627468466759,0.0570761524141,0.000486745935632,0.000378561904654,-0.0003446242481,-0.000317253026878,-8.29855416669e-05,-6.08596565144e-05,-0.000265334820142,0.462879846807,-0.00190030037576,0.121933614939,0.0185946867463,0.947947012359,0.317839195345,0.00538005350788
0.249697938561,0.110749714077,-0.242569953203,-2.54186415672,-0.0120912250131,2.67111802101,-0.627466499805,0.0573329105973,-0.000145973128383,0.000322720734403,0.00340935075656,0.000160666691954,-1.75453587872e-05,-1.1818549865e-05,-6.5155751372e-07,0.462879582266,-0.00189655078492,0.121933403365,0.0185944838368,0.947946153165,0.317841755056,0.00538092014756
0.249700039625,0.110752806067,-0.242567807436,-2.54186558723,-0.0120914280415,2.67111682892,-0.627467393875,0.0573329105973,-0.000274037913186,-9.38482044148e-05,-0.000506994198076,7.57996031098e-06,4.66551682621e-05,-5.55663536943e-05,0.000172821746673,0.462877948302,-0.00189473612873,0.121931384067,0.018593887303,0.947945331067,0.317844288619,0.00537815431492
0.249693721533,0.110759317875,-0.242573291063,-2.54186606407,-0.0120913079008,2.6711165905,-0.627465486526,0.0573329105973,-0.000555212551262,0.000409541506087,0.00239699170925,-0.000299256353173,1.22674928207e-05,-9.4857532531e-05,0.000630151072983,0.462876327756,-0.00190065262988,0.121928349352,0.0185938401808,0.947947522937,0.317837816671,0.00537446259975
0.24969753623,0.110764846206,-0.242570832372,-2.54186892509,-0.0120911579579,2.67111754417,-0.627467393875,0.0573329105973,0.000283750763629,2.11660972127e-05,0.000672046444379,-0.000480364804389,2.43912063524e-06,-8.81655141711e-05,0.000416368071456,0.462873924268,-0.00189801760898,0.121924936878,0.0185931563906,0.94794626346,0.317841673864,0.00537086313946
0.249701783061,0.110766135156,-0.242568597198,-2.54187130928,-0.0120919337496,2.6711165905,-0.627467095852,0.0573329105973,0.00023625769245,8.64207249833e-05,-0.000929603585973,-0.000168666345417,1.16717937999e-05,-0.0003012814268,-7.72865896579e-05,0.46287222227,-0.00189509578128,0.121923416073,0.018592625528,0.94794519721,0.317844922406,0.00536864518182
0.249696314335,0.110767580569,-0.242571249604,-2.5418741703,-0.0120913404971,2.67111635208,-0.62746411562,0.0573329105973,-0.000850830867421,-0.000284044945147,-0.000244220980676,0.000515440071467,2.75858365058e-05,-0.000129170017317,-2.97556052828e-05,0.462870397215,-0.0018990110096,0.121921787931,0.0185921241032,0.947947063448,0.317839423075,0.00536643744157
0.249688401818,0.110771894455,-0.242576435208,-2.5418753624,-0.0120917363092,2.67111682892,-0.627464532852,0.0573329105973,0.000102105594124,0.000585045199841,-0.000382396887289,-0.000298879836919,0.000112965004519,1.20242330013e-05,0.000544366543181,0.46286900797,-0.00190542234629,0.121919552782,0.0185922604279,0.947949016741,0.31783363441,0.00536377090375
0.249698400497,0.110779233277,-0.242568448186,-2.54188156128,-0.0120908217505,2.67111682892,-0.627462387085,0.0573329105973,0.000346888322383,-0.000156002730364,0.000405779166613,-0.000181943134521,0.000132364802994,0.000112032037578,-0.000416193972342,0.462864293587,-0.00189738765104,0.121914011889,0.0185903367229,0.947946692293,0.317840786127,0.00535745409426
0.24969728291,0.11077850312,-0.242569997907,-2.54188251495,-0.0120911682025,2.67111682892,-0.627463519573,0.0573329105973,-0.000217083812458,-0.000479774083942,8.40062712086e-05,3.86947976949e-05,0.00010132168245,-2.11362589653e-06,-5.3622705309e-05,0.462863954499,-0.00189863502511,0.121914028475,0.0185903873831,0.947946889314,0.317840198207,0.00535729682233
0.249694317579,0.110778577626,-0.242571175098,-2.54188036919,-0.0120913041756,2.67111611366,-0.627462983131,0.0583146251738,-0.000698527845088,0.000497228291351,0.00186638149898,-0.000359094410669,2.69172269327e-05,8.63489185576e-05,-0.000357710145181,0.4628648911,-0.00190055832369,0.121914688141,0.0185907138898,0.947947601706,0.317838044419,0.00535788999482
0.249693155289,0.110784173012,-0.24257171154,-2.54188942909,-0.0120908664539,2.67111706734,-0.627463102341,0.0583146251738,6.17458645138e-05,0.000170125815202,-0.000166040088516,-0.000833302328829,9.52507252805e-05,0.000165891469806,0.000125187259982,0.462859274796,-0.00190175460237,0.121909134508,0.0185891871464,0.947947970965,0.317837144056,0.00535126256527
0.249691739678,0.110784240067,-0.242572546005,-2.54188036919,-0.0120916264132,2.67111635208,-0.627463638783,0.0583146251738,-0.000225419091294,0.000593058939558,-0.000254619459156,-3.27620946337e-05,-2.34749659285e-05,-0.000100851655588,-0.000223520692089,0.462863785174,-0.00190271355683,0.12191219105,0.0185906991115,0.947948075605,0.31783667877,0.00535510790135
0.249690592289,0.110783718526,-0.242575749755,-2.54188728333,-0.0120915463194,2.67111706734,-0.62746155262,0.0583146251738,-0.000629770685919,-0.000116113355034,0.000193943444174,-0.000613779295236,-3.32100826199e-05,0.000423930119723,0.00012207958207,0.462860486855,-0.00190485111122,0.121910134535,0.0185899205813,0.947949145144,0.317833580097,0.00535239430672
0.249690532684,0.110783867538,-0.242574587464,-2.54188895226,-0.0120913330466,2.67111444473,-0.627462506294,0.0583146251738,0.000183693889994,-0.000817092310172,-0.000303165143123,0.000699401600286,9.9189215689e-05,0.000170964747667,0.000308323738864,0.462859020817,-0.00190436258023,0.121909231113,0.0185891533844,0.947948882925,0.317834442342,0.00535029794789
0.249697566032,0.110773891211,-0.24256914854,-2.54188299179,-0.0120920110494,2.67110610008,-0.627463519573,0.0583146251738,-0.000323291693348,-0.000115724091302,-0.0039146556519,-0.00029573510983,-0.000120216383948,0.0002976024698,-0.000355533295078,0.462862321292,-0.00189795435263,0.121914925516,0.0185890128371,0.947946673088,0.317840975641,0.00535420160753
0.249693900347,0.110615625978,-0.242573484778,-2.54190540314,-0.0120918946341,2.67103052139,-0.627463042736,0.058969322592,-0.00411258637905,-0.0110336393118,9.83101563179e-05,0.000288331502816,6.40190992272e-05,-0.00849836226553,0.000410468579503,0.462866727315,-0.00189433348719,0.121971118889,0.0185803053436,0.947948709586,0.317834868264,0.00538632087973
0.249689683318,0.110284879804,-0.242579132318,-2.54191803932,-0.01209086366,2.67071008682,-0.627463400364,0.058969322592,0.000312763004331,-0.0247166641057,-0.000697840296198,-0.00198362558149,-0.00027464289451,-0.0282704960555,0.000106289058749,0.462858306381,-0.00188420929068,0.122085317308,0.0185427109127,0.947952783723,0.317824810626,0.00539232258502
0.249687001109,0.109726794064,-0.242587268353,-2.54193258286,-0.0120911384001,2.66980695724,-0.627461433411,0.058969322592,-0.000290853990009,-0.0443410426378,-0.000318040285492,-0.000293794117169,-0.000112415167678,-0.0679618194699,0.000496286374982,0.462768872072,-0.00186694619393,0.122246787275,0.0184264247836,0.947961538321,0.317808129281,0.00523272254631
0.249691233039,0.108816348016,-0.242591679096,-2.54195094109,-0.0120917186141,2.66835379601,-0.627461969852,0.058969322592,8.25965107651e-05,-0.0650169029832,0.00049560260959,-0.00283586746082,-0.000197106215637,-0.0939320772886,-0.000110069653601,0.46262985101,-0.00183032196305,0.122513875874,0.0182400524839,0.947972144963,0.31779122931,0.00498468876398
0.249685376883,0.103197716177,-0.242597579956,-2.54177522659,-0.0120944911614,2.65934324265,-0.62746155262,0.058969322592,-0.00153391354252,-0.172772109509,-3.4795171814e-05,0.019772881642,-0.000316927384119,-0.329412937164,-0.00026107832673,0.461878084824,-0.00159934775985,0.124314510391,0.0170864421871,0.948037879115,0.317678949565,0.00350969347872
0.249683797359,0.0992683693767,-0.242610275745,-2.54128313065,-0.0120939807966,2.65183162689,-0.627460479736,0.058969322592,0.000472440558951,-0.24296541512,0.000373079936253,0.0353492386639,1.61547222888e-06,-0.45845708251,-5.62189816264e-05,0.461316112876,-0.00145573462545,0.125501588358,0.016222852721,0.948083652548,0.317599510034,0.00218122329139
0.249688461423,0.0948618873954,-0.242608934641,-2.54062533379,-0.0120969619602,2.64353013039,-0.627461433411,0.058969322592,0.00142625940498,-0.303893297911,0.00373506569304,0.0505937188864,1.48531071318e-05,-0.579755842686,0.000189114784007,0.460728614557,-0.00127562744183,0.12694582081,0.015243743783,0.94812794602,0.317522426524,0.000731160038356
0.249675288796,0.0876283273101,-0.242616921663,-2.5392100811,-0.0121001126245,2.62987422943,-0.62745988369,0.058969322592,-0.000549625314306,-0.381179720163,-0.00402206135914,0.0843655019999,0.00045509255142,-0.728988468647,-0.000185996090295,0.459909277599,-0.000992332902716,0.129440903733,0.0136830591899,0.948196655409,0.317385596146,-0.00150320034616
0.249660596251,0.0747313499451,-0.242639899254,-2.53573226929,-0.0121018737555,2.60538721085,-0.627458095551,0.0590330213308,6.63366226945e-05,-0.512204170227,0.000474729487905,0.14687037468,-1.37506494866e-05,-0.96883302927,-0.000196976965526,0.458798529969,-0.000463686176926,0.134439918886,0.0109199756286,0.948297203613,0.317152608398,-0.00523358645345
0.249655738473,0.0648212879896,-0.242644503713,-2.53277754784,-0.0121037429199,2.58720827103,-0.627458512783,0.0590330213308,-0.000887072877958,-0.590476870537,-0.000559719803277,0.189666599035,3.10512477881e-05,-1.0631467104,9.5409941423e-06,0.458234742499,-8.603806681e-05,0.138119465628,0.00911594235865,0.948346935486,0.317017178297,-0.00742279610556
0.249639540911,0.055417213589,-0.24265947938,-2.52955555916,-0.0121065098792,2.57020807266,-0.627457499504,0.0590330213308,-0.00042104604654,-0.638421475887,-0.00141157256439,0.23179101944,0.000696935632732,-1.17233300209,0.000528504140675,0.457877380071,0.000279835210661,0.14199019957,0.00740703662105,0.948389229579,0.316885361781,-0.00930979081495
0.249612107873,0.0412144288421,-0.242698937654,-2.52422761917,-0.0121075194329,2.54461669922,-0.627456188202,0.0590330213308,0.001097730943,-0.730934381485,-0.00423896033317,0.28098076582,0.000460433599073,-1.29061806202,0.00031331111677,0.457510462543,0.000757900591443,0.147421916213,0.00515051579229,0.948434395675,0.316716703332,-0.0116704244767
0.249491333961,0.00294283614494,-0.242820039392,-2.50657582283,-0.0121129089966,2.47940587997,-0.627454578876,0.0590330213308,-0.00331883109175,-0.89243888855,-0.00183469243348,0.451744765043,-0.0012615598971,-1.45948374271,-0.000181262235856,0.458246051385,0.00214920221029,0.166178500467,-0.000771809134901,0.948524498729,0.316322318356,-0.0155199942303
0.249379619956,-0.01631757617,-0.242863938212,-2.4964492321,-0.0121101196855,2.4476749897,-0.627453863621,0.0590330213308,-0.00591803202406,-0.944615423679,-0.0012901914306,0.517357826233,-0.000990604516119,-1.54152739048,0.000480924354633,0.459080943481,0.00274464350618,0.176009518206,-0.00328157406721,0.948553019005,0.316185011898,-0.0162308147616
0.249297067523,-0.0299430303276,-0.242892712355,-2.48861980438,-0.0121153993532,2.42598295212,-0.627451777458,0.0590369589627,-0.00665421644226,-0.973301768303,-0.00138691882603,0.583334684372,0.000554042693693,-1.55692875385,0.00199588877149,0.459983542005,0.00313557469607,0.183345013289,-0.00483978824199,0.948572428564,0.316115620742,-0.0160573418963
0.249126985669,-0.0497633703053,-0.242942154408,-2.47630095482,-0.0121219279245,2.39446783066,-0.627450942993,0.0590369589627,-0.00870999600738,-1.00761759281,-0.00553354946896,0.642024457455,0.000774511310738,-1.58853805065,2.7831780244e-05,0.461466359726,0.00362378506666,0.194481771406,-0.00695934295466,0.948603094433,0.316019488102,-0.015343389682
0.24877807498,-0.0807759016752,-0.242975115776,-2.45542788506,-0.0121180890128,2.34733366966,-0.627448916435,0.0590369589627,-0.0102929547429,-1.05675768852,0.000200475027668,0.751318693161,-0.000683845311869,-1.54204833508,2.35363768297e-05,0.46429800852,0.00423261534662,0.212967667344,-0.00970703760052,0.948656855044,0.315913820414,-0.0124258826471
0.248578697443,-0.0975839495659,-0.242983266711,-2.4435236454,-0.0121143134311,2.32269740105,-0.627447903156,0.0590369589627,-0.0150154102594,-1.06136620045,-0.00124091631733,0.752853691578,-0.000314710225211,-1.51964092255,8.99321021279e-05,0.465915926454,0.00448417015571,0.223428694854,-0.0109684887388,0.948680444482,0.315883691852,-0.0101291373125
0.248273894191,-0.114646077156,-0.242988601327,-2.43079996109,-0.0121184969321,2.29887866974,-0.627446532249,0.0590369589627,-0.0238107983023,-1.05683076382,0.00134407111909,0.810945689678,0.00118042598478,-1.46155560017,0.000651339127216,0.467806528209,0.00463023045435,0.234503360453,-0.0119682283204,0.94871819963,0.315820465078,-0.00692623476827
0.246734976768,-0.166553467512,-0.242983490229,-2.39096355438,-0.0121647305787,2.23106527328,-0.627446055412,0.0590369589627,-0.042151261121,-1.05766749382,0.0033247130923,0.793844640255,-0.000292871176498,-1.27132213116,-0.000191701576114,0.473132386681,0.00438657554231,0.269620977944,-0.0141133559097,0.948835370188,0.315406395937,0.00557302039879
0.245679661632,-0.187546670437,-0.243024483323,-2.37461447716,-0.0121834687889,2.20663189888,-0.627447426319,0.0590369589627,-0.0598293617368,-1.03054463863,-0.00176489597652,0.772664785385,-0.00139969040174,-1.15614199638,0.000452876847703,0.475181687118,0.00388092240168,0.284404361568,-0.0144875291956,0.94890033566,0.31500809998,0.0121721451359
0.243127316236,-0.220889940858,-0.243103027344,-2.34973812103,-0.012708962895,2.17103052139,-0.627446651459,0.0590415559709,-0.0862857401371,-0.985879659653,-0.00550928385928,0.711231589317,-0.0320430286229,-0.987974047661,-0.00169583735988,0.477698280717,0.00238577246651,0.30789449055,-0.0145446108293,0.948996417306,0.31406506711,0.0236090564255
0.241067454219,-0.24027954042,-0.243334397674,-2.33640313148,-0.0136763770133,2.15245509148,-0.627446889877,0.0590415559709,-0.108074046671,-0.960254132748,-0.0202203262597,0.646730065346,-0.057738982141,-0.849177598953,0.000330458715325,0.478654205396,0.00096244250478,0.321317197456,-0.0141533837104,0.949052120398,0.313304617508,0.0306589437854
0.237273484468,-0.268025606871,-0.244252428412,-2.31901216507,-0.0171368923038,2.12962031364,-0.627449512482,0.0590415559709,-0.136332884431,-0.915679395199,-0.040672916919,0.542091846466,-0.150576278567,-0.710341989994,-0.000288608920528,0.47956522411,-0.00216653757293,0.340145171905,-0.0124324137143,0.949103661787,0.311973844668,0.0414728128368
0.23451012373,-0.283537298441,-0.245220541954,-2.31069111824,-0.0215037763119,2.11827135086,-0.62744820118,0.0590415559709,-0.166757151484,-0.863312542439,-0.066177174449,0.43591311574,-0.273416370153,-0.58409100771,-9.77960298769e-05,0.479589079226,-0.00482555387911,0.350134838972,-0.0104588596877,0.949099408991,0.31124156506,0.0472187671837
0.231391072273,-0.297253698111,-0.24652133882,-2.30372238159,-0.0273048356175,2.10925602913,-0.6274523139,0.0590415559709,-0.193386048079,-0.782270252705,-0.089371599257,0.368827342987,-0.401818871498,-0.501906454563,6.18129852228e-05,0.479508798797,-0.00802983185445,0.358861288555,-0.00780281329426,0.949116191872,0.310447106924,0.0523465750762
0.227785348892,-0.309786736965,-0.248338595033,-2.29803228378,-0.0353137627244,2.10136461258,-0.627451241016,0.0590415559709,-0.224555835128,-0.711121022701,-0.120610564947,0.315617710352,-0.548360586166,-0.427463412285,0.000306240457576,0.479137646212,-0.0120272003255,0.366497344313,-0.00430199400288,0.949169735766,0.309619639142,0.0565153457137
0.213842242956,-0.337115108967,-0.257223784924,-2.28650283813,-0.0729577615857,2.08455991745,-0.62750685215,0.0590481236577,-0.361418575048,-0.430970162153,-0.241067618132,0.192001074553,-1.02836346626,-0.273292958736,-0.0054862415418,0.477386918464,-0.0290492578838,0.382441655458,0.0115958673919,0.949698686771,0.306631591536,0.0625700165135
0.207255333662,-0.343464612961,-0.261658787727,-2.28337597847,-0.0920216739178,2.08031249046,-0.627617061138,0.0590481236577,-0.417393624783,-0.317942887545,-0.285596042871,0.17307844758,-1.24976658821,-0.226757034659,-0.0152044780552,0.476690740753,-0.0373032970825,0.386212629593,0.0195737259874,0.950008351529,0.305276570027,0.0625077335915
0.199183389544,-0.348078489304,-0.267373949289,-2.28035759926,-0.115534126759,2.0767056942,-0.628053605556,0.0590481236577,-0.47469624877,-0.191058591008,-0.351416230202,0.164345338941,-1.37955319881,-0.174591571093,-0.0357353538275,0.475930622151,-0.0475268402301,0.389181362297,0.0293473900502,0.950387928454,0.303596309583,0.061080247565
0.188472211361,-0.350438266993,-0.275794506073,-2.27688503265,-0.146281734109,2.07375764847,-0.629008948803,0.0590481236577,-0.535049915314,-0.0302260667086,-0.442325502634,0.173764839768,-1.53820133209,-0.10367436707,-0.050771959126,0.475055665455,-0.0613744946189,0.391379543273,0.0419889420482,0.950944087235,0.30100568362,0.0577741275624
0.160925373435,-0.34480831027,-0.300794661045,-2.26739764214,-0.223668456078,2.07213902473,-0.634750425816,0.0590481236577,-0.666309654713,0.305457890034,-0.662089109421,0.265620619059,-1.80329954624,0.00680943671614,-0.224916413426,0.473148794856,-0.0982709869871,0.392918778864,0.07345120886,0.951923287291,0.293908112465,0.0454422286734
0.147692248225,-0.337652474642,-0.31469219923,-2.26197552681,-0.258295357227,2.07243180275,-0.639777302742,0.0590481236577,-0.719416379929,0.440774798393,-0.795728564262,0.317826718092,-1.83999300003,0.0336662009358,-0.297197461128,0.471957789308,-0.116529149851,0.392265499462,0.08709638305,0.952230098303,0.29024228397,0.0378348547182
0.134348660707,-0.328584462404,-0.329763650894,-2.25544762611,-0.290821880102,2.07370662689,-0.645577192307,0.0590481236577,-0.752864778042,0.556994438171,-0.875758767128,0.399093896151,-1.77056062222,0.114622719586,-0.346239119768,0.470640883025,-0.13515590988,0.391420902114,0.0998068159687,0.952555174332,0.285959983132,0.0300687059324
0.0982186570764,-0.296152293682,-0.376101672649,-2.23443055153,-0.362252742052,2.08230614662,-0.6636480093,0.0590520650148,-0.788858056068,0.822335362434,-1.12679755688,0.525912463665,-1.25941765308,0.299649596214,-0.419617503881,0.465600849473,-0.185992624418,0.38748327996,0.126968472168,0.954350736488,0.270190826211,0.00951819105936
0.0837736576796,-0.280770272017,-0.397136747837,-2.22472572327,-0.38341408968,2.08827853203,-0.671264231205,0.0590520650148,-0.801879048347,0.865267813206,-1.20899343491,0.546763181686,-1.05768239498,0.36619412899,-0.41855597496,0.462660152191,-0.207685795855,0.385359644107,0.135308728486,0.955752872223,0.261197702615,0.00193780087592
0.0682058781385,-0.262504309416,-0.421912461519,-2.21366477013,-0.401982605457,2.09642958641,-0.679758489132,0.0590520650148,-0.780098438263,0.954295814037,-1.28596460819,0.547528862953,-0.816248416901,0.452381193638,-0.429472416639,0.459111596027,-0.22913888846,0.382821555696,0.141889503894,0.957492756175,0.251098319595,-0.0049622721694
0.0330172106624,-0.218177512288,-0.483764916658,-2.1885330677,-0.427881002426,2.1177918911,-0.699312627316,0.0590520650148,-0.703574776649,0.89947873354,-1.31511414051,0.470169901848,-0.299908280373,0.429034590721,-0.412638962269,0.446459137558,-0.280561777012,0.375131801902,0.151582441327,0.963024541259,0.221828449341,-0.0199658500698
0.0200417861342,-0.201671913266,-0.508002281189,-2.18025708199,-0.43177562952,2.1254632473,-0.70685505867,0.0590520650148,-0.67603546381,0.821013271809,-1.27012574673,0.423267781734,-0.143704980612,0.383066475391,-0.393841058016,0.439848106941,-0.299112026072,0.371533621091,0.152804199981,0.96547461694,0.20944903157,-0.025312909344
0.00919832382351,-0.188837707043,-0.52812308073,-2.17402672768,-0.432694613934,2.13123416901,-0.713118553162,0.0590665116906,-0.668709874153,0.781459212303,-1.24341416359,0.35579547286,0.00768940383568,0.320506632328,-0.395543277264,0.433522823154,-0.314014383976,0.3685237352,0.152864856481,0.9676440303,0.198575699136,-0.0294118629683
-0.00176013179589,-0.176646739244,-0.548352479935,-2.16894865036,-0.432534039021,2.13632202148,-0.719943881035,0.0590665116906,-0.636063337326,0.666833341122,-1.14783406258,0.262548208237,0.00362567976117,0.270242661238,-0.40398901701,0.426223034194,-0.328514215029,0.365170520588,0.152170243299,0.969791869919,0.187633083619,-0.0337901127328
-0.031608518213,-0.151503801346,-0.599571704865,-2.16204380989,-0.429612636566,2.14459705353,-0.740948140621,0.0590665116906,-0.552726984024,0.341346293688,-0.888640284538,0.0212405323982,0.132424280047,0.0736445859075,-0.429340898991,0.402449075885,-0.363512263003,0.355931239819,0.147179154524,0.975009578014,0.159897907203,-0.0461224264397
-0.0390842780471,-0.147419691086,-0.611513018608,-2.16212463379,-0.42746374011,2.14545369148,-0.747083067894,0.0590665116906,-0.507588863373,0.240285754204,-0.807575523853,-0.0289516411722,0.171953216195,0.034302290529,-0.446119219065,0.394795819006,-0.372022656123,0.353271573439,0.144454215071,0.976447826308,0.152507279731,-0.0492356737683
-0.0489955469966,-0.143723160028,-0.626475214958,-2.16300845146,-0.423494815826,2.14567947388,-0.756069421768,0.0590665116906,-0.469186395407,0.125684916973,-0.690722107887,-0.0662884414196,0.205790936947,9.33998890105e-05,-0.452131956816,0.386604389578,-0.38010675749,0.350731294341,0.141001161659,0.977926242185,0.145173598193,-0.0519958011854
-0.0594249740243,-0.142553016543,-0.641035377979,-2.16517782211,-0.41789662838,2.14553141594,-0.767004668713,0.0590665116906,-0.398008435965,-0.00227595563047,-0.536871910095,-0.11503816396,0.25189319253,-0.00734767923132,-0.462579756975,0.376934762126,-0.388485936413,0.348209378233,0.136295634677,0.979606817448,0.137375390512,-0.054055387848
-0.065798997879,-0.14305870235,-0.649326860905,-2.16703414917,-0.413398325443,2.14533209801,-0.77481585741,0.0590665116906,-0.356469035149,-0.0514412559569,-0.438947349787,-0.105075240135,0.285529971123,-0.0172906499356,-0.462917268276,0.3710943359,-0.393002659059,0.346877631699,0.132990601979,0.980613581679,0.13314725469,-0.05461054363
-0.0815720111132,-0.155821621418,-0.666701555252,-2.17299127579,-0.392595946789,2.14274692535,-0.804704546928,0.0590829253197,-0.090986430645,-0.27188873291,-0.0680151358247,-0.0446360707283,0.305199325085,-0.047839820385,-0.374333411455,0.357542638759,-0.401058213439,0.347012560031,0.121848791955,0.983259885584,0.126281229872,-0.0490501781663
-0.0772668719292,-0.178186148405,-0.66083329916,-2.17409038544,-0.369672060013,2.14033055305,-0.829974770546,0.0590829253197,0.172813743353,-0.281998157501,0.215870633721,0.00169308658224,0.263440519571,-0.0105702765286,-0.278155982494,0.362114228306,-0.394316449957,0.354573052985,0.116018952706,0.983211267436,0.136746874628,-0.0336971538365
-0.0738020688295,-0.183253586292,-0.656365633011,-2.17406964302,-0.364944756031,2.14022159576,-0.834968864918,0.0590829253197,0.205507829785,-0.289119780064,0.274994939566,-0.000640778453089,0.249980658293,-0.00795338395983,-0.270331084728,0.365407119962,-0.39089073753,0.356711531985,0.11548518294,0.982709809514,0.141623948723,-0.029786904028
-0.0696941688657,-0.188332155347,-0.651031851768,-2.17407250404,-0.360795944929,2.13997912407,-0.839480161667,0.0590829253197,0.26485773921,-0.276968240738,0.338870674372,0.000829226977658,0.238224878907,-0.0163806024939,-0.237373769283,0.369166597482,-0.38692894504,0.358921867306,0.115191598734,0.982041937809,0.147132569989,-0.026010277027
-0.0539827495813,-0.200125485659,-0.632054746151,-2.17405581474,-0.349230498075,2.13891005516,-0.850999832153,0.0590927749872,0.363815128803,-0.201931118965,0.429266750813,0.00461913598701,0.218585118651,-0.0252151098102,-0.221597656608,0.38247169491,-0.372477734915,0.364494576035,0.11448091637,0.979295648987,0.166151861447,-0.0163618549097
-0.0479702949524,-0.203000277281,-0.625024795532,-2.1739897728,-0.345699459314,2.138422966,-0.854487717152,0.0590927749872,0.394713938236,-0.160547852516,0.459359556437,0.00230069737881,0.216818839312,-0.0247263386846,-0.216679632664,0.387619751996,-0.366669487916,0.366118728448,0.114274810038,0.978068172988,0.173609233435,-0.0135554616651
-0.0407626330853,-0.205661803484,-0.616637289524,-2.1740322113,-0.341923385859,2.1380045414,-0.858096897602,0.0590927749872,0.422991365194,-0.144825682044,0.493047297001,-0.00728915212676,0.224045470357,-0.0284031443298,-0.195361569524,0.392990395966,-0.360458571809,0.367530929301,0.114110809667,0.976701374226,0.181416699996,-0.0110058784327
-0.031995061785,-0.208210870624,-0.606467366219,-2.17413163185,-0.337336182594,2.13734030724,-0.861655831337,0.0590927749872,0.446377426386,-0.112165629864,0.500378668308,-0.00818606093526,0.219151839614,-0.0425731651485,-0.160377159715,0.399723134261,-0.352342579425,0.369043682932,0.113742853892,0.974929927538,0.191072442648,-0.00809450021709
-0.0182098522782,-0.210596740246,-0.590834498405,-2.17468762398,-0.330219447613,2.13671278954,-0.866224169731,0.0590927749872,0.477228701115,-0.050994951278,0.542381048203,-0.0341533720493,0.234971836209,-0.00785198062658,-0.135428637266,0.409904910933,-0.339428590425,0.370589938739,0.112926632001,0.972061756132,0.205730674767,-0.0042903618695
-0.0100542437285,-0.21127833426,-0.581515312195,-2.17546367645,-0.325966745615,2.13669371605,-0.868470072746,0.0590927749872,0.485445380211,-0.0311354100704,0.546689808369,-0.0592071264982,0.253931730986,0.000815555278677,-0.127680525184,0.415765390194,-0.331546906278,0.371020730163,0.11228010939,0.970292542044,0.214289196468,-0.00238743789053
-0.00220000022091,-0.21163444221,-0.572906672955,-2.17655873299,-0.321691960096,2.13670182228,-0.870511591434,0.0590927749872,0.502465903759,-0.0110500659794,0.540862739086,-0.0799425020814,0.281645476818,-0.000160034687724,-0.131142243743,0.421107099269,-0.323925092678,0.371105159964,0.111395109739,0.968593649234,0.222299040542,-0.00078003637111
0.00740459142253,-0.211621999741,-0.562476754189,-2.17831516266,-0.315913975239,2.13670396805,-0.872489631176,0.0590980313718,0.503981471062,0.00604159152135,0.554029524326,-0.107416041195,0.325271308422,-7.12059700163e-05,-0.0789152756333,0.427379739867,-0.314380365952,0.370782240975,0.109898183561,0.966553775775,0.231722333308,0.00097351140593
0.0320210121572,-0.210913568735,-0.536026477814,-2.18614792824,-0.298425942659,2.13674712181,-0.874570131302,0.0590980313718,0.510184586048,0.0189770888537,0.543223500252,-0.205498307943,0.397617310286,-0.00552982697263,-0.00817382801324,0.44153940042,-0.289116832443,0.367967891581,0.103962629754,0.961714538941,0.25352645576,0.00461011136355
0.0403242409229,-0.210605919361,-0.527192652225,-2.18977999687,-0.291941702366,2.13675236702,-0.874651312828,0.0590980313718,0.525147736073,0.0212032217532,0.546736896038,-0.245132997632,0.413642466068,-9.92040804704e-05,-0.00282331486233,0.446115625709,-0.279495915256,0.366348953267,0.10116833827,0.959989876017,0.261060669339,0.00563310672047
0.0655553638935,-0.208810284734,-0.501431584358,-2.20379900932,-0.270656347275,2.13672637939,-0.874645233154,0.0590980313718,0.508623957634,0.0394661985338,0.521603941917,-0.321384131908,0.469431370497,-0.00648128986359,-0.000429629319115,0.457120599979,-0.251381507786,0.359711379549,0.0913574405572,0.955088126636,0.281798867683,0.00706302183964
0.070983864367,-0.208300054073,-0.495910733938,-2.20735907555,-0.265504390001,2.13671445847,-0.874632716179,0.0590980313718,0.493544369936,0.0561497956514,0.490891188383,-0.326769292355,0.490516752005,0.00286253960803,-0.000778515532147,0.460382213583,-0.241037208351,0.356720186084,0.0871321980784,0.953355410107,0.288910804956,0.0072103084678
0.0828576385975,-0.206916496158,-0.484142303467,-2.21537423134,-0.253564238548,2.13669109344,-0.874600708485,0.0591039396822,0.483314424753,0.060291826725,0.479094594717,-0.338493257761,0.501978397369,-0.00394732318819,0.000105798259028,0.462993859741,-0.231986700834,0.354004790208,0.0832468429774,0.951855771876,0.294937151342,0.00725459357104
0.104367770255,-0.203998282552,-0.463029921055,-2.23246121407,-0.2299361974,2.13660001755,-0.874125242233,0.0591039396822,0.454807937145,0.0715804696083,0.439422100782,-0.389792770147,0.539442658424,-0.00281052337959,0.0203230138868,0.468634034505,-0.205948405899,0.344912967634,0.0708341120149,0.947687883717,0.311176953836,0.00625353662489
0.112863332033,-0.202703684568,-0.454952418804,-2.23974823952,-0.219445675611,2.13658595085,-0.873778045177,0.0591039396822,0.439069837332,0.0601543001831,0.407981157303,-0.37909963727,0.548021674156,-0.00143887521699,0.0202262420207,0.470234114851,-0.195769179214,0.341059300815,0.0654374105808,0.946167210304,0.316943351548,0.00569798563329
0.12106923759,-0.201319903135,-0.447265774012,-2.24713158607,-0.208804383874,2.13652062416,-0.873423278332,0.0591039396822,0.424811244011,0.0850341469049,0.397126853466,-0.39497500658,0.560237109661,-0.00643696030602,0.0176892261952,0.471438945226,-0.185880424421,0.337110010791,0.0599154600308,0.944724081216,0.32230730001,0.00495500436649
0.128995895386,-0.199773907661,-0.440036505461,-2.25469350815,-0.198456227779,2.13642048836,-0.873019099236,0.0591039396822,0.414039492607,0.0728087574244,0.380422919989,-0.403725147247,0.541675388813,-0.00284238741733,0.0217387061566,0.472222432629,-0.176365132938,0.333000975868,0.0543984976913,0.943333828094,0.327333406029,0.00386435080853
0.141035616398,-0.197447299957,-0.42942482233,-2.266518116,-0.181945055723,2.13625001907,-0.87213075161,0.0591039396822,0.383047997952,0.0803988799453,0.350803405046,-0.383901298046,0.55560785532,-0.00448351865634,0.0366188287735,0.472861446507,-0.161978046276,0.326623599672,0.0456408665607,0.941325836859,0.334392455875,0.00206526070452
0.147486671805,-0.195987656713,-0.42349332571,-2.27319931984,-0.172439604998,2.1361079216,-0.871457397938,0.0591039396822,0.37495842576,0.0848080739379,0.332417368889,-0.404926329851,0.550012528896,-0.00524940621108,0.0404470637441,0.472937321889,-0.154051399614,0.322972536049,0.0406249275187,0.940266645683,0.338005125027,0.000886240665116
0.153307944536,-0.194774851203,-0.418398052454,-2.27947568893,-0.163703009486,2.13594937325,-0.8708537817,0.0591039396822,0.360266298056,0.0735203847289,0.310225397348,-0.386683672667,0.544732570648,-0.0100967576727,0.0423781909049,0.472761393231,-0.146986971148,0.319610380685,0.035967377475,0.939344682173,0.341083335687,-0.000271355707525
0.160425573587,-0.193188503385,-0.412329345942,-2.2872133255,-0.152687415481,2.13572502136,-0.870137810707,0.0591078810394,0.351030826569,0.0816539004445,0.29488119483,-0.374788045883,0.556290447712,-0.00927951093763,0.0335584282875,0.472341642378,-0.138403875094,0.315437115902,0.0301273894047,0.938243805641,0.344655910166,-0.00179021183396
0.170058950782,-0.19101908803,-0.404107689857,-2.29741597176,-0.136722743511,2.13555955887,-0.868644714355,0.0591078810394,0.327211022377,0.0738039463758,0.287990540266,-0.364684432745,0.55875903368,-0.0140850031748,0.0822849944234,0.471635577917,-0.12673953719,0.309957550568,0.0219951136961,0.936899835277,0.348886668427,-0.00360637085014
