imanlab/tactile_prediction_flat_dataset/train/data_sample_2021-11-24-15-40-25/robot_state.csv
position_panda_joint1,position_panda_joint2,position_panda_joint3,position_panda_joint4,position_panda_joint5,position_panda_joint6,position_panda_joint7,position_panda_finger,velocity_panda_joint1,velocity_panda_joint2,velocity_panda_joint3,velocity_panda_joint4,velocity_panda_joint5,velocity_panda_joint6,velocity_panda_joint7,ee_state_position_x,ee_state_position_y,ee_state_position_z,ee_state_orientation_x,ee_state_orientation_y,ee_state_orientation_z,ee_state_orientation_w
0.0254750493914,-0.0402454547584,-0.0223937369883,-2.40276193619,-0.0208943076432,2.35047507286,-0.727537989616,0.0715937390924,1.77642941708e-05,0.00128266494721,-0.000370711757569,-0.000320079736412,-2.96531670756e-05,-0.00012842931028,-4.34717694588e-05,0.483603213126,-0.000357801987445,0.216753262594,0.00435038260702,0.931304261206,0.364126370779,-0.00808906791398
0.0254745166749,-0.0402428843081,-0.0223936960101,-2.4027633667,-0.0208940189332,2.35047507286,-0.727540969849,0.0715937390924,-6.9564099249e-05,0.00117347354535,-0.00171850994229,9.16988356039e-05,3.86561441701e-05,-0.00014095325605,0.000117220770335,0.48360252648,-0.000357823556734,0.216751876085,0.00434974805786,0.931303799855,0.364127529664,-0.0080903580923
0.0254765041173,-0.0402437187731,-0.0223919935524,-2.40276408195,-0.020894870162,2.35047626495,-0.727545320988,0.0715937390924,0.00050294934772,0.000417420436861,0.0043155872263,0.000309539958835,-1.10492828753e-05,5.9946309193e-05,9.12316536414e-05,0.483602577308,-0.000356119735885,0.216752087153,0.00435027883095,0.931302226686,0.36413155795,-0.00808985989546
0.0254760738462,-0.0402464829385,-0.0223921593279,-2.40276360512,-0.0208935551345,2.35047698021,-0.727556407452,0.0716003030539,-4.46030644525e-05,-0.000199957794393,-0.000548904296011,-0.000202190945856,0.00447873631492,-4.12112713093e-05,-0.00028590587317,0.483603261004,-0.000356271414048,0.216753680048,0.00435047443264,0.931300503544,0.364136007058,-0.00808786253434
0.0254773255438,-0.040246669203,-0.0223930627108,-2.40276193619,-0.0208946224302,2.35047578812,-0.727560341358,0.0716003030539,-6.45013351459e-05,-5.12950937264e-05,0.000276875682175,0.000238918655668,-0.00243890541606,-0.000172681830009,-0.000562363944482,0.48360370097,-0.000356060107097,0.216754358136,0.00435093788098,0.931299492749,0.364138587989,-0.00808780359367
0.0254769120365,-0.0402438752353,-0.0223900992423,-2.40276122093,-0.0208936613053,2.35047626495,-0.727565586567,0.0716003030539,-0.000262089481112,-0.000301608321024,-0.00046987485257,0.000356499222107,-0.000205149219255,0.000174682965735,-0.000474922999274,0.483603839919,-0.000354899259376,0.216753346306,0.00435038577575,0.931298289073,0.364141660812,-0.00808835336027
0.0254764799029,-0.0402441844344,-0.0223894566298,-2.40276360512,-0.0208945833147,2.35047650337,-0.72756934166,0.0716003030539,-0.000310236180667,-0.000804394599982,-0.000296087557217,-0.000170213272213,-0.000137056063977,5.37067244295e-05,0.000141387092299,0.483602892156,-0.000354887449673,0.216752530888,0.00435035176557,0.931297437838,0.364143816447,-0.00808933516698
0.0254770293832,-0.0402465835214,-0.0223908983171,-2.40276145935,-0.0208942480385,2.35047674179,-0.727578699589,0.0715996474028,2.08396377275e-05,0.000272852688795,-0.00260417233221,-2.66109036602e-05,0.000791177037172,4.87335273647e-05,-0.000566021655686,0.483604146242,-0.000355207925162,0.216754357263,0.00435097730201,0.931295870953,0.364147863342,-0.0080872153057
0.0254749450833,-0.0402463078499,-0.0223899688572,-2.40276122093,-0.0208941698074,2.35047698021,-0.7275826931,0.0715996474028,3.3694665035e-05,0.00133169617038,0.000278941326542,-6.86607963871e-05,-7.06625069142e-05,-3.05265493807e-05,-2.07267457881e-05,0.483604189468,-0.000355874594758,0.216754206075,0.00435092731197,0.931295435851,0.364148973384,-0.00808736441802
0.025476641953,-0.0402444154024,-0.0223878137767,-2.4027633667,-0.0208936352283,2.35047745705,-0.727587163448,0.0715996474028,0.000330521987053,0.00110639142804,-7.47930880607e-06,-0.000372650451027,9.59574099397e-05,5.99613340455e-05,-8.91796080396e-05,0.483603014236,-0.000354017391723,0.216752978681,0.00435024992054,0.931294055929,0.36415248159,-0.00808866823669
0.025479901582,-0.040248349309,-0.0223854035139,-2.4027633667,-0.0208944454789,2.35047745705,-0.727599680424,0.0715996474028,-0.000305630761432,-0.000655178388115,8.88355789357e-05,-8.64056128194e-05,-9.37228323892e-05,2.24329505727e-05,-0.000260215514572,0.483603692628,-0.000351262755697,0.216754726281,0.00435120779983,0.931290590786,0.364161371613,-0.00808687910747
0.0254792124033,-0.0402469560504,-0.0223859790713,-2.40276169777,-0.0208947919309,2.35047793388,-0.727601885796,0.0715996474028,-0.000316502060741,-0.00056170579046,0.00054343813099,0.000351704016794,8.73326498549e-05,-1.05574563349e-05,-0.00296405260451,0.483604362189,-0.000351904024078,0.216754784303,0.00435144462072,0.931290376138,0.364161924368,-0.00808657943931
0.0254747234285,-0.0402459092438,-0.0223876796663,-2.40276145935,-0.0208931714296,2.3504781723,-0.727608382702,0.0715996474028,0.000127344654175,0.000273112556897,0.00276703434065,-0.000575216603465,-3.68748806068e-05,-4.65821140097e-05,-6.54561154079e-05,0.483604391655,-0.000354738274407,0.216754394293,0.00435073185049,0.931290529575,0.36416153866,-0.00808666192743
0.0254775416106,-0.040245462209,-0.0223871991038,-2.40276360512,-0.020894953981,2.3504781723,-0.727623045444,0.0715996474028,-8.98115729342e-07,-0.00037161714863,-0.000184579781489,-7.63034331612e-05,1.33349622047e-05,0.00014850939624,-0.00191860401537,0.483603409872,-0.000353316135491,0.216753292644,0.00435082056047,0.931287014589,0.364170494085,-0.00808812341808
0.0254779309034,-0.0402474105358,-0.0223849434406,-2.40276455879,-0.0208950992674,2.35047745705,-0.727627575397,0.0715996474028,4.87872512167e-06,-0.000213494495256,-0.00078918231884,0.000417616654886,-0.000191597820958,0.00535868434235,-0.00025701202685,0.483603065237,-0.000352060927272,0.216753780142,0.00435093863717,0.931285692078,0.364173876875,-0.00808802510838
0.0254769064486,-0.0402481593192,-0.0223865564913,-2.40276193619,-0.0208936277777,2.35047793388,-0.727631211281,0.0715996474028,-0.000330470997142,-0.000375067698769,-0.000381488935091,-0.000320141931297,-0.00318100838922,0.000127439649077,0.000268727802904,0.483604395184,-0.000353182929697,0.216755265533,0.00435108033911,0.931285717943,0.364173853001,-0.00808604541604
0.0254777632654,-0.0402485020459,-0.0223850216717,-2.40276122093,-0.0208943337202,2.35047841072,-0.727638959885,0.0715996474028,-0.00042128644418,9.82442434179e-05,0.000400221702876,-0.000346599525074,3.41737068084e-05,-5.7853951148e-05,2.48468695645e-05,0.483604853484,-0.000352096187705,0.216755769632,0.00435159142587,0.931283784253,0.364178805289,-0.00808543774244
0.0254779979587,-0.0402446500957,-0.0223842766136,-2.40276765823,-0.0208938997239,2.35047650337,-0.727651238441,0.0715996474028,-0.000221086840611,-0.00111179880332,-0.000144452831591,0.000465967517812,-3.62895043509e-05,1.27948342197e-05,-0.00142137485091,0.483601183744,-0.000351612938247,0.216751080276,0.00434926669809,0.931281381055,0.364184852309,-0.00809111935927
0.0254773963243,-0.040247708559,-0.0223842635751,-2.40276503563,-0.0208952985704,2.35047793388,-0.727657079697,0.0715996474028,7.48567836126e-05,-0.000862329965457,-0.00010697930702,-0.000147010490764,-9.60503166425e-05,0.000112135545351,2.16519147216e-05,0.48360299767,-0.000352009953751,0.216753768156,0.00435094606853,0.931280267052,0.364187750724,-0.00808797720234
0.025475544855,-0.0402476787567,-0.0223856084049,-2.40276122093,-0.020894408226,2.35047793388,-0.727662146091,0.0715996474028,-0.000606355548371,-0.000176824527443,-0.000153887071065,-0.000266938121058,9.66565567069e-05,-0.000856116530485,0.000144332574564,0.483604614732,-0.000353202404713,0.216755174328,0.00435126737711,0.93128000583,0.364188452635,-0.00808627632839
0.0254734791815,-0.0402470603585,-0.0223856735975,-2.40276050568,-0.0208937488496,2.35047912598,-0.727670311928,0.0715996474028,0.000329655769747,-0.000861515698489,0.000868906499818,-0.000191445651581,1.78610007424e-05,0.00569891929626,-0.00139031116851,0.48360515185,-0.000354424972795,0.216755428636,0.0043512471928,0.931279048952,0.364190918125,-0.00808544807048
0.0254806615412,-0.0402415655553,-0.0223827548325,-2.40276408195,-0.0208943746984,2.35047864914,-0.727681517601,0.0715996474028,9.84237412922e-05,0.000649614608847,-0.000497468921822,3.39439502568e-05,9.13492986001e-05,-3.19131540891e-05,-0.0011623975588,0.483602856583,-0.000349635780555,0.216751253708,0.00434984083153,0.93127504883,0.364201061952,-0.00809002280999
0.0254819318652,-0.0402415394783,-0.0223780777305,-2.40276527405,-0.0208948235959,2.35047721863,-0.727686345577,0.0715996474028,-0.000372761802282,-0.00051802553935,-5.57546663913e-05,-0.000524820585269,3.58409124601e-05,1.43757379192e-05,0.000301191757899,0.483602041913,-0.000347034320792,0.216751039627,0.00434975230317,0.931273043502,0.364206169706,-0.00809096618912
0.0254795141518,-0.0402450114489,-0.0223803557456,-2.40276217461,-0.0208947453648,2.35047841072,-0.727696597576,0.0715996474028,-0.000355765892891,-0.000152224791236,-1.00636052593e-05,0.00062994559994,6.00358216616e-05,0.000143076264067,6.73996109981e-05,0.48360403621,-0.000349066538304,0.216753690349,0.00435084235453,0.931272048141,0.364208773947,-0.00808771825131
0.0254735331982,-0.0402499437332,-0.0223863627762,-2.40276098251,-0.0208936780691,2.35047864914,-0.7277135849,0.0715996474028,5.24147544638e-05,-0.000108397580334,-0.000260077911662,-9.05691922526e-05,5.23339986103e-05,-9.38790835789e-05,4.87977958983e-05,0.483605174018,-0.000354716381676,0.216756584089,0.00435135497122,0.931271302878,0.364210742215,-0.00808462033146
0.0254774391651,-0.0402483157814,-0.0223826710135,-2.4027633667,-0.0208945907652,2.35047912598,-0.727722167969,0.0715996474028,0.000128185711219,-0.000428282277426,0.00102938700002,-7.21360484022e-05,-9.63282727753e-05,-6.47063716315e-05,-0.000542754423805,0.483604056554,-0.000351151157689,0.216754854057,0.00435109758293,0.931268220853,0.364218585952,-0.00808641521574
0.0254786740988,-0.0402459278703,-0.0223827585578,-2.40276551247,-0.0208950322121,2.35047864914,-0.727738082409,0.0715996474028,-0.000134389134473,0.000116357026855,-6.97247814969e-05,0.000107272921014,5.21985457453e-05,-3.73624448002e-06,-4.87457982672e-05,0.483602741228,-0.000350648888142,0.216752771405,0.00435030523637,0.931265036242,0.364226683993,-0.00808884846563
0.0254768189043,-0.0402480438352,-0.0223820768297,-2.40276479721,-0.0208950806409,2.35047864914,-0.727747857571,0.0715996474028,8.57861887198e-05,-7.13828703738e-05,-0.000123550518765,3.80614401365e-05,-0.000265950249741,-8.62368178787e-05,2.01872917387e-05,0.483603298228,-0.00035121741052,0.21675409078,0.00435077920146,0.931263475131,0.364230698528,-0.00808755480279
0.0254768505692,-0.0402484796941,-0.0223853550851,-2.40275979042,-0.0208948608488,2.35047984123,-0.72776055336,0.0715996474028,-0.000522353046108,-0.000169297505636,-0.000126078768517,0.000181924755452,-2.40260978899e-05,-0.000335772667313,-0.000314463075483,0.483605788711,-0.000352737913896,0.216756473461,0.00435176594751,0.931261807639,0.36423501926,-0.00808444162618
0.0254774596542,-0.0402469485998,-0.0223835371435,-2.40275979042,-0.0208948086947,2.35047960281,-0.727774441242,0.0715996474028,-0.000131317050545,-1.05673861981e-05,0.000242062145844,-0.000185931712622,9.16659337236e-06,0.000178006681381,-0.00362303922884,0.48360555932,-0.000351574265353,0.216755713785,0.00435143474338,0.931258836685,0.364242600001,-0.00808530406122
0.0254762284458,-0.0402410887182,-0.0223840530962,-2.40276360512,-0.0208954773843,2.35047960281,-0.727806687355,0.0715996474028,-0.000398367934395,-0.000738581817131,0.000278822291875,-0.000121480166854,-0.00246651447378,-4.63388023491e-05,-0.00132862734608,0.483603644482,-0.000351007516205,0.216752666708,0.0043501968054,0.931253251742,0.36425681452,-0.00808886073423
0.0254753008485,-0.0402484089136,-0.0223829206079,-2.40276408195,-0.0208952557296,2.3504793644,-0.727813899517,0.0715996474028,0.00025882862974,-0.000661938916892,-7.65463391872e-06,0.000268178235274,-9.55220748438e-05,1.47257951539e-05,-0.000313057447784,0.483604013622,-0.00035209641342,0.216754944949,0.00435101134011,0.931251691102,0.36426084802,-0.00808645805011
0.0254786740988,-0.0402488671243,-0.022382536903,-2.40276241302,-0.0208948347718,2.35047984123,-0.72782355547,0.0715996474028,-0.000186253382708,-0.000230531441048,-3.32687486662e-05,0.000420508556999,2.87685797957e-05,-6.3310508267e-05,-0.000232206424698,0.483604694025,-0.000350506419645,0.216755576718,0.00435116681742,0.931249482119,0.364266511982,-0.00808562514148
0.0254783779383,-0.0402477569878,-0.0223820079118,-2.40276098251,-0.0208950228989,2.35048151016,-0.727832973003,0.0715996474028,7.10495369276e-05,0.00163890689146,0.000205141317565,-0.000267333583906,1.91512044694e-05,-0.000122396813822,-0.00092188018607,0.483605555347,-0.000350407472294,0.216755775013,0.00435156139298,0.931247703924,0.36427107274,-0.00808474487717
0.0254768580198,-0.0402417480946,-0.0223853457719,-2.40276432037,-0.0208951029927,2.35048079491,-0.727854430676,0.0715996474028,-0.000121991783089,0.000479356676806,0.00266616954468,0.000435039430158,-3.32748459186e-05,-1.9212717234e-05,-0.000178797519766,0.483603244746,-0.000352772061726,0.216751425987,0.00434966813144,0.931244629931,0.364278848132,-0.00808950550844
0.0254793409258,-0.0402425043285,-0.0223813075572,-2.4027659893,-0.0208945740014,2.35047984123,-0.727862298489,0.0716003030539,0.000141623837408,0.000941197038628,0.000481238006614,-0.000212782193557,4.4959342631e-05,-8.66198097356e-05,-0.00024810837931,0.483602398202,-0.000349593541433,0.21675102085,0.00434922563677,0.931242073302,0.364285370609,-0.00809033952144
0.0254800356925,-0.0402478575706,-0.0223795026541,-2.4027633667,-0.0208948291838,2.35048079491,-0.727868616581,0.0716003030539,-8.98764992598e-05,0.000104151091364,-9.75956209004e-05,-0.000362977443729,-8.4948624135e-06,-5.03769733768e-05,-0.000402868317906,0.483604444545,-0.000348304200607,0.216755549143,0.00435141532741,0.931239971621,0.364290835052,-0.00808502452437
0.0254771821201,-0.040243756026,-0.022384442389,-2.40276455879,-0.0208954885602,2.35048031807,-0.727891147137,0.0716003030539,6.32991286693e-05,0.000908117101062,-0.0035659740679,-0.000321542320307,2.58009276877e-05,7.43397094993e-06,-0.000191640239791,0.483603270592,-0.000352215943003,0.216752258293,0.0043498849713,0.93123767465,0.364296636172,-0.00808902786335
0.0254787504673,-0.0402421541512,-0.0223834961653,-2.40276432037,-0.0208955425769,2.35048127174,-0.727897107601,0.0716003030539,5.43169007869e-05,-0.000303200358758,0.000316841993481,0.00021341899992,-2.79894211417e-05,4.47989550594e-05,-0.000266584014753,0.483603399115,-0.000351009366859,0.216751664488,0.00434984291468,0.931236119845,0.364300606353,-0.00808924341949
0.0254776906222,-0.0402429364622,-0.0223838817328,-2.40276312828,-0.0208958052099,2.35048174858,-0.727903723717,0.0716003030539,-1.16472692753e-05,0.000651999784168,0.000140294272569,0.000370411115,2.1707111955e-05,0.000109248438093,-0.00029914744664,0.483604113747,-0.000351725131996,0.216752576896,0.00435032127957,0.931235152513,0.36430309776,-0.00808814412887
0.0254789907485,-0.0402433387935,-0.0223839078099,-2.40276408195,-0.0208957921714,2.35048127174,-0.727913022041,0.0716003030539,0.00400257017463,0.000348000758095,-8.67835406098e-05,0.000233949103858,-0.000209359743167,0.000110201159259,-3.83447477361e-05,0.483603640881,-0.000351109833729,0.216752335977,0.00435009731705,0.931233225314,0.364308015741,-0.00808863876004
0.0254808552563,-0.0402486138046,-0.0223820339888,-2.40276241302,-0.0208946876228,2.350481987,-0.727922320366,0.0716003030539,-0.000269378884695,0.000365475687431,-2.68941985269e-05,0.00038037673221,-3.92471738451e-05,0.000120511831483,-0.0024211187847,0.483605022626,-0.000348699053198,0.21675541535,0.0043511208894,0.931230615431,0.364314744573,-0.00808549340609
0.0254794098437,-0.0402467809618,-0.0223814342171,-2.40276312828,-0.0208951476961,2.35048246384,-0.727927148342,0.0716003030539,2.9719532904e-05,0.000805310206488,-0.000222496761126,7.18592928024e-05,0.00138668948784,-0.000108676518721,-0.000157481132192,0.483604718507,-0.000349645720029,0.216754496902,0.00435085112949,0.931230229873,0.36431572257,-0.00808597788628
0.0254780743271,-0.0402451306581,-0.0223826654255,-2.40276241302,-0.0208973381668,2.35048222542,-0.727933347225,0.0716003030539,-0.000396178627852,0.000971730449237,0.000228954042541,0.000671332643833,0.000365425221389,-0.000148681472638,-9.61629757512e-06,0.483604788284,-0.000351091735096,0.216753976973,0.00435132330805,0.931229276794,0.364318134473,-0.008086816744
0.0254736039788,-0.0402445308864,-0.0223853830248,-2.40276432037,-0.0208972673863,2.35048174858,-0.727941155434,0.070826753974,0.000424148456659,-0.000135462352773,-2.92308559438e-05,0.000339248217642,-9.02939646039e-05,2.91310516332e-05,-0.000279917469015,0.483603780423,-0.000354553539066,0.216752855447,0.00435065823142,0.93122916167,0.364318405609,-0.00808821655076
0.0254784375429,-0.0402481555939,-0.0223828200251,-2.40276217461,-0.0208976361901,2.35048365593,-0.727967441082,0.070826753974,-0.000527084048372,0.000801118032541,-0.000143780664075,0.000995007576421,-4.5727538236e-05,0.000200620168471,-6.58703938825e-05,0.483605558853,-0.000351001496441,0.216755660391,0.00435208857605,0.931223004702,0.364334203416,-0.00808472290616
0.0254779011011,-0.0402485728264,-0.0223799757659,-2.40276241302,-0.0208965931088,2.35048341751,-0.727978825569,0.070826753974,-0.000291310891043,0.00102636346128,8.05741365184e-05,2.53333382716e-05,-3.53825053026e-05,6.61944723106e-05,-0.000134674788569,0.483605450488,-0.000349802171234,0.216755743178,0.00435174741064,0.9312206477,0.364340233265,-0.0080846584003
0.0254770591855,-0.0402460321784,-0.0223816428334,-2.40276098251,-0.0208970420063,2.35048389435,-0.727983891964,0.070826753974,-0.000303084059851,0.000533338054083,5.94279772486e-05,1.65111559909e-05,-0.000137688795803,0.00067530979868,-1.99658843485e-05,0.483605717414,-0.00035072252252,0.216754793005,0.00435158656936,0.931219807781,0.364342366007,-0.00808537619789
0.0254795327783,-0.0402418784797,-0.0223819054663,-2.40276527405,-0.0208963472396,2.35048294067,-0.728006601334,0.070826753974,0.000513826613314,-0.000511285383254,0.00048603003961,0.000918673467822,6.91523018759e-06,-8.23687150842e-06,-8.53285528137e-05,0.483603321474,-0.0003499385323,0.216751280768,0.00434977648886,0.931215633873,0.364352966635,-0.00808937975824
0.0254792030901,-0.0402462035418,-0.0223833788186,-2.40276050568,-0.0208977852017,2.35048365593,-0.728023886681,0.070826753974,-0.000212828294025,0.000226490956265,-1.12542256829e-05,0.000185123833944,9.69280663412e-05,5.37938140042e-05,0.000253701175097,0.483606058762,-0.00035091680235,0.216755407336,0.00435186918573,0.93121266359,0.364360630239,-0.0080849997479
0.0254766475409,-0.0402488894761,-0.0223838165402,-2.40276193619,-0.0208976939321,2.35048413277,-0.728035628796,0.070826753974,-0.000177383233677,0.000943811319303,-0.000440429226728,9.41001198953e-05,7.86934542703e-05,-2.49935692409e-05,0.000110793189378,0.48360585182,-0.000352344586005,0.216756154109,0.0043520528348,0.93121108738,0.364364674197,-0.00808419806621
0.0254736021161,-0.0402490235865,-0.022384243086,-2.4027633667,-0.0208980496973,2.35048317909,-0.728043317795,0.070826753974,0.000100965400634,0.000366847991245,-0.000819798035081,-0.000482634291984,9.66783481999e-05,-1.62293490575e-05,-0.000331610557623,0.483604965962,-0.000354349823984,0.216755264099,0.00435151863682,0.931210292685,0.364366681453,-0.00808555592813
0.0254781022668,-0.0402433313429,-0.022382542491,-2.40276384354,-0.0208973232657,2.35048341751,-0.728084683418,0.0619026534259,-6.7961467721e-05,-0.000687780906446,-0.000334086245857,9.56155690801e-06,-8.63612949615e-05,3.3745986002e-05,-0.00185327022336,0.483604218774,-0.000351018611248,0.216752616817,0.00435035168677,0.931201669813,0.364388675627,-0.00808809848314
0.0254798717797,-0.0402443818748,-0.022379996255,-2.40276217461,-0.0208974815905,2.35048413277,-0.728089511395,0.0619026534259,0.000164402314113,-0.000892173382454,-9.48035376496e-05,-0.000181959054316,-7.56528743295e-06,0.00247000693344,2.24155101023e-05,0.483605241754,-0.000348945769547,0.216754075105,0.00435116346379,0.931199965991,0.364393060707,-0.00808626659025
0.0254751499742,-0.0402455441654,-0.0223816558719,-2.40276217461,-0.0208978299052,2.35048389435,-0.728113114834,0.0619026534259,5.80312880629e-05,0.000606693967711,2.44171897066e-05,-5.49369106011e-05,2.37359436142e-05,-0.000626638007816,-0.000238348409766,0.483605307556,-0.000352058979288,0.216754419111,0.00435117392698,0.931196816496,0.364401110601,-0.00808619255474
0.0254760012031,-0.0402457937598,-0.0223819278181,-2.40276312828,-0.0208976436406,2.35048270226,-0.728120744228,0.0619026534259,3.02126354654e-05,0.000775839318521,0.000281827407889,0.000361005077139,0.000100205536,6.44854590064e-05,8.94395361684e-06,0.483604659023,-0.000351766293511,0.216754042971,0.00435074160797,0.931195340409,0.364404868314,-0.00808706878583
0.0254774950445,-0.0402428433299,-0.022381298244,-2.40276241302,-0.0208960231394,2.35048365593,-0.728127658367,0.0619026534259,3.773503704e-05,0.000896700192243,-0.000234993582126,6.46209446131e-05,0.000133197492687,9.78112148005e-05,-0.000489385565743,0.483604835402,-0.000350593652568,0.216752992246,0.00434999118393,0.931193898756,0.364408551947,-0.00808748717997
0.0254789795727,-0.0402481742203,-0.0223800335079,-2.40276098251,-0.0208985824138,2.35048413277,-0.728152751923,0.0619026534259,7.28415534468e-06,-0.000414731504861,0.000413984875195,0.00013435636356,4.5858327212e-05,9.82003766694e-05,-0.000235774947214,0.483606187937,-0.000349491035165,0.216756206112,0.00435201991271,0.931188518577,0.364422342686,-0.00808446840713
0.0254798382521,-0.0402507632971,-0.0223809462041,-2.40276002884,-0.0208976566792,2.3504846096,-0.728156805038,0.0619026534259,-7.71259801695e-05,0.000413963251049,0.000138606046676,0.000151072803419,6.62562379148e-05,7.00909586158e-05,3.82930629712e-05,0.48360700715,-0.00034941460312,0.216757891511,0.00435237624762,0.931187926637,0.364423895304,-0.00808247004442
0.0254755783826,-0.0402521677315,-0.0223814882338,-2.40276288986,-0.0208969060332,2.35048437119,-0.728159725666,0.0597284287214,-0.00396559014916,4.62673524453e-05,-0.000184588541742,-0.00022906238155,-1.64845896506e-05,-3.87792206311e-05,0.000146702455822,0.483605869475,-0.000351663518833,0.216757364753,0.00435176724441,0.931188361183,0.364422776586,-0.00808317443286
0.0254739709198,-0.0402489490807,-0.0223809387535,-2.40276288986,-0.0208983961493,2.3504846096,-0.728165388107,0.0597284287214,-0.00193501834292,-0.000581914617214,-1.51700032802e-06,6.70562731102e-05,-4.2763993406e-05,0.000131829510792,0.000273768091574,0.483605677692,-0.000352345241757,0.216756226668,0.00435186252531,0.931187285919,0.364425494066,-0.00808447865837
0.0254780184478,-0.0402458310127,-0.0223815999925,-2.40276241302,-0.0208979211748,2.35048365593,-0.728170931339,0.0597284287214,0.000219400768401,-0.00155041192193,0.000122914279927,-0.000392862362787,2.06647528103e-05,6.95101562087e-06,-0.000314597768011,0.483605185842,-0.000350654203902,0.21675443891,0.00435094751715,0.931185736876,0.36442942022,-0.00808641184454
0.0254783239216,-0.0402441397309,-0.0223809853196,-2.40276074409,-0.020899059251,2.35048532486,-0.728175878525,0.0597284287214,-0.000309854076477,-0.000343853171216,0.000290860596579,-0.000382101949072,-1.50586802192e-05,0.000473426043754,0.000138783711009,0.48360608527,-0.000350313932735,0.216754456205,0.00435162282391,0.931184521231,0.364432531875,-0.00808580196251
0.0254791583866,-0.0402418933809,-0.0223823413253,-2.40276098251,-0.0208984147757,2.35048437119,-0.728181660175,0.0597284287214,-0.000255190359894,7.69508624217e-05,0.000521516951267,0.000483517156681,-6.14024174865e-05,-0.000131741413497,0.000309605879011,0.483605681315,-0.000350371779383,0.216753434577,0.00435091740126,0.931183481913,0.364435165036,-0.00808719359324
0.0254743937403,-0.0402440093458,-0.0223827082664,-2.40276026726,-0.0208977628499,2.35048389435,-0.728183627129,0.0535058565438,0.00156896281987,9.81926132226e-05,0.00011215107952,0.000542048248462,-3.44533109455e-05,5.3254558452e-07,-4.03199992434e-05,0.483605958601,-0.000352924689503,0.216754465907,0.00435092286267,0.931184308578,0.364433075504,-0.00808616665707
0.0254762805998,-0.0402453951538,-0.0223822854459,-2.40275979042,-0.0208989568055,2.35048389435,-0.728187918663,0.0535058565438,-0.00323097943328,0.000209806312341,8.76029007486e-05,0.000335494987667,-9.48686138145e-05,0.000167392921867,-8.39074855321e-05,0.483606330092,-0.000351917331838,0.216755334976,0.00435163966996,0.931182956816,0.364436536803,-0.00808544958315
0.0254791043699,-0.0402484163642,-0.022380637005,-2.402759552,-0.0208985321224,2.35048508644,-0.728193163872,0.0535058565438,0.000711384695023,-0.00014369256678,0.00029312595143,-0.000345298845787,-9.747587319e-05,-6.50518704788e-05,0.000209141377127,0.483607048262,-0.000349707738643,0.216756996239,0.00435229221146,0.93118125718,0.364440919032,-0.00808331922457
0.0254787970334,-0.0402482785285,-0.0223813783377,-2.40276074409,-0.0208975467831,2.35048437119,-0.728195607662,0.0535058565438,-0.000251996039879,-6.81672463543e-05,-0.000209872159758,-0.00017864954134,0.000144013363752,6.74278489896e-05,2.1152309273e-05,0.483606353851,-0.000350123909307,0.216756373534,0.00435157508569,0.93118112546,0.36444124563,-0.00808415420254
0.0254777818918,-0.040248401463,-0.0223812293261,-2.40276169777,-0.0208988375962,2.35048651695,-0.728197097778,0.0535058565438,-5.69088733755e-05,8.34732327348e-06,0.000215551553993,-0.000227495809668,2.76195964943e-06,-3.53689210897e-05,-0.00110316614155,0.483606426949,-0.000350654224476,0.216756223098,0.00435221662115,0.93118084229,0.364441971508,-0.00808370279657
0.0254756845534,-0.0402500554919,-0.0223824363202,-2.40276169777,-0.0208973586559,2.35048484802,-0.728200256824,0.0535058565438,0.000413047935581,-4.34814719483e-05,-0.000249192409683,0.000212077415199,-9.55924915615e-05,3.77670767193e-05,-0.000188409423572,0.4836062482,-0.000352110982441,0.216756877787,0.00435167037662,0.931181066851,0.364441408129,-0.00808352830401
0.025477450341,-0.0402461923659,-0.022382941097,-2.40276050568,-0.0208987463266,2.35048556328,-0.728203356266,0.0535058565438,-0.000258829444647,0.000423202029197,-8.90716364665e-06,-0.000336963712471,6.60529185552e-05,-9.16447970667e-05,0.000118567455502,0.483606579736,-0.000351627861614,0.216755854612,0.00435177095586,0.93118013751,0.364443762447,-0.00808438587491
0.0254805423319,-0.0402446240187,-0.0223799366504,-2.40276002884,-0.0208976604044,2.3504858017,-0.728206396103,0.0535058565438,0.00378756178543,0.000457425718196,1.16254086606e-05,-0.000512852508109,-4.80558555864e-05,-4.22902776336e-05,-0.000247079617111,0.483606556709,-0.000348603405344,0.216755025771,0.00435136480748,0.931178554302,0.364447800883,-0.00808490874965
0.0254813376814,-0.0402457974851,-0.0223797261715,-2.40276074409,-0.0208994615823,2.3504858017,-0.728206634521,0.0535058565438,-0.00029516176437,-0.000488116202177,-0.000279822590528,0.000258172105532,-2.88542178168e-05,2.37037693296e-05,-0.000281069602352,0.483606385136,-0.000348284306787,0.21675529948,0.00435203776575,0.931178093094,0.364448971093,-0.00808491576289
0.025476064533,-0.0402435734868,-0.0223820134997,-2.40276193619,-0.0208980534226,2.3504858017,-0.728215575218,0.0535058565438,-0.004067576956,0.000405651837355,-0.000408087100368,9.79092073976e-05,-3.26364306602e-06,-2.59198095591e-05,-0.000103575432149,0.48360560247,-0.000351804619357,0.216753727939,0.00435086812716,0.931178012029,0.364449160121,-0.00808636088783
0.0254733636975,-0.0402452610433,-0.0223848391324,-2.40276074409,-0.0208981446922,2.3504846096,-0.728217899799,0.0535058565438,-1.03133188532e-05,-0.000688480620738,-0.000316128775012,0.000218620800297,3.0691473512e-05,-4.3263698899e-05,7.883872604e-05,0.483606053114,-0.000354471451317,0.216754934113,0.00435110875665,0.931178593402,0.364447689148,-0.00808557986806
0.0254750922322,-0.0402431823313,-0.0223826747388,-2.402759552,-0.0208974536508,2.35048532486,-0.728220105171,0.0535058565438,0.000635807227809,-0.000716709415428,0.000328542897478,-2.16477328649e-05,-8.88058566488e-05,1.93300056708e-05,-0.000130209911731,0.483606488297,-0.000352536238378,0.216754483804,0.00435091394176,0.931177570563,0.364450304617,-0.00808559070385
0.0254778154194,-0.0402461662889,-0.0223815347999,-2.40275812149,-0.0208982080221,2.35048770905,-0.728229343891,0.0535058565438,2.26154115808e-05,-0.000233184618992,0.000495986430906,0.000326404784573,-5.25408795511e-05,-5.20916910318e-06,0.000250119803241,0.483607985036,-0.000350722093238,0.216756723429,0.00435234441535,0.931175106157,0.364456652247,-0.00808251746012
0.0254802852869,-0.0402436293662,-0.0223808605224,-2.40276050568,-0.0208997093141,2.35048794746,-0.728234052658,0.0495494417846,3.99687305617e-05,0.000140147501952,-0.000157820730237,-0.000570125353988,4.20968681283e-05,-3.55423035217e-05,0.000190649196156,0.483606708549,-0.000349354500125,0.216754532836,0.0043520254402,0.93117345816,0.364460813641,-0.00808490558139
0.0254780557007,-0.0402483977377,-0.0223809294403,-2.40276098251,-0.0208981465548,2.35048604012,-0.728237092495,0.0495494417846,0.000128147716168,-0.00340308411978,0.000462836207589,-0.000103897349618,5.74145196879e-05,4.93814986839e-05,-0.000200701964786,0.483606632039,-0.000350315206876,0.2167564759,0.00435188031596,0.931173542607,0.364460628665,-0.00808359600009
0.0254755020142,-0.0402476750314,-0.0223825778812,-2.40275812149,-0.0208991765976,2.35048627853,-0.728245139122,0.0495494417846,-0.000111766879854,0.00044163322309,-0.000359738012776,0.000333723641234,0.000107593761641,-6.14588498138e-05,-5.55515907763e-05,0.483607845986,-0.000352433802025,0.216757331476,0.00435257566071,0.931172716252,0.36446275296,-0.00808263458785
0.0254757106304,-0.0402475297451,-0.0223839264363,-2.40275883675,-0.0208995621651,2.35048818588,-0.728249549866,0.0495494417846,0.000103109996417,-0.00248552020639,-3.70388515876e-05,0.000156366848387,8.03177317721e-05,7.13204099156e-06,0.000327939051203,0.483607953758,-0.00035300574484,0.216756999889,0.00435270190986,0.931172116253,0.364464294476,-0.00808218010833
0.0254787132144,-0.0402445271611,-0.022381266579,-2.40275931358,-0.0208973158151,2.35048723221,-0.728253781796,0.0495494417846,0.000230136269238,-0.000305107503664,0.000640685844701,-1.66720346897e-05,-3.51259404852e-05,9.07449793885e-05,0.00025240163086,0.483606819636,-0.000351935254005,0.216755731702,0.00435152860827,0.931171214524,0.364466567973,-0.00808417929059
0.0254790987819,-0.0402437150478,-0.0223807413131,-2.40276026726,-0.0208991002291,2.35048747063,-0.728258788586,0.0495494417846,1.18909638331e-05,6.55921176076e-05,0.000109528569737,-0.000125410966575,0.00010248941544,-6.15268572801e-06,5.65555892535e-05,0.483606716001,-0.000349816056247,0.21675463152,0.00435169685929,0.931169225472,0.364471630447,-0.00808495841693
0.0254756137729,-0.0402446985245,-0.0223822630942,-2.40275621414,-0.0208997763693,2.35048913956,-0.728265225887,0.0495494417846,0.00027652081917,0.000176393368747,-0.00349904620089,0.000417161383666,-8.04632509244e-05,-6.35102333035e-05,-0.0027110169176,0.483608601368,-0.000352369007099,0.216756430958,0.00435280800155,0.93116896462,0.364472339449,-0.00808244100978
0.0254742372781,-0.0402483195066,-0.0223833136261,-2.4027557373,-0.0208991393447,2.35048747063,-0.728270471096,0.0495494417846,-0.000394029833842,0.000294995872537,-8.7156178779e-05,-2.5173445465e-05,-8.38784617372e-05,-0.00010092411685,-0.00257321516983,0.483609220116,-0.000353383661329,0.216758731115,0.00435318704066,0.931168483848,0.364473601571,-0.00808071121368
0.0254752133042,-0.040246553719,-0.0223839618266,-2.40275812149,-0.020899053663,2.35048794746,-0.728272795677,0.0495494417846,0.000261657231022,-0.000127472550957,8.295581938e-05,-0.000176264598849,-0.000171905456227,-0.000122379802633,-0.000242592956056,0.483608056193,-0.000352868585285,0.216756824367,0.00435237598011,0.93116772579,0.364475508436,-0.00808249380167
0.0254773814231,-0.0402447469532,-0.0223801713437,-2.402759552,-0.0208991356194,2.3504884243,-0.728277564049,0.0470856279135,-0.000321448344039,-0.000172732194187,-0.00026097841328,0.000233069775277,-7.55871733418e-05,-3.60170997737e-05,0.000127329898532,0.4836073568,-0.000350368495328,0.216755508127,0.00435210967839,0.931166017099,0.364479849237,-0.00808374456139
0.0254751760513,-0.0402481891215,-0.0223823208362,-2.4027569294,-0.0208984371275,2.35048675537,-0.728286325932,0.0470856279135,-0.00398058490828,0.00122623587959,-0.000161351141287,-0.000229197699809,-2.06549339055e-06,3.1510804547e-05,0.000266399962129,0.48360849496,-0.000352504959906,0.216757778451,0.00435238744699,0.931165342184,0.364481612936,-0.00808181632036
0.0254771113396,-0.0402465946972,-0.0223807971925,-2.40275740623,-0.0208997689188,2.35048866272,-0.728290319443,0.0470856279135,-4.20992819272e-06,0.000649556925055,-0.00366216781549,-0.000259288848611,0.000138768256875,-4.73593208881e-05,-0.00022963572701,0.48360855871,-0.000350849229948,0.216757310344,0.00435299608047,0.931163789669,0.364485570796,-0.00808186867651
0.0254814643413,-0.0402450673282,-0.0223790742457,-2.40275907516,-0.0209003519267,2.35048675537,-0.728291988373,0.0470856279135,-4.40382990519e-07,0.00035830764682,9.19417288969e-05,-0.000506335869431,-6.70808440191e-05,-0.000158864408149,-0.000284896232188,0.483607238436,-0.000347990255222,0.21675572009,0.00435234565143,0.931162285559,0.364489366469,-0.00808433392383
0.0254782140255,-0.0402437783778,-0.0223782788962,-2.40276002884,-0.0209005642682,2.35048818588,-0.728297710419,0.0470856279135,-0.000287530594505,-0.000804488314316,-0.000181238545338,0.00022347921913,3.452326564e-05,9.91572160274e-05,-0.00245503732003,0.483606987814,-0.000349198862565,0.216754824993,0.0043522546017,0.931161655288,0.364490968178,-0.00808476362146
0.0254765208811,-0.0402441397309,-0.0223808120936,-2.40275764465,-0.0208995882422,2.35048794746,-0.728304803371,0.0470856279135,-0.000286401365884,2.02625160455e-05,6.77815623931e-05,-0.000511449412443,-7.02614488546e-05,3.61795650861e-06,-0.000234745341004,0.483608011773,-0.000351136131902,0.216755963558,0.00435228948681,0.931161271901,0.364491975681,-0.00808347923605
0.0254766773432,-0.0402466133237,-0.0223791748285,-2.40275883675,-0.0208998229355,2.35048866272,-0.728308200836,0.0470856279135,0.000119580618048,-2.55171507888e-05,0.00166928104591,0.00011048009037,-0.000107106701762,-4.25223624916e-05,-0.00101117533632,0.483607938869,-0.000350289167094,0.216756728181,0.00435272170523,0.931160301368,0.364494469834,-0.00808258095983
0.0254800189286,-0.0402470976114,-0.0223769806325,-2.40275669098,-0.0208995677531,2.35048866272,-0.728313684464,0.0470856279135,0.00108764437027,0.000249871867709,0.00161712465342,-6.74743132549e-05,0.000129793770611,-9.56199801294e-05,-0.00173554569483,0.483608930966,-0.000347595640391,0.216757851192,0.00435314949358,0.931158337739,0.364499508697,-0.00808133605776
0.0254779495299,-0.0402464345098,-0.0223770476878,-2.40275859833,-0.0208988506347,2.35048747063,-0.728317081928,0.0470856279135,7.27267179172e-05,0.000399881508201,-0.000528591044713,-4.71149496661e-06,7.04604462953e-05,2.31661379075e-05,-0.000602518499363,0.48360775942,-0.000348571175182,0.216756638519,0.00435222377951,0.931158189385,0.364499861459,-0.00808301748819
0.025478541851,-0.0402473807335,-0.0223781727254,-2.40275931358,-0.0208990834653,2.35048699379,-0.728324532509,0.0440189950168,0.000376589974621,-0.000164359313203,0.000150274296175,-0.000142109827721,1.63586682902e-05,-0.000126249622554,-0.000416961644078,0.483607453195,-0.000348845300693,0.216756758971,0.00435219613551,0.931156898094,0.36450315718,-0.00808316844029
0.0254766866565,-0.0402485094965,-0.0223777107894,-2.40275788307,-0.0208993535489,2.35048890114,-0.728329777718,0.0440189950168,0.000277054961771,-0.000203863746719,-0.000385349965654,0.000284901674604,-0.000105318838905,0.000145826605149,8.1934267655e-05,0.48360834447,-0.000349480063257,0.216757552825,0.00435280911114,0.93115618423,0.36450500751,-0.00808163403526
0.0254778601229,-0.0402464866638,-0.0223765075207,-2.40275883675,-0.0208990927786,2.3504884243,-0.728334069252,0.0440189950168,-0.00024823055719,0.00163027539384,7.9499363892e-07,0.000260369328316,-8.40432257974e-05,-1.97104418476e-05,-0.000115393479064,0.483607796146,-0.000348261220202,0.216756665023,0.00435230154534,0.93115505187,0.364507882763,-0.00808269363127
0.0254779197276,-0.0402465686202,-0.0223762057722,-2.40276074409,-0.020900927484,2.3504846096,-0.728339970112,0.0440189950168,-0.000186105637113,0.00032327149529,-0.000393624330172,6.46500338917e-05,-0.000127899722429,-0.000250654789852,1.11349963845e-05,0.483606215423,-0.000348394007148,0.21675557425,0.00435197429618,0.931153584526,0.364511570386,-0.00808560963486
0.0254770424217,-0.0402444899082,-0.0223764870316,-2.40276050568,-0.0209004059434,2.35049366951,-0.728353261948,0.0440189950168,-0.00026445830008,-0.000616379431449,-0.00019627083384,0.0012087165378,-7.80642076279e-05,2.23005645239e-05,-0.00296729174443,0.48360806946,-0.000348863325971,0.216755440243,0.0043530026496,0.931151448256,0.364517090986,-0.00808219289237
0.0254763513803,-0.0402509756386,-0.0223754458129,-2.40274810791,-0.0208990294486,2.35048508644,-0.728361546993,0.0440189950168,0.000153657660121,-0.000156225287355,0.000196466760826,0.00052946107462,5.43809655937e-05,3.56902455678e-06,-0.000370608409867,0.483612329581,-0.0003485827327,0.216762973334,0.00435438912941,0.931150120395,0.364520576173,-0.00807724059953
0.0254779253155,-0.0402463376522,-0.0223754234612,-2.40276408195,-0.0208994243294,2.35049128532,-0.728368937969,0.0440189950168,-7.69939069869e-05,-0.000414230424212,0.000319681566907,0.000343250256265,9.03567124624e-05,-0.000558935338631,-0.000112814719614,0.483606202048,-0.000347845568829,0.216754649196,0.00435189638733,0.931148354003,0.364524967714,-0.00808402327416
0.02547782287,-0.0402455553412,-0.0223739370704,-2.40275931358,-0.02090029791,2.35048747063,-0.728374481201,0.0440189950168,-0.000352762581315,0.000948604661971,-7.20958778402e-05,-0.000329567381414,-5.7545821619e-05,0.000980974757113,-0.000107377163658,0.483607235789,-0.00034743157176,0.216755320705,0.00435223611785,0.931146917638,0.364528625269,-0.00808435888625
0.0254786293954,-0.0402445681393,-0.0223713424057,-2.40276145935,-0.0209007114172,2.35048675537,-0.728430211544,0.0440189950168,-5.46588744328e-05,0.000268756295554,0.000388532091165,-0.000418988929596,-2.09803565667e-05,-0.00425259210169,-0.00600726623088,0.483606145803,-0.000345698829604,0.216754496399,0.00435155558675,0.931136141537,0.364556120611,-0.00808606806208
0.0254761874676,-0.0402472279966,-0.0223732236773,-2.40275597572,-0.0209004245698,2.35049080849,-0.728507220745,0.0440189950168,8.25169918244e-05,0.000358545948984,-0.000820734130684,0.000514533836395,9.71356494119e-05,-0.000200633643544,-0.00205425918102,0.483609731394,-0.000347719005702,0.21675839638,0.00435324614787,0.931122969727,0.364589865275,-0.00808048995715
0.0254751518369,-0.0402483530343,-0.0223722998053,-2.40275335312,-0.0209001600742,2.35049080849,-0.728586196899,0.0440189950168,7.65871373005e-05,-0.000260913657257,-0.000682305835653,0.000696081609931,9.47444859776e-05,4.16324837715e-05,-0.00021691803704,0.483611003373,-0.000347746996504,0.21676002586,0.00435352267907,0.931108642846,0.364626484742,-0.00807888404256
0.0254760235548,-0.0402456335723,-0.0223752837628,-2.40275740623,-0.0209004059434,2.35048985481,-0.728608071804,0.0440189950168,0.00109486386646,0.00034572527511,-0.000282900902675,-0.000212093975279,-4.23821038567e-05,3.16917466989e-05,-0.000552750832867,0.483608712555,-0.000348793393439,0.21675695105,0.00435208827529,0.931104977647,0.364635779676,-0.00808256110648
0.0254778936505,-0.040245231241,-0.0223721079528,-2.40275931358,-0.0209010615945,2.35049033165,-0.728640735149,0.0440189950168,0.000587782706134,-6.46790576866e-05,-0.000339233927662,3.53406940121e-05,0.000138430375955,5.89905321249e-05,-3.93783702748e-05,0.483608015085,-0.000346235641842,0.216755975325,0.00435182828504,0.931097825784,0.364654022414,-0.00808356561574
0.0254793595523,-0.0402488559484,-0.0223697852343,-2.40275645256,-0.0209007151425,2.35049128532,-0.728656768799,0.0440189950168,-0.000299657753203,0.000277225277387,-1.00556474081e-06,-0.000181997937034,0.000101628000266,0.000130941509269,-0.00297371530905,0.483609821088,-0.000344559983013,0.216759028865,0.00435310381277,0.931094467456,0.364662659066,-0.00808009457423
0.0254794992507,-0.0402548909187,-0.0223687514663,-2.40275502205,-0.0209012087435,2.35048961639,-0.728679120541,0.0440189950168,0.000279958563624,-0.00058937468566,-0.00356634939089,0.000110774119094,-3.78286640625e-05,8.22493020678e-05,-0.00058678269852,0.48361077927,-0.000344033329402,0.216762397262,0.00435419780086,0.931090141401,0.364673749278,-0.00807748841914
0.0254776775837,-0.0402640067041,-0.0223693586886,-2.4027466774,-0.0209007821977,2.35049533844,-0.72870361805,0.0412852913141,-0.000346692046151,0.000522802816704,3.0211342164e-05,0.00105094420724,-9.47306034504e-06,5.97045363975e-05,-0.00275700027123,0.483616728042,-0.000345100228364,0.216770745484,0.00435799501218,0.931086254695,0.364683867636,-0.00806663305443
0.0254765544087,-0.0402937084436,-0.0223704352975,-2.40271639824,-0.0209015216678,2.35050344467,-0.728745222092,0.0412852913141,9.40800600802e-05,-0.000180689705303,-0.000176651214133,0.000680399360135,-0.000159911243827,-5.72094322706e-05,-0.00505133485422,0.483635142209,-0.000346068561509,0.216798330191,0.0043699921204,0.93107923313,0.36470235018,-0.00803494001106
0.0254757292569,-0.0403070226312,-0.0223707798868,-2.40271472931,-0.0209009479731,2.35050678253,-0.72876906395,0.0412852913141,-9.19760932447e-05,0.000597387144808,0.000198566529434,0.000631542236079,3.15872966894e-05,-0.000144465244375,-0.00417188601568,0.483638148074,-0.000346520507819,0.216805742012,0.00437284741532,0.931075240382,0.364712699021,-0.00802631989623
0.0254777185619,-0.0403053797781,-0.0223699752241,-2.40271568298,-0.0209013260901,2.35050749779,-0.728788375854,0.0412852913141,0.000305933586787,0.00124182424042,0.000175082532223,0.000202285955311,9.47937005549e-05,0.00230508600362,-0.00215242756531,0.483637701195,-0.000345210934087,0.216804614934,0.00437259324647,0.93107115002,0.364723122825,-0.00802729034347
0.0254781637341,-0.0403011143208,-0.022369781509,-2.40271711349,-0.0209008101374,2.35051012039,-0.728816151619,0.0412852913141,0.000164372977451,0.000329420581693,-0.000315661367495,-0.000177879264811,5.83857108722e-05,0.00013415957801,-8.05664167274e-05,0.483637159382,-0.000344855077981,0.216802183859,0.00437178797147,0.931066016626,0.364736205159,-0.00802872873122
0.0254726205021,-0.0402988679707,-0.0223715603352,-2.40271687508,-0.020900985226,2.35051250458,-0.728876948357,0.0412852913141,-0.00332690612413,0.000116914183309,-0.000141250216984,0.000731214066036,-0.00395463686436,-4.31081170973e-05,-0.00239823386073,0.483637524249,-0.000348397874301,0.216801399322,0.0043716137968,0.931056236643,0.364761172042,-0.00802871453741
0.0254752077162,-0.0403022058308,-0.0223698113114,-2.40271520615,-0.0209007319063,2.35051727295,-0.728904426098,0.0412852913141,-0.00338980462402,0.000245351024205,-5.64809452044e-05,-0.000451066152891,-0.000146623438923,5.09185520059e-06,-0.0036166976206,0.483639688646,-0.000346249791385,0.216804111483,0.00437317105264,0.931050495535,0.364775907401,-0.00802416364537
0.0254785567522,-0.0402979031205,-0.0223706681281,-2.40271425247,-0.0209014322609,2.35051703453,-0.728922486305,0.0412852913141,0.00027886161115,0.000569422671106,-8.38525884319e-05,4.15520989918e-05,0.000163470525877,2.63525726041e-06,-0.00171394925565,0.483639553438,-0.000345118848187,0.216802406109,0.00437272138782,0.931046641086,0.364785710977,-0.00802596915323
0.0254771262407,-0.0402977466583,-0.0223695691675,-2.40271687508,-0.0209006257355,2.35051655769,-0.728942096233,0.0412852913141,8.40519351186e-05,-3.29249232891e-05,-7.55247820052e-05,0.00046385434689,-1.49647503349e-05,0.000362652936019,-0.00176030083094,0.483638287501,-0.000345214593255,0.216801203706,0.00437181143881,0.931043218429,0.364794425116,-0.00802743865461
0.025474941358,-0.0403001978993,-0.0223696622998,-2.40271806717,-0.0209004804492,2.3505179882,-0.728971004486,0.0412852913141,-0.000234191276832,-0.00120652595069,0.000566663220525,8.56777915033e-05,0.00537393381819,-0.00016855825379,-0.00165562122129,0.483638367012,-0.000346288796503,0.216802017238,0.00437208764828,0.931038387318,0.364806778517,-0.00802622098052
0.0254765860736,-0.0403009615839,-0.0223689824343,-2.40271663666,-0.0209001693875,2.35051941872,-0.728988111019,0.0357811115682,0.000423331686761,0.000165230623679,0.00014492381888,-0.000249018950853,3.00994565805e-06,3.70306370314e-05,-0.00188740121666,0.483639393416,-0.000345127778542,0.21680310064,0.00437257641286,0.931034895151,0.364815722394,-0.00802452281557
0.0254773050547,-0.0402989201248,-0.0223694425076,-2.40271711349,-0.0209010019898,2.35051965714,-0.729001224041,0.0357811115682,-0.000381305144401,-0.000414654350607,0.000102834448626,-0.000114683934953,-2.37648637267e-05,-5.66770686419e-05,-0.000409928499721,0.483639002621,-0.000345083645077,0.216801937464,0.00437239844394,0.931032336695,0.364822227434,-0.00802572208869
0.0254750493914,-0.0402972474694,-0.0223684068769,-2.40271735191,-0.020900528878,2.35051894188,-0.729014575481,0.0357811115682,1.26659715534e-05,0.000465398014057,-0.000150271007442,6.42130689812e-05,4.8239089665e-06,7.50783801777e-05,0.000154137116624,0.483638729799,-0.000345279539635,0.216800414034,0.00437147979991,0.931029390397,0.364829731118,-0.00802691463719
0.0254767388105,-0.0403182655573,-0.0223682336509,-2.40269613266,-0.0209022983909,2.3505294323,-0.729084253311,0.0357811115682,0.000406662526075,0.000219611261855,0.000266692048172,0.00103042589035,-0.00036856054794,0.000185912285815,0.000142921067891,0.483652534496,-0.000344772436683,0.216820812125,0.00438131619965,0.931017084229,0.364861550037,-0.00800262024446
0.0254779253155,-0.0403559096158,-0.0223685055971,-2.40268111229,-0.0209025554359,2.35053348541,-0.729117572308,0.0348519273102,-0.000155499074026,-0.000305271707475,-0.000307794136461,0.00200724205934,7.51197148929e-05,0.000160054827575,-0.00416144775227,0.483664335741,-0.000344205785406,0.216845576836,0.00439110931142,0.931011026225,0.364877470207,-0.0079761285285
0.0254758950323,-0.0404221825302,-0.0223701633513,-2.40267515182,-0.0209023337811,2.35053682327,-0.729150652885,0.0348519273102,8.51110817166e-05,-0.0042083915323,-0.000137135502882,0.00042772985762,-0.000150560998009,0.00387099431828,-0.0023864666,0.483675356409,-0.000345741260611,0.216880371513,0.00440381922494,0.931005989887,0.36489094051,-0.0079406794143
0.0254806485027,-0.040469635278,-0.0223654713482,-2.40265679359,-0.0209022946656,2.35054373741,-0.729200601578,0.0348519273102,-0.00046678254148,-0.00289387488738,0.000395602342905,0.000650277535897,9.03565232875e-05,0.000153845176101,-0.00243529491127,0.483690377784,-0.000340998855355,0.216911509274,0.00441635361733,0.930995435482,0.36491845495,-0.00790669673997
0.0254676565528,-0.0404918529093,-0.0223750993609,-2.40264964104,-0.0209032073617,2.35054588318,-0.729252278805,0.0348519273102,-7.55423025112e-05,-0.00103744654916,-5.61410124646e-05,-0.000129179214127,0.000338682380971,0.000350173388142,-0.000642390747089,0.483696465153,-0.000352209236529,0.216925643068,0.00442166236762,0.930990085629,0.364932357481,-0.00789199020991
0.0254652258009,-0.0404911600053,-0.0223767887801,-2.40264964104,-0.0209019836038,2.35054707527,-0.729270398617,0.0348519273102,-7.0739797593e-06,-0.000252446392551,0.000531998695806,-6.12536969129e-05,-0.0030987446662,-0.000214943633182,-7.2909751907e-05,0.483696711126,-0.000353758252911,0.216925157445,0.00442120109994,0.930987739861,0.364938351953,-0.00789177850606
0.0254723820835,-0.0404893569648,-0.0223715212196,-2.40265345573,-0.0209023840725,2.3505487442,-0.729289412498,0.0348519273102,0.000518679094967,1.48761009768e-05,0.0025969420094,0.000225585637963,-4.64319236926e-05,0.000139144656714,-0.00258179171942,0.483695479859,-0.00034695948346,0.21692308977,0.00442080544896,0.930981261973,0.364954847756,-0.00789335909053
0.0254786089063,-0.0404893085361,-0.0223675984889,-2.40264463425,-0.0209021214396,2.35054969788,-0.729307711124,0.0348519273102,0.000323788088281,-0.000851164921187,0.000416228693211,0.000899390899576,-2.55410559475e-05,-4.19711577706e-05,5.94030607317e-05,0.483699261057,-0.000342886381815,0.216926564177,0.00442241048689,0.930976811657,0.364966270578,-0.00788919939315
0.0254811570048,-0.0404874049127,-0.0223632249981,-2.4026453495,-0.0209023002535,2.35055160522,-0.729323863983,0.0348519273102,0.000436923815869,0.000875930534676,0.00094660295872,-0.000292412907584,3.93158079532e-05,-7.47632220737e-05,-0.00142720795702,0.483699151648,-0.000339574004589,0.21692551296,0.00442239428061,0.930972569932,0.364977081824,-0.00788960650748
0.0254727005959,-0.0404828079045,-0.0223703738302,-2.40264487267,-0.0209016297013,2.35055375099,-0.729343891144,0.0348519273102,0.000283303146716,0.000710297783371,-0.000216823988012,0.000714402936865,0.000154430774273,-0.000170955798239,-0.000454451685073,0.483699290355,-0.000347025021389,0.216923666348,0.00442157195276,0.930971837324,0.364978941516,-0.0078904844658
0.0254728272557,-0.040483597666,-0.0223694592714,-2.40264940262,-0.020902376622,2.35055375099,-0.729352593422,0.0348519273102,-0.000110154120193,-0.000155193265527,-0.00278424075805,-0.000669769535307,-0.000108905522211,-0.000142525415868,-0.000537037849426,0.483697022415,-0.000346852297624,0.216921883494,0.00442098356682,0.930969847962,0.364983975298,-0.00789268962227
0.0254766233265,-0.0404826626182,-0.0223678667098,-2.40265750885,-0.0209016650915,2.35055088997,-0.729367494583,0.0348519273102,-4.62334792246e-05,0.00011910199828,0.000386388099287,4.4517146307e-05,0.00253512221389,0.000218843895709,-0.000522709276993,0.483693148059,-0.000343958579874,0.216918121081,0.00441875299769,0.930966295134,0.364992952968,-0.00789784244794
0.0254782550037,-0.0404883176088,-0.0223661325872,-2.40265059471,-0.0209017880261,2.35055327415,-0.729384303093,0.0324655994773,-0.00113246846013,-0.00301976711489,0.00190976716112,0.000714000198059,-0.000331601098878,0.000560457352549,-0.00382917933166,0.483697338993,-0.000342315133611,0.216923922909,0.00442140506407,0.930962651928,0.365002363337,-0.00789090207241
0.0254742633551,-0.040494568646,-0.0223679523915,-2.40262436867,-0.0209027118981,2.35056090355,-0.72941160202,0.0324655994773,-0.000901338935364,-0.000867561029736,-0.000224359348067,0.000352257484337,-3.23853964801e-05,0.000112870635348,-6.15699464106e-05,0.483711153954,-0.000345120041322,0.216938456601,0.00442868824885,0.930958752918,0.365012620322,-0.00787234247537
0.0254724975675,-0.0405023619533,-0.0223681200296,-2.40260577202,-0.0209026876837,2.35056233406,-0.729431867599,0.0324655994773,0.00279200286604,-0.00131745927501,0.000139666881296,0.0021616355516,-9.72598354565e-05,-1.59117589646e-05,-0.0030319117941,0.483720464061,-0.000346003455798,0.216950047476,0.00443353526813,0.93095551982,0.365021086508,-0.0078593874933
0.0254762526602,-0.0405109860003,-0.0223669689149,-2.40259170532,-0.0209020059556,2.35056352615,-0.729447364807,0.0324655994773,0.000533478392754,-0.0014804379316,0.00144805735908,0.00228751613759,1.68021761056e-05,-4.20235010097e-05,-0.00236933468841,0.48372784814,-0.00034352663696,0.216960144025,0.00443751593367,0.930951979293,0.365030309259,-0.00784816598742
0.0254791975021,-0.0405240207911,-0.0223664827645,-2.40258002281,-0.0209021437913,2.35056567192,-0.729473412037,0.0324655994773,-6.59788565827e-05,0.00027577005676,-0.00357678555883,-0.000257106818026,4.86250719405e-05,-7.21929245628e-05,-0.00195560581051,0.483734916774,-0.000341821290238,0.216971468609,0.00444219470873,0.93094668364,0.36504402643,-0.00783566064557
0.0254685506225,-0.0405247248709,-0.0223715491593,-2.40258049965,-0.0209023375064,2.35056519508,-0.729513168335,0.0324655994773,-0.000350657588569,-0.00071056582965,0.000168137063156,-0.000103896651126,-6.38902201899e-05,-9.95680820779e-05,-0.00299647008069,0.483734680376,-0.000349415540889,0.216971568529,0.00444189569849,0.930942269579,0.365055281866,-0.00783588791422
0.0254667643458,-0.0405239909887,-0.0223732367158,-2.40257883072,-0.0209025237709,2.35056686401,-0.729536831379,0.0324655994773,0.000430068059359,0.000124896570924,-0.00025972808362,-0.000270803138847,3.43048714058e-06,-4.94089217682e-05,-0.00195306388196,0.483735687393,-0.000351096798602,0.216972046727,0.004442286486,0.930938566178,0.365064745697,-0.00783474483438
0.0254738666117,-0.0405263714492,-0.0223709214479,-2.4025759697,-0.0209027379751,2.35056781769,-0.72955685854,0.0324655994773,0.000300170562696,-0.000541525019798,0.000231838246691,0.000353024806827,-2.01243510674e-05,8.28152551549e-05,-0.0045317299664,0.483737422032,-0.000346558354249,0.216974465552,0.00444345014158,0.930933186,0.365078511817,-0.00783191226111
0.0254772678018,-0.0405245162547,-0.0223655384034,-2.4025785923,-0.0209024176002,2.35056805611,-0.729575514793,0.0324655994773,0.000374070805265,-0.00118745560758,-0.00377163267694,0.000470217695693,1.31854985739e-05,-3.45427251887e-05,-5.63386165595e-05,0.483736121306,-0.000342313312416,0.216972505133,0.00444265814446,0.930928201634,0.365091188163,-0.00783391358823
0.025470033288,-0.040525007993,-0.0223690494895,-2.40257239342,-0.0209023840725,2.3505692482,-0.729599177837,0.0324655994773,-0.000427876249887,-0.000860574538819,9.9242075521e-05,0.000132285058498,-3.83428632631e-05,0.000258450018009,-0.00110749190208,0.483739252011,-0.000347616553235,0.216975570087,0.00444394678177,0.930925679092,0.365097685759,-0.00783012659045
0.0254691150039,-0.0405206121504,-0.0223734118044,-2.40257048607,-0.0209030322731,2.3505718708,-0.729630887508,0.0324655994773,-0.000823354464956,-0.000100210731034,-8.50283395266e-05,-0.000376862531994,-7.03672558302e-05,0.00266571366228,-0.00020036654314,0.483740029128,-0.000350067321504,0.216974296726,0.00444389807529,0.930920960778,0.365109711781,-0.00783036412563
0.0254668928683,-0.0405225493014,-0.0223729759455,-2.40257406235,-0.0209037233144,2.35057067871,-0.729646444321,0.0317038670182,0.000675096176565,0.000235037936363,1.2601661183e-05,-0.000401199155021,-1.13549231173e-05,5.67610113649e-05,-0.000448386883363,0.48373843615,-0.000351002370935,0.216973651793,0.00444354208067,0.930918347466,0.365116348258,-0.00783180727861
0.0254779085517,-0.0405268892646,-0.0223656855524,-2.40257549286,-0.0209017544985,2.35057091713,-0.729665279388,0.0317038670182,0.000819493958261,0.000647679378744,0.000956771895289,-0.000594131357502,-0.000136450646096,-4.87675679324e-05,0.00013406961807,0.483738373441,-0.000341986802287,0.21697517967,0.00444355117901,0.930911837782,0.365132981149,-0.00783012724548
0.025482961908,-0.0405321381986,-0.0223596077412,-2.40258049965,-0.0209039058536,2.35057091713,-0.729678630829,0.0317038670182,7.61750379752e-06,-0.000715070171282,0.00117490510456,0.000200360169401,2.65086491709e-05,-2.9072536563e-05,1.29882500914e-05,0.483736811911,-0.000336824506801,0.216975650486,0.00444435818933,0.930907086077,0.365145081705,-0.00783031057366
0.0254676565528,-0.0405139923096,-0.0223721768707,-2.40258026123,-0.0209025982767,2.35057401657,-0.72972369194,0.0317038670182,-0.00157414504793,0.000115533082862,-0.000429191364674,-0.00329679367132,7.320792065e-05,7.91296315583e-06,-4.252880899e-05,0.483735479323,-0.000350159138153,0.216967231099,0.0044408874767,0.930904052612,0.365152709908,-0.00783718569423
0.0254673939198,-0.0405078418553,-0.0223745703697,-2.40258336067,-0.0209028832614,2.35057258606,-0.72973972559,0.0317038670182,0.00053651665803,3.0082755984e-05,0.000108727552288,-1.72214149643e-05,-6.50871152175e-05,-5.11375546921e-05,-0.000198395093321,0.483733101901,-0.000351487096504,0.216962850386,0.00443900257117,0.930901533375,0.365159046431,-0.00784225157925
0.0254718158394,-0.0405056141317,-0.0223714914173,-2.40257906914,-0.0209020450711,2.3505730629,-0.729756474495,0.0317038670182,0.000271174183581,-0.000334647542331,0.000484493066324,0.00147163111251,-0.000148397462908,5.87292652199e-06,-0.000374044728233,0.483734847931,-0.000347526688407,0.216963915573,0.00443937755232,0.930896886246,0.365170919394,-0.00784081743425
0.0254746824503,-0.0405050218105,-0.022368689999,-2.40258097649,-0.0209023281932,2.3505692482,-0.729776978493,0.0319225378335,0.000724386540242,0.00115431891754,0.000103290782135,0.00114574143663,-2.10704019992e-05,-0.000240274195676,-0.0025641056709,0.483733082362,-0.000345117872103,0.216962191074,0.00443820558733,0.930892394142,0.365182315226,-0.0078440545268
0.025491932407,-0.0405081212521,-0.0223543066531,-2.40256357193,-0.0209029093385,2.35055994987,-0.729849934578,0.0319225378335,-0.00052065012278,-0.00271181180142,-7.4817588029e-05,0.00148776592687,3.51199269062e-05,-0.0002832969476,-0.00438315281644,0.483738983032,-0.000329964873298,0.216970110626,0.00444057089778,0.930873290463,0.365231086422,-0.00783910890367
0.025480389595,-0.0405732728541,-0.0223609227687,-2.40253067017,-0.0209023170173,2.35053229332,-0.729952931404,0.0319225378335,-0.000898323778529,-0.00825075618923,-0.00391523214057,0.00492543261498,1.82849526027e-05,-0.00108756811824,-0.00688074249774,0.483754763101,-0.000338576763673,0.21701287434,0.00445203820578,0.930858227532,0.365270039057,-0.00780626954065
0.0254678763449,-0.0407191514969,-0.022374631837,-2.40247011185,-0.0209023915231,2.35045361519,-0.730088829994,0.0319225378335,-0.000654403469525,-0.0106241088361,-0.000617652956862,0.00555956177413,6.78848027746e-06,-0.00544958328828,-0.00717124156654,0.48378070104,-0.00035111294919,0.217101771001,0.00447333731737,0.930838895125,0.36532031119,-0.00774664400242
0.0254671722651,-0.0410173907876,-0.0223731473088,-2.40227913857,-0.0209042467177,2.34995269775,-0.73017513752,0.0319225378335,0.000608547357842,-0.0168020911515,0.00069235166302,0.0131990211084,-2.16338921746e-05,-0.0417323149741,-0.000798203924205,0.483788120092,-0.000352422275387,0.217282298057,0.00447186595233,0.93082398948,0.365358178669,-0.00775267611908
0.0254759360105,-0.0424065031111,-0.0223639272153,-2.40007519722,-0.0209092069417,2.34356212616,-0.730446398258,0.0319225378335,-0.000167571139173,-0.0422359891236,0.000103069934994,0.0865595340729,-0.000429623527452,-0.245355442166,-0.00339142349549,0.48349914604,-0.000370795886858,0.218322857586,0.00399506852145,0.930775070262,0.365458021474,-0.00906875023621
0.0254863668233,-0.0432017967105,-0.0223561041057,-2.39831972122,-0.0209129266441,2.33882236481,-0.730476498604,0.0319225378335,0.00037020095624,-0.0557958520949,-0.00123885006178,0.121669344604,9.37834702199e-05,-0.330248564482,-9.55743162194e-05,0.483307150234,-0.000382628929609,0.219033692123,0.00362382015629,0.930767433252,0.365454337068,-0.0100985309952
0.0254873875529,-0.0443451106548,-0.0223527997732,-2.39580726624,-0.0209184885025,2.33225560188,-0.730526745319,0.0319225378335,-0.000919669750147,-0.0796954333782,-0.000500113237649,0.162745043635,-0.000113265326945,-0.439760744572,-0.00574967125431,0.483076247098,-0.000408952292606,0.220075543313,0.00313077671723,0.930757986521,0.365442534541,-0.011468321469
0.0254774652421,-0.0465397462249,-0.0223617907614,-2.39164042473,-0.0209291223437,2.3216073513,-0.730621159077,0.0319225378335,-9.78525495157e-05,-0.122835353017,0.000376771000447,0.241293206811,0.000435893016402,-0.581661224365,-0.00646689208224,0.482768525759,-0.000463161643595,0.221976951675,0.00240581358056,0.930743726584,0.365415452347,-0.013486080103
0.0254700109363,-0.0491687990725,-0.0223686993122,-2.38568758965,-0.0209392290562,2.30820131302,-0.730716109276,0.0319225378335,-0.00249919597991,-0.145062699914,-0.00081120460527,0.347271978855,-0.0023672466632,-0.751160144806,-0.00344076519832,0.48264746113,-0.000526276072134,0.224615606827,0.00159659911202,0.930727654902,0.365369855119,-0.0157591854762
0.0254612844437,-0.0529270656407,-0.0223759263754,-2.37755775452,-0.0209562834352,2.29074931145,-0.730781257153,0.0319225378335,0.000761792936828,-0.200410947204,0.000551167642698,0.43979460001,-0.00284213735722,-0.902252495289,-0.00374326389283,0.48264616106,-0.000606336564684,0.228398329813,0.000669857392643,0.930715411599,0.365281308494,-0.0183831241476
0.0254818107933,-0.0640216395259,-0.0223479866982,-2.35113954544,-0.0222200080752,2.2406411171,-0.730948448181,0.0319225378335,-0.000697203271557,-0.2900390625,7.1604095865e-05,0.689355313778,-0.0434516556561,-1.20726323128,-0.000979526666924,0.483660642396,-0.000930915467039,0.240872840684,-0.000951425968874,0.93052735685,0.365400473714,-0.0245036004648
0.0254866816103,-0.069299928844,-0.0223412234336,-2.33879137039,-0.0227384250611,2.21881389618,-0.730967700481,0.0332660749555,-0.00342079391703,-0.324357360601,-0.00103952828795,0.781096100807,-0.0285960249603,-1.33080613613,-0.000333219708409,0.484326291348,-0.00107972175259,0.246961793411,-0.00143482752118,0.930472511381,0.365394406255,-0.0265664148181
0.0254661198705,-0.0750703364611,-0.0223536267877,-2.32448863983,-0.0230992343277,2.19542980194,-0.730972409248,0.0332660749555,-0.00154980004299,-0.360792696476,-0.000993935740553,0.893264591694,-0.0259503293782,-1.41850733757,-0.000446034828201,0.485355126362,-0.00124099108076,0.254056599753,-0.00180870685666,0.930463850026,0.365292735824,-0.0281951984138
0.0254585780203,-0.095382861793,-0.0223588999361,-2.27561235428,-0.0241073798388,2.12157392502,-0.730969905853,0.0332660749555,-0.000970490626059,-0.456416338682,-0.000835071550682,1.11856484413,-0.0201658159494,-1.55473482609,0.000130035594339,0.489162947201,-0.00170833623177,0.279498559563,-0.00201050549376,0.93053494845,0.364915563349,-0.0306153375197
0.0254425927997,-0.103396289051,-0.0223683044314,-2.25608611107,-0.0246470402926,2.09504532814,-0.730967760086,0.0332660749555,-0.00107711472083,-0.495523244143,0.000976209004875,1.17713773251,-0.0331121571362,-1.55994105339,0.000610304938164,0.490858034103,-0.0019198605333,0.29001079643,-0.00153664488496,0.930595596202,0.364793190165,-0.0302556299692
0.0254324674606,-0.112018086016,-0.0223659593612,-2.2355825901,-0.0251709707081,2.06852507591,-0.730963647366,0.0332660749555,-0.00218121567741,-0.515046298504,0.00318314484321,1.23423600197,-0.0268562138081,-1.56754899025,0.000121690020023,0.492640667054,-0.00212685303114,0.301346053664,-0.000786391536952,0.93068451499,0.364658836784,-0.0291487149975
0.0252264980227,-0.139082118869,-0.0223898142576,-2.1732070446,-0.0258214101195,1.99569678307,-0.730949759483,0.0332660749555,-0.00519644515589,-0.597832560539,-2.946598579e-05,1.28962230682,-0.0140807535499,-1.39930927753,-3.97937219532e-05,0.497837748193,-0.00270866403138,0.337366765127,0.00260275724038,0.931171761986,0.363933521004,-0.0215584625903
0.025037413463,-0.149928346276,-0.0224865935743,-2.15024280548,-0.0261042322963,1.97139251232,-0.730948388577,0.0332660749555,-0.0113183939829,-0.624756991863,-0.0105173932388,1.26287233829,-0.022940967232,-1.29174077511,-0.00122499908321,0.499515141963,-0.00302972688709,0.351439127073,0.00443955220182,0.931395997817,0.363575000741,-0.0171756847771
0.0247503388673,-0.160563707352,-0.0226646475494,-2.12901473045,-0.0265087485313,1.94998061657,-0.730944693089,0.0338065139949,-0.0198699813336,-0.64014428854,-0.0179552547634,1.23241138458,-0.0267571192235,-1.22666478157,-0.000614061544184,0.50087866455,-0.00345401735215,0.364911475856,0.00647515922435,0.931621210491,0.363162678448,-0.0123637027067
0.024307064712,-0.172280430794,-0.0229669641703,-2.10745978355,-0.0271000545472,1.92916965485,-0.73094534874,0.0338065139949,-0.0273482371122,-0.642762362957,-0.0206989087164,1.1572586298,-0.0410028882325,-1.10391175747,-0.00029510926106,0.502010458653,-0.00405934780143,0.379194735953,0.00892617331898,0.931867775625,0.362627527637,-0.00663687163813
0.0226834174246,-0.203562527895,-0.0252757128328,-2.05880355835,-0.0314269140363,1.88645911217,-0.730948388577,0.0338065139949,-0.0460745655,-0.701723217964,-0.0780286341906,0.932797729969,-0.164536193013,-0.767183840275,-0.000402171484893,0.503448427108,-0.00724141279445,0.41518651235,0.0174328723393,0.932499189573,0.360599260192,0.0104656410081
0.0217374097556,-0.215427234769,-0.0268035307527,-2.0438811779,-0.0344620719552,1.87450063229,-0.730954349041,0.0338065139949,-0.0655443444848,-0.696211874485,-0.104816436768,0.813666284084,-0.198181211948,-0.62514513731,0.000149697589222,0.503376349075,-0.00906831003296,0.426570854106,0.0210427717198,0.932727771801,0.359586845593,0.0165349820287
0.0201865546405,-0.228484660387,-0.0289776027203,-2.02919816971,-0.0386411100626,1.86352288723,-0.730965793133,0.0338065139949,-0.0956753715873,-0.684426724911,-0.128076270223,0.692813277245,-0.244187310338,-0.531542420387,-0.00141094985884,0.503012746782,-0.0118608037434,0.439284194714,0.0256727323479,0.933069020924,0.357997007966,0.0236908205408
0.0132963331416,-0.26055765152,-0.03770262748,-2.00151848793,-0.0547316893935,1.84406602383,-0.731534063816,0.0338065139949,-0.189197719097,-0.60209441185,-0.228261396289,0.429803818464,-0.408794790506,-0.281596183777,-0.0411183424294,0.500475317401,-0.0231234972669,0.467169679612,0.0392646074778,0.934441221453,0.351703328105,0.0397826964145
0.0107390778139,-0.267568469048,-0.0407227352262,-1.99669027328,-0.0598120056093,1.84105861187,-0.732314825058,0.0338065139949,-0.230459183455,-0.569216787815,-0.269435018301,0.375092923641,-0.438811957836,-0.218696832657,-0.0896398425102,0.499581456263,-0.0273292183023,0.473238295028,0.0431773187599,0.93492403884,0.349545066732,0.0432551355622
0.00495779002085,-0.279093980789,-0.0475950688124,-1.98917734623,-0.0696755498648,1.8373670578,-0.735084652901,0.0339207723737,-0.288025826216,-0.467052817345,-0.341684490442,0.291609555483,-0.467378526926,-0.117248825729,-0.166775211692,0.498156614219,-0.0353954614496,0.481947744679,0.0495327060758,0.935825874705,0.345604981192,0.048307762551
-0.0123370783404,-0.295665383339,-0.0695998594165,-1.97753119469,-0.0961634814739,1.83602786064,-0.749471247196,0.0339207723737,-0.429042160511,-0.177874088287,-0.574618220329,0.20978718996,-0.611417293549,0.0315132662654,-0.433482050896,0.495176974832,-0.0606148900861,0.495993503272,0.0648351179974,0.938148803459,0.335590817058,0.0552452100762
-0.020189980045,-0.297611445189,-0.0800653100014,-1.97414684296,-0.106560535729,1.83704519272,-0.757821559906,0.0339207723737,-0.481632888317,-0.0628647431731,-0.64315778017,0.19288918376,-0.607939064503,0.0970734134316,-0.541901409626,0.494262429864,-0.0719858815815,0.498788992925,0.0700353532159,0.939135197983,0.331688482247,0.0557034975708
-0.0282542798668,-0.297756075859,-0.0909321829677,-1.97108447552,-0.116030022502,1.83919167519,-0.76731044054,0.0339207723737,-0.526477634907,0.0399173013866,-0.7142406106,0.187053531408,-0.578191161156,0.163354605436,-0.65156686306,0.493537627255,-0.0835056767058,0.500634594323,0.0746646584555,0.940066206587,0.328020964426,0.0557042421618
-0.0395027808845,-0.295616686344,-0.106705769897,-1.96724689007,-0.127371698618,1.84342777729,-0.78146392107,0.0339207723737,-0.591252565384,0.196057289839,-0.861610233784,0.203385263681,-0.54901599884,0.265618175268,-0.758183419704,0.492660018326,-0.0995673021816,0.501915349856,0.0800189186213,0.941395979523,0.323001879419,0.0551395319142
-0.0589813254774,-0.285392433405,-0.135212048888,-1.96074414253,-0.143427684903,1.85428547859,-0.807614803314,0.0339207723737,-0.66733622551,0.440102547407,-0.993726789951,0.232975706458,-0.465592563152,0.434421181679,-0.923699915409,0.491714324215,-0.127482105308,0.50109351324,0.0872885416177,0.943743931568,0.314538545006,0.0528545695728
-0.0707045868039,-0.276644736528,-0.15300963819,-1.95650875568,-0.150715857744,1.86270856857,-0.823980629444,0.0339962914586,-0.705427825451,0.581757724285,-1.08460175991,0.266129851341,-0.407365590334,0.550992965698,-1.01427924633,0.491319145241,-0.14227410842,0.499809124015,0.0903329240983,0.945026987487,0.309994436302,0.0516469253283
-0.0812669619918,-0.266873389482,-0.169667899609,-1.95233547688,-0.156161770225,1.87147140503,-0.839487969875,0.0339962914586,-0.710764110088,0.716889083385,-1.13518130779,0.295115798712,-0.32966080308,0.606288731098,-1.05345833302,0.490932074695,-0.159709043994,0.497544432565,0.0934166137688,0.946511690905,0.304762631371,0.0500868591569
-0.0960244163871,-0.251172304153,-0.193394809961,-1.94623076916,-0.162060126662,1.88434696198,-0.861320018768,0.0339962914586,-0.745950460434,0.87593537569,-1.2196637392,0.331083029509,-0.278483510017,0.669323861599,-1.12074780464,0.490156267844,-0.181294218732,0.493762019069,0.0964605063237,0.948439364452,0.29812916626,0.047719415256
-0.118664897978,-0.223001331091,-0.231019839644,-1.93565797806,-0.168320313096,1.90526604652,-0.895108580589,0.0339962914586,-0.774997651577,1.03160738945,-1.29449939728,0.360144764185,-0.164046704769,0.71062040329,-1.11635005474,0.488036467443,-0.214901003572,0.486426768159,0.100246264675,0.951575030501,0.287372109209,0.0432772259184
-0.131599545479,-0.204894199967,-0.2529296875,-1.92948079109,-0.170597493649,1.91746008396,-0.914304614067,0.0339962914586,-0.767062723637,1.09090840816,-1.29070103168,0.352912455797,-0.0881605818868,0.721218764782,-1.12512660027,0.486238364738,-0.233080317054,0.481530143195,0.101788076856,0.953357627396,0.281306104762,0.040190755277
-0.14451867342,-0.185820639133,-0.275085359812,-1.92355918884,-0.17137606442,1.92932784557,-0.933553218842,0.0339962914586,-0.753157377243,1.14623069763,-1.31389665604,0.332569122314,-0.0200804490596,0.682046890259,-1.13599026203,0.483455073965,-0.253376641138,0.475235847906,0.10274495126,0.955459852356,0.274277366558,0.0362197654648
-0.157979205251,-0.165028199553,-0.298381656408,-1.91760611534,-0.171451747417,1.94125747681,-0.953601181507,0.0339962914586,-0.728025853634,1.16255474091,-1.26392543316,0.322620362043,-0.00478256633505,0.64424675703,-1.08716464043,0.479826340079,-0.273284414791,0.468330785212,0.10321258908,0.957578434058,0.267192644511,0.0316037100949
-0.180584892631,-0.12846185267,-0.337000131607,-1.90891587734,-0.171457201242,1.9591165781,-0.986177921295,0.0339962914586,-0.705852746964,1.16996979713,-1.19276714325,0.227520138025,-0.00216322718188,0.500823259354,-1.0196031332,0.471464829649,-0.30600512386,0.454947742306,0.102939378759,0.961182607617,0.255095720626,0.0213928054684
-0.193158313632,-0.107819974422,-0.357788801193,-1.90529036522,-0.171466454864,1.96729302406,-1.0040974617,0.0339962914586,-0.701877355576,1.12488651276,-1.12545609474,0.174284368753,-0.00183943554293,0.402791380882,-0.972312748432,0.465455590882,-0.323413364277,0.446561614064,0.101916203636,0.963110463726,0.248650788621,0.0142866059244
-0.203513845801,-0.0911776423454,-0.374158203602,-1.90316486359,-0.171432420611,1.97285020351,-1.0183454752,0.0340547338128,-0.672291040421,1.10002696514,-1.04843342304,0.117141872644,0.00330289220437,0.341129273176,-0.925831854343,0.459797015231,-0.337028636708,0.439311565591,0.100488934737,0.964660291128,0.24345632605,0.00784306791131
-0.214790701866,-0.0731498226523,-0.390940159559,-1.90187966824,-0.171432197094,1.97804069519,-1.03353452682,0.0340547338128,-0.662036597729,1.02139854431,-0.941512405872,0.037792827934,-0.00191604951397,0.271868407726,-0.858373105526,0.45310361901,-0.350983144666,0.430911654893,0.0983221027354,0.966231985034,0.238177406705,0.00019452172707
-0.245895549655,-0.0266012139618,-0.431368052959,-1.90324151516,-0.171464309096,1.98476207256,-1.07325696945,0.0340547338128,-0.532280862331,0.798834860325,-0.652661859989,-0.0729672163725,0.000119657262985,0.00439988775179,-0.724739313126,0.431625102852,-0.384190499729,0.406492700087,0.0883150149725,0.970011041417,0.225235053429,-0.0234138433641
-0.254270553589,-0.0144927641377,-0.441188156605,-1.90476667881,-0.171481266618,1.98465180397,-1.08456456661,0.0340547338128,-0.504499435425,0.718988656998,-0.566834747791,-0.109064124525,-0.00385873997584,-0.00153124937788,-0.682282745838,0.425073286225,-0.391953133507,0.39947471177,0.084423695087,0.970788726023,0.222511471256,-0.0305046551847
-0.261877685785,-0.00383998989128,-0.449285447598,-1.90684723854,-0.171505883336,1.98454010487,-1.09538328648,0.0340547338128,-0.45383888483,0.626700162888,-0.458532571793,-0.139481961727,-0.00382804707624,-0.0158659946173,-0.660689651966,0.4190955515,-0.398404697675,0.392985878647,0.0806180657373,0.971301000372,0.220703344902,-0.036947630453
-0.270741641521,0.00805259030312,-0.457873612642,-1.91023302078,-0.171838089824,1.98369371891,-1.10852324963,0.0340547338128,-0.383334606886,0.509545922279,-0.359239578247,-0.17171639204,-0.0213591549546,-0.0676472857594,-0.598678231239,0.411880858794,-0.405195283553,0.385215623373,0.0756234404443,0.971694047513,0.219290930374,-0.0447578019318
-0.280195891857,0.0202708523721,-0.466685026884,-1.91530561447,-0.173036023974,1.98171555996,-1.12424254417,0.0340731218457,-0.267706394196,0.340018600225,-0.241362780333,-0.177644759417,-0.0518577843904,-0.0552979819477,-0.501622140408,0.403496344634,-0.411807268827,0.376453552582,0.0694292696866,0.971781620831,0.218899431676,-0.0538803900516
-0.284500926733,0.0256212204695,-0.470229834318,-1.91848099232,-0.173743620515,1.98105895519,-1.13325953484,0.0340731218457,-0.197886615992,0.250440478325,-0.159385502338,-0.173026740551,-0.0356976911426,-0.0328064858913,-0.490180164576,0.399632257366,-0.414445196615,0.372210449185,0.066330198891,0.971524382529,0.219904097115,-0.0581624159861
-0.287211805582,0.028816703707,-0.472247064114,-1.92105638981,-0.174215763807,1.98082268238,-1.14111506939,0.0340731218457,-0.134622648358,0.159765198827,-0.0941154509783,-0.149830639362,-0.030262324959,-0.00685543194413,-0.48579365015,0.397166816888,-0.415912576525,0.369374254494,0.0641698073352,0.97108602795,0.221721782641,-0.0609394202713
-0.288950651884,0.0311197731644,-0.473467856646,-1.92354822159,-0.174606844783,1.98078072071,-1.15010070801,0.0340731218457,-0.0620433352888,0.081735894084,-0.0416505634785,-0.11932618171,-0.0154073545709,2.48058277066e-05,-0.451838701963,0.395512281529,-0.416665558046,0.367136196039,0.0623826805537,0.970377960048,0.224713112814,-0.0630795723216
-0.288880139589,0.0314580723643,-0.473408222198,-1.92602789402,-0.175010412931,1.9804713726,-1.162763834,0.0340731218457,0.0494772046804,-0.0181353073567,0.0398121662438,-0.0412880554795,-0.0133167784661,-0.0214913468808,-0.392755866051,0.394902927953,-0.416178616212,0.365660090759,0.0607635206413,0.968838553709,0.231265556286,-0.0646211542406
-0.287476241589,0.0305964536965,-0.472134381533,-1.92616164684,-0.175060197711,1.98009288311,-1.16975700855,0.0340731218457,0.104590199888,-0.087549045682,0.0992387235165,0.0133603457361,0.000101894700492,-0.0157841183245,-0.382188409567,0.395968493152,-0.414966336034,0.366027221979,0.0606414605913,0.967664526624,0.236192245451,-0.0645073643275
-0.285280376673,0.028460258618,-0.470015674829,-1.92583346367,-0.175051212311,1.98003458977,-1.1764343977,0.0340731218457,0.144441008568,-0.139189720154,0.137563794851,0.0265047028661,0.000186202727491,-0.00104712566826,-0.3542547822,0.39778236745,-0.4132605859,0.367260163527,0.0612166699124,0.966398014003,0.241435014691,-0.063533701525
-0.282003432512,0.0253564827144,-0.46664839983,-1.9251408577,-0.175052836537,1.98005020618,-1.18327248096,0.0340731218457,0.189502209425,-0.173850849271,0.194907084107,0.0462773442268,-1.25166297948e-06,0.00511110248044,-0.32568910718,0.400280176057,-0.410969665365,0.368928433666,0.0621457673286,0.964979819048,0.247162219585,-0.062150537695
-0.278617233038,0.0222462713718,-0.463089615107,-1.92422175407,-0.175047695637,1.98010313511,-1.1882904768,0.0340731218457,0.232609853148,-0.219458580017,0.237399816513,0.0657438486814,0.000407035578974,0.00257040699944,-0.296410620213,0.403375612653,-0.40817827597,0.371013933877,0.0634256511089,0.963465486712,0.253111950789,-0.0603803176188
-0.26595467329,0.0109510654584,-0.450609207153,-1.9195984602,-0.175022676587,1.98052096367,-1.20147550106,0.0340731218457,0.312640815973,-0.259605944157,0.299577593803,0.134235486388,0.000910395872779,0.0163766518235,-0.256806194782,0.414089682824,-0.398658057359,0.378916512423,0.0686559772815,0.958648458806,0.270913803217,-0.0537140589677
-0.26050761342,0.0065500177443,-0.445386111736,-1.91711163521,-0.175017610192,1.98078799248,-1.20587003231,0.0340731218457,0.326022833586,-0.26102027297,0.303207606077,0.160153031349,-0.000106708714156,0.0191404260695,-0.254155695438,0.418675153069,-0.394624479038,0.382370401113,0.0710726663573,0.956640142034,0.277854687075,-0.0508437538569
-0.248476922512,-0.00278974464163,-0.434270352125,-1.91145348549,-0.174984797835,1.98150396347,-1.21389079094,0.034170307219,0.370137065649,-0.276066720486,0.342551708221,0.173325791955,-0.000189730591956,0.0255652405322,-0.220978364348,0.428502985575,-0.385721562893,0.389966593811,0.076456990241,0.952282321228,0.292115097345,-0.0445138058638
-0.235957637429,-0.0113755213097,-0.423051089048,-1.90534293652,-0.174903392792,1.98232626915,-1.22094666958,0.034170307219,0.389693498611,-0.273089975119,0.336834192276,0.184020027518,-0.000838808075059,0.0176410526037,-0.198289334774,0.438718810007,-0.376064752399,0.397733360458,0.0820487355232,0.947556591805,0.306524609061,-0.0380417409601
-0.229382559657,-0.0159925613552,-0.417366981506,-1.90220594406,-0.174861118197,1.98265230656,-1.22417461872,0.034170307219,0.394703924656,-0.258608371019,0.33770480752,0.185629233718,0.0082973446697,0.017823940143,-0.182765439153,0.443388126307,-0.371389585785,0.401496080333,0.0846834020681,0.945297377259,0.313084938626,-0.0349200637986
-0.221036195755,-0.0209114775062,-0.409928560257,-1.89826762676,-0.174688100815,1.98303747177,-1.22781765461,0.034170307219,0.397928714752,-0.223931521177,0.355355113745,0.185471072793,0.0111465230584,0.0171935874969,-0.163370847702,0.449718062436,-0.364859698019,0.40608637422,0.0879331992514,0.942196946769,0.321821485275,-0.0310418632067
-0.214871421456,-0.0245832875371,-0.404539465904,-1.89536583424,-0.174576789141,1.98333656788,-1.2305136919,0.034170307219,0.376714915037,-0.233289644122,0.329385340214,0.179330468178,0.00524640223011,0.0225487332791,-0.166858062148,0.454267235589,-0.360006438842,0.409514355303,0.0903386322633,0.939855926153,0.328202634306,-0.0281567064267
-0.206746086478,-0.029456300661,-0.397379308939,-1.8914898634,-0.174292370677,1.98386418819,-1.23393988609,0.034170307219,0.365160286427,-0.183931708336,0.312901288271,0.173093706369,0.0161385573447,0.0398616082966,-0.151252895594,0.46232444888,-0.351160747613,0.415660343502,0.0946527438979,0.935566450666,0.339461229735,-0.022854926246
-0.197450652719,-0.0341510027647,-0.389239370823,-1.88707530499,-0.17397454381,1.98479318619,-1.23791098595,0.034170307219,0.34494265914,-0.176838859916,0.314929515123,0.158299461007,0.00897365901619,0.0352966040373,-0.143204912543,0.466722091208,-0.346235331613,0.418792821692,0.0969424981505,0.933111889077,0.345687653772,-0.0201097048744
-0.192549392581,-0.0367484204471,-0.384777188301,-1.88498854637,-0.17383377254,1.98535609245,-1.2399777174,0.034170307219,0.323084026575,-0.175495147705,0.288462877274,0.132679998875,0.00819432735443,0.0366233587265,-0.138994604349,0.470483633344,-0.341807748956,0.421500552988,0.0989007298111,0.930921760287,0.351127122221,-0.0176936596649
-0.186511531472,-0.0399132966995,-0.379530966282,-1.882589221,-0.173726662993,1.98606801033,-1.24260640144,0.034316085279,0.296734362841,-0.141559317708,0.263586491346,0.113250143826,0.000149599771248,0.0264854431152,-0.135717630386,0.474627439334,-0.336763670409,0.424523050596,0.101085902921,0.928379670546,0.357306265533,-0.0150019945974
-0.174084961414,-0.0458829924464,-0.367855399847,-1.8779681921,-0.173733606935,1.9879475832,-1.24950540066,0.034316085279,0.202489033341,-0.0914242789149,0.207503631711,0.0708015263081,0.000106642808532,0.0537472032011,-0.128852248192,0.483275565112,-0.325810864555,0.430395971352,0.105525431732,0.922514015765,0.371129622279,-0.00975074997013
-0.171256169677,-0.0470453463495,-0.364887923002,-1.87703156471,-0.173732995987,1.9887765646,-1.25126326084,0.034316085279,0.173086449504,-0.0737599804997,0.18560744822,0.059163056314,1.70760322362e-05,0.0531902126968,-0.0961957499385,0.485374351716,-0.323151694493,0.431627138144,0.106592518253,0.921034405783,0.374514098066,-0.00853513022061
-0.168498873711,-0.0480651035905,-0.362086087465,-1.87619102001,-0.1737305969,1.98955762386,-1.25283372402,0.034316085279,0.150190070271,-0.0521030575037,0.145411372185,0.0375510826707,-6.6848595452e-05,0.0373311042786,-0.0899540185928,0.487367334771,-0.320580857676,0.432727839277,0.107560085889,0.919626092489,0.37770834785,-0.00742169672388
-0.162868067622,-0.0491209626198,-0.357296049595,-1.87474393845,-0.173725232482,1.99074065685,-1.25786781311,0.034316085279,0.0683073624969,0.00122497812845,0.0564085841179,0.00366550148465,2.03530416911e-05,0.0168567504734,-0.0853406488895,0.491070114163,-0.315705204964,0.434233351573,0.108970697091,0.916573460314,0.384686041657,-0.0059268928981
-0.162021413445,-0.0490318760276,-0.356475710869,-1.87479841709,-0.173728436232,1.99096572399,-1.25926935673,0.034316085279,0.0300769656897,0.0109672155231,0.0382424145937,-0.00543397292495,0.000164987752214,0.00356713100336,-0.0744588449597,0.491637044757,-0.314895345123,0.434194006924,0.10902913733,0.915970067348,0.386104403748,-0.00590525389417
-0.161697283387,-0.0487772002816,-0.356062650681,-1.87490749359,-0.173725262284,1.99096739292,-1.2605638504,0.034316085279,0.00690076313913,0.0265505574644,0.0163066610694,-0.00604815594852,4.04597412853e-05,0.000287006725557,-0.0838387608528,0.49187500488,-0.314522280416,0.43400610289,0.108925253551,0.915580366357,0.387054161158,-0.00607930025262
-0.161782681942,-0.0481762178242,-0.356099545956,-1.87508201599,-0.173730656505,1.99096143246,-1.26211333275,0.0344119593501,-0.0184107907116,0.0373469591141,-0.0159637443721,-0.00755090406165,-0.000322088424582,-0.00073566834908,-0.0869574248791,0.491855096922,-0.314585761949,0.433568120122,0.108676112057,0.915301110447,0.387777106209,-0.00650349621851
-0.163703918457,-0.0464327074587,-0.357563823462,-1.87593281269,-0.173747450113,1.99094605446,-1.26492381096,0.0344119593501,-0.0555726587772,0.0434473343194,-0.0517396256328,-0.0237747114152,-3.60062113032e-05,0.000285370828351,-0.0308530200273,0.490803724868,-0.316172712689,0.432203366744,0.10783933868,0.915451516182,0.387631827303,-0.00779517127784
-0.164790853858,-0.0457426011562,-0.358630686998,-1.87639582157,-0.173750326037,1.99094557762,-1.26574921608,0.0344119593501,-0.0639153122902,0.0389260910451,-0.0642357617617,-0.0280571226031,3.35166078003e-05,-0.000206880184123,-0.0578812174499,0.490101904781,-0.317190727064,0.431584250732,0.107440437435,0.915723640734,0.387087425928,-0.00837201135035
-0.166103363037,-0.0450844168663,-0.359928995371,-1.87696349621,-0.173750087619,1.99094223976,-1.26673698425,0.0344119593501,-0.082001760602,0.0407749563456,-0.0826952978969,-0.0354240499437,-0.000334680749802,-0.000170884872205,-0.0527147166431,0.489228800898,-0.31841786625,0.430926040989,0.106998444131,0.916054929028,0.386411400734,-0.00899605580998
-0.167573437095,-0.0443947315216,-0.361459434032,-1.87752938271,-0.173759862781,1.99092185497,-1.26756989956,0.0344119593501,-0.0858818814158,0.0366184338927,-0.0825815200806,-0.0295147560537,0.000173809225089,-0.00278751994483,-0.0473549999297,0.488226598058,-0.319834210441,0.430248264158,0.106538508023,0.916490777736,0.385488087701,-0.00965062455978
-0.171961009502,-0.0426654666662,-0.365843385458,-1.87894201279,-0.173760384321,1.9908926487,-1.26967215538,0.0344296917319,-0.0940628945827,0.0312681533396,-0.100402474403,-0.0322806425393,2.23396200454e-05,-9.71116605797e-06,-0.0443338267505,0.485295293264,-0.323976690417,0.428551356877,0.105366574425,0.917816126235,0.382600426905,-0.0113294497266
-0.173785045743,-0.0420673601329,-0.367576807737,-1.87950181961,-0.173761725426,1.99087369442,-1.27028441429,0.0344296917319,-0.0994492769241,0.0368569456041,-0.094636157155,-0.0282451845706,2.0028970539e-05,-0.000171496853,-0.0198765229434,0.484086494696,-0.325647617332,0.427925776732,0.104921296986,0.918395633328,0.38131108596,-0.0119514655352
-0.175573602319,-0.0415130890906,-0.369231253862,-1.88002574444,-0.173762723804,1.99085462093,-1.27063119411,0.0344296917319,-0.107388161123,0.0260001402348,-0.0972916409373,-0.0278000049293,-0.000261664914433,-0.002825204283,-0.0162496455014,0.482911478519,-0.327261709645,0.427343298532,0.104504381554,0.919000700062,0.379946955517,-0.0125243042238
-0.17787528038,-0.0409803800285,-0.371203511953,-1.88066029549,-0.173765927553,1.99083459377,-1.271048069,0.0344296917319,-0.106911756098,0.0204060543329,-0.0918430909514,-0.028611170128,-0.000166379773873,0.00015116049326,-0.020765600726,0.481433860182,-0.329258640588,0.426713021972,0.104036676319,0.919749822464,0.378237150747,-0.0131640242863
-0.180887654424,-0.0402967073023,-0.374112516642,-1.88154089451,-0.173767760396,1.99082219601,-1.27169787884,0.0344296917319,-0.0935756117105,0.0159841366112,-0.0981882885098,-0.0309510584921,-6.01748865847e-07,-0.000100139259303,-0.0263895560056,0.479369780862,-0.332013977696,0.425869024085,0.103401654101,0.920767960233,0.375896073629,-0.0140215138123
-0.182309627533,-0.0400950163603,-0.375515639782,-1.88197410107,-0.173767328262,1.99081337452,-1.27207493782,0.0344415083528,-0.0910475626588,0.0111208008602,-0.0905121341348,-0.0275550875813,7.90312842582e-05,0.000222236281843,-0.0278381370008,0.478299244147,-0.333404110745,0.425504001337,0.103105647803,0.921269436369,0.374732251614,-0.014407993803
-0.184040561318,-0.0398796796799,-0.377343535423,-1.88255274296,-0.173767790198,1.99079883099,-1.27254414558,0.0344415083528,-0.0827430710196,0.0122641697526,-0.0920788794756,-0.0264008753002,0.000101751364127,0.000512679223903,-0.0234806276858,0.477019938244,-0.335034808027,0.425076172682,0.102750103767,0.921861532789,0.37335373559,-0.0148565925836
-0.18538595736,-0.0398103147745,-0.378892332315,-1.88309144974,-0.173768639565,1.99079096317,-1.27288556099,0.0344415083528,-0.077595077455,0.000442030606791,-0.0871424973011,-0.0356686078012,-6.46603511996e-05,-0.000522785936482,-0.0173377878964,0.476014886237,-0.336271363522,0.424768028188,0.102478329365,0.922321387612,0.372278425522,-0.0151731189397
-0.188408821821,-0.0398587696254,-0.382819741964,-1.88452506065,-0.17376665771,1.99069488049,-1.27347266674,0.0344415083528,-0.0575194992125,-0.000477846799185,-0.0745608955622,-0.0256739165634,-7.62674972066e-05,-0.00277682300657,-0.00946369301528,0.473374549323,-0.339389750426,0.424011639732,0.101749928891,0.923539338813,0.369415752168,-0.0159387380007
-0.189156904817,-0.0398768633604,-0.383813917637,-1.88487267494,-0.173762619495,1.99063158035,-1.27361631393,0.0344415083528,-0.044843018055,-0.00133074144833,-0.0694961324334,-0.026696568355,0.000116488721687,-0.00179118709639,-0.01034681499,0.472704029826,-0.340165673893,0.423826456499,0.101556625761,0.923845763351,0.368693547553,-0.0161345895166
-0.190113857388,-0.0398907959461,-0.385266602039,-1.88540828228,-0.173747807741,1.99057090282,-1.27379739285,0.0344415083528,-0.0339059568942,0.000325434783008,-0.0624916180968,-0.0299590732902,0.00100811803713,-0.00573486369103,-0.00468459445983,0.47177095125,-0.341230937587,0.423538620638,0.101270249079,0.924272593692,0.367688949554,-0.0164117415649
