imanlab/tactile_prediction_flat_dataset/test/data_sample_2021-11-25-13-12-16/robot_state.csv
position_panda_joint1,position_panda_joint2,position_panda_joint3,position_panda_joint4,position_panda_joint5,position_panda_joint6,position_panda_joint7,position_panda_finger,velocity_panda_joint1,velocity_panda_joint2,velocity_panda_joint3,velocity_panda_joint4,velocity_panda_joint5,velocity_panda_joint6,velocity_panda_joint7,ee_state_position_x,ee_state_position_y,ee_state_position_z,ee_state_orientation_x,ee_state_orientation_y,ee_state_orientation_z,ee_state_orientation_w
-0.136463344097,-0.0313491001725,0.124375060201,-2.57308840752,0.00663483189419,2.60732865334,-0.798862874508,0.0669721215963,-0.000299157982226,6.87442025082e-06,0.000349875743268,4.23143210355e-05,-8.45864706207e-05,-0.000461537099909,-0.000529759097844,0.459514715095,-0.00598628351979,0.16817130441,0.0130374363151,0.924179321199,0.380558823868,0.029959786082
-0.136463195086,-0.0313491225243,0.124374397099,-2.57308626175,0.00663469731808,2.60732769966,-0.798861563206,0.0669721215963,-0.000242802721914,-0.000692122790497,-2.32340826187e-05,-0.000169740786077,9.98450123006e-05,0.000208461948205,-0.000297842692817,0.459515364342,-0.00598660933958,0.168171874785,0.0130376571034,0.924179500548,0.380558347621,0.029960206995
-0.136461630464,-0.0313535444438,0.12437787652,-2.57308506966,0.00663399463519,2.60733008385,-0.798863708973,0.0669721215963,-0.000230411955272,-0.000225906755077,0.000515326915774,-0.000155414556502,-6.16186734987e-05,-0.000103634803963,-0.00011613231618,0.459517196996,-0.00598444851443,0.168174589983,0.0130396519824,0.924177895018,0.380561905212,0.0299636750219
-0.136463314295,-0.0313531048596,0.124378450215,-2.57308721542,0.00663418602198,2.60732841492,-0.798863649368,0.0669721215963,0.000263424153673,-0.00384160014801,-0.000724756915588,4.30861473433e-05,4.52364547527e-05,0.000176134140929,0.000111067645776,0.459515726336,-0.00598492940625,0.168173387818,0.0130387665423,0.924178214363,0.380561312212,0.0299617421675
-0.136465162039,-0.0313517786562,0.124378427863,-2.5730881691,0.00663482956588,2.60732793808,-0.798864245415,0.0669721215963,0.000667667249218,-0.000251729594311,-0.000535927130841,-0.00026459764922,2.68582698482e-06,-4.8335390602e-05,-9.35349598876e-05,0.459515049619,-0.00598569546098,0.168172561729,0.0130381594612,0.924178560139,0.380560564129,0.0299608426033
-0.136464595795,-0.0313536301255,0.124377168715,-2.57308459282,0.00663515925407,2.60732913017,-0.798864901066,0.0669721215963,0.000371301488485,3.31465435011e-06,-5.80266569159e-05,-4.53402935818e-05,6.36312033748e-05,7.28289160179e-05,-0.000186869074241,0.459517289717,-0.00598595646185,0.168174684119,0.0130393117068,0.924178474082,0.380560517241,0.0299635911473
-0.136462032795,-0.0313530191779,0.124379456043,-2.57308387756,0.00663374643773,2.60732865334,-0.79886341095,0.0669721215963,-5.12691221957e-05,-0.000235938408878,5.59729814995e-05,0.000400720658945,5.78334220336e-05,-0.000148527615238,0.000383874721592,0.459517388698,-0.00598391297765,0.168174662798,0.013039530042,0.924177698853,0.380562414443,0.0299633108133
-0.136463984847,-0.0313492082059,0.124383114278,-2.57308506966,0.00663451524451,2.60732841492,-0.798864603043,0.0669721215963,-1.04640803329e-05,0.000825664494187,0.000104831342469,3.78819604521e-05,1.59689225256e-05,-2.61449422396e-05,-0.00200401037,0.45951614773,-0.00598302946103,0.168172432685,0.0130381437056,0.924177353062,0.380563478581,0.029961063884
-0.136464163661,-0.0313509292901,0.124380074441,-2.57308387756,0.00663425307721,2.60732841492,-0.798865020275,0.0669721215963,-0.000315542565659,-0.000445639947429,0.00012387278548,0.000471153965918,-5.91938296566e-05,7.87368117017e-05,-0.000123989957501,0.459516987541,-0.00598454541132,0.168173684239,0.0130388876815,0.924177798246,0.380562272492,0.0299623276184
-0.136464133859,-0.0313502661884,0.124381288886,-2.57308316231,0.00663475645706,2.6073281765,-0.798866569996,0.0669721215963,-6.44320971332e-05,-0.000586842128541,2.12678569369e-05,5.22132540937e-05,0.000115377137263,4.65591838292e-05,-0.000355279800715,0.459517181071,-0.00598394950288,0.16817363207,0.0130387107236,0.924177350135,0.380563368721,0.0299623028288
-0.136465057731,-0.031353533268,0.124384731054,-2.57308411598,0.00663438206539,2.6073281765,-0.798865556717,0.0669721215963,-1.49439129018e-05,-0.00024400424445,4.5135137043e-05,-0.00350398081355,0.000124448153656,8.92110983841e-05,0.000298492377624,0.459517266129,-0.00598289319036,0.16817474695,0.0130394312312,0.924176967149,0.380564200984,0.0299632314011
-0.136464804411,-0.0313539505005,0.124386049807,-2.57308292389,0.00663458649069,2.60733056068,-0.798868894577,0.0669714659452,0.000187391386135,-0.000457223097328,-0.000183863157872,0.00343748391606,0.000103173973912,-8.58344428707e-05,-0.000148151637404,0.459518426146,-0.00598219398714,0.168175639609,0.0130402364888,0.924176004196,0.380566368423,0.0299650531231
-0.136464357376,-0.0313527919352,0.12438827008,-2.5730843544,0.00663518998772,2.60733032227,-0.798869609833,0.0669714659452,-8.4438623162e-05,-0.000512796919793,-0.000563597946893,-0.00348720070906,-2.88949177047e-05,-8.27292533359e-05,-0.000331577088218,0.459517509751,-0.00598092548216,0.168174529447,0.0130394699308,0.924175501813,0.380567709788,0.0299638452541
-0.136463776231,-0.0313521437347,0.124387286603,-2.57308292389,0.00663508288562,2.60732889175,-0.798869907856,0.0669714659452,0.000234810388065,0.00013323672465,-0.000169100720086,4.94971318403e-05,3.46740380337e-05,0.000158261653269,-0.000236971653067,0.459517789036,-0.00598109529804,0.168174642992,0.0130393268724,0.924175513729,0.380567708318,0.0299635586337
-0.136464491487,-0.0313517674804,0.124387249351,-2.57308316231,0.00663510151207,2.60732889175,-0.798870205879,0.0669714659452,-0.000358230317943,0.000122636774904,-0.0005794018507,0.000216468455619,4.38919450971e-05,-3.73873190256e-05,-0.00117131264415,0.459517607924,-0.00598143074727,0.168174379214,0.0130391962473,0.924175612889,0.380567493778,0.0299632819414
-0.136463135481,-0.0313524752855,0.12438955158,-2.57308077812,0.00663440022618,2.60732960701,-0.798870682716,0.0669714659452,-0.000186386823771,7.35844369046e-05,7.66207886045e-05,-8.82953390828e-05,1.47462287714e-05,0.00011117948452,6.08130176261e-05,0.459518962434,-0.00598000005798,0.168175691676,0.0130400963742,0.924174817989,0.380569263071,0.0299649356575
-0.136462137103,-0.031352289021,0.124394007027,-2.57308125496,0.00663461908698,2.60732913017,-0.798871278763,0.0669714659452,-6.02049913141e-05,9.79104443104e-05,3.4965123632e-05,0.000397384254029,0.000137656606967,8.99325243608e-07,-0.000224533461733,0.459518714894,-0.00597731786243,0.168175367426,0.0130398381364,0.924173555112,0.38057237761,0.0299644411861
-0.136461958289,-0.0313531570137,0.124395996332,-2.57308125496,0.00663405051455,2.60733056068,-0.798874080181,0.0669714659452,-0.000253847800195,0.00018159080355,0.000569509109482,-0.000205171512789,-3.80786696041e-05,-0.000113466456241,5.36771258339e-05,0.45951917217,-0.00597637734266,0.168175905838,0.013040516692,0.924172482776,0.380574883544,0.029965391763
-0.13645850122,-0.0313517712057,0.124397017062,-2.5730805397,0.00663421908394,2.60732936859,-0.798873305321,0.0669714659452,0.000600635481533,-0.000205873147934,5.85692032473e-05,-0.000206964061363,-6.33320232737e-05,-0.000103028971353,-0.000100578465208,0.459519064028,-0.005974286728,0.16817542703,0.0130399654738,0.924171833706,0.380576539407,0.029964619481
-0.136461988091,-0.0313508734107,0.124397620559,-2.57308197021,0.00663399882615,2.60733032227,-0.798875033855,0.0669721215963,0.000116677925689,0.000260142085608,0.000147691840539,0.000254272046732,3.23876774928e-05,0.000101615696622,9.17909419513e-05,0.459518411274,-0.00597559999624,0.168174560401,0.0130397804208,0.924172040356,0.380576096394,0.0299639531228
-0.136464610696,-0.031352519989,0.124394312501,-2.57308030128,0.0066349809058,2.60732889175,-0.79887342453,0.0669721215963,-0.000194853870198,0.000765748904087,0.000534492020961,-0.000728456187062,5.91322459513e-05,-1.61954794748e-05,0.0002935101802,0.459519149773,-0.00597831128705,0.16817581687,0.0130400152427,0.92417360237,0.38057222238,0.0299648781026
-0.136466279626,-0.0313538908958,0.124396421015,-2.57308244705,0.00663425819948,2.60732889175,-0.798874855042,0.0669721215963,-0.000288176030153,0.000190585851669,0.000380469165975,0.000161153220688,-0.000136228089104,2.37025324168e-05,-0.0021700032521,0.459518337436,-0.00597816780445,0.1681756081,0.0130401612036,0.924173142681,0.380573372619,0.0299643835028
-0.136462822556,-0.0313520431519,0.124397456646,-2.57307910919,0.00663412176073,2.60733008385,-0.798874616623,0.0669721215963,0.000256680708844,0.00025710099726,0.000143312849104,1.7237094653e-05,-9.41795224207e-05,4.59714692624e-06,0.000153193192091,0.459520213486,-0.00597631891068,0.168176170711,0.013040559779,0.924172442509,0.380574930919,0.0299660131864
-0.136464014649,-0.0313518159091,0.124401442707,-2.57308101654,0.00663542980328,2.60732984543,-0.798875927925,0.0669721215963,3.23298809235e-05,0.000364248640835,-0.00023037561914,-4.10749089497e-05,2.72384513664e-05,-0.000104573096905,2.3072498152e-05,0.459518933497,-0.00597476763142,0.168175303754,0.0130397950963,0.924171735533,0.38057677665,0.0299647082861
-0.136461392045,-0.0313530378044,0.124402552843,-2.57308030128,0.00663472618908,2.6073307991,-0.798876225948,0.0669714659452,0.000122600918985,-0.000369654211681,0.000313280732371,-0.000245732691837,-8.66977352416e-05,-8.06743482826e-05,-0.000152137145051,0.459519702617,-0.00597311753724,0.168176233183,0.0130405684988,0.924170810515,0.380578899355,0.0299659409106
-0.136463329196,-0.0313510298729,0.124405115843,-2.57307863235,0.00663405982777,2.6073307991,-0.798878729343,0.0669714659452,0.000189861093531,3.66886670236e-05,0.00130160630215,-0.000128019542899,4.96389002365e-05,-4.17441733589e-05,-0.000170786122908,0.459520182709,-0.00597282972271,0.168175958651,0.0130406176182,0.92417011312,0.380580607188,0.0299657374964
-0.136462792754,-0.0313513949513,0.124407887459,-2.57308077812,0.00663472292945,2.60732984543,-0.79888010025,0.0669714659452,5.88094371778e-05,0.000329724716721,0.000370466150343,-0.000482875824673,-0.00023971965129,-0.000112308538519,0.000167116566445,0.459519020766,-0.00597129599129,0.168175192592,0.0130399451177,0.924169371723,0.380582525432,0.0299645326925
-0.136463105679,-0.0313477441669,0.124412305653,-2.57307863235,0.00663393642753,2.60733032227,-0.798878133297,0.0669714659452,0.000127632723888,0.000308236252749,0.000152721637278,-0.000194105581613,9.20603706618e-05,0.000209847756196,0.000270643213298,0.459519583844,-0.00596939053618,0.168174398724,0.0130397048432,0.924168854602,0.380583824865,0.0299640820737
-0.136461660266,-0.0313527137041,0.124420821667,-2.57307863235,0.00663430709392,2.6073307991,-0.798877894878,0.0669714659452,2.38129432546e-05,-0.00271793850698,-0.00020851661975,0.000149499479448,9.28622466745e-06,-1.91690123756e-05,0.00380160636269,0.459520550442,-0.00596495851883,0.168176698713,0.013040919891,0.924166978152,0.380588150497,0.029966486029
-0.136463791132,-0.0313567519188,0.124434195459,-2.57307720184,0.00663424469531,2.60733103752,-0.79888176918,0.0669714659452,-4.37357884948e-05,0.00108415924478,0.00133726198692,-0.000154797889991,0.000121012730233,-8.55288744788e-05,-0.000502287351992,0.459522009372,-0.00595996351125,0.168179094501,0.0130423486051,0.924164001043,0.380595137973,0.0299689331459
-0.136462837458,-0.0313542820513,0.124439291656,-2.57307672501,0.00663468940184,2.60733056068,-0.798880636692,0.0669714659452,-0.000235884319409,-0.00248817983083,0.00120827823412,3.58318611688e-05,4.54123073723e-05,6.71667439747e-05,7.82923671068e-05,0.459521767769,-0.00595713970566,0.168178094852,0.0130415782963,0.924163175009,0.380597249839,0.029967921015
-0.136464521289,-0.0313502438366,0.124446414411,-2.57307863235,0.00663375854492,2.60732984543,-0.798880755901,0.0669714659452,-0.000497510656714,-0.000167246325873,0.000779522873927,0.000195792439627,6.98585863574e-05,-6.55271142023e-05,-0.000310241128318,0.459520389606,-0.0059536631551,0.168175384046,0.0130403121582,0.924161785322,0.38060087916,0.0299652344395
-0.136467307806,-0.0313497781754,0.124457798898,-2.57307887077,0.00663410034031,2.60733103752,-0.798883795738,0.0669714659452,-0.000546519295312,5.15713145433e-05,0.0040067685768,0.000135185036925,-3.45721018675e-05,-0.00309965969063,0.00026011504815,0.459520167039,-0.00595070093509,0.16817522642,0.0130403533762,0.9241599047,0.380605457109,0.0299650701733
-0.136465296149,-0.0313515588641,0.124481253326,-2.57307672501,0.00663476483896,2.60733127594,-0.798883736134,0.0669714659452,0.00052659312496,-0.00018152029952,0.00162116333377,0.000122789570014,0.000104606537207,3.12703355121e-06,-0.000124403275549,0.45952168067,-0.0059391503975,0.16817685148,0.0130410399613,0.924155109866,0.380616924906,0.0299669875486
-0.136465832591,-0.0313539579511,0.124553062022,-2.57307624817,0.00663396669552,2.60733246803,-0.798885822296,0.0669721215963,0.000370878900867,-1.5108075786e-05,0.000927032786421,-5.03651535837e-05,0.000229826764553,7.66075027059e-05,0.000344639323885,0.459522927416,-0.00590687180818,0.168178124326,0.0130421056951,0.924140953752,0.380651132139,0.0299685895957
-0.13646133244,-0.0313522741199,0.124649122357,-2.5730779171,0.00663435924798,2.6073319912,-0.798882961273,0.0669721215963,-0.000112211368105,-0.000686102604959,0.00477355439216,-0.000503072456922,0.000101723220723,0.000176423185621,-0.000291890755761,0.459522268697,-0.00586111474574,0.16817649127,0.0130409158403,0.924122476758,0.380696166174,0.0299668351275
-0.136463135481,-0.0313531830907,0.124697335064,-2.57307672501,0.00663516949862,2.60733151436,-0.798884093761,0.0669721215963,-0.00358179491013,0.000587526592426,0.00204544281587,0.000258975342149,7.76327287895e-05,2.30138721236e-05,7.1716196544e-05,0.459523129719,-0.00584004080186,0.168177232637,0.0130410581288,0.924113529033,0.380717823829,0.0299675585088
-0.136460617185,-0.0313545055687,0.12476682663,-2.57307672501,0.00663455436006,2.60733222961,-0.798884391785,0.0669721215963,0.000401170313125,9.80681506917e-05,0.00430407095701,0.000532371399458,-6.0913622292e-05,-3.75120253011e-05,-0.000231031095609,0.459523550402,-0.00580879724698,0.168177408363,0.0130413439205,0.924100341356,0.380749794887,0.0299679133534
-0.136462405324,-0.0313542410731,0.124808423221,-2.57307362556,0.00663431361318,2.60733175278,-0.798886954784,0.0669721215963,-0.00015608414833,-0.000393920927308,0.00321084656753,0.000202561335755,3.02080625261e-05,-2.51929541264e-05,0.000154352266691,0.45952542217,-0.00578931947405,0.168178741093,0.0130420611795,0.924091485504,0.38077115465,0.0299692930957
-0.13646300137,-0.0313533619046,0.124845735729,-2.57307624817,0.00663489149883,2.60733032227,-0.798884510994,0.0669721215963,-0.000442088756245,-0.000239169166889,0.000397794792661,6.26315013506e-05,-6.00200874032e-05,3.17816084134e-05,7.17101574992e-05,0.459523893249,-0.00577259032877,0.168177112892,0.0130408193237,0.924085128446,0.380786799368,0.0299670740247
-0.136464104056,-0.0313513465226,0.124886915088,-2.5730779171,0.00663423025981,2.60733032227,-0.798887550831,0.0669721215963,0.000153191780555,-0.000454182736576,0.00440109102055,-0.000390048546251,-0.0003226105473,-7.04608100932e-05,0.000235644809436,0.459522959205,-0.00575436582839,0.168175474734,0.0130401516604,0.92407686908,0.380807006239,0.0299652825543
-0.136463671923,-0.0313525423408,0.12495919317,-2.57307362556,0.00663378136232,2.60732984543,-0.798888981342,0.0669721215963,-1.18284933706e-05,0.000559511827305,0.000167907535797,0.000518192944583,-0.000382242491469,3.93831141992e-05,0.000579367973842,0.459525492709,-0.00572139873322,0.16817750312,0.0130412192967,0.924062596972,0.38084143429,0.0299674004187
-0.136462450027,-0.0313523337245,0.125020131469,-2.57307481766,0.00663348147646,2.60733103752,-0.798889815807,0.0669721215963,0.000186759134522,0.000445612793555,0.000884324894287,8.50438591442e-05,-2.11428487091e-05,2.49283330049e-05,0.000345306732925,0.459525516934,-0.00569192481013,0.16817688073,0.0130410852387,0.924050071763,0.380871847856,0.0299671514164
-0.136462152004,-0.031355202198,0.125071004033,-2.57307338715,0.00663429033011,2.60733127594,-0.798889815807,0.0669721215963,0.00037824671017,-0.00172322057188,0.00175035535358,0.000253295147559,0.000100688484963,6.65734623908e-05,-0.00109684129711,0.459526913489,-0.0056699654168,0.168178755082,0.0130419218595,0.924040865576,0.380893991176,0.0299692206947
-0.136462450027,-0.0313539989293,0.125115856528,-2.57307529449,0.00663366680965,2.6073307991,-0.798889517784,0.0734179615974,-9.01935709408e-05,-0.000382554251701,0.000424562516855,0.000329436472384,0.000124435289763,0.000332563125994,-0.000143759709317,0.459525914029,-0.00564971716331,0.168177339651,0.0130412405954,0.924032390866,0.380914710466,0.0299674775114
-0.136463493109,-0.0313529483974,0.125167280436,-2.57307362556,0.00663413014263,2.60733008385,-0.798889458179,0.0734179615974,-0.000138816612889,-0.00428657792509,0.0034876561258,-3.60317753803e-05,-5.02111870446e-05,0.000164352415595,-5.32154299435e-05,0.459526644829,-0.00562680466528,0.168177341524,0.0130409875699,0.924022879675,0.380937794074,0.0299674358038
-0.136464044452,-0.0313532203436,0.125366955996,-2.57307291031,0.00663466006517,2.60732889175,-0.798892319202,0.0734179615974,0.000226959775318,-0.00019352696836,0.000261138920905,-0.000326288514771,0.000102120837255,6.85831037117e-05,2.41431098402e-05,0.459528049311,-0.00554057777221,0.16817846333,0.0130412171509,0.923986379561,0.381026248609,0.0299682264204
-0.136461511254,-0.0313524454832,0.125381484628,-2.57307243347,0.00663458975032,2.60732722282,-0.798891067505,0.0734179615974,-0.000218006185605,0.00076694204472,0.00156216404866,3.80218625651e-05,-5.14154598932e-05,-6.24358435743e-05,0.000237167318119,0.459527382707,-0.00552804419423,0.168176433986,0.0130398138125,0.923981333353,0.381038733339,0.0299656845338
-0.136462718248,-0.0313542596996,0.12542822957,-2.57307314873,0.00663372408599,2.60732769966,-0.798888921738,0.0734179615974,2.52437712334e-05,-0.000536611769348,0.000431653199485,6.91744062351e-05,1.1489222743e-05,-2.64175341727e-05,-6.78845208313e-06,0.459527854864,-0.00550796742749,0.16817741426,0.0130406428337,0.923973054538,0.381058697013,0.02996673548
-0.136462703347,-0.0313528999686,0.125444442034,-2.57307195663,0.0066343783401,2.60732913017,-0.798891842365,0.0734179615974,0.000281549204374,0.00241977372207,0.000166976024047,-0.000441028445493,2.53625348705e-05,-8.64302419359e-05,-0.000139538911753,0.45952851864,-0.00549952873427,0.168177252577,0.0130406927077,0.92396898627,0.381068528565,0.0299671314159
-0.136463209987,-0.0313537083566,0.125457331538,-2.57307314873,0.00663387402892,2.60732960701,-0.798888385296,0.0734179615974,0.000339245627401,0.000245135364821,0.0016257109819,-0.000276317616226,2.01602802008e-06,2.24349732889e-05,-1.03364745883e-05,0.459527790292,-0.00549380045844,0.168176740368,0.0130404194508,0.923967471833,0.381072238896,0.0299667629261
-0.136461943388,-0.0313527658582,0.125472158194,-2.57307004929,0.00663320207968,2.60732865334,-0.798890113831,0.0734179615974,0.000245862524025,0.000197797082365,3.02381831716e-05,0.000387593026971,2.45765404543e-05,-1.81595332833e-05,-1.00887336885e-05,0.45952952602,-0.00548766008185,0.168177951122,0.0130411337481,0.923964184008,0.381080101895,0.0299678348175
-0.13646325469,-0.0313523449004,0.125488802791,-2.5730714798,0.00663432525471,2.60732865334,-0.798892259598,0.0765686482191,0.000110156310257,-0.000519757450093,0.000141002092278,-0.000142683609738,0.000139728203067,4.57679789179e-06,7.8183489677e-05,0.459528839035,-0.00548064786072,0.168177175871,0.013040498995,0.923961062641,0.381087751757,0.0299670694886
-0.136461481452,-0.0313518382609,0.125495746732,-2.57307004929,0.00663425307721,2.60732841492,-0.798890471458,0.0765686482191,0.000137300477945,-0.000115103684948,0.000602878979407,-0.000204163821763,-2.3177559342e-05,-0.000107613523141,-0.000283158384264,0.459529439654,-0.00547667501749,0.168177461572,0.0130405584551,0.923959719398,0.381090980044,0.0299674052296
-0.136459887028,-0.0313543118536,0.125503793359,-2.5730714798,0.0066345189698,2.60732746124,-0.798891544342,0.0765686482191,-6.98897056282e-05,0.000602815300226,-0.000115827977424,-4.85111486341e-05,7.26287034922e-05,1.61899024533e-05,3.0699713534e-05,0.459528996672,-0.00547232485206,0.168177924242,0.013040627186,0.923957718413,0.381095829594,0.029967398551
-0.136461257935,-0.0313538946211,0.125518530607,-2.57307124138,0.00663382932544,2.60732841492,-0.798890709877,0.0765686482191,-3.04855529976e-05,0.0021766088903,-7.58140377002e-05,5.5157848692e-05,3.54829426215e-05,-0.000160247320309,-0.000201885719434,0.45952930895,-0.00546628094791,0.168177897249,0.0130409145871,0.923955207257,0.38110188672,0.0299676684178
-0.136461734772,-0.0313510484993,0.125522151589,-2.57307243347,0.00663330871612,2.60732793808,-0.79889267683,0.0765686482191,0.000251303077675,0.0013578805374,-0.000490002974402,7.20344032743e-05,-5.27345000592e-05,-2.98037066386e-05,-0.000163823438925,0.45952818103,-0.005464804093,0.168176082994,0.0130400305507,0.92395422025,0.381104472828,0.0299655962557
-0.136461079121,-0.0313528291881,0.125524118543,-2.5730702877,0.00663251196966,2.60732936859,-0.798893630505,0.0765686482191,0.000289496587357,-0.000530280172825,0.000146767575643,0.000118514915812,0.000158761336934,-0.000348517583916,-0.000109420790977,0.459529825507,-0.00546369100833,0.168177867808,0.0130413797205,0.923953326984,0.381106409686,0.0299679186594
-0.136463358998,-0.0313509106636,0.125531315804,-2.5730702877,0.00663382792845,2.60733795166,-0.798900485039,0.0765686482191,0.000311267969664,0.00195222883485,0.00196899892762,-0.000314247066854,-0.000169757026015,-0.000276346370811,-5.78469007451e-05,0.459531360874,-0.00546140961329,0.168177856569,0.0130423996658,0.923951195507,0.381111292216,0.029971098755
-0.136460736394,-0.0313520506024,0.125536620617,-2.57307386398,0.00663329614326,2.60734009743,-0.798909783363,0.0765686482191,0.000252163910773,-5.10872014274e-05,2.51590936386e-05,6.13476440776e-05,-1.1620359146e-05,-0.000163335440448,-5.13443992531e-05,0.459530314619,-0.00545783357211,0.168177202257,0.0130426357443,0.923947833361,0.381119456751,0.0299708232798
-0.136461898685,-0.0313553735614,0.125543519855,-2.57307076454,0.00663428334519,2.60734248161,-0.798917353153,0.0765686482191,-0.000208129946259,-0.000974802009296,-0.000356335978722,0.000783470459282,-6.97846553521e-05,0.00216113496572,-0.00227581616491,0.459532889202,-0.00545529337796,0.168180147915,0.0130444279958,0.923945318765,0.381125177503,0.0299748158856
-0.136464968324,-0.031353123486,0.125545471907,-2.57306742668,0.00663398811594,2.60734319687,-0.798926711082,0.0765686482191,6.39837380731e-05,-0.00457708304748,-0.000206216995139,-0.000106504143332,1.76792436832e-05,-0.000101857134723,-0.00154192082118,0.459534279241,-0.00545579262123,0.168180482946,0.0130449124879,0.923943672705,0.381129090297,0.0299755923722
-0.13646428287,-0.0313513875008,0.125550940633,-2.57307052612,0.00663375016302,2.6073448658,-0.798933267593,0.0765686482191,-1.0586550161e-05,-0.000583689543419,-0.000155212284881,9.70827240963e-05,3.04167565446e-06,-0.000211607111851,-0.000235413725022,0.459532882698,-0.00545295746116,0.168178652708,0.0130443389188,0.923941263017,0.381135067932,0.0299741120459
-0.136460483074,-0.0313517227769,0.125563234091,-2.57307124138,0.00663365283981,2.60734605789,-0.798944652081,0.0727199241519,-4.09036911151e-05,-0.000532644626219,3.03832098325e-06,0.000266431772616,1.99032783712e-05,-2.2418827939e-05,7.28033046471e-05,0.459532924405,-0.00544564022543,0.168178628571,0.0130446394966,0.923935998352,0.381147797411,0.02997439811
-0.136462286115,-0.0313513949513,0.125567123294,-2.5730676651,0.00663364771754,2.60734653473,-0.798952877522,0.0727199241519,0.000245891598752,0.000391362380469,-0.000568078015931,0.000279032014078,-5.4459369494e-06,-4.46516014563e-06,0.00238014804199,0.459534709071,-0.00544471034336,0.168179904585,0.0130454968145,0.923933973636,0.381152546315,0.0299760486886
-0.136462181807,-0.0313536003232,0.125570341945,-2.57306647301,0.00663474621251,2.60734891891,-0.798962295055,0.0727199241519,-0.000183268653927,-5.78144426981e-05,0.000127019608044,-0.000151571075548,-6.89026346663e-05,-3.02009266306e-05,0.000427636055974,0.459536168929,-0.00544322347333,0.168181609214,0.013046621486,0.923931632533,0.381157974624,0.0299786947013
-0.136460825801,-0.031352840364,0.125578835607,-2.57306885719,0.00663437787443,2.6073486805,-0.798984527588,0.0727199241519,0.000248382129939,-0.00029561429983,0.000732364191208,-0.000214567480725,-0.000107082516479,-4.60628916699e-06,-0.0024901679717,0.45953504073,-0.00543924952439,0.168180393555,0.0130463487093,0.923926128998,0.381171442841,0.0299771877487
-0.13646069169,-0.031354714185,0.125598654151,-2.57306718826,0.00663355737925,2.60735082626,-0.799162387848,0.0659470632672,-1.85557073564e-05,-0.000990670057945,0.00141397467814,0.000175647975993,-9.17341021704e-05,-7.87296594353e-05,-0.000360857491614,0.45953655232,-0.00542975097474,0.168181984473,0.0130503688511,0.923887585597,0.38126463333,0.0299782605775
-0.136464774609,-0.0313542149961,0.125601500273,-2.5730702877,0.00663426425308,2.60735082626,-0.799174547195,0.0659470632672,0.000319399783621,0.000432983128121,-4.76907189295e-05,-0.000244238704909,-1.87287423614e-05,9.81247212621e-05,0.000129097868921,0.459534964788,-0.00543028641005,0.168180552463,0.0130497020198,0.923885673862,0.3812694204,0.0299765851992
-0.136465474963,-0.0313538573682,0.125602349639,-2.57306933403,0.00663415156305,2.60735034943,-0.799190104008,0.0659470632672,0.000236472536926,3.3125790651e-05,0.000257312873146,0.000101080506283,0.000137304741656,-0.000185724507901,-0.00135603442322,0.459535265923,-0.00543022041583,0.168180708174,0.0130499742648,0.923882659353,0.381276719941,0.0299765313621
-0.136463597417,-0.0313531160355,0.125607922673,-2.57306623459,0.00663366727531,2.6073513031,-0.799201667309,0.0659470632672,0.000285045505734,0.0020971626509,0.000403724843636,-8.72449527378e-05,-8.84330656845e-05,-5.45776238141e-05,0.000111791705422,0.459536930312,-0.00542653879988,0.168181665181,0.0130508516889,0.923878715395,0.381286126516,0.0299780572912
-0.136463537812,-0.0313509516418,0.125627696514,-2.57306647301,0.00663447845727,2.60735225677,-0.799233973026,0.0659470632672,-0.000253102974966,-0.000162458149134,-0.000589800300077,-0.00385442213155,1.83162919711e-05,-9.67958039837e-05,-0.000261946232058,0.45953671005,-0.0054177583943,0.168180639563,0.0130506917248,0.923869117382,0.381309455573,0.0299771941088
-0.136464819312,-0.0313538834453,0.125630244613,-2.5730676651,0.0066342195496,2.60735321045,-0.799243330956,0.0659470632672,9.04160842765e-05,-0.000544502865523,0.000268829287961,-0.000391890993342,-0.000192580337171,1.76953399205e-05,0.000180464121513,0.45953682054,-0.00541726380135,0.16818160804,0.013051605149,0.923867008248,0.381314451559,0.0299782485924
-0.13646414876,-0.0313518680632,0.125652804971,-2.57306790352,0.00663364352658,2.60735559464,-0.799274086952,0.0659470632672,0.00046098974417,-0.000668430118822,-0.00256200600415,3.64165839528e-06,5.67378592677e-05,-0.000120960998174,-0.00414646184072,0.459536992958,-0.00540669169229,0.168180799841,0.0130520839479,0.923856620608,0.381339615592,0.0299780740907
-0.136463478208,-0.0313532613218,0.125654578209,-2.57306432724,0.00663450779393,2.60735583305,-0.799278855324,0.0659470632672,-0.000599353690632,-0.000313183205435,-0.000474754924653,0.000401410157792,0.000119179392641,0.000187635960174,-0.000296673970297,0.459539011774,-0.00540559265627,0.168182840119,0.013053027353,0.923855302412,0.381342586712,0.0299804923833
-0.136461392045,-0.031353097409,0.125665560365,-2.57306623459,0.00663364725187,2.60735559464,-0.799281358719,0.0659470632672,0.000637534889393,0.00133426999673,0.00147372309584,-2.2468262614e-05,-5.35930703336e-05,4.9156962632e-05,-0.000151334766997,0.459537903251,-0.0054008380807,0.168181542871,0.0130524638475,0.923853014902,0.381348270201,0.0299789349786
-0.136463224888,-0.0313501954079,0.125680580735,-2.57306575775,0.00663377903402,2.60735750198,-0.799297332764,0.0658643245697,-0.000560589833185,0.00136913685128,0.000445390789537,-1.37979504871e-05,-4.17191076849e-05,-9.33353730943e-05,0.000874725170434,0.459538297972,-0.00539362380634,0.168181012394,0.0130527215537,0.923846699974,0.381363550933,0.0299790445064
-0.136463373899,-0.0313521586359,0.12568295002,-2.57306599617,0.00663424097002,2.60735702515,-0.799298584461,0.0658643245697,8.01779460744e-05,-8.808846178e-05,0.000946525717154,0.000396812160034,-6.81887613609e-05,1.22416258819e-05,9.81258854154e-05,0.459538350967,-0.00539269041995,0.168181709681,0.0130528999029,0.923846139145,0.381364869909,0.0299794708732
-0.1364620924,-0.0313526019454,0.125690832734,-2.57306599617,0.00663415947929,2.60735988617,-0.799309432507,0.0655918046832,0.000725087302271,0.000752653169911,0.000208305529668,-0.000231210477068,-8.2893850049e-05,-0.000109060783871,0.000267621391686,0.459539402194,-0.005389907788,0.168182585249,0.0130539205156,0.923842765743,0.381372896338,0.0299808766498
-0.136461570859,-0.0313533060253,0.125696435571,-2.57306456566,0.0066336337477,2.60735988617,-0.799311995506,0.0655918046832,-0.000140849224408,-5.60327680432e-05,0.00172123406082,-0.000135016001877,-0.000107886466139,0.000142966906424,-0.00024637056049,0.45953997227,-0.00538575013091,0.168183107172,0.0130544181907,0.923840437339,0.381378438599,0.0299819071797
-0.136461526155,-0.031354688108,0.125701159239,-2.57306170464,0.00663375621662,2.60736012459,-0.799316227436,0.0655918046832,0.000224270188482,-0.000572807795834,-1.42102644531e-05,0.000446179357823,5.87389804423e-05,3.74440242012e-05,-6.28440757282e-05,0.459541653577,-0.00538362215925,0.168184860321,0.0130553987896,0.923838669973,0.381382528918,0.0299839080749
-0.136462211609,-0.0313534103334,0.125703170896,-2.57306480408,0.00663367798552,2.60735964775,-0.799319088459,0.0655918046832,-0.000378255150281,0.000346756074578,-7.48919637772e-06,-0.000252097292105,-0.00016659067478,-0.000242951020482,-0.000442606862634,0.459539556584,-0.0053830736593,0.168182664943,0.0130543424859,0.92383780084,0.381384879065,0.0299812538992
-0.13646312058,-0.0313534624875,0.125708132982,-2.57306170464,0.00663424562663,2.60736107826,-0.799326121807,0.0655918046832,0.000147265789565,-0.00271635642275,-4.08874584537e-05,0.000115204682515,-0.000107873122033,0.000240159628447,-4.25023972639e-05,0.459541680668,-0.00538114571322,0.168184386328,0.0130553207189,0.923835840713,0.381389394698,0.0299837840989
-0.136461287737,-0.0313531532884,0.125707775354,-2.57306170464,0.00663357321173,2.60736179352,-0.799328684807,0.0655918046832,-0.000275049736956,-0.00593939516693,6.19370330242e-05,0.00037266939762,-0.000122562880279,1.61537388976e-06,7.07835424691e-05,0.459541790151,-0.00538048546271,0.168184319025,0.0130555618418,0.923834956467,0.381391519003,0.0299839028357
-0.136462956667,-0.0313502289355,0.125713229179,-2.57306289673,0.00663376320153,2.60736036301,-0.799333155155,0.0655918046832,0.000358889810741,-0.000632731243968,-0.000278644263744,-0.00031208479777,-0.000100112483779,-6.58765275148e-05,-0.00104795838706,0.45954044889,-0.00537869358405,0.168182368382,0.0130543461708,0.923833499079,0.381395286861,0.0299814087238
-0.136460676789,-0.0313530229032,0.125722542405,-2.57306313515,0.00663407705724,2.60736083984,-0.79933911562,0.0655918046832,-0.000361981801689,0.0018950861413,0.00176060583908,8.54338359204e-05,3.72730501113e-05,0.000150419044076,0.000319613231113,0.45954094728,-0.00537346803284,0.168183582178,0.0130550617514,0.9238301543,0.381403261019,0.029982720607
-0.136462375522,-0.0313562825322,0.125722199678,-2.57306337357,0.00663316948339,2.60736203194,-0.799338757992,0.0655918046832,-0.00063633028185,-0.000410126842326,7.80386835686e-05,0.000380889716325,-0.000135860798764,0.000159380710102,-0.000111819703307,0.459541606677,-0.00537451310633,0.168185098683,0.0130563163518,0.923830400152,0.381402485834,0.0299844599828
-0.136465996504,-0.0313553437591,0.125718861818,-2.5730612278,0.00663420697674,2.60736227036,-0.79934245348,0.0655918046832,-0.00023227094789,-0.0017281905748,-0.000144885154441,-0.000219252178795,3.72949943994e-05,0.000135755894007,0.000173134772922,0.459542506533,-0.00537764375026,0.168185531209,0.013056405813,0.923831166877,0.381400566003,0.0299852181729
-0.13646762073,-0.0313532166183,0.125719428062,-2.57306003571,0.00663487333804,2.60736274719,-0.7993465662,0.0655918046832,0.000161544696311,0.00010350082448,-6.3332146965e-05,-0.000266366550932,-6.65720945108e-05,2.48617579928e-05,0.000106194573164,0.459542830994,-0.00537806749256,0.168185070176,0.0130561189107,0.923830698997,0.381401718445,0.0299850996313
-0.136464267969,-0.0313512831926,0.125726044178,-2.5730638504,0.00663431221619,2.60736179352,-0.799347579479,0.0651695728302,0.000304020213662,0.000179155133083,1.38731093102e-05,-0.000498484878335,4.15642716689e-05,0.000139575422509,0.000135863141622,0.459540517668,-0.0053734810552,0.168182603229,0.0130547905113,0.923828619229,0.381407043606,0.0299820197749
-0.136457934976,-0.0313523486257,0.125737681985,-2.57305979729,0.00663419999182,2.60736274719,-0.799353182316,0.0651695728302,-0.000792105915025,0.000204724477953,4.98663575854e-05,-0.000113998052257,0.000148660736158,7.29849125491e-05,3.09873066726e-05,0.459542979521,-0.00536550434436,0.168184728969,0.0130560463059,0.923824071017,0.381417794407,0.0299848504668
-0.136461749673,-0.0313536711037,0.125737950206,-2.57305908203,0.00663377996534,2.60736465454,-0.799355387688,0.0651695728302,-0.000318419974064,-6.4294130425e-05,0.000979545875452,1.04389073385e-05,2.28484295803e-05,-0.000191040628124,-0.000133788387757,0.459543889173,-0.00536701614034,0.168185808029,0.0130570847429,0.923824136856,0.381417473775,0.0299864482931
-0.136463209987,-0.0313547737896,0.125738188624,-2.57305955887,0.00663445796818,2.6073653698,-0.799360096455,0.0651695728302,0.000198035195353,0.000736481160857,0.000120835386042,-0.00060138333356,-5.68453797314e-05,-3.30840848619e-05,-0.000347765599145,0.459543984645,-0.00536758010411,0.168186198965,0.0130573358789,0.92382356037,0.381418813005,0.0299870647729
-0.13646325469,-0.0313544720411,0.125742465258,-2.57306075096,0.00663386425003,2.60736513138,-0.799364745617,0.0651695728302,-0.00010655495862,0.000397906784201,0.000155935689691,-0.000231903759413,3.45151456713e-05,7.70105034462e-05,-6.66508640279e-05,0.459543327962,-0.00536566745554,0.168185568085,0.0130571899623,0.92382179809,0.381423156118,0.0299861772131
-0.136463299394,-0.0313527993858,0.12574082613,-2.57305979729,0.00663448264822,2.60736513138,-0.799378693104,0.0651695728302,-1.10806404336e-05,0.00129856693093,0.000106660154415,0.000323025364196,9.93288413156e-05,7.40667965147e-05,-0.000177023335709,0.459543508158,-0.00536637638583,0.168185177301,0.013057015123,0.923819570129,0.381428582379,0.0299858704958
-0.136462926865,-0.0313524380326,0.125742614269,-2.57305598259,0.00663359742612,2.60736632347,-0.799381494522,0.0651695728302,-5.65762129554e-05,0.00217699096538,-0.000138828138006,0.00030233967118,-1.15608545457e-05,0.00670670485124,-0.000179460213985,0.459545555913,-0.00536543475256,0.168186607131,0.0130581586701,0.923818408525,0.38143119684,0.0299879029537
-0.136461019516,-0.0313490740955,0.125749498606,-2.57305932045,0.00663205282763,2.6073653698,-0.799392998219,0.0651695728302,-0.000273596437182,-0.000449958111858,-0.000335201097187,0.000191567174625,7.2473740147e-05,2.25441472139e-05,0.000124387501273,0.459543232237,-0.00536139560921,0.168183671888,0.0130569842949,0.92381440902,0.381441211424,0.0299842418235
-0.136462718248,-0.0313528254628,0.125749379396,-2.57305884361,0.00663433875889,2.60736584663,-0.799394607544,0.064325094223,-0.000248403666774,-0.00019432384579,-0.000303677021293,0.000235618994338,2.20349284064e-05,9.71793706412e-05,0.00460955873132,0.459544028166,-0.00536206231009,0.168185448547,0.0130575142002,0.923814720183,0.38144027467,0.029986340858
-0.136463373899,-0.0313556715846,0.125747948885,-2.57305788994,0.00663278391585,2.60736656189,-0.799402952194,0.064325094223,0.000431096385,0.0035582028795,0.000558961823117,1.77809553747e-07,-2.02240917133e-05,8.46584807732e-05,-0.000376691634301,0.459545234937,-0.00536331258149,0.168187358397,0.0130591681552,0.923813228433,0.381443677364,0.0299882940754
-0.136466175318,-0.0313544161618,0.125749573112,-2.57305598259,0.006633924786,2.60736775398,-0.799411833286,0.064325094223,7.06460050424e-05,0.00123319949489,0.000134865389555,7.89534242358e-05,5.25032592122e-05,-8.66457558004e-05,-0.000376144424081,0.459546198431,-0.00536380441388,0.168187642782,0.0130593530623,0.923811914283,0.381446781011,0.0299892191524
-0.136461317539,-0.0313517227769,0.125753700733,-2.57305717468,0.00663379998878,2.60736656189,-0.799415588379,0.064325094223,-4.10111751989e-05,-0.00264027761295,0.000160900177434,-0.000154843452037,6.99370721122e-05,-7.76403394411e-05,-0.000189473837963,0.459544974189,-0.0053596328557,0.168185824172,0.0130582136337,0.92380954337,0.381452740407,0.0299869497273
-0.136459097266,-0.0313505232334,0.125759899616,-2.57305979729,0.00663397042081,2.60736751556,-0.799422442913,0.064325094223,0.000134257454192,0.000147607715917,0.00314106466249,-0.00250971596688,-1.67014768522e-05,9.74202121142e-05,0.000273350655334,0.459543754767,-0.00535575764165,0.16818434867,0.0130576060169,0.923806703328,0.381459741935,0.0299856428551
-0.136464715004,-0.0313537381589,0.125764474273,-2.5730574131,0.00663401279598,2.60737037659,-0.799437463284,0.064325094223,1.71939082065e-05,-0.00026505230926,0.000431078835391,-0.00017581031716,-8.57554623508e-05,4.48087266705e-05,0.000278792460449,0.459546031678,-0.0053563505988,0.16818702121,0.0130597413435,0.923803912425,0.381466139958,0.0299893029643
-0.13646350801,-0.0313521809876,0.125767081976,-2.57305765152,0.00663416227326,2.60736870766,-0.799442589283,0.064325094223,-0.000321450032061,-4.52800532003e-06,4.84530755784e-05,0.000357529730536,-7.31739710318e-05,-0.000173007021658,-8.18248008727e-05,0.459545325825,-0.00535456463741,0.168186043756,0.0130589899406,0.923802284621,0.38147023043,0.0299877423181
-0.136463671923,-0.0313523076475,0.125770792365,-2.57305622101,0.00663365190849,2.60737085342,-0.799446940422,0.064325094223,-0.000236120788031,2.84700054181e-05,0.000182981762919,1.53505618528e-06,2.0707881049e-05,5.54264443053e-05,7.59799659136e-05,0.459546510336,-0.0053529884194,0.168186867535,0.0130599150875,0.923800638833,0.381474057919,0.0299893502377
-0.136462837458,-0.0313521251082,0.125772148371,-2.57305431366,0.00663308985531,2.60736966133,-0.799452006817,0.0623091310263,-6.52786820865e-06,-0.000425221340265,-0.000121825287351,-0.000134794652695,0.000135031645186,-4.62107418571e-05,-0.00010377271974,0.459547247897,-0.00535173894795,0.168187637139,0.0130602892428,0.923798889159,0.381478250018,0.0299897595898
-0.136462032795,-0.0313521809876,0.125780299306,-2.57305526733,0.00663204491138,2.60736989975,-0.799470305443,0.0623091310263,-0.000552457175218,-0.000912262825295,-0.000132116139866,-0.000458935392089,4.65003249701e-05,-0.00431225635111,-0.000241567657213,0.459546799588,-0.0053479719517,0.168187064354,0.0130605887697,0.923793798325,0.38149062967,0.0299889705373
-0.136461541057,-0.0313532091677,0.125781416893,-2.57305669785,0.0066342628561,2.60737061501,-0.799473106861,0.0623091310263,8.31229554024e-05,-0.000354457850335,-0.000195632121176,-0.00023002398666,9.36479264055e-05,4.09410313296e-06,0.000168833270436,0.459546437501,-0.00534717929686,0.168187050711,0.0130601959002,0.92379330967,0.381491800173,0.0299893043588
-0.136463478208,-0.0313539579511,0.1257815063,-2.57305407524,0.00663415528834,2.60737061501,-0.799480199814,0.0623091310263,0.00044850105769,6.30170106888e-05,0.00230451882817,-0.000204107971513,0.0002051833726,-1.72982799995e-05,5.8042769524e-05,0.459547817035,-0.00534805915856,0.168188406797,0.0130610593187,0.923792238577,0.381494249618,0.0299907630073
-0.136462345719,-0.0313513614237,0.125789523125,-2.5730547905,0.00663393177092,2.60737252235,-0.799498915672,0.0623091310263,-4.25259895565e-05,0.00015562432236,3.61778838851e-05,-2.2028987587e-05,-4.15105823777e-05,-3.88152693631e-05,-0.000235116036492,0.459547496366,-0.00534385115526,0.168187126432,0.0130609506885,0.923786910258,0.3815072126,0.0299900386934
-0.136462792754,-0.0313516147435,0.125790387392,-2.57305407524,0.00663376040757,2.60737156868,-0.799506604671,0.0623091310263,0.000103439619124,-0.000369063462131,0.000622480991296,-8.46654875204e-05,0.000163550648722,7.46217847336e-05,-1.26074382933e-05,0.459547681977,-0.00534367519491,0.16818741976,0.0130611283593,0.923785335459,0.381511025379,0.0299899668812
-0.136461168528,-0.0313533879817,0.125796675682,-2.57305407524,0.00663423724473,2.60737156868,-0.799514830112,0.0623091310263,4.57598252979e-05,0.000259654101683,0.000201193921384,8.09691482573e-05,-1.81886261998e-05,-8.58886633068e-05,1.3794964616e-05,0.459548009619,-0.00534009532448,0.168188217078,0.0130615471879,0.923782305605,0.381518287307,0.0299907313974
-0.136465936899,-0.0313543900847,0.125798508525,-2.5730547905,0.00663348147646,2.60737466812,-0.799536764622,0.0601112656295,-0.000325646280544,0.000124113459606,8.18727767182e-06,-9.31519825826e-05,-8.73230528669e-05,-0.00010973028111,4.11660366808e-05,0.459548469616,-0.00534151164188,0.168188710544,0.0130628580104,0.923778508174,0.381527337458,0.0299919994559
-0.136466369033,-0.0313503108919,0.125798985362,-2.57305169106,0.00663456553593,2.60737490654,-0.799540162086,0.0601112656295,0.000296728743706,-0.000679386081174,0.000592118303757,-0.000484825344756,-0.000104120488686,0.000141312440974,-0.00244853156619,0.459549352514,-0.00534137558347,0.168188073218,0.01306227395,0.923778037674,0.381528507372,0.0299918631565
-0.136461913586,-0.0313530340791,0.125803306699,-2.57305335999,0.0066342772916,2.60737538338,-0.799555838108,0.0601112656295,0.000207788485568,-0.000165761259268,0.000234420105699,-0.0001882762881,0.00019153233734,-0.000124467624119,-0.000254011509242,0.459549135799,-0.00533743220412,0.168188710168,0.0130629607332,0.923773302572,0.38153990792,0.0299923800041
-0.136460781097,-0.0313501954079,0.12580473721,-2.57305121422,0.00663350196555,2.60737586021,-0.799573779106,0.0601112656295,-1.2996481928e-05,-0.000962043064646,-0.000178417409188,0.00021822747658,7.88971010479e-05,2.116725409e-05,-0.0018968678778,0.459549822832,-0.00533623558975,0.168188292157,0.0130632012848,0.923769269599,0.381549680893,0.0299921658157
-0.13646300137,-0.0313519537449,0.125806331635,-2.57305192947,0.00663371384144,2.60737490654,-0.799585580826,0.0601112656295,-0.00026608837652,-0.00290492456406,0.000621425802819,-2.16679145524e-05,5.54067955818e-05,-5.06360265717e-05,0.000300407438772,0.459549557076,-0.00533655768138,0.168188716937,0.0130634708367,0.923767169619,0.381554762061,0.0299920872071
-0.136462330818,-0.0313524529338,0.125807240605,-2.57305264473,0.00663392944261,2.6073756218,-0.799598872662,0.0601112656295,2.91137930617e-05,-0.000876566395164,-1.24159951156e-05,-0.000430969550507,-7.0104644692e-05,-0.000206812022952,-0.000238189517404,0.459549453045,-0.00533583998645,0.168188739224,0.0130637331957,0.92376435978,0.381561543694,0.0299922411801
-0.136462628841,-0.031353417784,0.125809803605,-2.57305312157,0.00663358718157,2.60737466812,-0.799607634544,0.0601112656295,-0.000114897062303,0.00125345692504,-0.00182392587885,0.000298153376207,-2.18285495066e-05,-0.00483831018209,-0.000100006931461,0.459549187355,-0.00533484167872,0.168188892691,0.0130639103252,0.923762207603,0.381566774711,0.0299919017451
-0.136461392045,-0.0313525758684,0.125813752413,-2.57304906845,0.0066343229264,2.60737586021,-0.799650847912,0.0601112656295,0.000287067930913,-0.000574883364607,-0.000431889959145,-0.000148711231304,6.48202476441e-05,-2.28256212722e-05,4.45377918368e-05,0.459551316681,-0.00533272062198,0.168190282342,0.0130652419746,0.923753245846,0.381588273464,0.0299938239926
-0.136460468173,-0.0313507057726,0.125818431377,-2.57305216789,0.0066334749572,2.60737586021,-0.799657344818,0.0601112656295,9.46202926571e-05,-8.17173859105e-05,0.0041258870624,-0.000281696266029,-1.2975277059e-05,0.000184223114047,8.10402998468e-05,0.459549510361,-0.0053298807397,0.168188131299,0.013064378349,0.923750656142,0.381594764079,0.0299913821996
-0.136465072632,-0.031354341656,0.125816375017,-2.57302522659,0.00663470197469,2.60739779472,-0.799677193165,0.0601112656295,-0.000311715499265,-0.000807937758509,0.000164466517163,0.00148697162513,-0.000129297506646,0.000544172537047,5.74305431655e-06,0.459568519172,-0.00533312475593,0.168203086216,0.0130755435123,0.923747363063,0.3816003813,0.0300164633294
-0.136466026306,-0.0313571728766,0.125817969441,-2.57301306725,0.00663441279903,2.60747671127,-0.799684047699,0.0601112656295,0.000122812882182,0.000448322563898,0.000121503784612,-0.00105800235178,1.69324266608e-05,0.023617701605,-0.000107883017336,0.459590883644,-0.00533324440967,0.168216513612,0.0130939052139,0.923744611815,0.381603118076,0.0300583057805
-0.136461764574,-0.0313531681895,0.125824689865,-2.57299923897,0.00663397088647,2.60824418068,-0.79969483614,0.0601112656295,4.11576838815e-05,-0.00225535104983,0.000508604571223,0.0017550860066,9.08124857233e-05,0.0131685771048,5.40015171282e-05,0.459760201273,-0.00533083510193,0.168298498251,0.0132479485769,0.923728518712,0.381608503054,0.0304148920117
-0.136464178562,-0.0313515737653,0.125823274255,-2.57294106483,0.00663411570713,2.60843038559,-0.799701631069,0.0582890175283,-0.000582647626288,0.000170889034052,0.000113198751933,0.00314885843545,-4.63536998723e-05,0.00959906447679,-0.00140233372804,0.459827619807,-0.00533339656041,0.168339356672,0.0132959518219,0.923724204545,0.381608378805,0.0305263249012
-0.136466741562,-0.0313582532108,0.125821396708,-2.57288956642,0.00663320580497,2.60852384567,-0.799704372883,0.0582890175283,-4.20849100919e-05,-0.00141527294181,0.000213814579183,0.00441632699221,9.09429363674e-05,0.00616822950542,3.30922885041e-05,0.459873434245,-0.00533611801121,0.168371920462,0.0133265478459,0.923722004428,0.38160708695,0.0305956292805
-0.136463552713,-0.0313590653241,0.125824734569,-2.5728328228,0.00663419812918,2.60864114761,-0.799708902836,0.0582890175283,-0.00030698365299,-1.89221282199e-05,0.000483065261506,0.00292771193199,7.60250914027e-05,0.00351210124791,-8.32244186313e-05,0.459925946687,-0.00533372531037,0.168406277085,0.0133608808714,0.923717312145,0.381610794574,0.0306759719328
-0.136462718248,-0.0313531011343,0.125831589103,-2.57277750969,0.00663422839716,2.60899877548,-0.799721837044,0.0582890175283,-0.00237817503512,0.000598828541115,-0.000480192364193,0.00150851288345,4.14859132434e-05,0.00629590079188,1.92240204342e-05,0.460027747997,-0.00533151460722,0.168461623786,0.0134412671441,0.923707028641,0.381617799967,0.0308627932612
-0.136468008161,-0.0313564166427,0.125828906894,-2.57277464867,0.00663411896676,2.60912752151,-0.799724876881,0.0557608492672,0.000240649140324,-0.000578564417083,8.0853496911e-05,0.000179448106792,8.55879188748e-05,0.00822270475328,-0.000216876811464,0.460056994129,-0.00533569639625,0.168477453578,0.0134683465427,0.92370584484,0.381614712565,0.0309245321153
-0.136465445161,-0.0313570536673,0.125832796097,-2.57277131081,0.0066338009201,2.60925865173,-0.79973000288,0.0557608492672,0.000291215226753,-0.000427270220825,-0.00399147113785,0.000711400934961,3.87852269341e-05,0.00791494734585,-7.85328738857e-05,0.460086611014,-0.00533323454307,0.168492481989,0.0134952670681,0.923701471055,0.381619326778,0.0309864365355
-0.136461272836,-0.0313525274396,0.125843286514,-2.57275652885,0.00663382792845,2.60958886147,-0.799738287926,0.0557608492672,-0.000141958676977,0.0024767711293,-0.000501144269947,-0.00176988285966,3.23971980833e-05,0.010996107012,0.00426714634523,0.460164615089,-0.00532800029863,0.168530659932,0.0135639089128,0.923691728951,0.381627502139,0.0311457788036
-0.136461064219,-0.0313541144133,0.125845074654,-2.57275485992,0.00663392804563,2.60967898369,-0.799744069576,0.0557608492672,-0.000150453182869,-0.00134586892091,-9.71227273112e-05,-2.38441880356e-05,-1.83398569789e-05,0.00351258437149,-4.05769169447e-05,0.460183478819,-0.00532705947106,0.168540635979,0.0135811704676,0.923688813216,0.381630703697,0.0311854746098
-0.1364595294,-0.0313550159335,0.125846430659,-2.57274794579,0.00663343444467,2.60972094536,-0.799748420715,0.0557608492672,3.3936194086e-05,0.000254075304838,-7.92546925368e-05,7.93595609139e-05,-0.000168200131156,0.000550449243747,-0.000985835911706,0.460197054684,-0.00532621983183,0.168548596733,0.0135922261699,0.92368653538,0.381633770028,0.0312105911857
-0.136467471719,-0.0313562750816,0.125841334462,-2.57273697853,0.00663409382105,2.60993456841,-0.799756526947,0.0557608492672,0.000446774676675,-0.000220632820856,-0.000195945234736,-9.81916018645e-05,1.95372667804e-05,0.00385449267924,0.000171420062543,0.460246717124,-0.0053326896378,0.168574812882,0.0136361448684,0.923684039731,0.381629956507,0.0313117594189
-0.136463358998,-0.0313529931009,0.125846982002,-2.57273173332,0.00663410173729,2.60998225212,-0.799760222435,0.0557608492672,0.000457726884633,-0.000170045153936,0.00025634263875,-0.000196363253053,-2.67513933068e-05,0.00244966009632,-0.000169066959643,0.460258893578,-0.00532833570649,0.168580236646,0.0136457774407,0.923680686965,0.381635850333,0.0313346247724
-0.13645863533,-0.0313538089395,0.125853195786,-2.57273316383,0.00663362862542,2.61002588272,-0.799762606621,0.0557608492672,0.000358376011718,0.000396919902414,0.00202973745763,8.62378583406e-05,-1.6378446162e-05,0.000465770688606,-1.69187387655e-05,0.460267658599,-0.0053235132611,0.168584526999,0.0136544191938,0.923677388441,0.3816419094,0.0313542914278
-0.136460542679,-0.0313554257154,0.125855103135,-2.57272744179,0.00663354340941,2.61007714272,-0.799765944481,0.0557608492672,-0.000212647515582,-0.00131834030617,-0.000509952136781,0.000185651544598,-4.22363846155e-05,0.000409314438002,6.85761406203e-05,0.460280553088,-0.00532349358106,0.168591874083,0.0136652673758,0.923675750925,0.381643459688,0.031378925755
-0.136461675167,-0.0313545614481,0.125857457519,-2.57272315025,0.00663409847766,2.61019921303,-0.799775838852,0.055152118206,-0.000104610677226,2.38164539041e-05,0.000100042074337,-0.000383690872695,4.02937839681e-05,5.2793406212e-05,1.73991484189e-05,0.460309441077,-0.00532360120221,0.168606560688,0.0136910612992,0.923671781942,0.381647225017,0.0314386609792
-0.13646350801,-0.0313550457358,0.125856608152,-2.57272005081,0.00663432944566,2.61022114754,-0.799777984619,0.055152118206,-0.000112142661237,-0.000694917631336,4.38718016085e-05,0.000558096915483,0.000109065171273,0.0019159084186,0.000334474490955,0.460314979023,-0.00532475548348,0.168609598122,0.0136956602975,0.923671452985,0.381646984572,0.0314492397348
-0.136462599039,-0.031353931874,0.125859856606,-2.5727159977,0.00663381069899,2.61028432846,-0.799787819386,0.055152118206,0.000233007231145,0.0041413474828,1.08517197077e-05,0.000520606990904,4.63839714939e-05,0.00123593118042,-0.000107553794805,0.460330878067,-0.00532324704191,0.168617792951,0.0137094450304,0.92366770857,0.381652966525,0.0314805985962
-0.136461392045,-0.0313547737896,0.125865370035,-2.57271671295,0.00663454411551,2.61030030251,-0.799791574478,0.055152118206,-0.000469690363389,0.000146003018017,0.000873758166563,-0.00048985844478,5.09251140102e-06,7.78551984695e-05,-1.10382507046e-05,0.460334095302,-0.00532022775954,0.1686195328,0.013712531571,0.923665571664,0.38165741548,0.031488015077
-0.136461436749,-0.0313545130193,0.125863790512,-2.57271695137,0.00663320720196,2.61030817032,-0.799794077873,0.055152118206,0.00052983983187,0.000410343258409,-0.000174323737156,-0.000185534416232,9.73662536126e-05,0.00287665845826,-0.00235070707276,0.460335600683,-0.00532103404352,0.168620133117,0.013714351488,0.923665071677,0.381658293728,0.0314912438277
-0.136461883783,-0.0313518866897,0.125864773989,-2.57271552086,0.00663208030164,2.61031699181,-0.799794375896,0.055152118206,-0.00024585716892,0.00073194608558,-0.000574356759898,0.000363598577678,-1.84140117199e-05,0.00126644677948,0.000399718264816,0.460337738937,-0.00532080838191,0.168620393455,0.0137160054974,0.923664610235,0.381659066803,0.0314946884913
-0.136461496353,-0.0313547104597,0.125868082047,-2.57271528244,0.00663354899734,2.6103386879,-0.799803614616,0.055152118206,-0.000101772733615,-0.000420023890911,0.000103080405097,-0.00111391732935,-0.000130137937958,6.17831319687e-05,-0.00176417897455,0.460342940569,-0.00531921124919,0.168624000849,0.0137208355546,0.923661983101,0.38166431254,0.0315060607209
-0.136462375522,-0.0313558354974,0.125866636634,-2.57271122932,0.0066324621439,2.61034607887,-0.799805641174,0.055152118206,-0.000756775785703,-0.000215762280277,-5.00268615724e-05,0.000153452114318,-7.77168170316e-05,3.98871998186e-05,0.000220451722271,0.460346638483,-0.00532037677421,0.168626848976,0.0137236936389,0.923661661505,0.381664525317,0.0315116660342
-0.136462956667,-0.0313530601561,0.125867947936,-2.57271027565,0.006633867044,2.61035084724,-0.799807727337,0.0551363602281,0.000133377863676,0.00326252100058,0.000439900410129,-0.000295826990623,-9.08693109523e-05,2.93122593575e-05,4.56823254353e-05,0.460347663547,-0.00531995600656,0.168626439006,0.0137238200999,0.923661304781,0.38166525546,0.0315132237298
-0.1364620924,-0.031353931874,0.125870883465,-2.57270359993,0.00663374410942,2.61037611961,-0.79981392622,0.0551363602281,-2.37422718783e-05,0.00011322741193,-0.000105037841422,0.000277831772109,-9.42350379773e-05,0.00245545362122,0.000766656012274,0.460356414479,-0.00531835646503,0.168632019467,0.0137304641282,0.923658849628,0.381669720547,0.0315282089364
-0.136461019516,-0.0313574299216,0.125874876976,-2.57268881798,0.0066331201233,2.61047840118,-0.799822092056,0.0551363602281,0.000603735505138,0.000754852197133,8.20902714622e-05,-0.000570019416045,6.16683464614e-05,0.00696379272267,0.000160538154887,0.46038586859,-0.00531654719064,0.168649862657,0.0137547720443,0.923654291654,0.381675319941,0.031583311827
-0.136462152004,-0.0313587039709,0.125873848796,-2.57266759872,0.00663404585794,2.61062717438,-0.799832284451,0.0551363602281,3.88573862438e-05,0.000375924952095,0.000177168403752,0.00223090779036,-5.52076016902e-05,0.000545631861314,-2.53858215729e-05,0.460427906337,-0.00531811582571,0.168673982541,0.0137886941226,0.923650160176,0.381677584526,0.031661880468
-0.136462539434,-0.0313594341278,0.125872716308,-2.57266163826,0.00663347635418,2.61064887047,-0.799835503101,0.0551363602281,-6.16059014646e-06,0.000360923761036,-7.27424458091e-06,0.000292034761515,-5.58693391213e-05,0.00393326301128,-0.00100865145214,0.460435111386,-0.00531897316822,0.168678697022,0.0137943033205,0.923649389398,0.381678219251,0.031674268638
-0.136464193463,-0.0313578173518,0.125872015953,-2.57265210152,0.00663331104442,2.61069464684,-0.799842238426,0.0551363602281,-0.000145727506606,0.000323059066432,0.000139505020343,0.00147479167208,4.84438896819e-05,0.00227809604257,0.000268459960353,0.460449552361,-0.0053201816351,0.168686535102,0.0138052552797,0.923647559444,0.381680164215,0.0316994130551
-0.136461570859,-0.0313553065062,0.125878706574,-2.57264852524,0.00663358112797,2.61071157455,-0.799844205379,0.0551363602281,-0.000278572406387,0.000617049925495,-0.000684066209942,0.000326615583617,0.000106547922769,0.000118762836792,0.000116696428449,0.460454509813,-0.00531593398645,0.168688505234,0.0138085864259,0.923645161272,0.381685153403,0.0317077648944
-0.136459648609,-0.0313563719392,0.125880762935,-2.57264184952,0.00663440674543,2.61072683334,-0.799846172333,0.0551363602281,0.00013360378216,9.02001920622e-05,0.000207787568797,-0.000154469904373,4.58666836494e-05,0.000604526954703,9.02667015907e-05,0.460461166285,-0.00531418393115,0.168693148127,0.0138129792289,0.923643786366,0.38168743974,0.031718378576
-0.13646069169,-0.0313542373478,0.125877171755,-2.57263493538,0.00663434294984,2.6107404232,-0.799851596355,0.0551363602281,0.000316973979352,0.000729067076463,0.000443632452516,-0.000632835377473,3.14015824188e-06,-1.805093234e-05,-0.000170125160366,0.460467020161,-0.00531632444229,0.168696259867,0.0138166154462,0.923643328206,0.381687715086,0.0317268220037
-0.136462688446,-0.0313549935818,0.12588198483,-2.57262897491,0.00663419673219,2.61075377464,-0.79985588789,0.0539668351412,-4.93045517942e-05,-0.000737925933208,-0.00259357574396,0.000555666163564,-2.28162025451e-06,-1.19087962958e-05,5.1379782235e-05,0.460472867217,-0.00531514224756,0.168700282988,0.0138207438904,0.92364162203,0.381690935573,0.0317359492772
-0.136463314295,-0.031354740262,0.125879108906,-2.57262611389,0.00663402723148,2.6107583046,-0.799858868122,0.0539668351412,-2.15183099499e-05,-3.64921324945e-05,0.000842621841002,0.00211957236752,-7.86500822869e-05,-5.71868586121e-05,1.60952895385e-05,0.460475804651,-0.00531650448675,0.168702516546,0.0138229058815,0.923641189605,0.381691521868,0.0317405412053
-0.136464372277,-0.0313551910222,0.125880807638,-2.57262349129,0.00663206493482,2.61076998711,-0.799862802029,0.0539668351412,0.00010977974307,0.000362372986274,-0.00331738614477,0.000708892359398,-0.000119584670756,0.00200786185451,-7.08743900759e-05,0.46047897357,-0.00531660735642,0.168704171246,0.0138257444041,0.923640150307,0.38169350438,0.0317457072763
-0.13646478951,-0.0313586592674,0.125880122185,-2.57260155678,0.00663461815566,2.61078953743,-0.799867630005,0.0539668351412,0.000239863322349,0.000190409133211,6.16783217993e-05,0.00388547638431,4.3753429054e-05,-0.00143658532761,4.9387839681e-05,0.460494273351,-0.00531724547324,0.168716277943,0.0138342435478,0.923639113678,0.381693975618,0.0317664925469
-0.136463031173,-0.0313603766263,0.125881612301,-2.57258796692,0.00663419254124,2.61082196236,-0.799872398376,0.0539668351412,-0.000245472445386,-0.000266597169684,0.000451524159871,0.000501002185047,2.07438151847e-05,0.00218782154843,-0.000701774843037,0.460508013848,-0.0053159701976,0.16872566997,0.0138439132083,0.923636739285,0.381697556163,0.0317882873577
-0.136460959911,-0.0313614308834,0.125885814428,-2.57252502441,0.00663264142349,2.61089158058,-0.799885034561,0.0539668351412,-0.00077047792729,0.000301531981677,-4.64279764856e-05,0.00612559402362,-4.08302075812e-05,-0.000222999951802,0.000150074367411,0.460553377603,-0.00531364524597,0.168757730626,0.0138708383036,0.923630691412,0.381706121073,0.0318493727598
-0.136462956667,-0.0313614681363,0.125883594155,-2.57250332832,0.00663436995819,2.610902071,-0.799888789654,0.0539668351412,0.000220109737711,0.000786818738561,-0.000411906716181,0.000274243764579,0.000178446251084,0.000106326697278,0.000164539858815,0.460566062649,-0.00531562999422,0.168767249279,0.0138768451898,0.923630525731,0.381705055985,0.0318643221241
-0.13646300137,-0.0313588604331,0.125884234905,-2.57250165939,0.00663441093639,2.61090636253,-0.799892306328,0.0539668351412,0.000321810337482,-0.00108698708937,-0.000177183479536,-0.000187738391105,1.42681174111e-05,0.000184545337106,-0.000610391492955,0.460567357809,-0.00531531981922,0.168767145902,0.0138774108971,0.923629694035,0.381706915219,0.0318659115667
-0.136462181807,-0.0313520245254,0.125886872411,-2.57249188423,0.00663441698998,2.61091208458,-0.79990208149,0.0539668351412,9.34943182074e-06,4.66870696982e-05,-0.0014111349592,-0.000110699038487,3.77319774998e-05,-1.93371197383e-05,-0.000148702194565,0.460572194883,-0.00531364343852,0.168768398881,0.0138788712095,0.923627027975,0.381712970517,0.0318700164746
-0.136462584138,-0.0313518680632,0.125888645649,-2.57248902321,0.0066329757683,2.61091423035,-0.799908220768,0.0524098798633,-0.000201399045181,0.000338733312674,0.000132056491566,6.06638168392e-05,6.67802887619e-05,0.0030458366964,0.000145168596646,0.460574038338,-0.00531306694579,0.16876961355,0.0138802679321,0.92362524024,0.381717071399,0.031872101283
-0.136460870504,-0.0313568860292,0.125890657306,-2.57248711586,0.00663442956284,2.61091661453,-0.799914777279,0.0524098798633,-0.00034221354872,0.000181929819519,-7.88245670265e-05,0.000329075235641,6.58768840367e-05,-0.000220715053729,2.68321909971e-05,0.460576273488,-0.00531145719622,0.168772930443,0.0138820964142,0.923623399928,0.381721106922,0.0318763033759
-0.136460214853,-0.0313594602048,0.125894159079,-2.57248735428,0.00663393177092,2.61091732979,-0.799919486046,0.0524098798633,-0.000238566266489,-0.000468655693112,0.0011592960218,4.50075094705e-05,-5.84728222748e-05,-0.000656722637359,-0.000720868760254,0.460576748443,-0.00530963751464,0.168774081764,0.0138830186325,0.923621576658,0.38172538103,0.0318775482948
-0.13646055758,-0.0313534624875,0.125893324614,-2.57247972488,0.00663450080901,2.61092495918,-0.799934208393,0.0524098798633,0.000137363458634,-0.000766831333749,0.000380234763725,1.55362868099e-05,-5.13792037964e-05,0.000284852547338,4.36436930613e-05,0.460581069363,-0.00531007480523,0.16877508809,0.0138846156957,0.923618932945,0.381731354174,0.0318819239706
-0.136461347342,-0.0313514210284,0.125897169113,-2.57247662544,0.00663368823007,2.61092758179,-0.79993981123,0.0524098798633,0.000192732259165,-0.000496420427226,0.000630798342172,0.00031444162596,-9.66182997217e-05,-8.00396446721e-05,-0.000343193270965,0.460582803003,-0.00530869118558,0.168775620849,0.0138855204365,0.92361708926,0.381735647449,0.0318835364935
-0.136462599039,-0.0313540920615,0.125894740224,-2.57246899605,0.00663451105356,2.61093783379,-0.799944996834,0.0524098798633,0.000103687190858,-0.000731582113076,-1.28555529955e-05,0.000871496857144,-5.55698385085e-08,0.00304806022905,-0.000943403982092,0.460589079081,-0.00531046673576,0.168780862084,0.0138896252783,0.923616597235,0.381735902682,0.0318929444767
-0.13646300137,-0.0313729159534,0.125892743468,-2.57242894173,0.00663372548297,2.61096906662,-0.799950301647,0.0523383021355,-0.000672862515785,-0.000875538389664,-0.000362108490663,0.0028537500184,-2.02920582524e-05,0.00241153920069,-5.93294826103e-05,0.460618091444,-0.00531225955703,0.168808227903,0.0139086878948,0.923614425578,0.381737056748,0.0319336883805
-0.13647595048,-0.0313810966909,0.125886425376,-2.57234358788,0.00663387868553,2.61098957062,-0.799954295158,0.0523383021355,-0.00301102106459,-0.000277379731415,-0.00109782326035,0.00341207394376,0.000312367483275,0.00175761641003,-0.000308254588163,0.460664867014,-0.00532165613245,0.168847212444,0.0139317669778,0.923615463603,0.381729343101,0.0319857712326
-0.136472046375,-0.0313736647367,0.125892519951,-2.57228660583,0.00663259672001,2.61098694801,-0.799968838692,0.0523383021355,0.000546521157958,0.00045019845129,0.00429299287498,0.000857088598423,-0.000179589449544,-0.000110114633571,-0.000380835175747,0.46069064639,-0.00531715793618,0.168865647523,0.0139409970725,0.92360978077,0.381740947636,0.0320073436546
-0.136467799544,-0.0313635356724,0.125894546509,-2.57228899002,0.00663209147751,2.61098670959,-0.79998165369,0.0523383021355,-0.000348851841409,-0.00107952451799,-2.03990202863e-05,0.000188010162674,0.000160509051057,0.000133960114908,2.58386153291e-05,0.460687829848,-0.00531406070141,0.168860063737,0.0139381877966,0.923606269878,0.381750021792,0.0320016516468
-0.136470839381,-0.0313655659556,0.125891163945,-2.57228016853,0.00663278996944,2.61098837852,-0.800003290176,0.0523383021355,-0.000444468780188,-0.000188781501492,0.00357138807885,0.000569351541344,0.000151134823682,0.000104658924101,-0.00415149331093,0.460692739666,-0.00531705984626,0.168864593458,0.0139409881321,0.923603269198,0.381756709584,0.0320072545947
-0.136477246881,-0.031365994364,0.125890031457,-2.57226872444,0.00663249054924,2.61098790169,-0.800145685673,0.0523383021355,-0.000652061833534,-0.000829254451673,-0.00255126715638,-2.50011180469e-06,3.18983511534e-05,-8.9237553766e-05,5.62982822885e-05,0.460698190809,-0.00532058714784,0.168869183582,0.0139456994703,0.92357728577,0.381819045787,0.0320114141077
-0.13647647202,-0.0313689112663,0.125888094306,-2.57226920128,0.00663152523339,2.61098814011,-0.800172805786,0.0523383021355,0.000412020512158,-0.00013146319543,-0.000758214853704,-0.000323228508933,-0.000107767336885,-2.28979697567e-05,9.34968265938e-05,0.460698480269,-0.00532121023125,0.168870360018,0.0139470522036,0.923572129639,0.381831395785,0.0320122783366
-0.136478558183,-0.0313705913723,0.125890448689,-2.5722720623,0.00663182372227,2.61098766327,-0.800221383572,0.0523383021355,0.000501369882841,-0.000914360978641,0.000222826973186,-0.000211631166167,-5.82434840908e-05,0.000158889350132,-0.000541730725672,0.460697271631,-0.00532111434506,0.168869964312,0.0139475526062,0.923562879539,0.38185384581,0.0320111455213
-0.13647685945,-0.0313662737608,0.125887915492,-2.57226586342,0.0066315960139,2.61098814011,-0.800245046616,0.0523383021355,-0.000632893526927,-5.79990664846e-05,-0.000548796262592,-0.000182148491149,6.45828840788e-05,1.90067639778e-05,-0.000511916703545,0.460699659181,-0.00532142083108,0.168870450052,0.0139481865888,0.923558444817,0.38186446204,0.0320121759914
-0.136486157775,-0.0313626043499,0.125882282853,-2.57226681709,0.00663341023028,2.6109893322,-0.800265371799,0.0523383021355,-0.000329123897245,0.000408694468206,-0.00254379305989,-0.000554129830562,-0.000103131809738,-5.47932104382e-05,-0.000203792660614,0.460698780894,-0.00532812483092,0.168868535497,0.0139473536113,0.923557766334,0.381866257757,0.0320106925889
-0.136482730508,-0.0313657931983,0.125884860754,-2.57227063179,0.00663213897496,2.61098861694,-0.800285935402,0.0501857511699,0.000404445076128,0.000947689404711,0.000497657398228,-0.000391481094994,1.57220802066e-05,-0.000209934660234,-0.00402072072029,0.460697828019,-0.00532602578428,0.168868906309,0.0139481398425,0.923553338136,0.381876961099,0.0320104245203
-0.136477798223,-0.0313683263958,0.125890642405,-2.57226681709,0.00663268193603,2.61098718643,-0.8003282547,0.0501857511699,0.000318717880873,0.000165201330674,0.000435910595115,9.07975918381e-05,6.74051843816e-05,7.80008122092e-05,-0.00324645498767,0.460699338514,-0.00532061278581,0.16887091506,0.0139494010546,0.92354238748,0.381903289742,0.032011711998
-0.136474445462,-0.0313611030579,0.12589097023,-2.57227039337,0.00663321139291,2.61098861694,-0.800359427929,0.0501857511699,-3.22150890497e-06,9.27450091694e-05,-0.000487569515826,-6.16339966655e-05,4.55577792309e-05,3.35976983479e-05,-0.00237730750814,0.460696761625,-0.005318731062,0.168866371903,0.0139474785461,0.923535975826,0.381919220257,0.0320074691033
-0.136478722095,-0.0313613750041,0.125886902213,-2.57227301598,0.00663255946711,2.61098837852,-0.800389707088,0.0501857511699,7.17739458196e-05,-0.000172072090209,-0.000235144179896,-2.91185529022e-06,-6.24411550234e-05,-0.000204344541999,-0.00117223174311,0.46069544782,-0.00532257230465,0.168865461157,0.0139477096097,0.923531725611,0.381929615353,0.032005964844
-0.136477097869,-0.0313640274107,0.12588866055,-2.57227516174,0.00663263723254,2.61098742485,-0.800415277481,0.0501857511699,0.000148998384248,-0.00114372652024,-0.000198949608603,7.59483300499e-05,-0.00011511908815,1.77867750608e-05,-0.000193891086383,0.460694658057,-0.00532106885807,0.168865739449,0.0139481284546,0.923526215913,0.381942959457,0.0320055251135
-0.136476412416,-0.0313645675778,0.1258867383,-2.57227325439,0.0066333967261,2.61098647118,-0.800436139107,0.0501857511699,-0.00011513766367,0.000193329775357,-0.00157253886573,0.000319657876389,0.000210399870411,6.65782717988e-05,-0.0020478926599,0.460695956267,-0.00532201730167,0.168867114198,0.0139489284725,0.923522479744,0.381951855047,0.0320068260097
-0.136474311352,-0.0313574522734,0.125892311335,-2.57227230072,0.00663283420727,2.61098790169,-0.800530552864,0.0501857511699,-0.000306125322822,-2.3690141461e-05,-4.39603863924e-05,-0.00109919346869,-0.000158517621458,2.31297181017e-05,-0.000129450170789,0.460695102452,-0.00531798090894,0.168863886639,0.0139488688127,0.923503056774,0.381999099127,0.0320034550711
-0.136478453875,-0.0313603021204,0.125890210271,-2.57226610184,0.00663306191564,2.61098599434,-0.800565183163,0.0501857511699,-0.000425773934694,-0.000449400424259,-0.000236041028984,0.00216641114093,5.06400247104e-05,9.30733731366e-05,-0.00516960257664,0.460698120517,-0.0053209176928,0.168867402348,0.0139509923256,0.9234975503,0.382012085485,0.0320064154278
-0.136485934258,-0.0313631743193,0.125884473324,-2.572224617,0.00663243187591,2.61097979546,-0.800602912903,0.0501857511699,-0.000549372285604,0.000187487908988,-9.83908539638e-05,0.00566235929728,8.0461082689e-05,-0.00144378643017,-0.00421955948696,0.460717222394,-0.00532719142861,0.168884187256,0.0139595040088,0.923492120399,0.382023468623,0.0320235056199
-0.13647903502,-0.0313504822552,0.125888288021,-2.57213783264,0.00663198623806,2.61096262932,-0.800629854202,0.0501857511699,0.00060055666836,-0.00157572177704,0.00096812681295,0.00705700647086,-5.45729380974e-05,-0.000348388159182,9.88382234937e-05,0.460759065269,-0.00532070646901,0.168914522897,0.0139720589345,0.923482826616,0.382042884097,0.0320544054504
-0.136465162039,-0.031280092895,0.125954642892,-2.57120752335,0.00663124211133,2.61074233055,-0.800658464432,0.050324305892,-4.93070692755e-05,0.000266968010692,0.00287489080802,0.0400743745267,-0.00205708271824,-0.0242017861456,0.000310775940306,0.461144351657,-0.00528668376765,0.169216521099,0.0140913161615,0.923451993729,0.382088462603,0.0323458886916
-0.136468023062,-0.0312878228724,0.126010134816,-2.57027459145,0.00663098925725,2.61023545265,-0.800659179688,0.050324305892,-0.000127189865452,-0.00103221880272,0.00429828558117,0.0601548291743,-0.000325977453031,-0.0331876687706,0.000214318555663,0.461487979862,-0.00526448307987,0.169530234069,0.0141753701574,0.923434018772,0.382111841169,0.0325455431005
-0.136465370655,-0.0313153490424,0.126057356596,-2.56909942627,0.00662872754037,2.60957813263,-0.800657451153,0.050324305892,-0.000482383125927,-0.00770088611171,0.0041862395592,0.087888404727,-6.33927993476e-05,-0.0606458932161,-0.000201016126084,0.461919249442,-0.00524432482215,0.169932044187,0.0142823824137,0.923414646587,0.382133261167,0.0327959511971
-0.13646531105,-0.0315233767033,0.126163601875,-2.56700539589,0.00662858784199,2.60796642303,-0.800659716129,0.050324305892,-6.24259919277e-05,-0.0148586034775,0.00429936265573,0.116920471191,-0.000159951436217,-0.106456756592,9.79831602308e-05,0.462618886102,-0.00520223033354,0.170676458943,0.0144248958343,0.923380827911,0.382182622935,0.0331090838966
-0.136464267969,-0.0323767997324,0.126342490315,-2.56230330467,0.00662709260359,2.60308265686,-0.80066126585,0.050324305892,0.000102668745967,-0.0412624925375,0.00228660996072,0.183071106672,-6.42311215415e-06,-0.220281139016,-5.71562031837e-06,0.463977342627,-0.0051382661493,0.172400199042,0.0145918769413,0.923330817473,0.382271894078,0.0333987621456
-0.136469274759,-0.0331816785038,0.126475065947,-2.5590004921,0.00662510003895,2.59881997108,-0.800659298897,0.050324305892,-0.000466820871225,-0.060539599508,0.00925124809146,0.225578561425,-0.000317685189657,-0.315148234367,-0.000241170884692,0.464782203098,-0.00509408311255,0.173624188173,0.0145962917762,0.923306275484,0.382338832124,0.0333089635255
-0.13646684587,-0.0362809412181,0.126779586077,-2.54961228371,0.00662171002477,2.58389306068,-0.800659656525,0.050324305892,-0.000341179256793,-0.122991159558,0.00412133894861,0.299786359072,2.5535997338e-05,-0.516817629337,-0.000102908212284,0.466571942676,-0.00499992974961,0.177212003711,0.014256614834,0.923278875317,0.382519950259,0.0321147110051
-0.136482581496,-0.0408872924745,0.127034127712,-2.53946852684,0.00661660498008,2.56588053703,-0.800657510757,0.050324305892,-0.000526677933522,-0.171940922737,0.00846661347896,0.365748018026,0.000103609061625,-0.677353739738,0.00238448847085,0.46824122685,-0.0049574526327,0.181523627651,0.0138358003932,0.92327512346,0.382676468865,0.030501424349
-0.136469319463,-0.0438108071685,0.12712661922,-2.53372001648,0.00661203963682,2.55505156517,-0.800653159618,0.050324305892,-0.00314697716385,-0.222705706954,0.00691633485258,0.391209512949,0.000582197331823,-0.747734665871,0.000250511948252,0.469071576634,-0.00494926734702,0.184072367406,0.013553960213,0.92328266987,0.382751704237,0.0294369541012
-0.136476784945,-0.0485239960253,0.127284809947,-2.52579665184,0.00661227479577,2.53969025612,-0.800648212433,0.050324305892,-0.000699831405655,-0.264951765537,0.00793754402548,0.437577843666,0.00062097836053,-0.855227589607,7.05237107468e-05,0.470183318535,-0.00494495385896,0.187888522276,0.013251489965,0.923287747352,0.382853105724,0.0280647950805
-0.136472508311,-0.0536720305681,0.127410516143,-2.51744890213,0.00661288900301,2.52351593971,-0.800637483597,0.0503262765706,0.000205156466109,-0.303766638041,0.00888735242188,0.495828062296,0.000373360409867,-0.928043663502,0.000425503356382,0.471327871827,-0.00495287297775,0.192032787298,0.0129813028345,0.923295752236,0.382940516141,0.026702068465
-0.136472612619,-0.0601346492767,0.127553790808,-2.50711798668,0.00660928571597,2.5041744709,-0.800620675087,0.0503262765706,0.000104171536805,-0.34801197052,0.00427606003359,0.540620148182,-0.00020353171567,-1.00563895702,-0.000205149844987,0.472821032116,-0.00496825950259,0.197324757154,0.0128063495524,0.923297417382,0.383033359182,0.025363791166
-0.136481821537,-0.0719674453139,0.127713575959,-2.48913407326,0.00660735880956,2.4707505703,-0.800409793854,0.0503262765706,0.000267512892606,-0.408037513494,0.000606631976552,0.636884391308,-1.66253066709e-05,-1.13109266758,0.0208095423877,0.47533035106,-0.00503358738613,0.206969500372,0.0126962112583,0.923342991531,0.383052234665,0.0233989617343
-0.136501967907,-0.0986932292581,0.127894699574,-2.4462249279,0.00659710075706,2.39803242683,-0.799380838871,0.0503262765706,-0.00201231031679,-0.473325878382,0.00273467949592,0.780116558075,-0.000264202273684,-1.32807838917,0.00345865637064,0.480983198349,-0.00516392495418,0.228419009232,0.0133814353165,0.923511184397,0.382735718227,0.0214802038771
-0.136477962136,-0.107259370387,0.127945885062,-2.43168401718,0.00660149240866,2.37534332275,-0.799160063267,0.0503262765706,-5.08086523041e-05,-0.507547199726,0.000832936144434,0.883454620838,-0.00108023756184,-1.3501046896,0.00879832636565,0.48359226647,-0.00518145368525,0.238752989795,0.0139660009839,0.923541901636,0.382653160585,0.0212571191738
-0.136504709721,-0.115870766342,0.128041937947,-2.41650056839,0.00660389848053,2.35206317902,-0.799027383327,0.0503282472491,-0.00380640733056,-0.512005269527,0.00481800548732,0.921426177025,0.00192158017308,-1.37996184826,0.00934812333435,0.485646041689,-0.00517111968097,0.247233625794,0.0145094097098,0.923543057452,0.382629577473,0.0212674443306
-0.136495739222,-0.140969648957,0.128261938691,-2.36870312691,0.00659922556952,2.28513669968,-0.79863101244,0.0503282472491,-0.00318645103835,-0.515724122524,0.00887248571962,1.03152632713,-0.00158639252186,-1.40812456608,0.00117688730825,0.491817636619,-0.0050298073425,0.272966401852,0.0168674289587,0.923488724495,0.382548820284,0.0232479107165
-0.136508017778,-0.149877205491,0.128352880478,-2.35060548782,0.00660828175023,2.26131105423,-0.798570394516,0.0503282472491,-0.0034914703574,-0.524270892143,0.00483087683097,1.08563101292,-0.000158579146955,-1.38903534412,0.00713798962533,0.49349638813,-0.00495663506111,0.280666343245,0.0176430424744,0.923449723011,0.382557744419,0.0240604237399
-0.136510804296,-0.158720746636,0.128453195095,-2.33209848404,0.00659551750869,2.23776268959,-0.798483133316,0.0503282472491,0.00197433470748,-0.530067920685,0.0104854274541,1.10420060158,0.00113305146806,-1.37512969971,0.00490337330848,0.496354948565,-0.00480023505544,0.294238045661,0.0191958313866,0.923369323404,0.382551235064,0.0259839351812
-0.136508107185,-0.184184476733,0.128871262074,-2.27662277222,0.00660554505885,2.17127609253,-0.79837590456,0.0503282472491,0.000886883877683,-0.513247430325,0.00858610402793,1.10448348522,0.00278016366065,-1.26666724682,0.00492309732363,0.502219704982,-0.00419934327474,0.326787934703,0.0234516330707,0.923041198097,0.382646569072,0.0320401370464
-0.136500015855,-0.191579401493,0.129045546055,-2.26023006439,0.00661260914057,2.1524116993,-0.798347949982,0.0503282472491,-0.00562802422792,-0.489044398069,0.00940404832363,1.09809565544,8.62805100041e-05,-1.24436092377,-0.000398722477257,0.503610682793,-0.00395737418081,0.336363743812,0.0248124224293,0.922911845972,0.382694740912,0.034099900569
-0.136510580778,-0.200786590576,0.129279583693,-2.23972511292,0.00660880701616,2.12945389748,-0.798299312592,0.0503282472491,-2.62492376351e-05,-0.466169714928,0.0126247089356,1.04108345509,-0.00153259024955,-1.18045866489,0.00260638236068,0.505182117734,-0.00363409560539,0.34845785507,0.0266378256357,0.92273116776,0.382743445725,0.0369468906238
-0.136502429843,-0.214930132031,0.129738584161,-2.20891141891,0.00661272322759,2.09550309181,-0.798202157021,0.0503282472491,0.000730323779862,-0.454789757729,0.0122850304469,0.980457723141,0.00126881536562,-1.09934914112,0.00189966091421,0.507009422209,-0.00302656095974,0.366972572235,0.0295737284916,0.922400068545,0.382847980748,0.04160446431
-0.136508882046,-0.22122181952,0.130011036992,-2.19521594048,0.00660949479789,2.08049583435,-0.798163771629,0.0503282472491,0.000784334319178,-0.454599589109,0.022065108642,0.975556135178,-0.00109344464727,-1.06903517246,0.00604897318408,0.507665471613,-0.0026581629476,0.376433046861,0.0311011020187,0.922203320905,0.382930166142,0.0440254915552
-0.136508330703,-0.230452999473,0.130500987172,-2.17567706108,0.00661145476624,2.05908226967,-0.798078000546,0.0503282472491,0.000512557511684,-0.443522423506,0.0194897912443,0.89864641428,0.000466505589429,-0.990083456039,0.00557992700487,0.50812585902,-0.00216750644609,0.387234389564,0.0328753240443,0.921954950289,0.383048923664,0.0468167114267
-0.136506542563,-0.236786782742,0.130898654461,-2.16241645813,0.00660639908165,2.04453372955,-0.797974348068,0.0503282472491,0.000624960055575,-0.409965574741,0.0309141986072,0.863647580147,-0.00101984885987,-0.948943018913,0.00936793722212,0.508299274923,-0.00175204977263,0.395417218687,0.0342348973512,0.92175592635,0.383142956956,0.0489434189536
-0.136503726244,-0.24516043067,0.131605163217,-2.14513349533,0.0066119520925,2.02503490448,-0.797776162624,0.0503282472491,0.000103441561805,-0.37693426013,0.0372520424426,0.828865528107,0.00110564462375,-0.901007592678,0.0139338718727,0.508179184389,-0.00109139941545,0.406096867469,0.0359420621505,0.921478488217,0.383317070431,0.0515129801167
-0.136501938105,-0.255533993244,0.132748350501,-2.12454104424,0.00661921827123,2.00093436241,-0.797278821468,0.0503308735788,0.00278665916994,-0.35965898633,0.0444963909686,0.705859839916,-0.000392562913476,-0.815678179264,0.0239135064185,0.507485718989,-0.000116202125881,0.418933458967,0.037928529503,0.921146794263,0.38353321683,0.0543348998227
-0.136516451836,-0.261604845524,0.133664339781,-2.11251735687,0.00660813599825,1.98670732975,-0.796686470509,0.0503308735788,-0.00198025885038,-0.323125213385,0.0637903437018,0.620054721832,-0.000716970826034,-0.782170295715,0.0400796346366,0.506827878618,0.000629568462572,0.426799585814,0.0391378782759,0.920957052815,0.383632312867,0.0559694699009
-0.136494427919,-0.266974955797,0.134718030691,-2.1026558876,0.00662189396098,1.97376835346,-0.795981645584,0.0503308735788,0.00261747464538,-0.312564313412,0.0594473071396,0.556663274765,-0.000409229513025,-0.732488751411,0.0457338094711,0.505976512805,0.00135138743893,0.432594601619,0.0398943303623,0.920826596071,0.383749263328,0.0567743335632
-0.136495068669,-0.272140830755,0.135948702693,-2.09305310249,0.0066136601381,1.96117651463,-0.795194029808,0.0503308735788,-0.000309351715259,-0.263740003109,0.0711578428745,0.496835321188,0.000687920895871,-0.674148499966,0.0451105684042,0.505023971115,0.00219391668125,0.438572055332,0.0406971367441,0.920675338845,0.383907568682,0.0575816107293
-0.136417925358,-0.283258527517,0.139892756939,-2.07388806343,0.00661640381441,1.93215703964,-0.792116224766,0.0503308735788,0.00282984413207,-0.180445149541,0.0821145176888,0.29654070735,-0.000617799232714,-0.504641830921,0.0724082887173,0.501976763849,0.00470911077411,0.450397436902,0.0418470226197,0.920478061058,0.384237899591,0.0577079024731
-0.13636495173,-0.291013270617,0.144910112023,-2.06429195404,0.00661299517378,1.90911960602,-0.786841869354,0.0503308735788,0.00121875281911,-0.0910478383303,0.102849982679,0.0773442611098,0.000215013526031,-0.360603809357,0.142672389746,0.498297844881,0.00754971162103,0.456323675772,0.0415524236717,0.920748088498,0.384061990424,0.0547059485605
-0.136211812496,-0.29289624095,0.147892266512,-2.06374382973,0.00660942634568,1.8991355896,-0.782072484493,0.0503341555595,0.00208282121457,-0.0282998438925,0.0978870689869,-0.0163175147027,-0.00012699929357,-0.307620167732,0.166023761034,0.496113244807,0.00914736078619,0.45631016269,0.0404041242646,0.921329210235,0.383286328222,0.0511036533975
-0.136122703552,-0.29301738739,0.14927738905,-2.06411981583,0.00660953950137,1.89476156235,-0.77959227562,0.0503341555595,0.00823694188148,0.00481647346169,0.0997377708554,-0.0358535088599,-0.000121646189655,-0.31913408637,0.187048017979,0.49525644766,0.00976313480524,0.455768828494,0.0397400439996,0.92162134063,0.382893161464,0.0492712896533
-0.135875880718,-0.292701989412,0.151144146919,-2.06520080566,0.00661070086062,1.88876831532,-0.775986611843,0.0503341555595,0.0179706513882,0.0326835922897,0.0932560935616,-0.078763358295,-8.69782161317e-05,-0.298243612051,0.195581391454,0.493675386589,0.0108757944469,0.454230921052,0.0383109746324,0.922192162725,0.382129999975,0.0455032639807
-0.135493695736,-0.291598677635,0.152918130159,-2.06719279289,0.00661135464907,1.88309776783,-0.77213460207,0.0503341555595,0.0219120066613,0.0720023289323,0.0861813127995,-0.118756830692,-3.78046715923e-05,-0.260170042515,0.197487682104,0.492201121637,0.0118630716324,0.452020506214,0.0367013509033,0.922770775168,0.381350437652,0.0414602306194
-0.13450486958,-0.286782294512,0.156236037612,-2.07528829575,0.00660989992321,1.87236726284,-0.762421011925,0.0503341555595,0.0204857848585,0.137124359608,0.0560273192823,-0.213908165693,-8.30496792332e-05,-0.208385199308,0.202193468809,0.488677988215,0.0137007495929,0.44421235681,0.0320928837342,0.924423011082,0.37879952369,0.0303819672113
-0.134247437119,-0.28502497077,0.15689881146,-2.07793402672,0.00661059468985,1.87001121044,-0.759874165058,0.0503341555595,0.0249457042664,0.162503167987,0.0514230690897,-0.232178136706,8.53120873217e-05,-0.178397342563,0.222147211432,0.487656485025,0.0140966162602,0.44135467044,0.0305527280612,0.924954268616,0.377900327075,0.0267857099159
-0.133819818497,-0.281435459852,0.157818585634,-2.08330273628,0.00659762881696,1.8664560318,-0.755235731602,0.0503341555595,0.012785486877,0.167282223701,0.0373745039105,-0.261403560638,-0.00313473818824,-0.156284302473,0.19726125896,0.486298751677,0.0144677034076,0.437218490276,0.0284272442655,0.925688721906,0.376582196529,0.0218662036231
-0.133638039231,-0.276027590036,0.158607944846,-2.091807127,0.00640994263813,1.86223483086,-0.74977350235,0.0503341555595,-0.00350609165616,0.198684319854,0.0121442601085,-0.291991055012,-0.0177979916334,-0.136066332459,0.177917897701,0.484008110188,0.0145910580416,0.430014491138,0.024932001692,0.926789599958,0.374506339099,0.0135806612254
-0.133669421077,-0.272866338491,0.158721908927,-2.09629201889,0.00603415304795,1.86027634144,-0.747133791447,0.0503341555595,-0.00332568818703,0.218715578318,0.0016310676001,-0.30256190896,-0.0339653454721,-0.12318328768,0.183874845505,0.48284909781,0.0143943473442,0.426127422483,0.0231714647495,0.927353647868,0.373355646972,0.00915726849567
-0.13398103416,-0.267201632261,0.158649727702,-2.10354328156,0.00456486782059,1.85727334023,-0.743052005768,0.0503341555595,-0.0229301601648,0.234681248665,-0.0107917431742,-0.296388596296,-0.0909828394651,-0.117628201842,0.150828137994,0.481001061761,0.0136659999333,0.419643261235,0.0205994906674,0.928225223525,0.371444119718,0.00169145104319
-0.134423598647,-0.263875424862,0.158494666219,-2.1076104641,0.00297724409029,1.85569441319,-0.740895032883,0.0503341555595,-0.0368866100907,0.239758089185,-0.0198719874024,-0.288681685925,-0.129172846675,-0.113013036549,0.159489542246,0.479968311239,0.0129347969003,0.415973706743,0.0194789780866,0.928684592922,0.370349160108,-0.00264491445235
-0.13791371882,-0.251064032316,0.157430708408,-2.1210744381,-0.00757191190496,1.84985220432,-0.73419469595,0.0503341555595,-0.0867468863726,0.259781688452,-0.0554685406387,-0.258402705193,-0.304896205664,-0.126954600215,0.104292705655,0.476374533801,0.00830418391189,0.403090714296,0.0175453460009,0.930091879193,0.366416512398,-0.0189788360931
-0.13963919878,-0.246260851622,0.156135797501,-2.12564635277,-0.0137274553999,1.84762060642,-0.732501983643,0.0503341555595,-0.105572663248,0.278097182512,-0.0792671591043,-0.24818430841,-0.375811904669,-0.127047285438,0.0709564760327,0.475057865919,0.00555790510513,0.398570126303,0.0177641222179,0.930487478985,0.365021222781,-0.0252387404114
-0.14162120223,-0.241337150335,0.154459804296,-2.12958168983,-0.0205627828836,1.84569013119,-0.731372535229,0.0503341555595,-0.128687694669,0.292634218931,-0.105658754706,-0.21907967329,-0.423073858023,-0.107057064772,0.0587984994054,0.473933751364,0.00240760755952,0.394356471779,0.0183561965251,0.930809370337,0.363706559274,-0.0312170557168
-0.150834217668,-0.227776452899,0.146950080991,-2.13911366463,-0.0441371165216,1.84137916565,-0.729636907578,0.0503341555595,-0.239177957177,0.273244231939,-0.177031040192,-0.156219348311,-0.514520704746,-0.0804901868105,0.00116409210023,0.471110015962,-0.0101956542391,0.383659973518,0.0219667329591,0.932107691411,0.358400174078,-0.0473500703425
-0.154538974166,-0.223870292306,0.144041627645,-2.14125943184,-0.0520702674985,1.84016382694,-0.729641854763,0.0503341555595,-0.256196677685,0.245776981115,-0.216016843915,-0.131438732147,-0.541073858738,-0.079673461616,-2.43337872234e-05,0.470352602571,-0.0148525099449,0.38091582789,0.0234587023852,0.932573113339,0.356459389767,-0.0519016444037
-0.159934908152,-0.219099879265,0.138850331306,-2.14350819588,-0.062988050282,1.83850502968,-0.729642748833,0.0503341555595,-0.294336676598,0.244024023414,-0.297056913376,-0.0872573554516,-0.547546744347,-0.0827998742461,4.17673509219e-05,0.46936650745,-0.0219271381847,0.377780933393,0.0256032510341,0.933456552379,0.353117581869,-0.0575439955003
-0.165429443121,-0.214668646455,0.133159995079,-2.14471292496,-0.0725890770555,1.83725309372,-0.729655504227,0.050335470587,-0.31232637167,0.239384695888,-0.328478783369,-0.0534366369247,-0.521280944347,-0.0603613220155,-0.000454594846815,0.468631453896,-0.0290035535726,0.375307555587,0.0274165554597,0.934528337553,0.349346753432,-0.0621447049227
-0.183536916971,-0.204379051924,0.11276011914,-2.14519238472,-0.0965530946851,1.83554768562,-0.730218052864,0.050335470587,-0.410437941551,0.185278594494,-0.47109284997,0.0225689038634,-0.437624394894,0.000742983189411,-0.0250854026526,0.466843814273,-0.0515333717705,0.370813574986,0.0318151871286,0.938835750086,0.335360968921,-0.071472011577
-0.196718990803,-0.199605807662,0.0964621603489,-2.1440038681,-0.108116582036,1.83554148674,-0.731563806534,0.050335470587,-0.45453158021,0.134897023439,-0.581454873085,0.0631750822067,-0.318966150284,-0.00042472948553,-0.0648958608508,0.465550816117,-0.0668491573499,0.369488668048,0.0333316255022,0.94232202024,0.324544423368,-0.0747604832832
-0.206290915608,-0.196934208274,0.0843613743782,-2.14226984978,-0.114149786532,1.83555793762,-0.733054876328,0.050335470587,-0.493881851435,0.134237349033,-0.61118799448,0.105954535306,-0.266716659069,0.00109674211126,-0.0924414396286,0.464375655193,-0.0792571972824,0.369171552735,0.0337910460657,0.945348393613,0.315222497381,-0.0762191362557
-0.230545893312,-0.191532164812,0.0530576370656,-2.13503623009,-0.124782383442,1.83569276333,-0.738846480846,0.050335470587,-0.519789278507,0.108624577522,-0.709060490131,0.201502650976,-0.179681614041,0.0148566579446,-0.171168610454,0.461448232289,-0.106044172237,0.370166190888,0.033701554381,0.951953920859,0.294511822671,-0.0768812317158
-0.238342732191,-0.190044477582,0.0422794222832,-2.13186717033,-0.1272059232,1.83592927456,-0.7417075634,0.0503361262381,-0.521835267544,0.0932918712497,-0.735033690929,0.224039837718,-0.153189331293,0.0176974404603,-0.20535890758,0.460180355348,-0.116444178951,0.371071760446,0.0334172169783,0.954430643619,0.286571858489,-0.0763020690565
-0.249003171921,-0.188326507807,0.0271196160465,-2.12684965134,-0.130087286234,1.83633220196,-0.746505439281,0.0503361262381,-0.536428034306,0.0818041115999,-0.769742548466,0.27101290226,-0.139086231589,0.017716543749,-0.267336308956,0.458591058846,-0.128516574609,0.372537276619,0.0331230963655,0.957188640828,0.277578602174,-0.0751191431228
-0.274711310863,-0.184969335794,-0.010908132419,-2.11201071739,-0.133564636111,1.83776736259,-0.76033782959,0.0503361262381,-0.494550049305,0.0618732348084,-0.784778892994,0.31929320097,-0.0205201283097,0.0380818769336,-0.292146205902,0.453835882447,-0.159364872901,0.377720384845,0.0319390316132,0.964045894746,0.254412988851,-0.0697813863387
-0.282653599977,-0.184205234051,-0.0234926287085,-2.10696697235,-0.133720636368,1.83830559254,-0.764977455139,0.0503361262381,-0.481922090054,0.0425063632429,-0.770109117031,0.308739095926,-0.00223466195166,0.032998546958,-0.306609034538,0.45196462234,-0.169148271796,0.379626225651,0.0314045730696,0.966186515424,0.246841055532,-0.0675785705671
-0.291084855795,-0.183741137385,-0.0370485633612,-2.10124659538,-0.133720219135,1.83885538578,-0.770426094532,0.0503361262381,-0.459293037653,0.0173876062036,-0.741286814213,0.322986930609,-0.00800935272127,0.0333696268499,-0.300812393427,0.449784501761,-0.179616342636,0.381970275304,0.0309775470439,0.968378030787,0.238891755899,-0.0649238763865
-0.311878919601,-0.184003055096,-0.0703647062182,-2.08671236038,-0.133465960622,1.84007775784,-0.783809900284,0.0503374412656,-0.399150431156,-0.0231626462191,-0.61810863018,0.276121050119,0.0224494598806,0.0208977852017,-0.248568072915,0.443350794689,-0.205304266594,0.388586813763,0.0305940775957,0.973514177319,0.219107367737,-0.057672437721
-0.319322437048,-0.184820368886,-0.0815159752965,-2.08189129829,-0.132795155048,1.84057927132,-0.788344979286,0.0503374412656,-0.377648174763,-0.0604362413287,-0.564287364483,0.231416091323,0.0491293333471,0.0286726802588,-0.220406830311,0.44074702479,-0.213974900116,0.391122267392,0.0305178563309,0.975223336677,0.212145917256,-0.05479245871
-0.325023114681,-0.18584215641,-0.089937992394,-2.0784535408,-0.131669938564,1.8411359787,-0.791901111603,0.0503374412656,-0.331082165241,-0.0624594390392,-0.492617279291,0.199620917439,0.085576839745,0.0380504727364,-0.222891837358,0.438647967232,-0.220418320105,0.393137866244,0.0303401966862,0.976509253289,0.206819512309,-0.0522956951382
-0.330881506205,-0.187221080065,-0.0987085327506,-2.07485508919,-0.129907742143,1.84178197384,-0.795747160912,0.0503374412656,-0.287382811308,-0.078817807138,-0.435824006796,0.170634835958,0.0970093086362,0.0275825317949,-0.185205295682,0.436410487247,-0.226977849292,0.395391115551,0.0300627453274,0.977825984015,0.201284443258,-0.049367488552
-0.340598672628,-0.192527964711,-0.11485260725,-2.06882786751,-0.122448541224,1.84213662148,-0.803216814995,0.0503407232463,-0.112811103463,-0.113424703479,-0.212463349104,0.0770235583186,0.240671440959,-0.000192010309547,-0.127811253071,0.43214245996,-0.237517162703,0.400378405102,0.0283902824984,0.980210021994,0.19128744082,-0.0423251618232
-0.341872215271,-0.194279760122,-0.117590598762,-2.06790709496,-0.118425197899,1.84214770794,-0.805110931396,0.0503407232463,-0.0541942156851,-0.136320099235,-0.153902873397,0.0492284074426,0.295310288668,-0.00105497462209,-0.117590747774,0.431541481434,-0.238757219617,0.401638424574,0.0271385342378,0.980687608513,0.189540780678,-0.0398698711287
-0.342276871204,-0.197170212865,-0.11981458962,-2.0672981739,-0.112081810832,1.84214103222,-0.80699878931,0.0503407232463,0.0106047047302,-0.143341287971,-0.0575886368752,0.0200451295823,0.349506318569,0.00386241520755,-0.0724022835493,0.43134770582,-0.238829065807,0.403194002062,0.0253219759104,0.981109517234,0.188273713267,-0.0365502574312
-0.337268084288,-0.203519910574,-0.117559961975,-2.06706881523,-0.092297963798,1.84212887287,-0.809338271618,0.0503407232463,0.206006646156,-0.117294862866,0.126831397414,0.00141567771789,0.440292388201,0.000316556252073,-0.0061764838174,0.434100351311,-0.232410641886,0.406096143209,0.0197138635504,0.981160193901,0.190079667488,-0.0283858625193
-0.333340138197,-0.205327674747,-0.114945732057,-2.067060709,-0.0850303098559,1.84212756157,-0.809390664101,0.0503407232463,0.277584016323,-0.103938132524,0.212557673454,0.000531326921191,0.46658462286,-0.000156079418957,-0.000447100494057,0.436010709396,-0.228330086927,0.40694091572,0.0176620586087,0.980856372732,0.192228823373,-0.0256301954323
-0.327376276255,-0.207128345966,-0.110050402582,-2.06701231003,-0.0759775564075,1.84213662148,-0.809387803078,0.0503407232463,0.352129250765,-0.0922220796347,0.301144391298,0.00436857528985,0.490026295185,-0.000494840962347,-0.000353648909368,0.439161851524,-0.221677497715,0.40787037381,0.0150271649534,0.98015003822,0.196425826863,-0.0222930735397
-0.320388436317,-0.208637237549,-0.104066416621,-2.06695008278,-0.0669850185513,1.8421446085,-0.809380233288,0.0503407232463,0.421095877886,-0.074148312211,0.358925700188,0.00615340191871,0.503127932549,0.000876934791449,0.0028307356406,0.442567651168,-0.214353818854,0.408639703218,0.0125666637641,0.979219426517,0.201488037065,-0.0193381567984
-0.306078523397,-0.210129648447,-0.0910081043839,-2.06672692299,-0.0523511171341,1.84217715263,-0.809228479862,0.0503407232463,0.522487878799,-0.0271787140518,0.506309866905,0.0121927643195,0.462951600552,0.000937491771765,0.00974525511265,0.448049829133,-0.202220502198,0.409416186122,0.0092442933864,0.977406369189,0.210579340566,-0.0157376469024
-0.296626657248,-0.210466697812,-0.0815844908357,-2.06648302078,-0.0447247028351,1.84224522114,-0.808836698532,0.0503407232463,0.573970854282,-0.0121994633228,0.581541955471,0.0186406075954,0.443833112717,0.00699761975557,0.0357992611825,0.453473583012,-0.189660391708,0.409885001387,0.00676665342649,0.975258704866,0.220568334936,-0.0132015265574
-0.287036299706,-0.210523068905,-0.0717741772532,-2.06620955467,-0.0376900844276,1.84240186214,-0.808090150356,0.0503407232463,0.622290313244,0.00173633452505,0.646212399006,0.0139693552628,0.439103424549,0.00832153204829,0.0622723028064,0.457610260107,-0.179571075954,0.410118973693,0.00509491228292,0.973437310084,0.228603956278,-0.0115791223341
-0.27401059866,-0.210296213627,-0.0577357411385,-2.06585168839,-0.0293445959687,1.84270477295,-0.806613445282,0.0503407232463,0.681169569492,0.0196495465934,0.748791694641,0.0191083271056,0.39548638463,0.017870593816,0.0954603403807,0.462967140907,-0.165619778144,0.410287635056,0.00327482100233,0.97077401077,0.239769262982,-0.00988917511275
-0.252498269081,-0.209264412522,-0.0339244194329,-2.06543064117,-0.0185593143106,1.84357154369,-0.802515685558,0.0503407232463,0.759877204895,0.0426269024611,0.847012281418,0.0140390368178,0.321894228458,0.036521974951,0.182535305619,0.471190290915,-0.141686197794,0.410155039649,0.00129110196236,0.965928845954,0.25867505898,-0.00818603475437
-0.237718999386,-0.208344399929,-0.0169497095048,-2.06515598297,-0.0130107393488,1.84434473515,-0.798114717007,0.0503407232463,0.782529711723,0.057142753154,0.916236341,0.0134512092918,0.270025551319,0.0393626131117,0.282021224499,0.475787144824,-0.126464893418,0.409952534562,0.000754418396824,0.962745158915,0.270300790642,-0.0076597721266
-0.224929243326,-0.207248806953,-0.00206293910742,-2.06489109993,-0.00901664979756,1.84503793716,-0.793050646782,0.0503413788974,0.817768573761,0.0713784322143,0.961963534355,0.0220559220761,0.238431066275,0.0399863943458,0.354019492865,0.479580365771,-0.112511448591,0.409612917186,0.000519051543351,0.959830759453,0.280478563373,-0.00751125636694
-0.210936427116,-0.205867484212,0.0146180065349,-2.06452250481,-0.00502147898078,1.84573888779,-0.786622285843,0.0503413788974,0.823008716106,0.0882269442081,0.999386906624,0.0252592246979,0.222907274961,0.0408783704042,0.42083632946,0.483312917731,-0.0970011952118,0.409155546599,0.00038928035753,0.956575375047,0.291387092433,-0.00754734182041
-0.192940935493,-0.203872829676,0.0364428013563,-2.06404352188,-0.00050543731777,1.84654128551,-0.776703596115,0.0503413788974,0.860878825188,0.0948860496283,1.04758286476,0.0218108221889,0.225973829627,0.037553332746,0.510060310364,0.487390200435,-0.0768136103181,0.408407962403,0.000412486240927,0.952373563889,0.30483076953,-0.00791367794751
-0.151890799403,-0.198561117053,0.0884513035417,-2.06341505051,0.00775681762025,1.84890699387,-0.748046994209,0.0503413788974,0.851948678493,0.111204147339,1.09395003319,0.00645901076496,0.129450306296,0.0449656806886,0.687435567379,0.493654638073,-0.0294930957859,0.405945623385,0.00128622325786,0.94261987517,0.333726335771,-0.00963582198412
-0.139144867659,-0.196793541312,0.105123899877,-2.06334638596,0.0093610631302,1.84947478771,-0.737209260464,0.0503413788974,0.827064275742,0.11927755177,1.10568070412,0.00401220470667,0.0961361452937,0.034414447844,0.755395948887,0.494615717534,-0.0146073507686,0.404989740633,0.00193057559316,0.939604361174,0.34209409438,-0.0105616105399
-0.124316833913,-0.194726586342,0.125074923038,-2.06340432167,0.0109860673547,1.85012495518,-0.722977340221,0.0503413788974,0.825054883957,0.118103295565,1.11000597477,-0.00363359111361,0.0924767330289,0.0347200185061,0.816735267639,0.495133804516,0.00297220454106,0.403767287038,0.00282005711675,0.936176810408,0.351321371836,-0.0117609654956
-0.0883671343327,-0.189486891031,0.17502579093,-2.06350111961,0.0135120283812,1.85106647015,-0.682661354542,0.0503413788974,0.731680750847,0.0904976651073,1.04561054707,-0.0135887013748,-0.0090784849599,0.00812371633947,0.931024432182,0.493566934736,0.0469940700368,0.400428676782,0.00578903615997,0.928025689931,0.372157230282,-0.0152905696521
-0.0736040994525,-0.187623098493,0.196458816528,-2.06379628181,0.0135074537247,1.85115563869,-0.662887811661,0.0503446646035,0.672366142273,0.0905183553696,0.983520686626,-0.0188625454903,-0.00184627971612,0.00074672914343,0.957037329674,0.491761159225,0.0640011437698,0.399074228704,0.0074930786531,0.925142923309,0.379170228437,-0.0168630594356
-0.0624537728727,-0.186480358243,0.213059589267,-2.06426310539,0.013454192318,1.851162076,-0.64634257555,0.0503446646035,0.629623770714,0.0450875498354,0.953350424767,-0.0377711169422,-0.00631657289341,-0.000202432041988,0.9762596488,0.489788081756,0.0776421421049,0.397979447266,0.0089731283376,0.923031330454,0.384193640611,-0.0181077929312
-0.0338347069919,-0.185859397054,0.255790293217,-2.06728434563,0.010006967932,1.85113382339,-0.597845971584,0.0503446646035,0.494157165289,-0.0171841308475,0.713799655437,-0.0719379931688,-0.161218956113,-0.000329429021804,0.90121281147,0.482652415576,0.111095868101,0.39538487123,0.014698710034,0.918509568406,0.394556584304,-0.0211948610106
-0.0253437440842,-0.186319753528,0.267636567354,-2.06856489182,0.0063064461574,1.851115942,-0.581848263741,0.0503446646035,0.451034933329,-0.0459319874644,0.617404043674,-0.0763841345906,-0.240819185972,-0.000517963140737,0.880160927773,0.479970584338,0.120698651239,0.39470131385,0.0179538368487,0.917355695156,0.397044422504,-0.0221791466684
-0.013800540939,-0.188004538417,0.282960236073,-2.07089185715,-0.0019055029843,1.85109364986,-0.557844161987,0.0503446646035,0.347045719624,-0.0624023936689,0.465354293585,-0.084564730525,-0.32637065649,0.00044294950203,0.768903672695,0.476302668847,0.13190786457,0.394095762384,0.0238566213278,0.91624903267,0.399219447428,-0.0232895733351
