imanlab/tactile_prediction_flat_dataset/train/data_sample_2021-11-24-15-20-26/robot_state.csv
position_panda_joint1,position_panda_joint2,position_panda_joint3,position_panda_joint4,position_panda_joint5,position_panda_joint6,position_panda_joint7,position_panda_finger,velocity_panda_joint1,velocity_panda_joint2,velocity_panda_joint3,velocity_panda_joint4,velocity_panda_joint5,velocity_panda_joint6,velocity_panda_joint7,ee_state_position_x,ee_state_position_y,ee_state_position_z,ee_state_orientation_x,ee_state_orientation_y,ee_state_orientation_z,ee_state_orientation_w
0.045505233109,-0.00411290163174,-0.0347496792674,-2.48790359497,-0.0592195987701,2.48628020287,-0.719020366669,0.0634773373604,5.36538864253e-05,-0.000449178187409,-0.000245203147642,0.00049633346498,8.76286649145e-05,7.98533510533e-05,5.21484616911e-05,0.469900537841,0.00130700778791,0.177187928177,0.0173142434646,0.925386551813,0.378595030008,-0.00507440968274
0.045503243804,-0.00411190232262,-0.0347495488822,-2.48790860176,-0.0592193864286,2.48628139496,-0.719021320343,0.0634773373604,-3.21644729411e-05,-0.000187195822946,0.00024403630232,-0.00021777494112,7.84800504334e-05,-7.74144209572e-05,0.000232815145864,0.469898280376,0.00130613428191,0.177185617748,0.017313278576,0.925386735343,0.378594595567,-0.0050766451583
0.0455118305981,-0.00411513308063,-0.0347436517477,-2.48791193962,-0.0592200644314,2.48628044128,-0.719022333622,0.0634773373604,-3.99143536924e-05,-0.000767483725213,-0.000221270849579,-0.000346389104379,-5.80558735237e-05,3.82474172511e-05,-3.2449963328e-05,0.469896982867,0.00131288443526,0.177185754953,0.0173132911442,0.925383700603,0.378602006726,-0.00507708526034
0.0455145277083,-0.00412080530077,-0.0347416065633,-2.48790955544,-0.0592192411423,2.48628020287,-0.719021260738,0.0634773373604,0.000223984287004,-0.000210672078538,-0.00023780882475,-0.0003568897082,-2.38890625042e-05,0.000120232361951,0.000115574723168,0.469898930141,0.00131521226173,0.177189321823,0.0173144282544,0.925383157437,0.378603333298,-0.00507328341965
0.0455148816109,-0.00412100274116,-0.0347444117069,-2.48790740967,-0.0592195019126,2.48628044128,-0.719020724297,0.0634773373604,-0.000143152996316,0.000515092280693,0.000171860738192,-5.33429447387e-05,1.44825999087e-05,-6.9448389695e-05,6.42577870167e-05,0.469900030078,0.00131406162367,0.17719026997,0.0173149599279,0.925383688038,0.378602027635,-0.00507212280082
0.0455116033554,-0.00411796057597,-0.0347433164716,-2.4879090786,-0.05922030285,2.4862806797,-0.719020962715,0.0634766817093,-0.000211386286537,0.000712071196176,0.00115659611765,-9.67658052105e-05,-3.98435731768e-05,3.61507627531e-05,0.000147960628965,0.469898826516,0.00131295802981,0.177188216046,0.0173144049453,0.925383917664,0.37860146226,-0.00507432439578
0.0455099530518,-0.00410979380831,-0.0347449034452,-2.48791003227,-0.059220559895,2.48628044128,-0.719019830227,0.0634766817093,-0.000141483877087,-0.00298990635201,-0.000204005773412,6.77912539686e-05,-6.61398444208e-05,0.00013873844,-0.000734789355192,0.469897058181,0.0013113550775,0.177183990713,0.0173128831534,0.925384679498,0.378599610155,-0.00507876973702
0.045512765646,-0.00411168718711,-0.0347432233393,-2.48791003227,-0.0592197626829,2.48627924919,-0.71902012825,0.0634766817093,7.8870310972e-05,-0.00139247451443,0.00315386638977,-0.000418918003561,8.86734560481e-05,5.04879026266e-05,-0.000339982711012,0.469897083879,0.0013135103579,0.177184772644,0.017312793644,0.925383906253,0.378601510231,-0.00507832247316
0.0455124303699,-0.00411460688338,-0.0347427092493,-2.48790860176,-0.0592199712992,2.48628020287,-0.719020426273,0.0634766817093,5.98042606725e-05,-0.000430562969996,5.8484285546e-05,-0.000191971063032,1.54259123519e-05,0.000118447482237,0.000209056030144,0.469898422456,0.00131362374627,0.177186784106,0.0173137631403,0.92538379236,0.378601777357,-0.00507585556653
0.0455130152404,-0.00410999031737,-0.0347420945764,-2.48790955544,-0.0592195801437,2.48627948761,-0.719019830227,0.0634766817093,-6.20165083092e-05,-3.05974936055e-05,-0.000272285804385,-4.25148027716e-05,6.2492545112e-05,3.72474532924e-05,4.78004694742e-05,0.46989710641,0.00131411029088,0.177184082275,0.0173125636431,0.9253838157,0.378601736304,-0.00507875288099
0.0455139279366,-0.00410909485072,-0.0347421653569,-2.48791241646,-0.0592196062207,2.48627948761,-0.719020307064,0.0634766817093,-0.000106019600935,0.000395367911551,0.000294644007226,-3.23815183947e-05,-0.000109078493551,-9.15106575121e-05,0.000196194581804,0.469895603323,0.00131453631147,0.177182649711,0.0173119197331,0.925383461488,0.378602608013,-0.00508050472536
0.0455138087273,-0.00411101663485,-0.0347422584891,-2.48791122437,-0.0592188797891,2.48627972603,-0.719018995762,0.0634766817093,2.10250964301e-05,-0.00154592690524,0.000161383868544,-0.00036826977157,0.000118105999718,0.000120673474157,-0.000126206927234,0.469896337767,0.00131458948835,0.177183747859,0.017312182874,0.92538382208,0.378601732777,-0.0050791512157
0.0455123856664,-0.00411430932581,-0.0347441211343,-2.48791003227,-0.0592202991247,2.48627901077,-0.719019949436,0.0634766817093,0.00108084431849,8.08794811746e-06,-0.00262848171405,-3.27702437062e-05,-0.000115832954179,-9.725306154e-05,0.000318677368341,0.469897443593,0.00131289125091,0.177185983765,0.0173133445728,0.925384107413,0.378601007523,-0.00507726627222
0.0455118119717,-0.00411879643798,-0.0347421020269,-2.48791098595,-0.0592193938792,2.48627996445,-0.719018399715,0.0634773373604,0.00352030945942,4.64346339868e-06,6.13315205555e-05,-0.000126030645333,6.92227404215e-05,2.34583512793e-06,5.47907475266e-05,0.469897894805,0.00131366873723,0.177187801954,0.0173138301625,0.925384274466,0.378600607045,-0.00507502558343
0.045515537262,-0.00411430979148,-0.0347412861884,-2.4879128933,-0.0592190660536,2.48627996445,-0.719021141529,0.0634773373604,0.000548703072127,-0.000459874572698,0.000206769211218,0.000203196512302,-8.18146945676e-05,4.34677131125e-05,-0.000120746823086,0.46989635825,0.00131613385706,0.177185166577,0.0173126955208,0.925382801764,0.37860422203,-0.00507774729638
0.0455166846514,-0.004115360789,-0.0347390323877,-2.48791337013,-0.0592193901539,2.48627901077,-0.719020247459,0.0634773373604,4.53963839391e-05,2.02356932277e-05,-3.39847829309e-05,0.000349675305188,2.14209903788e-05,1.84094024007e-05,0.000364934181562,0.469896015843,0.00131734765502,0.177185178357,0.0173126789345,0.925382408881,0.378605177656,-0.00507815101607
0.0455147847533,-0.00411278102547,-0.0347398854792,-2.48791337013,-0.0592197477818,2.48627877235,-0.719020962715,0.0634773373604,-0.000213765029912,-0.000164069468156,-0.000164377444889,0.000432169414125,2.92655022349e-05,0.000160465060617,-0.000284817448119,0.469895567155,0.0013160098077,0.177183946936,0.0173122985682,0.92538273254,0.378604385255,-0.00507954562769
0.0455126687884,-0.00410945899785,-0.0347418934107,-2.48791050911,-0.0592189058661,2.48627901077,-0.719020009041,0.0634773373604,-0.000181772862561,-0.000331653369358,-0.000396190676838,-0.000382864644052,5.55450897082e-05,9.62003286986e-06,0.00542703503743,0.469896575333,0.00131427968883,0.177183499536,0.0173120830728,0.925383727786,0.378601962999,-0.00507951029701
0.0455121137202,-0.00411229860038,-0.0347431376576,-2.48791122437,-0.0592193268239,2.48628044128,-0.719019830227,0.0634773373604,0.000196502456674,-0.00012699700892,-0.000125957885757,-0.000147830898641,-3.73019502149e-05,-1.23654062918e-05,-0.000553889083676,0.469896875623,0.00131328908359,0.177184700607,0.0173127449439,0.92538413155,0.378600966359,-0.00507798118593
0.0455138646066,-0.00411115540192,-0.0347406566143,-2.48791432381,-0.059219006449,2.48627996445,-0.719019889832,0.0634766817093,2.19008834392e-05,-0.000712027074769,0.000367567699868,0.000278933148365,-0.000100958488474,7.88290926721e-05,0.000632712151855,0.469895123592,0.00131526518551,0.177182916577,0.0173118279119,0.925383358972,0.378602867986,-0.00508011692779
0.0455166213214,-0.00411489745602,-0.0347386859357,-2.48791146278,-0.0592209137976,2.48627972603,-0.719019770622,0.0634766817093,3.80425517506e-05,0.000244401046075,-0.000139798590681,-0.00050429237308,1.26167205963e-05,-0.00010262732394,0.000368711887859,0.469896701435,0.0013172706112,0.177185479021,0.0173133852079,0.925382259424,0.378605516284,-0.00507773170347
0.0455149635673,-0.00411567464471,-0.0347388461232,-2.4879128933,-0.0592199675739,2.48627853394,-0.719018995762,0.0634766817093,7.84804142313e-05,0.000127938183141,-0.000245463917963,0.000235500410781,-9.75155780907e-05,-5.26230651303e-05,0.000826379633509,0.469896189869,0.00131658673379,0.177185470277,0.0173129070306,0.925382850819,0.37860408812,-0.00507807077983
0.0455139577389,-0.00411514798179,-0.0347405150533,-2.48791480064,-0.0592196285725,2.48627877235,-0.719020605087,0.0634766817093,-4.07810730394e-05,0.000688893778715,0.000173260923475,5.33193560841e-05,9.99589829007e-05,-6.03032185609e-06,-0.000340715661878,0.469895261663,0.00131534292651,0.177184501807,0.0173123945733,0.925383097615,0.378603494629,-0.00507909243567
0.0455166473985,-0.00411571888253,-0.0347397774458,-2.48791456223,-0.0592195317149,2.48627948761,-0.719022095203,0.0634766817093,0.000275898724794,-0.000519719033036,0.000357701210305,0.000118311400001,2.14569972741e-05,9.36206342885e-05,9.71110712271e-05,0.469895614391,0.00131697560463,0.177184925493,0.0173126291845,0.925382181335,0.378605733451,-0.00507834814507
0.045518592,-0.0041166334413,-0.0347360521555,-2.48791408539,-0.0592195354402,2.48627996445,-0.719020605087,0.0634766817093,-0.000210898768273,-0.000115686307254,-9.64554928942e-05,-0.000255930703133,0.000147557351738,9.93951180135e-05,0.00332260644063,0.469896078617,0.0013196536398,0.17718558261,0.0173129746222,0.925381391527,0.378607660648,-0.00507741148513
0.0455177128315,-0.00411505671218,-0.0347380302846,-2.48791456223,-0.0592190735042,2.48628044128,-0.719019293785,0.0634766817093,-0.000153187123942,0.000497909612022,-0.00101558526512,3.03738452203e-05,-2.47275529546e-05,-5.08125776832e-05,0.000274977181107,0.469895714181,0.00131833558532,0.177184697927,0.0173125592238,0.925382244664,0.378605585015,-0.00507811312412
0.0455170534551,-0.00411340966821,-0.0347361937165,-2.48791122437,-0.0592206120491,2.4862806797,-0.719019651413,0.0634766817093,0.000180396615178,-0.000950311310589,-0.000293599790893,-6.12928706687e-05,4.14523929066e-05,-0.000127529638121,0.000109563385195,0.469897089891,0.00131879869084,0.177185246796,0.0173133821821,0.925381718606,0.378606842973,-0.00507738166101
0.0455139093101,-0.00411393679678,-0.0347386188805,-2.4879117012,-0.0592191964388,2.48627996445,-0.719020783901,0.0634766817093,0.000373682734789,0.000557643652428,5.33745842404e-05,-0.000367681117496,-3.11109010909e-06,-7.9828510934e-05,0.000197376095457,0.469896434971,0.00131653231769,0.177184793698,0.0173126807749,0.925382645137,0.378604599578,-0.00507819107225
0.0455167591572,-0.00410934817046,-0.0347356460989,-2.48791432381,-0.0592200085521,2.48628044128,-0.719021260738,0.0634773373604,-9.57086012932e-05,-0.000537201529369,0.000300278916257,-0.000198806039407,-6.38773781247e-05,-3.32375493599e-05,-0.000596554891672,0.469894939793,0.00131890755351,0.177182112958,0.0173119146262,0.925381440329,0.378607544444,-0.00508079525211
0.0455170422792,-0.00411152560264,-0.0347359403968,-2.4879155159,-0.0592193715274,2.48628020287,-0.719020068645,0.0634773373604,0.000136781745823,-0.00114110845607,-0.000395146053052,0.000329305534251,-1.11039707917e-05,4.66534447696e-06,-0.00108888500836,0.469894661526,0.00131894863942,0.17718264931,0.0173118423036,0.925381771026,0.378606745323,-0.00508035895869
0.0455176047981,-0.0041163819842,-0.034735430032,-2.48791313171,-0.0592201314867,2.48627972603,-0.719019711018,0.0634773373604,0.000368647859432,-0.000185240627616,-0.00012283284741,-0.00017410973669,-9.71799963736e-05,-0.000134930873173,0.00460712099448,0.469896440366,0.00131944306996,0.177185815603,0.0173132425318,0.925381540136,0.378607287225,-0.0050772583327
0.0455164648592,-0.00411853007972,-0.0347361341119,-2.48791527748,-0.0592193491757,2.48627972603,-0.719018936157,0.0634773373604,-0.000542729510926,-0.00137022661511,8.54120298754e-05,-0.000202139053727,0.000131227541715,-0.000227079566685,-0.00274236593395,0.469895761198,0.00131863116197,0.177185988189,0.0173129801283,0.92538215783,0.378605790653,-0.00507717011988
0.0455181226134,-0.004113572184,-0.0347385853529,-2.48791456223,-0.0592189393938,2.48628044128,-0.719021916389,0.0634773373604,-0.000273815327091,-0.00079907849431,0.00016382765898,-0.000163124888786,-1.38389068525e-05,3.15173783747e-05,-0.000221294394578,0.469895482791,0.00131826566993,0.177184000633,0.0173122632661,0.925381792166,0.378606695034,-0.00507882146781
0.045516628772,-0.00411452865228,-0.0347392782569,-2.48791694641,-0.0592192970216,2.48627948761,-0.719019174576,0.0634773373604,-1.96125074581e-05,0.00103287270758,0.000145277022966,-1.97220269911e-05,-8.79788494785e-05,-1.36794942591e-05,0.000705889135133,0.469894302013,0.0013171955717,0.177183439529,0.0173119321958,0.925382669795,0.378604549776,-0.00507996255384
0.0455190911889,-0.0041161137633,-0.0347357541323,-2.48791670799,-0.0592203699052,2.48627901077,-0.719019174576,0.0634773373604,-0.000167045829585,0.000258499436313,0.00159944745246,0.000227786411415,5.54807593289e-05,7.10680178599e-05,2.11589467654e-05,0.469894553354,0.00131994307816,0.177184237006,0.0173124941504,0.925381377112,0.378607691245,-0.00507939501711
0.0455221757293,-0.00411376589909,-0.0347343720496,-2.48791241646,-0.0592197626829,2.48627972603,-0.719020843506,0.0634773373604,-0.000174593689735,-3.47880632035e-05,0.000299081613775,-9.75558286882e-05,0.000101974124846,0.000143811354064,0.000570258416701,0.469896431129,0.00132207915623,0.177184826133,0.017312833284,0.925380390175,0.378610105398,-0.00507809579479
0.0455205775797,-0.00411248765886,-0.0347329340875,-2.48791694641,-0.059219174087,2.48627948761,-0.719020307064,0.0634773373604,5.95640158281e-05,0.000676153518725,-0.0003763375571,0.000243144459091,3.68003675248e-05,2.26609881793e-05,-0.000961697660387,0.469893970473,0.00132202143453,0.177182481591,0.0173115895795,0.925380519782,0.37860980873,-0.00508083559603
0.0455195866525,-0.00411289604381,-0.0347333848476,-2.48791837692,-0.0592190846801,2.48628020287,-0.719020068645,0.0634773373604,-0.000366243475582,-0.00380641734228,4.546900891e-05,0.000192386039998,8.82500535226e-06,-0.000110596658487,-0.000136381320772,0.469893516369,0.00132135695184,0.177182180217,0.0173114811428,0.925380846395,0.378609013584,-0.00508097053003
0.045518334955,-0.00411106087267,-0.0347357690334,-2.48791503906,-0.0592197589576,2.48627972603,-0.719019651413,0.0634773373604,7.43593045627e-05,-0.000726400176063,-6.16067482042e-05,-0.00051254988648,6.30121066933e-05,2.9607615943e-05,-0.000201186543563,0.469894709713,0.00131960343086,0.177182575271,0.0173118906602,0.925381514487,0.378607366817,-0.00508060645804
0.045518450439,-0.00411315681413,-0.0347367674112,-2.48791694641,-0.0592191889882,2.48628115654,-0.71902012825,0.0634773373604,3.35401523444e-06,-0.00135968159884,9.59152748692e-05,0.000176398170879,-1.69678896782e-05,-0.000123878766317,-0.00290176761337,0.469894446787,0.00131925327147,0.177182942822,0.0173119550688,0.925381675428,0.378606981591,-0.00507978038069
0.0455244444311,-0.00411281362176,-0.0347317755222,-2.48791503906,-0.0592191778123,2.48628091812,-0.719020485878,0.0634773373604,-0.000156154143042,0.000477752910228,-0.001263747341,6.88504806021e-05,2.21826394409e-05,7.08376246621e-05,1.03811371446e-05,0.46989522741,0.00132441638447,0.177183502388,0.0173122436872,0.925379534584,0.378612210362,-0.00507907861454
0.0455214455724,-0.00411162339151,-0.0347326099873,-2.48791646957,-0.0592198930681,2.48627924919,-0.719020485878,0.0634773373604,0.000204832671443,-0.000808433338534,0.000133958237711,-0.000132379471324,7.02807883499e-05,7.42722040741e-05,7.17289949534e-05,0.469894010093,0.00132252820654,0.177182241807,0.0173117024491,0.92538014839,0.378610706402,-0.00508120116254
0.0455209203064,-0.00411268230528,-0.0347338244319,-2.48791837692,-0.0592189542949,2.48627972603,-0.719020664692,0.0634773373604,-9.28016015678e-05,3.25985602103e-05,9.2634712928e-05,0.000254336657235,3.86047177017e-05,0.000106725368823,0.000901548133697,0.469893377328,0.00132177659088,0.177182037434,0.017311330427,0.925380585724,0.378609653443,-0.005081279955
0.0455248020589,-0.00411904603243,-0.0347335934639,-2.48791456223,-0.059219352901,2.48627924919,-0.719020247459,0.0634773373604,-0.000234010498389,-0.000230105986702,0.000289941846859,-1.35794825837e-05,4.23010860686e-05,-4.76502355014e-05,4.7586094297e-05,0.469896186052,0.00132386613676,0.177186709984,0.0173132493887,0.92537986683,0.378611388357,-0.00507639149218
0.0455256998539,-0.00411718711257,-0.0347323417664,-2.48791575432,-0.0592193193734,2.48628020287,-0.71902102232,0.0634773373604,-0.000497373694088,0.000448798818979,-0.000683723657858,-0.000119396943774,-2.98344057228e-05,1.28015162772e-05,-0.000176421628566,0.469895254772,0.00132439754341,0.177184978086,0.0173126902961,0.925379421144,0.378612482057,-0.00507797124072
0.0455260835588,-0.00411403272301,-0.0347334481776,-2.48791718483,-0.0592188052833,2.48627996445,-0.719019889832,0.0634773373604,-0.000349019217538,0.000476514542243,0.00029396766331,-0.000553178426344,-1.7929571186e-05,-0.000245497649303,0.00387204717845,0.469894194531,0.00132440814495,0.177183155495,0.0173117899019,0.925379713075,0.378611783738,-0.00507990728248
0.0455265901983,-0.00410955445841,-0.0347329750657,-2.48791790009,-0.0592195428908,2.48627877235,-0.719020068645,0.0634773373604,0.000467803969514,0.00013250275515,0.00166359264404,5.78907383897e-05,0.000127436811454,-0.000185670534847,-0.000745919300243,0.469892893072,0.00132466155256,0.177180648912,0.0173108464377,0.925379353359,0.378612664744,-0.00508298649317
0.0455263368785,-0.00411196099594,-0.0347319468856,-2.48791646957,-0.0592194348574,2.48627853394,-0.719019412994,0.0634773373604,0.000141979093314,-0.00371935777366,0.00046725361608,-0.0020719866734,0.00016937678447,-0.00487723900005,0.000239010201767,0.469893897482,0.00132515797428,0.177182336148,0.0173115301047,0.925379374749,0.378612604176,-0.00508127503671
0.0455264933407,-0.00411564903334,-0.0347319543362,-2.48791575432,-0.0592197999358,2.48627924919,-0.719019651413,0.0634773373604,0.0002760811185,-0.00432136747986,0.000233111350099,0.00136632239446,0.000125703008962,-0.000192136823898,-7.51648040023e-05,0.469894966523,0.00132524585764,0.177184409564,0.0173125020228,0.925379254793,0.378612884693,-0.00507890741532
0.0455283634365,-0.00411003222689,-0.0347299426794,-2.48791670799,-0.0592198297381,2.48627901077,-0.719020009041,0.0634773373604,-0.000512567115948,0.00285395560786,0.000475225882838,8.65149704623e-05,-2.2372129024e-05,-2.1236603061e-05,-0.000813070742879,0.469893584952,0.00132701827521,0.177181381162,0.0173113650179,0.92537842946,0.3786149113,-0.00508208190073
0.0455267466605,-0.00411566207185,-0.0347315520048,-2.48791766167,-0.0592192783952,2.48627853394,-0.719019472599,0.0634773373604,-0.000180434057256,0.000262265471974,-0.000397800205974,-0.000380815152312,-0.000116951538075,0.000110598150059,-0.0020773424767,0.469893909128,0.00132556600379,0.177183610012,0.0173118902658,0.925379243068,0.37861292581,-0.00508006372091
0.0455226451159,-0.00411628745496,-0.0347327552736,-2.48791575432,-0.0592196621001,2.48627877235,-0.719020724297,0.0634773373604,-0.000747067853808,0.000136221176945,0.000122459212434,-0.000161117481184,7.68416794017e-05,-5.59341287953e-07,-0.000378529453883,0.469894967426,0.00132306750973,0.177184666795,0.0173124763953,0.925379956885,0.378611170402,-0.00507886669461
0.0455246083438,-0.00411549443379,-0.034733068198,-2.48791766167,-0.0592193901539,2.48627924919,-0.719018876553,0.0634773373604,0.000328200578224,-0.000597891979851,0.000392066838685,-0.00011346971587,-1.75896930159e-05,-0.000152540203999,0.00319489394315,0.469894044388,0.00132385275644,0.1771835946,0.0173119994557,0.92538002724,0.378611007171,-0.00507984169561
0.0455279573798,-0.00410983897746,-0.0347289890051,-2.48791670799,-0.0592197030783,2.48627924919,-0.719018936157,0.0634773373604,-9.86209415714e-05,0.00101423205342,0.000351273658453,0.000500039488543,5.79810293857e-05,8.66910413606e-05,-0.000135553098517,0.469893605757,0.00132728542724,0.177181311278,0.0173113409592,0.925378547037,0.378614625679,-0.00508203338924
0.0455285534263,-0.00411365367472,-0.034727498889,-2.48791646957,-0.0592199452221,2.48627972603,-0.71902012825,0.0634779930115,0.00021899965941,0.00020011079323,0.00019483496726,0.000369775632862,-9.13063104235e-06,-3.36525481544e-05,0.000318096019328,0.469894414362,0.00132828514424,0.177183237606,0.0173121778073,0.925377898847,0.378616200025,-0.00507991997399
0.0455300472677,-0.0041128564626,-0.0347301624715,-2.48791837692,-0.0592196322978,2.48627996445,-0.719018697739,0.0634779930115,-0.000304998131469,0.00078556657536,-0.000221970462007,-8.52860684972e-05,5.68360301259e-05,1.87787863979e-05,-4.06929393648e-05,0.469893442138,0.00132774558151,0.177182142106,0.017311636972,0.925378431398,0.378614908222,-0.0050810317466
0.0455290600657,-0.00411559129134,-0.0347289629281,-2.48791527748,-0.0592192970216,2.48627924919,-0.719020366669,0.0634779930115,0.000927208049688,-0.000355377938831,-0.000282646680716,-6.24860622338e-05,5.26781805092e-05,0.000107559164462,0.00459817331284,0.469895173531,0.00132788961972,0.177184566887,0.0173124543918,0.925378146187,0.378615600292,-0.00507861996642
0.0455274395645,-0.00411522528157,-0.0347300954163,-2.48791766167,-0.059219378978,2.48627877235,-0.719019174576,0.0634779930115,0.000257266976405,-0.000293815566693,-0.000349702022504,-0.000137782320962,-0.000137904411531,7.38080634619e-05,-0.000313275842927,0.469893890749,0.00132656937566,0.177183426357,0.0173118933781,0.925378874741,0.378613824787,-0.00508014710052
0.045530308038,-0.00411410769448,-0.0347302556038,-2.48791646957,-0.0592201724648,2.48627877235,-0.71901845932,0.0634779930115,0.000179948750883,0.00369235058315,0.000313404831104,-8.26319865155e-06,6.71179004712e-05,-1.83560987352e-05,-0.00070748658618,0.469894278921,0.00132778975324,0.177183366838,0.0173121606987,0.925378374291,0.378615035369,-0.00508017350142
0.0455335527658,-0.00411428976804,-0.0347288772464,-2.48791766167,-0.0592196211219,2.48628020287,-0.719019591808,0.0634779930115,-0.000354631367372,0.000307671842165,-0.000903769803699,-0.000630402704701,3.13367854687e-05,1.76276626007e-05,5.05725984112e-05,0.469893773918,0.00133004343363,0.177182781065,0.0173118673531,0.925377446179,0.378617316495,-0.00508022490276
0.0455336682498,-0.00411315914243,-0.034726165235,-2.48791909218,-0.0592194981873,2.48627853394,-0.719019472599,0.0634779930115,-0.000141981596244,-0.000878338003531,-0.000441214855528,-7.54682914703e-05,-1.65132848906e-06,2.5007797376e-05,-0.00543213123456,0.469892828763,0.00133130721616,0.177181879907,0.017311310595,0.925376867587,0.378618734579,-0.00508182736546
0.0455325730145,-0.00411337707192,-0.0347272753716,-2.48791909218,-0.05921972543,2.48627924919,-0.719019770622,0.0634779930115,0.000306711532176,-0.00125058973208,0.000368642708054,0.000556065759156,7.46359773984e-06,7.56471927161e-05,0.000247790128924,0.469893391173,0.00133040996048,0.177182666129,0.0173117267262,0.92537723507,0.378617831798,-0.00508075384551
0.0455300733447,-0.00411440199241,-0.034729834646,-2.48791956902,-0.0592188537121,2.48627948761,-0.719019055367,0.0634779930115,0.000272705947282,-0.00112643500324,0.000310573319439,0.000354397168849,-0.000132048153318,-8.37891420815e-05,0.00668727327138,0.469893012475,0.00132795855496,0.177182360473,0.0173113774512,0.9253784206,0.378614946886,-0.00508100141649
0.0455315001309,-0.00411767000332,-0.0347268432379,-2.48791837692,-0.0592199154198,2.48627972603,-0.719020009041,0.0626788362861,-0.000341233739164,-0.00038815694279,0.000180172020919,0.0003766430018,-5.71565688006e-05,4.06316466979e-05,-6.30669528618e-05,0.469893991258,0.00133009918119,0.177184198589,0.0173124264906,0.925377208528,0.378617887136,-0.00507907965569
0.0455311536789,-0.0041148327291,-0.0347280614078,-2.48791718483,-0.0592200234532,2.48627924919,-0.71901923418,0.0626788362861,0.000375618954422,0.000172941407072,-0.000224777089898,-2.20956226258e-05,6.72487949487e-05,-0.000172285945155,-7.80752961873e-05,0.469894153663,0.00132923527596,0.177183471156,0.0173121954799,0.925377673589,0.378616749968,-0.005079905203
0.045532759279,-0.00410951534286,-0.0347277782857,-2.48791623116,-0.059219378978,2.48627853394,-0.719019591808,0.0626788362861,0.000180832808837,-0.000272856530501,0.000475450360682,0.000133990804898,0.000138077448355,7.15727073839e-05,-0.0053992155008,0.469893615219,0.00133011934422,0.177181280878,0.0173111815815,0.925377337932,0.378617585607,-0.00508222256392
0.0455355867743,-0.00410674838349,-0.0347248874605,-2.48792076111,-0.0592199005187,2.48627853394,-0.719019949436,0.0626788362861,4.09303465858e-05,0.000259733438725,1.84454856935e-05,-0.000336372933816,-4.55193912785e-05,9.18427758734e-06,-0.000389336521039,0.469891040181,0.001332728849,0.17717822263,0.0173100501783,0.925376086541,0.378620649937,-0.00508564117815
0.0455342680216,-0.0041196057573,-0.0347277261317,-2.4879181385,-0.0592193864286,2.48627972603,-0.719019591808,0.0589857399464,0.000126387691125,-2.0428773496e-05,0.00198472198099,-0.000209925929084,8.68018250912e-05,-5.76213788008e-05,0.000113913425594,0.469894672785,0.00133095626579,0.177185524265,0.0173128179228,0.925377068596,0.378618230681,-0.00507763050081
0.0455347932875,-0.00411775661632,-0.0347264632583,-2.48791766167,-0.0592198595405,2.48627877235,-0.719019532204,0.0589857399464,-1.41887119298e-06,0.00096315832343,0.000502444454469,0.000394387257984,6.94279515301e-05,0.00016427943774,0.000715342175681,0.469894272031,0.00133171665092,0.17718461614,0.0173124903155,0.925376660092,0.378619226831,-0.0050789166266
0.0455343797803,-0.00411352328956,-0.0347260981798,-2.48791790009,-0.0592190511525,2.48627853394,-0.719016849995,0.0589857399464,6.92898611305e-05,0.000264324859018,-8.07256874396e-05,-0.00024647443206,-0.000138047806104,-3.43483625329e-05,-4.97268847539e-05,0.46989356639,0.00133175011625,0.177182767612,0.0173115213356,0.925377302229,0.378617675965,-0.00508083436399
0.0455357506871,-0.00411298591644,-0.0347252637148,-2.48792171478,-0.0592187456787,2.48627614975,-0.719017863274,0.0589857399464,-0.000405866245274,-0.000656937074382,-0.000817742256913,0.00288967089728,0.000176289075171,-0.000145770973177,0.00030510101351,0.469891036396,0.00133270445463,0.177180567061,0.0173102092875,0.925376725571,0.378619101033,-0.00508413627515
0.0455372221768,-0.00411345530301,-0.0347245447338,-2.48791694641,-0.0592197664082,2.48627662659,-0.719020783901,0.0589857399464,0.000148074119352,-0.00173402309883,-0.00293078483082,0.000316825025948,0.000133673893288,-0.00367813766934,-9.4934963272e-05,0.469893465683,0.00133370335695,0.177182685293,0.0173115359599,0.925375611928,0.378621796404,-0.00508158869487
0.045538790524,-0.0041150925681,-0.0347243063152,-2.48791718483,-0.0592195615172,2.48627781868,-0.719019412994,0.0589857399464,0.000109697408334,6.77916068526e-06,-6.43598250463e-05,0.00015508258366,2.34868457483e-05,-1.85924618563e-05,-0.000325558619807,0.469893865056,0.00133459445423,0.177183466077,0.0173119105514,0.925375560831,0.37862192124,-0.00508031594214
0.0455343574286,-0.00411391397938,-0.0347274541855,-2.48792099953,-0.0592187605798,2.48627686501,-0.719020366669,0.0589857399464,-0.00020047124417,0.00119541306049,0.000326787994709,0.000592412718106,-2.54041533481e-05,-2.43581234827e-05,6.11635769019e-05,0.469891679459,0.00133104244856,0.177181343767,0.0173105977064,0.925376929768,0.378618598363,-0.0050830814813
0.0455375239253,-0.00411236146465,-0.0347251594067,-2.48791599274,-0.0592195689678,2.48627710342,-0.719018220901,0.0589857399464,-0.000139219657285,0.000107716594357,-0.000425205769716,-0.000510179495905,-0.000101938661828,-0.00557122705504,0.00048151743249,0.469893849447,0.00133357384836,0.177182584047,0.0173115533193,0.925376184535,0.378620398728,-0.00508139427193
0.0455418564379,-0.00411296356469,-0.0347219929099,-2.48792147636,-0.0592198893428,2.48627662659,-0.719018638134,0.0589857399464,-5.83807304793e-05,0.000369714281987,0.000448227277957,-0.000323310174281,2.2807977075e-05,0.000187147408724,-5.28826058144e-05,0.469891241356,0.00133704421674,0.177180694234,0.0173106823062,0.925374625086,0.378624216846,-0.00508385931307
0.0455397181213,-0.00411245971918,-0.0347233898938,-2.48791956902,-0.0592195615172,2.48627781868,-0.719018995762,0.0589857399464,0.00185910658911,-0.00239099469036,0.000280980515527,0.000236868305365,0.000105492064904,-0.000146755643073,-0.000823868496809,0.469892327165,0.00133542963698,0.177181303433,0.0173110362221,0.925375276629,0.378622624571,-0.00508264456462
0.0455393604934,-0.00411807838827,-0.0347245633602,-2.48791742325,-0.0592190288007,2.48627829552,-0.719018280506,0.0589857399464,0.000294820929412,1.2820529264e-05,-3.75126874133e-05,0.000528954784386,-7.26615035092e-05,-3.84928680432e-05,4.89439162266e-06,0.469894318966,0.00133480302001,0.177184816015,0.0173122965161,0.925375804918,0.378621328351,-0.00507872643202
0.0455365367234,-0.00411405460909,-0.0347227267921,-2.48792028427,-0.0592191666365,2.48627781868,-0.719019889832,0.0589857399464,-4.39457908215e-05,-0.000512319733389,-0.000275142054306,-0.000140131727676,-3.51002017851e-05,2.34425297094e-05,-0.000182284842595,0.469892308492,0.00133436514299,0.177181981297,0.0173111386391,0.925375642351,0.378621734603,-0.0050820067952
0.045538790524,-0.0041134362109,-0.0347247421741,-2.4879219532,-0.0592200234532,2.48627758026,-0.719020068645,0.0589857399464,0.000690209213644,-0.000280513835605,0.000204796699109,-0.000326452485751,-5.42426205357e-05,-0.00210976996459,-0.000355558207957,0.469891306173,0.0013343209771,0.177180815077,0.0173108432702,0.925375430952,0.378622244969,-0.00508348243181
0.0455429814756,-0.00410936353728,-0.0347220823169,-2.48792266846,-0.0592202804983,2.48627686501,-0.719018518925,0.0589857399464,-0.0003038343566,0.000386417174013,0.000966184423305,0.00054281600751,1.75003424374e-05,9.81947014225e-05,-0.000187702928088,0.469890446028,0.00133749105803,0.177178764469,0.0173101527214,0.92537434059,0.378624911599,-0.00508570451891
0.0455432534218,-0.00411333842203,-0.034722097218,-2.48792147636,-0.0592194311321,2.48627734184,-0.719018936157,0.0562231428921,3.09288043354e-05,-0.000430044223322,0.00261620944366,0.00061200466007,-5.92992182646e-05,-8.78013815964e-06,-0.000412935798522,0.469891452438,0.00133769477782,0.177180932312,0.0173107326015,0.925374393403,0.378624788468,-0.00508328747319
0.0455415174365,-0.00411355588585,-0.0347226709127,-2.48791909218,-0.0592199675739,2.4862780571,-0.719020307064,0.0562231428921,-0.000244678289164,-0.000165013334481,0.000430321146268,-3.62658465747e-05,7.76211236371e-05,0.000205110191018,-0.000118339332403,0.469892773114,0.00133660065282,0.177182025426,0.0173114676565,0.925374492223,0.378624532944,-0.00508182713553
0.0455468185246,-0.00411099242046,-0.0347200036049,-2.48792314529,-0.0592187531292,2.4862780571,-0.719018995762,0.0562231428921,0.000376461044652,0.0015268366551,0.000184374934179,-0.000311173382215,-2.7542191674e-05,0.00015470496146,-0.000597195175942,0.469890445455,0.00134038171261,0.177179244044,0.0173099711501,0.925373401895,0.378627227447,-0.00508471067018
0.0455470830202,-0.00411446997896,-0.0347195751965,-2.48792052269,-0.0592195726931,2.48627758026,-0.719018399715,0.0562231428921,-0.000108926738903,-0.000215253356146,-5.61761089557e-06,0.000452219857834,-2.36510331888e-05,0.000122054145322,-0.00028618608485,0.469892122965,0.00134068534801,0.177181855797,0.0173112001073,0.925373275429,0.378627514646,-0.00508215588947
0.0455411747098,-0.00410873349756,-0.0347221679986,-2.48791956902,-0.0592198856175,2.4862780571,-0.719019651413,0.0562231428921,-0.000319878949085,0.000170017272467,6.25700704404e-05,0.000348143919837,-4.10385764553e-05,0.000146862977999,-0.000291057367576,0.469891796844,0.00133664418928,0.177179575996,0.0173105489629,0.925374583301,0.378624319099,-0.00508430384893
0.0455433130264,-0.00411487836391,-0.0347221828997,-2.48792099953,-0.0592192076147,2.4862780571,-0.71901935339,0.0562231428921,0.000751332961954,0.00127959123347,0.000164245662745,-0.000530266377609,-8.12037324067e-05,2.21317750402e-05,-0.000153127257363,0.469892072627,0.00133772141851,0.177181903234,0.0173111301046,0.925374357096,0.378624876545,-0.00508198277327
0.0455471463501,-0.00411453051493,-0.0347215086222,-2.48792099953,-0.0592190697789,2.48627638817,-0.719018638134,0.0562231428921,0.000306119240122,-0.000330783455865,-9.33650735533e-05,-0.000347283901647,-8.15354651422e-05,-9.80594923021e-05,-0.000210580808925,0.469891687206,0.00133969263011,0.177181464265,0.0173107248134,0.925373770355,0.378626315688,-0.005082981167
0.0455448776484,-0.00411751121283,-0.0347200147808,-2.48792171478,-0.0592198520899,2.48627853394,-0.71902012825,0.0562231428921,-0.000264227564912,-0.00220645428635,0.000277796847513,0.000193805171875,5.52634955966e-05,4.3712403567e-05,-0.000427851569839,0.469892246285,0.00133945565253,0.177182905024,0.0173117142571,0.925373407735,0.378627184713,-0.00508089413865
0.0455456972122,-0.00411745440215,-0.0347208343446,-2.48792099953,-0.0592193752527,2.48627877235,-0.719018936157,0.0562231428921,7.54144784878e-05,6.23284649919e-05,-0.000229744051467,-0.000437173002865,-3.66783933714e-05,0.00547352200374,4.95501481055e-05,0.469892625407,0.00133949346054,0.177183176249,0.0173117402198,0.925373708226,0.378626455555,-0.00508041444764
0.0455454699695,-0.0041137598455,-0.034722853452,-2.48792099953,-0.0592190772295,2.48627758026,-0.719018816948,0.0562231428921,4.58744143543e-05,-3.07509690174e-05,0.000342468672898,0.000369785731891,-0.000108669119072,3.27823545376e-05,-0.000298463332001,0.469891791937,0.00133841310894,0.177181335669,0.0173108312799,0.925374196028,0.378625274193,-0.0050827031061
0.0455437637866,-0.00411326671019,-0.0347213223577,-2.48791956902,-0.0592194013298,2.4862780571,-0.719018518925,0.0562231428921,-0.000130952146719,0.000330180453602,0.000108118118078,0.000369067623978,-0.000131763226818,-0.00010886691598,0.000177860245458,0.469892496127,0.00133832052254,0.177181703143,0.0173111854476,0.925374235834,0.378625169086,-0.00508207932407
0.0455432161689,-0.00411004479975,-0.034721724689,-2.48792052269,-0.0592193193734,2.48627734184,-0.719018101692,0.0562231428921,0.000249659089604,0.000126831553644,-5.80778323638e-05,-9.14138436201e-05,-9.07495777938e-05,-9.30158785195e-05,0.000131975219119,0.469891406876,0.00133779430827,0.177179673857,0.0173103183046,0.925374544778,0.378624423032,-0.00508436076525
0.0455501079559,-0.00411100871861,-0.0347196199,-2.48792243004,-0.0592192448676,2.48627662659,-0.719020307064,0.0562231428921,0.000382071069907,-0.000100538542029,-0.00312021421269,-0.00017622251471,-2.14160536416e-05,4.28598941653e-05,0.000386312865885,0.469890470282,0.00134205731809,0.177179404548,0.0173100209893,0.925372389365,0.378629694861,-0.00508507884874
0.0455478206277,-0.00411379477009,-0.0347184091806,-2.48792266846,-0.0592197552323,2.4862780571,-0.719018518925,0.0559440590441,-0.000138763687573,0.000498697860166,0.000174586224603,0.000233417245909,6.14391610725e-05,0.000103357793705,0.000101102283224,0.469891107036,0.00134155938777,0.177180747415,0.0173108276036,0.925372854631,0.378628545425,-0.00508325015121
0.0455482266843,-0.0041162376292,-0.0347189716995,-2.48792386055,-0.0592195577919,2.48627758026,-0.719019472599,0.0559440590441,-0.000573122233618,0.000753905449528,0.000391388864955,-0.000299043284031,0.000126074170112,-0.000144891499076,0.000213348001125,0.469890819836,0.00134150254278,0.177181388307,0.0173108806389,0.925372740145,0.37862882794,-0.00508286776874
0.0455524548888,-0.00411644484848,-0.0347178950906,-2.48792290688,-0.0592208951712,2.48627686501,-0.719017505646,0.0559440590441,-0.00051380955847,-0.00374778290279,0.000187956538866,0.000370110617951,-9.78055686573e-06,-9.8518015875e-05,0.000409406551626,0.469891791962,0.00134408454475,0.17718189306,0.0173113529089,0.925371703329,0.378631346915,-0.00508237687396
0.0455537997186,-0.00411149766296,-0.0347152873874,-2.48792219162,-0.0592193342745,2.48627781868,-0.719020545483,0.0559440590441,0.000160918410984,-0.00103294779547,0.000244350114372,6.07978108746e-06,-5.34075479663e-05,-6.19889833615e-05,-0.000425117148552,0.469890908869,0.00134584289516,0.177179832579,0.0173103943302,0.92537080865,0.378633553931,-0.00508411923776
0.0455512627959,-0.00411264877766,-0.0347167700529,-2.48791980743,-0.0592192858458,2.48627662659,-0.719019174576,0.0559440590441,0.00022903723584,-1.77858746611e-05,0.00105280417483,-0.000217418797547,-8.74372999533e-05,8.75713594723e-05,-0.00012258157949,0.469891958632,0.00134395955105,0.177181194175,0.0173108102274,0.925371850958,0.37863100189,-0.0050830497592
0.0455510467291,-0.00411192048341,-0.0347185395658,-2.48792362213,-0.0592189766467,2.48627734184,-0.719019055367,0.0559440590441,-4.0028247895e-05,0.000927668530494,-0.000164033903275,-8.00176985649e-06,-2.58674626821e-05,0.000118688833027,5.27791016793e-05,0.469890201867,0.00134303416696,0.177179431879,0.0173100042613,0.925372282436,0.378629960578,-0.00508480940768
0.0455552078784,-0.00411552703008,-0.0347160920501,-2.48792076111,-0.059219609946,2.48627591133,-0.719018042088,0.0536667406559,0.000377463700715,0.00295833218843,-0.000565947964787,-4.71687271784e-05,3.04323439195e-05,-6.46825137665e-05,0.000201306102099,0.46989179524,0.00134611516211,0.177182112386,0.0173111107604,0.925371148458,0.378632712956,-0.00508246091504
0.0455526448786,-0.00411441363394,-0.0347165800631,-2.48792099953,-0.0592192336917,2.48627686501,-0.719018518925,0.0536667406559,-0.000295617996017,-0.00315282051452,0.000210460653761,0.000253304111538,-8.08487093309e-05,0.000178700734978,4.89711746923e-05,0.469891720273,0.00134471170448,0.177181580321,0.0173109169208,0.925371686647,0.37863140415,-0.00508263539302
0.0455551631749,-0.0041120541282,-0.0347152762115,-2.48792433739,-0.0592200048268,2.48627686501,-0.71901768446,0.0536667406559,0.00051608501235,0.000241760993958,0.000342175888363,0.000116863615403,-1.72706513695e-05,0.000198481880943,-0.00047672027722,0.469889774825,0.00134642421902,0.177179177143,0.0173101402855,0.925370985582,0.378633116737,-0.00508533960265
0.0455578751862,-0.00411535939202,-0.0347153246403,-2.48792481422,-0.0592194721103,2.48627543449,-0.719017863274,0.0536667406559,-0.00036583529436,0.00042687158566,-0.00039872340858,0.00239360029809,1.14441336336e-05,-9.18041405384e-05,-0.00574521301314,0.46988974635,0.00134770812051,0.177180415972,0.0173102294867,0.925370543935,0.378634201918,-0.00508460350905
0.0455526448786,-0.00411272095516,-0.0347165055573,-2.48792314529,-0.0592190921307,2.48627734184,-0.719018280506,0.0536667406559,7.29760577087e-05,-0.000373678223696,-9.99995463644e-05,0.000283600995317,-2.72795423371e-05,8.82137974259e-05,-0.000228919481742,0.469890547198,0.00134474032742,0.17717999344,0.0173102748436,0.925371727146,0.378631313702,-0.00508418641091
0.0455542355776,-0.00411598710343,-0.0347153693438,-2.4879219532,-0.0592196434736,2.48627781868,-0.719018757343,0.0536667406559,-0.000197905785171,0.000720504031051,0.000530937919393,1.25413644128e-05,8.61309163156e-05,4.56611342088e-05,9.15091077331e-05,0.469891720905,0.00134602265939,0.177182033586,0.0173112864795,0.925371046026,0.378632962674,-0.00508190880036
0.0455560870469,-0.00411666929722,-0.0347149409354,-2.48792076111,-0.0592207796872,2.48627758026,-0.719017386436,0.0536667406559,-0.000234637787798,0.000675305840559,0.000508511031512,3.83504448109e-06,5.83974069741e-05,8.97166755749e-05,0.000122686557006,0.469892338977,0.00134702859,0.177182798786,0.0173119173402,0.92537070379,0.378633779288,-0.00508123523193
0.045559015125,-0.00410901801661,-0.0347145460546,-2.48792290688,-0.0592194199562,2.48627591133,-0.719019830227,0.0536667406559,0.000393753638491,0.00044478525524,0.000261632230831,0.000114538212074,7.53524363972e-05,2.95633963106e-05,0.000197439963813,0.469889761116,0.00134858462304,0.177178222315,0.0173095791754,0.925369801076,0.378636022063,-0.0050864728095
0.0455571487546,-0.00410940125585,-0.0347153618932,-2.48792767525,-0.0592195130885,2.48627662659,-0.719018161297,0.0536667406559,-0.000141609183629,0.000167509148014,0.000326453708112,0.00011915655341,-0.000143542783917,-0.000168690734426,-7.02245888533e-05,0.469887729556,0.00134730876714,0.17717661219,0.0173089033942,0.925370596118,0.378634086855,-0.00508818813099
0.0455564036965,-0.00411375891417,-0.0347130186856,-2.4879219532,-0.0592200197279,2.48627686501,-0.71901845932,0.0536667406559,0.000324103893945,-0.000466500292532,0.000465691206045,0.000223249444389,-6.31149232504e-05,-9.93118592305e-05,0.000653210561723,0.46989116124,0.0013480896867,0.177180904378,0.0173108817127,0.925370185612,0.378635063876,-0.00508340855693
0.0455550961196,-0.00411797920242,-0.0347155369818,-2.48792028427,-0.0592190362513,2.48627662659,-0.719019651413,0.0489860214293,-0.000125152480905,-0.000296701909974,-3.13888122037e-05,0.000241328045377,-4.98663648614e-05,-0.000108186497528,6.37700868538e-05,0.469892555521,0.00134639068453,0.17718351082,0.0173115607619,0.925370854565,0.378633434331,-0.0050806963722
0.045557256788,-0.0041171242483,-0.0347145237029,-2.48792314529,-0.059219520539,2.48627519608,-0.719017863274,0.0489860214293,-7.07179742676e-06,-0.000269540789304,-9.13789262995e-05,3.96487521357e-05,-8.36984690977e-05,-8.84655491973e-06,-0.000259436608758,0.469890756918,0.00134780750707,0.17718187231,0.0173108108143,0.925370512364,0.378634272502,-0.00508311382983
0.0455573759973,-0.00411181012169,-0.0347140058875,-2.48792457581,-0.0592194497585,2.48627638817,-0.71902012825,0.0489860214293,-0.000129962223582,0.000423006305937,0.000249892822467,6.90062224749e-05,2.51196797763e-05,-1.52545035235e-05,-0.000360983714927,0.469889513487,0.00134808488999,0.177178926651,0.0173098242302,0.925369950009,0.378635656932,-0.00508572392639
0.0455576963723,-0.00411390699446,-0.0347146578133,-2.48792672157,-0.0592192225158,2.48627567291,-0.719018220901,0.0489860214293,0.000134635251015,0.000328415364493,0.000217233056901,0.000415661867009,1.05419385363e-05,9.37236618483e-05,3.52820643457e-05,0.469888670251,0.00134793666544,0.177179013317,0.0173096028079,0.925370412284,0.378634533109,-0.00508603390009
0.0455580204725,-0.00411694915965,-0.0347145535052,-2.48792386055,-0.0592193454504,2.48627543449,-0.719017505646,0.0489860214293,-0.00281048822217,-0.000366369931726,0.000447335187346,-0.000248610129347,0.000110092521936,-0.000304660730762,6.86320054228e-05,0.469890442388,0.00134816240001,0.177181532755,0.0173106408877,0.925370464967,0.378634392428,-0.00508338793178
0.045556537807,-0.00410543568432,-0.034714307636,-2.48792552948,-0.0592203252017,2.48627519608,-0.719018995762,0.0489860214293,0.000488300516736,-0.000659461133182,0.000265459617367,0.000203920877539,6.22215593467e-05,3.49345209543e-05,0.000101564692159,0.469887903147,0.00134763710339,0.177175616867,0.0173086240298,0.925370195969,0.378635057006,-0.00508971859104
0.0455600135028,-0.00410700030625,-0.0347134619951,-2.48792481422,-0.0592198781669,2.48627710342,-0.719017863274,0.0489860214293,0.000121199496789,0.000140612741234,0.00164664036129,4.55683548353e-05,0.000115494411148,-6.51649752399e-05,-5.4372001614e-05,0.469888646377,0.00134978426496,0.177176765751,0.0173092931147,0.925369452359,0.378636872167,-0.00508760570854
0.0455598123372,-0.00411602202803,-0.0347139500082,-2.48792290688,-0.0592198595405,2.48627686501,-0.71901845932,0.0488573126495,-0.000416367052821,-0.00102721969597,0.000613891577814,-4.51927771792e-05,5.29043427377e-05,3.42143612215e-05,0.00033968561911,0.469891059297,0.0013492757649,0.177181595714,0.0173110449327,0.925369745585,0.3786361407,-0.00508274717495
0.0455580726266,-0.00411896035075,-0.0347146354616,-2.48792123795,-0.059220187366,2.48627662659,-0.719017922878,0.0488573126495,-4.3638596253e-05,0.0003965961223,-0.000309628900141,-0.000183425436262,5.54035905225e-05,-1.46215306813e-05,0.000212190279854,0.469892257016,0.00134814134779,0.177183603478,0.0173118952625,0.925370269412,0.378634848395,-0.00508075144621
0.0455645732582,-0.00411491375417,-0.0347096323967,-2.48792362213,-0.0592192523181,2.48627519608,-0.719018161297,0.0488573126495,0.00157624122221,0.000141086406074,4.72213760077e-05,-0.000423936144216,6.58555654809e-05,-2.37874373852e-05,0.000180056857062,0.46989017038,0.0013535396114,0.177180649013,0.0173103144706,0.925368178465,0.378639983892,-0.00508424811436
0.0455659069121,-0.00411220360547,-0.0347106009722,-2.48792648315,-0.0592194795609,2.48627638817,-0.719019412994,0.0488573126495,-0.000461617833935,0.00100961315911,-0.000425138394348,-9.33406263357e-05,-5.36872030352e-05,-4.83424591948e-05,-0.000104971906694,0.469888658305,0.00135368244738,0.177178370387,0.0173095861453,0.925367817078,0.37864087255,-0.00508632103938
0.0455612242222,-0.00411142082885,-0.0347101576626,-2.48792672157,-0.0592196471989,2.48627638817,-0.719018280506,0.0488573126495,-0.000723592645954,0.000251717166975,0.000112073896162,0.00029748788802,1.76651919901e-05,6.72277237754e-05,0.000405055849114,0.469888430257,0.00135167270937,0.177177910656,0.0173094515872,0.925368805132,0.378638456924,-0.00508684531321
0.0455561690032,-0.00411387253553,-0.0347156003118,-2.48792338371,-0.0592197105289,2.48627591133,-0.719019472599,0.0488573126495,-0.000125700244098,0.000750536564738,-0.000137203416671,0.000679377524648,-3.62104656233e-05,7.44661665522e-05,9.16800927371e-05,0.46989029793,0.00134676612387,0.177180316581,0.0173103791942,0.925370575135,0.378634120622,-0.00508446942875
0.0455615669489,-0.00411840062588,-0.0347107723355,-2.48792457581,-0.0592191666365,2.48627567291,-0.719020783901,0.0488573126495,0.000422960874857,0.000285309972242,0.000268824864179,0.000351741415216,-0.000132996079628,9.76386436378e-05,0.000242312235059,0.469890372238,0.00135162495987,0.177181957116,0.0173107581427,0.92536848613,0.37863923016,-0.00508287284992
0.0455667003989,-0.00411677546799,-0.0347078181803,-2.48792362213,-0.0592190660536,2.48627567291,-0.719017505646,0.0488573126495,-0.000787602213677,-2.57563078776e-05,-0.000301274849335,0.000657711003441,0.000127869236167,-1.77505626198e-05,5.63209250686e-05,0.469890558297,0.00135542303518,0.177181564848,0.0173106666178,0.925367588896,0.37864142423,-0.00508308786638
0.045565392822,-0.00411126948893,-0.0347088575363,-2.48792386055,-0.0592190138996,2.48627567291,-0.719017326832,0.0488573126495,-0.000177837224328,0.000542238471098,-0.000805426388979,7.06602004357e-05,1.42561475514e-05,-7.85019728937e-05,0.00052537152078,0.469889591641,0.00135428392994,0.177178887115,0.0173096749607,0.925368058407,0.378640285652,-0.0050858035578
0.0455633364618,-0.00410972861573,-0.0347124412656,-2.48792529106,-0.0592197701335,2.48627591133,-0.719017803669,0.0488573126495,-0.000405423081247,-9.1458314273e-05,0.000128948318888,-0.000115108996397,-8.48804556881e-05,-4.51365303888e-05,0.00034968656837,0.469888738753,0.00135157354852,0.17717763022,0.0173093849843,0.925368909509,0.378638199957,-0.00508721152917
0.0455651655793,-0.00411717081442,-0.0347089469433,-2.4879219532,-0.0592193864286,2.48627614975,-0.71901679039,0.0484140627086,-0.000517997832503,0.000878132064827,8.12850339571e-06,5.09406236233e-05,-1.17392755783e-05,2.48935384661e-06,0.000166886107763,0.469891516632,0.00135417061955,0.177182441873,0.0173112025333,0.925368182725,0.378639963723,-0.00508195065388
0.0455625429749,-0.00411745999008,-0.0347126200795,-2.48792457581,-0.0592196322978,2.48627591133,-0.719017803669,0.0484140627086,-0.000364768900909,-0.00256471266039,0.00120768789202,-0.0007457860047,-0.00011440540402,0.000175592140295,-0.000233850805671,0.469889998122,0.00135094773463,0.177181200296,0.0173106353683,0.925369148468,0.378637604619,-0.00508379957963
0.0455621816218,-0.00411457614973,-0.0347116962075,-2.48792600632,-0.0592205710709,2.48627591133,-0.719019174576,0.0484140627086,-7.32138278181e-06,0.000521981623024,4.79405644001e-05,0.000126059778268,-5.88636139582e-05,5.5239899666e-05,-0.000450044753961,0.469889159142,0.00135136040243,0.177179629855,0.0173102938878,0.925368615627,0.378638901479,-0.0050853622025
0.0455666817725,-0.00411226088181,-0.0347087830305,-2.48792624474,-0.0592193938792,2.48627591133,-0.719019472599,0.0484140627086,0.000209995429032,0.000275216967566,0.000131790686282,-0.000181712035555,-2.24735667871e-05,0.000132652028697,-0.000478645408293,0.469888671915,0.00135489912632,0.177178447793,0.0173095477668,0.925367330759,0.378642062048,-0.00508637901567
0.0455662608147,-0.00411448581144,-0.0347081199288,-2.48792624474,-0.0592198818922,2.48627400398,-0.719018280506,0.0484140627086,1.6943899027e-05,0.000275298574707,8.96236670087e-05,0.00027713883901,6.05965942668e-05,-0.000153840504936,-3.24112224916e-05,0.469888603339,0.00135496710835,0.177179325077,0.0173097566914,0.925367448647,0.378641765813,-0.00508627299422
0.045566059649,-0.00411436194554,-0.0347105674446,-2.48792290688,-0.0592191331089,2.48627543449,-0.719017028809,0.0458504371345,-0.000214953135583,-0.00282461126335,0.000210792553844,-0.00045499560656,7.13976769475e-05,2.77308345176e-06,0.000179726383067,0.469890473016,0.00135381033843,0.177180688664,0.0173103606031,0.92536830639,0.378639672006,-0.00508403497089
0.0455647595227,-0.00411711493507,-0.0347089357674,-2.48792386055,-0.0592190027237,2.48627471924,-0.71901845932,0.0458504371345,0.000366674590623,0.000189772152225,-0.000174843022251,8.32758723845e-06,2.16533735511e-05,0.000134367728606,-0.000176832196303,0.469890294256,0.00135397676102,0.177181547102,0.0173104944708,0.925368001209,0.378640418679,-0.00508351702492
0.0455691330135,-0.00411444250494,-0.0347065925598,-2.48792481422,-0.0592191331089,2.4862742424,-0.719020307064,0.0458504371345,-0.000201369184651,-1.0199440112e-05,0.000409830652643,-3.58203942596e-05,-8.55491307448e-05,-6.93800975569e-05,0.000181944749784,0.469889315361,0.00135709173005,0.17717988021,0.0173098464648,0.925366350904,0.378644455981,-0.00508541719921
0.0455686561763,-0.00411226786673,-0.0347073562443,-2.48792552948,-0.0592194907367,2.48627662659,-0.719016730785,0.0458504371345,-0.000219364257646,-0.00243199453689,0.00211802963167,-0.000139055948239,-0.000141968179378,-0.0001037082111,-1.02095555121e-06,0.469889162629,0.00135650521963,0.177178792569,0.017309842929,0.925367190073,0.378642401994,-0.00508566319917
0.0455653443933,-0.00411264318973,-0.0347095392644,-2.48792481422,-0.0592204667628,2.48627591133,-0.71901845932,0.0458504371345,-3.59386308446e-06,-0.000207308898098,0.000506000826135,0.000375943927793,0.000139581941767,0.000115171751531,0.000900943821762,0.469889266503,0.00135372145713,0.177179123406,0.0173101230665,0.925367679823,0.378641189896,-0.00508584077491
0.0455640666187,-0.00411550980061,-0.0347087308764,-2.48792695999,-0.0592191591859,2.48627471924,-0.719017982483,0.0458504371345,-0.00025461227051,-9.48084052652e-05,-0.000402630015742,0.000108595872007,2.1293597456e-05,-5.04613453813e-05,-4.26408878411e-05,0.469888582312,0.00135371026824,0.177179589244,0.0173096986851,0.925368146638,0.378640069926,-0.00508572989599
0.0455690026283,-0.00411155866459,-0.0347067937255,-2.48792386055,-0.0592197626829,2.48627591133,-0.71901935339,0.0458504371345,0.00027977314312,0.00207794550806,-0.000324485939927,0.000160535346367,4.58943613921e-05,-0.000124613681692,0.000143247714732,0.469889683822,0.00135690681733,0.177179045813,0.0173099897746,0.925366484346,0.378644120806,-0.0050856037262
0.0455693602562,-0.00411524064839,-0.0347072184086,-2.48792743683,-0.0592198334634,2.48627400398,-0.719016969204,0.0458504371345,0.000664709310513,-3.31207629642e-05,0.000532914476935,0.000274302554317,8.71903394e-05,-7.42373376852e-05,2.7567426514e-05,0.469888152437,0.00135684892129,0.17717921607,0.0173096652552,0.925366945958,0.37864299653,-0.00508642109985
0.0455709435046,-0.00411679036915,-0.0347073860466,-2.48792719841,-0.0592196621001,2.48627614975,-0.719018816948,0.0458504371345,-4.76604473079e-05,-0.00158330309205,-0.000135841750307,0.000165641191415,-8.43639736559e-06,-9.29647649173e-05,0.000201949165785,0.469888972113,0.00135757123272,0.177180225331,0.0173102673958,0.925366351772,0.378644446241,-0.00508455154114
0.0455693565309,-0.00411570677534,-0.0347062163055,-2.48792386055,-0.0592197887599,2.48627471924,-0.719020545483,0.0458504371345,0.000749202328734,0.000184021264431,-0.000103409365693,-0.000669814762659,-9.68117310549e-05,-8.4969229647e-05,0.000238197171711,0.469890068114,0.00135735300376,0.17718088805,0.0173105013134,0.925366094959,0.378645067626,-0.00508421977057
0.0455694124103,-0.00411155913025,-0.0347080416977,-2.4879257679,-0.0592202730477,2.48627519608,-0.719018101692,0.0458504371345,0.000139513096656,0.000237104992266,-0.000266766466666,0.000266276067123,-5.0228292821e-05,-4.67328027298e-05,-0.000121263983601,0.469888630207,0.00135646035356,0.177178242606,0.0173096669506,0.925366798524,0.378643350634,-0.0050868776135
0.0455712378025,-0.00411219801754,-0.0347088947892,-2.48792815208,-0.0592195913196,2.48627591133,-0.719019889832,0.0458504371345,-0.000158140072017,-0.000338157755323,-7.50557301217e-05,-0.000592802651227,-0.00018812653434,0.000101552024717,-0.000218022090849,0.46988879355,0.00135692433002,0.17717817706,0.0173095863684,0.925366556732,0.378643952651,-0.00508632538286
0.0455707609653,-0.00411090953276,-0.0347073450685,-2.48792695999,-0.0592190027237,2.48627591133,-0.719017028809,0.0458504371345,-0.000418135459768,-0.000457365735201,-0.00067067303462,9.3852468126e-05,-1.67061880347e-05,6.52672097203e-05,-0.000376639101887,0.469888080715,0.00135713108807,0.177177673537,0.0173091782285,0.925366825928,0.378643302418,-0.00508714437086
0.0455702319741,-0.00411555077881,-0.0347082950175,-2.48792481422,-0.05922030285,2.48627471924,-0.719016194344,0.0458504371345,-0.000209205565625,0.00304694636725,0.000659176963381,0.000276144710369,-4.17634837504e-05,-1.72061627381e-05,0.000207985678571,0.469889597037,0.00135675032781,0.177180445152,0.0173104504278,0.92536706387,0.378642694751,-0.00508476208954
0.0455721691251,-0.00411380501464,-0.0347080826759,-2.48792743683,-0.0592190437019,2.48627495766,-0.719016730785,0.0458504371345,-5.13341146871e-05,0.000358452729415,-0.000146901773405,0.000535147381015,-9.70617838902e-06,5.47703893972e-05,-0.000351499096723,0.469888131597,0.0013578182941,0.177178624416,0.0173093566661,0.925366737632,0.378643518126,-0.00508654307882
0.0455700047314,-0.00411361688748,-0.0347073748708,-2.48792767525,-0.0592195056379,2.4862742424,-0.719017982483,0.0458504371345,0.000279175466858,-0.00409171078354,0.000161655189004,-7.25326526663e-06,-5.43828718946e-05,7.03407858964e-05,-6.81348901708e-05,0.469887837297,0.00135709019847,0.177178381395,0.0173092916981,0.925366706276,0.378643589527,-0.00508715343833
0.0455706268549,-0.00411399593577,-0.034706953913,-2.48792672157,-0.059219583869,2.48627448082,-0.719017207623,0.0458504371345,1.76946778083e-05,-2.80669155472e-05,-7.74082291173e-05,0.000289734976832,-0.00011161789007,2.42240112129e-05,-0.000144641453517,0.469888679847,0.00135802500583,0.177179314766,0.0173096909467,0.925366512712,0.378644060078,-0.00508598094785
0.0455719009042,-0.00411595916376,-0.03470473364,-2.48792695999,-0.059220392257,2.48627448082,-0.719015598297,0.0458504371345,0.000356038886821,-0.000425284932135,0.000395649112761,-0.000117607996799,7.5935437053e-05,0.000111521309009,-4.85785640194e-05,0.469888588808,0.0013591882564,0.177179782312,0.0173101322324,0.925366168903,0.378644884699,-0.00508564119987
0.0455725975335,-0.00411259196699,-0.0347063578665,-2.48792600632,-0.0592189021409,2.48627495766,-0.719019055367,0.0432126075029,-0.00044566244469,0.00311103928834,0.000142565957503,-0.000289427349344,-3.00586179947e-05,5.97131293034e-06,-0.000334546290105,0.469888614768,0.00135883659832,0.177178610758,0.0173093788345,0.925365912033,0.37864553621,-0.0050864371435
0.0455722883344,-0.00411306368187,-0.0347072817385,-2.48792672157,-0.0592203326523,2.48627376556,-0.719017505646,0.0432126075029,-0.0003667807905,-6.79684380884e-05,-0.000213031700696,-0.000248535827268,-2.15297222894e-05,-0.000104592625576,-0.000133373934659,0.46988809716,0.00135814775999,0.177178452158,0.0173095411754,0.925366221038,0.378644762575,-0.00508725902338
0.0455736368895,-0.00411173375323,-0.0347048602998,-2.4879295826,-0.0592190772295,2.48627376556,-0.719015717506,0.0432126075029,0.000368339096894,-0.00121966644656,5.40048458788e-05,-0.00017847608251,3.0855571822e-06,1.76798712346e-05,-0.000193371786736,0.469886529699,0.00135997348348,0.177176713121,0.0173084500488,0.925366028928,0.378645258077,-0.00508903553697
0.0455735102296,-0.00411533750594,-0.034705709666,-2.48792719841,-0.05921914801,2.48627400398,-0.719015240669,0.0432126075029,-0.000691679539159,0.000547337520402,1.06040952232e-05,0.000345215114066,2.69619613391e-05,0.000108912994619,0.000548659183551,0.469888269919,0.00135955236563,0.177179352759,0.0173095510426,0.925366309067,0.378644562167,-0.00508612931399
0.0455722659826,-0.00411580642685,-0.0347054935992,-2.48792719841,-0.0592194274068,2.48627471924,-0.719018578529,0.0418913923204,0.000371352740331,0.000281636341242,-0.000391910783947,-0.000812501064502,4.48501523351e-05,-8.28503325465e-05,-3.5448347262e-06,0.469888501487,0.00135906598073,0.177179636714,0.0173098151835,0.92536582712,0.378645734518,-0.00508563781511
0.0455737709999,-0.00411894638091,-0.0347027145326,-2.48791837692,-0.0592189654708,2.48627996445,-0.719017028809,0.0418913923204,0.000265733338892,-0.000376232434064,-0.000152431137394,0.000352531817043,5.14388229931e-05,-6.95969283697e-05,-4.97402243127e-06,0.469894292726,0.00136125660011,0.17718500186,0.017312707756,0.925365393806,0.378646770688,-0.00507748239472
0.0455730818212,-0.00412338366732,-0.0347043313086,-2.48791575432,-0.0592189840972,2.48627948761,-0.719017863274,0.0418913923204,0.000180469447514,-0.000166131416336,-0.000578735431191,-0.000352470407961,5.67574170418e-05,-3.77767210011e-05,2.60740398517e-05,0.469896120651,0.00136021017564,0.177188062199,0.01731385357,0.92536569134,0.378646032106,-0.00507442794748
0.0455744490027,-0.004120208323,-0.0347047001123,-2.48792004585,-0.0592196397483,2.48627924919,-0.719018280506,0.0418913923204,0.000216275002458,-0.000217935696128,0.000913353229407,2.14596411752e-06,-9.87724888546e-06,1.27762614284e-05,-0.000261169916485,0.469893549262,0.00136058978976,0.177184883844,0.0173126787817,0.925365301845,0.37864698855,-0.00507809410645
0.0455727949739,-0.00411741947755,-0.0347052700818,-2.48792028427,-0.0592190884054,2.48627877235,-0.719018936157,0.0418913923204,-0.000366677442798,0.00071194866905,0.000216550615733,0.000652188551612,-5.00336354889e-05,-6.60945661366e-05,0.00014422230015,0.46989289949,0.00135955160205,0.177183438486,0.0173119226208,0.925365677298,0.378646083892,-0.00507970965781
0.0455762855709,-0.00411862228066,-0.0347025878727,-2.48791718483,-0.0592191442847,2.48627996445,-0.719018101692,0.0418913923204,-0.000142733479152,-0.000482608040329,-0.000409127125749,-0.000167490594322,2.02674909815e-05,-3.85012426705e-05,-0.000521239941008,0.469894061371,0.00136181952647,0.177184332847,0.0173124598898,0.925364790712,0.378648244401,-0.00507834016585
0.0455769374967,-0.00411996990442,-0.0347015783191,-2.48791646957,-0.059220045805,2.48627948761,-0.719017624855,0.0418913923204,0.000177037873073,0.000378118857043,4.32113702118e-05,-0.000363640196156,5.50473923795e-05,0.000103372825834,8.22130823508e-06,0.469895246589,0.00136321845415,0.177186184196,0.0173134746043,0.92536430864,0.378649401834,-0.00507642255075
0.0455778166652,-0.00412204815075,-0.0347039960325,-2.48791050911,-0.0592192448676,2.48628258705,-0.719018876553,0.0418913923204,-0.000495307089295,0.000141766577144,9.84137368505e-05,0.00131455634255,7.08349471097e-05,-0.000844007590786,-0.000765609845985,0.469899059841,0.00136264198641,0.177189748274,0.0173151842958,0.925364497423,0.378648932997,-0.00507114637158
0.0455748550594,-0.00412601511925,-0.0347050428391,-2.48790502548,-0.0592200197279,2.4862909317,-0.719016551971,0.0418913923204,-0.000335102144163,-0.00141568854451,-0.000349186506355,-0.000112994712254,-1.17580827919e-06,-0.000771527353209,0.000267065071966,0.469904096154,0.00136089782047,0.177194480682,0.0173184311153,0.925365570749,0.378646272056,-0.00506288038941
0.0455719828606,-0.0041329129599,-0.0347063839436,-2.48790168762,-0.0592192262411,2.48629355431,-0.719016432762,0.0418913923204,-0.000427664170275,-0.00130161375273,-0.000200870112167,-0.000610045273788,-5.07477352585e-06,9.9865203083e-05,0.0003574542352,0.46990720883,0.00135926792105,0.177198662225,0.0173202203756,0.92536632975,0.378644408926,-0.00505737123335
0.0455703288317,-0.00413355324417,-0.0347051098943,-2.48790359497,-0.0592199638486,2.48629355431,-0.719019711018,0.0418913923204,-0.000175961642526,0.00330912298523,0.000656315591186,0.000591268530115,6.60641235299e-05,-3.09780516545e-05,-0.000439049617853,0.469906523326,0.00135884523869,0.177198807178,0.0173203513839,0.925365866805,0.378645532766,-0.00505748755181
0.0455720387399,-0.00413404591382,-0.0347050987184,-2.4879026413,-0.0592189617455,2.48629260063,-0.719016373158,0.0418913923204,0.000285147340037,0.00040035796701,0.00068774796091,-0.000181268667802,8.60439322423e-05,-1.9698170945e-05,-0.000291442207526,0.469906836035,0.00135971090999,0.177199322651,0.0173201812201,0.925366335907,0.378644399111,-0.00505711355475
0.0455748401582,-0.00412968313321,-0.0347031280398,-2.4879052639,-0.0592192336917,2.48629355431,-0.719016611576,0.0407310649753,-0.000196436289116,0.000898273545317,0.00315610389225,-0.00052042043535,-2.78880652331e-05,0.000151526546688,-0.000574796053115,0.469905397751,0.00136188581105,0.177196814968,0.0173193756399,0.925365401568,0.378646687443,-0.00505950395442
0.0455726310611,-0.00413064379245,-0.0347061231732,-2.48790192604,-0.059219930321,2.48629331589,-0.719018876553,0.0407310649753,0.000219885463594,-0.000100491190096,0.000183503347216,-7.47702724766e-05,-5.95759338466e-05,7.555452612e-05,0.000604595057666,0.469906804469,0.00135943776017,0.177198068743,0.0173201251243,0.925365782825,0.37864573921,-0.00505817192602
0.0455717928708,-0.00413097487763,-0.0347061231732,-2.48790335655,-0.0592199042439,2.48629331589,-0.719019114971,0.0407310649753,0.000179213719093,-0.000315280020004,0.000223597991862,-0.000311802054057,0.000101299803646,0.000120352247905,6.17708719801e-05,0.469906079851,0.00135924683331,0.177197607835,0.0173199362471,0.925365730218,0.378645868201,-0.00505878678953
0.045569114387,-0.00413318630308,-0.0347063653171,-2.48790550232,-0.0592202842236,2.48629283905,-0.719016909599,0.0407310649753,-0.000183858443052,-0.000436839327449,-0.000180349787115,-0.000218493645662,9.60089892033e-06,5.43753740203e-05,-0.000298936764011,0.469905414085,0.00135764149968,0.177197830989,0.017319912217,0.925366811722,0.378643224508,-0.00505891502933
0.0455705150962,-0.00413567759097,-0.0347056798637,-2.48790383339,-0.0592206306756,2.48629307747,-0.719016730785,0.0407310649753,8.92294265213e-05,0.000186003453564,0.00320321507752,0.000395117560402,1.21070988826e-05,-0.000114683964057,0.000112768728286,0.469906640257,0.00135862926174,0.177199671218,0.0173207833204,0.925366407657,0.378644199455,-0.00505687126054
0.0455719046295,-0.00413402589038,-0.0347061753273,-2.48790240288,-0.0592205524445,2.48629307747,-0.719016432762,0.0393251404166,-0.000114382179163,0.000378148513846,-5.02154616697e-05,0.000721511838492,6.88366417307e-05,-1.42664321174e-05,-0.000102890175185,0.469907057031,0.00135905021835,0.177199451596,0.0173207490393,0.925366305929,0.378644448381,-0.00505696520885
0.0455724522471,-0.00412976695225,-0.0347048528492,-2.48790311813,-0.0592204295099,2.48629379272,-0.719017028809,0.0393251404166,-0.00173757318407,0.000614727265202,-0.00183978141285,-0.000124566286104,-6.97678697179e-05,0.00010322718299,0.0062488745898,0.469906209677,0.0013599133944,0.177197237079,0.0173199882195,0.925365841001,0.378645593017,-0.0050589415004
0.0455712303519,-0.00413643894717,-0.0347040332854,-2.48790502548,-0.0592200569808,2.48629426956,-0.719017386436,0.0393251404166,0.000508059514686,0.000292599026579,0.000186763645615,0.000239518063609,5.58067149541e-05,-5.33041384188e-05,0.000247401883826,0.469906450921,0.00135979269076,0.177199669387,0.0173207284048,0.925365919834,0.378645400063,-0.00505642879109
0.0455721504986,-0.00413200538605,-0.0347049348056,-2.48790597916,-0.0592199340463,2.48629212379,-0.719018638134,0.0393251404166,0.000448669597972,0.000772421655711,0.00182181911077,-4.68303951493e-05,-3.47785935446e-05,0.000151876549353,5.38994281669e-05,0.46990484171,0.00135973960263,0.177197027378,0.0173194193239,0.925365691107,0.378645971605,-0.00505997107924
0.0455705933273,-0.00413126731291,-0.0347052142024,-2.48790454865,-0.0592196248472,2.48629331589,-0.719016551971,0.0393251404166,0.000202352603083,0.000268234609393,0.000649347784929,0.000436644622823,8.71508891578e-05,0.000217162523768,-0.000160910116392,0.469905663789,0.0013589172856,0.177197341445,0.0173196639862,0.925366478838,0.378644047527,-0.0050590550776
0.0455708615482,-0.00413538282737,-0.034705363214,-2.48789691925,-0.0592194721103,2.48629593849,-0.719018518925,0.0393251404166,0.000733695342205,-0.00355175347067,-4.8542246077e-05,0.000699710275512,-2.38788270508e-05,0.00026665176847,-0.000147114842548,0.469910478032,0.00135909249313,0.177202470402,0.0173221385137,0.925366129829,0.378644877044,-0.00505233157474
0.0455731526017,-0.00414672633633,-0.0347051918507,-2.48787808418,-0.0592193752527,2.48630356789,-0.71901679039,0.0393251404166,-0.000602827931289,-0.00189774169121,-0.00036080981954,0.000420563737862,9.84139333013e-05,5.78986764594e-05,0.000512723636348,0.469922797284,0.00136055238561,0.177215791088,0.0173287370949,0.925366059682,0.378644982941,-0.00503458391893
0.0455671809614,-0.00417095748708,-0.0347077399492,-2.48788046837,-0.0592196062207,2.48630857468,-0.719018816948,0.0393251404166,-0.00038776351721,-0.000424859492341,-0.000110153967398,-0.000383784965379,0.000103919657704,-6.56132906443e-05,0.000524249509908,0.469926547831,0.00135677475363,0.177226683324,0.0173332168562,0.925367298283,0.378641917597,-0.00502202979542
0.0455658510327,-0.00419772556052,-0.0347102098167,-2.48789143562,-0.0592195875943,2.48630619049,-0.719018042088,0.0393251404166,0.000463559204945,0.000615646014921,-0.00017575120728,0.000267548428383,5.66846210859e-05,-7.79204565333e-05,-0.000300156534649,0.469925123974,0.0013552699197,0.177234844634,0.0173353159673,0.925368101997,0.378639942736,-0.00501558317014
0.0455666445196,-0.00419747410342,-0.0347097031772,-2.48789024353,-0.059219956398,2.48630619049,-0.719016730785,0.0382324457169,-1.63215408975e-05,0.00187565339729,0.000163969321875,0.000429542415077,-2.87642706098e-05,3.65441155736e-06,4.18249655922e-05,0.469925543479,0.00135568002828,0.177235122975,0.0173355798784,0.925368172564,0.37863976255,-0.00501525425906
0.0455653779209,-0.00419854745269,-0.034712292254,-2.4878911972,-0.0592198036611,2.48630595207,-0.719017446041,0.0382324457169,-0.000391550420318,0.000457521906355,0.00012990043615,0.000130706597702,-5.9069127019e-05,-0.000144841600559,0.000461776158772,0.469925212825,0.00135387856785,0.177235234554,0.0173354855246,0.925368792399,0.378638251077,-0.00501532645197
0.0455655232072,-0.00420065084472,-0.0347094237804,-2.48789143562,-0.0592207685113,2.48630666733,-0.719016551971,0.0382324457169,0.000654536648653,-0.000424267491326,0.000724646670278,-1.96191067516e-05,-0.000143986777402,4.68828657176e-05,0.000261882581981,0.469925583249,0.00135525664414,0.177236195047,0.017336202705,0.925368244105,0.378639573436,-0.00501417891371
0.0455679111183,-0.00419956166297,-0.0347104258835,-2.48789334297,-0.0592208579183,2.48630714417,-0.719018220901,0.0382324457169,0.00060870940797,-0.000167013073224,0.00307250325568,-0.000337811477948,-6.39422069071e-05,-0.000202942421311,0.000373310496798,0.469924615859,0.00135589299077,0.177234984456,0.0173357684526,0.925367641954,0.378641049234,-0.00501536383018
0.04556677863,-0.00420595891774,-0.0347083024681,-2.48788428307,-0.0592204146087,2.4863114357,-0.719017386436,0.0382324457169,-0.000598763173912,-0.00206765742041,-0.000493039027788,0.00390577688813,-0.000109256943688,0.000364805368008,8.36673279991e-05,0.469930822159,0.00135654458745,0.177241888192,0.0173390914965,0.925367706936,0.378640861505,-0.00500605115483
0.045559015125,-0.0044493325986,-0.0347184129059,-2.48786902428,-0.0592202357948,2.48632383347,-0.719016611576,0.0382324457169,0.000775244261604,-0.0036465281155,0.000807632226497,-0.000203635368962,-6.10673077972e-06,-0.000160288618645,-0.000237212399952,0.469978607438,0.00135016198408,0.177363186087,0.0173846998026,0.925371954336,0.378630052904,-0.0048786331679
0.0455677174032,-0.00451469887048,-0.0347103960812,-2.48787713051,-0.0592207461596,2.48632454872,-0.719017922878,0.0382324457169,0.00180707580876,-0.00633067684248,-1.79952166945e-05,-0.000996833667159,-4.09382337239e-05,-0.000100564182503,-0.00585872866213,0.469985079149,0.00135841523033,0.177390791925,0.0173945070511,0.925368622654,0.378638097342,-0.00485121181486
0.0455676093698,-0.00455742655322,-0.0347095318139,-2.48788785934,-0.0592205673456,2.48632121086,-0.719018101692,0.0382324457169,-0.000380677200155,-0.000267233641353,-0.000826030620374,0.000633909774479,0.000106509207399,2.12783397728e-05,-0.00021461986762,0.469985927132,0.00135897715866,0.177406387178,0.0173991204924,0.925368579367,0.378638164869,-0.0048376352428
0.0455564446747,-0.00454456917942,-0.0347177200019,-2.48788189888,-0.0592198781669,2.4863216877,-0.71901768446,0.0382324457169,-0.0029336984735,-0.00168176786974,-0.00036035568337,-3.67140237358e-05,-0.000129372667288,3.74100891349e-05,3.5536573705e-05,0.469986869133,0.00134987775528,0.177402707787,0.017397875052,0.925372406479,0.378628828555,-0.00484077904396
0.0455590225756,-0.00454462273046,-0.0347157157958,-2.48787784576,-0.0592209435999,2.48632240295,-0.719018578529,0.036565169692,0.000339257210726,-0.000819879292976,0.000641203892883,0.000110930384835,4.49477665825e-05,4.12827539549e-05,0.000190286169527,0.469988944184,0.00135199434912,0.177404375099,0.0173990652321,0.925371212135,0.378631720508,-0.00483861427246
0.0455628745258,-0.00455327657983,-0.034712459892,-2.48787951469,-0.0592200607061,2.48632192612,-0.71901756525,0.036565169692,0.000612461240962,0.000591481104493,0.000107129526441,-0.000258896616288,-6.17104014964e-05,-0.000132272703922,-1.86792658496e-05,0.469989384808,0.00135543408523,0.17740774567,0.0173999084489,0.925370217075,0.378634154992,-0.0048353792691
0.0455700457096,-0.00455105537549,-0.034707814455,-2.48789215088,-0.0592204742134,2.48632097244,-0.719017446041,0.036565169692,0.000100094999652,-0.000342382991221,0.000364965730114,-0.000795196741819,-0.000157662245329,-0.000145234647789,0.000112439010991,0.46998285351,0.00136086336453,0.177401705379,0.0173972089545,0.925367903582,0.37863983964,-0.00484269165576
0.045562479645,-0.0045400839299,-0.0347110107541,-2.48789262772,-0.059220045805,2.48632025719,-0.719016432762,0.036565169692,-0.000477787514683,0.000578785256948,-0.000916729448363,0.000338568672305,-1.39670564749e-05,-0.000153819710249,-3.17974008794e-05,0.469980779902,0.00135574325792,0.177396303718,0.0173950082095,0.925370170158,0.378634327612,-0.0048484541461
0.0455601662397,-0.00453262589872,-0.0347134955227,-2.48790431023,-0.0592205226421,2.48631811142,-0.719015359879,0.036565169692,-0.000306421134155,-0.000270484626526,-0.000483061827254,-0.000367601052858,-3.96055584133e-05,-0.000227556185564,-3.48547546309e-05,0.469973573663,0.0013531366583,0.177388229104,0.0173914346558,0.925371187465,0.378631877227,-0.00485846075541
0.045558206737,-0.00454107206315,-0.0347147397697,-2.48790168762,-0.0592205226421,2.48631691933,-0.719015002251,0.036565169692,0.000289857794996,0.0010954431491,-0.000118876130728,-7.19527361071e-06,-8.47871924634e-05,6.48784116493e-05,0.000301413208945,0.469975941615,0.00135186329868,0.177392949967,0.0173930755062,0.925371874781,0.378630180782,-0.00485388217131
0.0455631650984,-0.00455137435347,-0.0347112976015,-2.48787808418,-0.0592209845781,2.48631858826,-0.719016611576,0.036565169692,-0.000631532922853,-0.000850136391819,-0.000271033815807,0.00171669782139,2.94136880257e-05,0.000448085775133,-0.000100998506241,0.469989037185,0.00135599838985,0.177407115918,0.0173995834385,0.925369990607,0.378634699308,-0.00483726609005
0.04556395486,-0.00460988562554,-0.0347127951682,-2.48784923553,-0.0592207945883,2.48632621765,-0.71901756525,0.036565169692,0.000382976344554,-0.00339888478629,-9.48234664975e-05,-0.00111449079122,-4.65504817839e-05,-2.86894774035e-05,-0.000101488360087,0.470013410163,0.00135636003155,0.177446485671,0.0174159090015,0.925370180617,0.378634051136,-0.00479269678663
0.0455631874502,-0.00467897765338,-0.0347107537091,-2.4878692627,-0.0592202357948,2.48632454872,-0.719018161297,0.036565169692,7.10201711627e-05,-0.00554251531139,0.000181079987669,-0.000493456085678,0.000132954039145,-0.00028773851227,0.000366759049939,0.470014327033,0.0013573546684,0.177470991823,0.0174234042457,0.925370061755,0.378634280908,-0.00477019888116
0.045561041683,-0.00473000993952,-0.0347132869065,-2.48786973953,-0.05921972543,2.48632502556,-0.719017028809,0.036565169692,-0.0007572529139,-0.00163517415058,-0.000118118958198,0.000278568360955,0.000138033559779,2.80778785964e-05,8.72914242791e-05,0.470022138641,0.00135555635752,0.177494811468,0.0174318094023,0.92537137965,0.378630975436,-0.00474614248233
0.0455584302545,-0.00473380088806,-0.0347152799368,-2.48788285255,-0.0592208094895,2.48632264137,-0.719018518925,0.036565169692,0.000223873881623,0.000870061805472,-1.07332914467e-06,-0.000661896774545,-8.03832081147e-05,-0.000122545010527,-3.38348800142e-05,0.47001602977,0.00135324767183,0.177491282097,0.0174299343781,0.925371788373,0.37862999257,-0.00475174493117
0.0455647818744,-0.00472885090858,-0.0347128771245,-2.48787355423,-0.0592204742134,2.48632264137,-0.719017207623,0.036565169692,4.71915082016e-05,-0.000167692604009,0.000162449519848,-0.000577890546992,3.10727918986e-05,5.78429207962e-05,0.000201458562515,0.470019635364,0.00135739387748,0.177492574134,0.0174307493859,0.925370440708,0.378633275226,-0.00474963320156
0.0455647148192,-0.00472494307905,-0.0347116030753,-2.48787927628,-0.0592209883034,2.48632240295,-0.719017088413,0.0361718274653,-0.000103025260614,-0.000164212833624,0.000152615262778,0.000211982362089,1.10325454443e-05,8.54348836583e-05,0.000297957012663,0.470016276497,0.001357867195,0.177488493392,0.0174291526644,0.925370130812,0.378634047676,-0.00475428879854
0.0455652996898,-0.00472667859867,-0.0347119607031,-2.48787093163,-0.059219956398,2.48632264137,-0.719018280506,0.0361718274653,0.000334137526806,-0.000229912533541,3.65801679436e-05,0.000469666003482,-3.4898694139e-05,2.38771499426e-05,0.000141949101817,0.470020531605,0.00135809809428,0.177492573124,0.0174307223142,0.925370046864,0.378634242191,-0.00474938002297
0.0455656498671,-0.00472717219964,-0.0347099974751,-2.48787379265,-0.0592205114663,2.48632287979,-0.719017446041,0.0361718274653,0.000261772016529,-0.000745712546632,0.000141939570312,-0.000560643267818,-9.7371157608e-05,-6.21386207058e-05,0.000210640951991,0.470019309258,0.00135914151707,0.177491714525,0.0174304874519,0.925369674003,0.3786351515,-0.00475039729228
0.045555729419,-0.00474405987188,-0.0347168445587,-2.48787665367,-0.0592199154198,2.48632264137,-0.719016611576,0.0361718274653,-0.00183551653754,-0.00105878594331,0.000565385271329,-0.000543746282347,-1.18941386518e-06,0.000121296347061,7.85628508311e-05,0.470020550907,0.00135140475994,0.177498508818,0.0174325357141,0.925373139556,0.378626668138,-0.00474395873873
0.0455571599305,-0.00473917881027,-0.0347158908844,-2.48788142204,-0.0592199675739,2.48632192612,-0.719018161297,0.0361718274653,7.33292035875e-05,0.000469605467515,-0.00330995814875,-0.000125716003822,-3.72013018932e-05,-6.98678559274e-05,-4.10050051869e-05,0.470017383552,0.001352451395,0.177494298731,0.0174307396775,0.925372364095,0.378628585253,-0.00474880999537
0.0455601215363,-0.00474468339235,-0.0347151681781,-2.48787784576,-0.0592214129865,2.4863216877,-0.719018340111,0.0353332646191,0.000319290382322,0.00024902736186,-0.000468476588139,0.000679353659507,0.000122871133499,5.951870844e-05,6.44731408102e-05,0.470019874471,0.00135414401065,0.177498257127,0.0174327087574,0.925371433719,0.378630818811,-0.00474479204729
0.0455664359033,-0.00481589557603,-0.0347096920013,-2.48788928986,-0.0592213533819,2.48631715775,-0.719016730785,0.0353332646191,0.00254497723654,-0.00599867943674,-1.48676062963e-05,-0.00184200925287,-1.39587291415e-05,-0.000572742777877,-0.000424070167355,0.470024531021,0.0013600603911,0.177526845781,0.0174418584803,0.925369701291,0.378634958711,-0.00471860476562
0.0455649085343,-0.00489000231028,-0.0347098186612,-2.48789334297,-0.0592205226421,2.48630595207,-0.71901679039,0.0353332646191,0.000108116189949,0.000645472144242,-0.000226372241741,0.000350390793756,-1.04508035292e-05,-0.000147320111864,0.000138391886139,0.470031680813,0.00135966296508,0.177559076274,0.0174515041062,0.925370370045,0.378633225057,-0.00469082220975
0.045567471534,-0.00494242226705,-0.034709546715,-2.48791480064,-0.0592201948166,2.48629069328,-0.719017744064,0.0353332646191,-0.00206374633126,-0.000931032991502,0.000232499834965,-0.00263207405806,-9.33605042519e-05,-0.000354396295734,2.99283328786e-05,0.470026888193,0.00136105504914,0.177573039355,0.0174536494507,0.925369822235,0.378634555175,-0.00468353810187
0.0455682575703,-0.00498103862628,-0.0347092077136,-2.48793578148,-0.0592204071581,2.48627138138,-0.719014942646,0.0353332646191,3.57910284947e-05,-0.000229031793424,0.000254097045399,-4.88338264404e-05,-6.0189209762e-05,-0.00115348852705,-5.23134731338e-05,0.470018259678,0.00136151044745,0.177583373421,0.0174535410069,0.925370229867,0.378633565561,-0.00468340632593
0.0455718189478,-0.00545838335529,-0.0347080975771,-2.48796367645,-0.0592197664082,2.48547720909,-0.719016551971,0.0353332646191,-0.000577099737711,-0.0203329380602,-0.000493977742735,-0.00063920771936,4.68451471534e-05,-0.0385807938874,-0.000374032766558,0.469905824523,0.00135433539914,0.177725290026,0.0173993625779,0.925373569847,0.378625829581,-0.00484760440779
0.0455743297935,-0.00595650449395,-0.034706544131,-2.48795580864,-0.0592205151916,2.48449993134,-0.719016611576,0.0353332646191,8.09121672773e-07,-0.0337037965655,-0.000169207676663,0.00149338820484,7.32038461138e-05,-0.0631251484156,0.000132355751703,0.469773435293,0.00134431530414,0.177875829027,0.0173261310204,0.925377889065,0.378615697761,-0.00507155843854
0.0455755740404,-0.00658463453874,-0.0347075052559,-2.48792362213,-0.0592200197279,2.48318529129,-0.719016194344,0.0353332646191,-0.000131954147946,-0.0426119454205,-0.000385442835977,0.00153294752818,1.26364875541e-05,-0.09476557374,0.000112648820505,0.469598854079,0.00132831334697,0.17806711349,0.0172240869133,0.925384860579,0.378599022744,-0.00538240657354
0.0455752797425,-0.00760169839486,-0.0347084067762,-2.4879014492,-0.0592208579183,2.48104572296,-0.719014465809,0.0353332646191,0.00041156532825,-0.0597472973168,0.000254268641584,0.00174785102718,-4.56500602013e-05,-0.130340129137,0.000343925930792,0.469281446224,0.00129979717965,0.178382862873,0.017041921546,0.925396708701,0.378570035669,-0.0059356728481
0.0455762892962,-0.00988111551851,-0.0347055979073,-2.48776960373,-0.0592207238078,2.47666716576,-0.719017386436,0.0353332646191,0.00035338307498,-0.0928394049406,8.30564749776e-05,0.00872923992574,-3.55942029273e-05,-0.167137950659,-7.88700635894e-05,0.468755693799,0.00125061867429,0.179099827302,0.0167483938664,0.92541733604,0.378517436372,-0.0068407239717
0.0455804541707,-0.0114980181679,-0.034704040736,-2.48769688606,-0.0592216774821,2.47400212288,-0.71901601553,0.0353332646191,0.000145488258568,-0.121077433228,-0.000164029363077,0.00595467304811,6.42450831947e-05,-0.195715487003,-0.000423863355536,0.468433645293,0.00122067020569,0.179694000148,0.0165908293351,0.925431513839,0.378480397913,-0.00733795986346
0.0455799922347,-0.0140648595989,-0.0347071588039,-2.48760008812,-0.0592222362757,2.4700319767,-0.719017863274,0.0353332646191,0.000605264503974,-0.143094420433,-0.0039606266655,0.010925042443,8.72466989676e-05,-0.222698032856,-0.000358022545697,0.468024215027,0.00117709546475,0.180544845536,0.0164053488462,0.925452061798,0.37842630876,-0.00792933564722
0.045572258532,-0.0166914798319,-0.0347095653415,-2.48734784126,-0.0592217482626,2.465934515,-0.719016730785,0.0353332646191,-0.000277791608823,-0.170513480902,-4.02261939598e-05,0.0203740429133,-6.62455422571e-05,-0.261242359877,5.25125578861e-05,0.467622547534,0.00112432158276,0.181579162684,0.0162171571503,0.925478015348,0.378357514958,-0.00854619681973
0.0455799214542,-0.0260201953351,-0.0347057133913,-2.48566222191,-0.0592235550284,2.45240449905,-0.719015419483,0.0361540950835,4.32550405094e-05,-0.234487012029,-0.000181578056072,0.0518345572054,-6.0943653807e-05,-0.322453677654,-3.07595764752e-05,0.46686190258,0.000992381120687,0.185360169338,0.0159055496355,0.925553398101,0.37815762355,-0.00973304622696
0.0455893836915,-0.0304585564882,-0.0346995815635,-2.48447036743,-0.0592243410647,2.44639420509,-0.719014585018,0.0361540950835,0.000664037419483,-0.256553322077,0.00116812833585,0.0753457844257,-0.000107894498797,-0.344206184149,-0.000159205505042,0.466748612255,0.000941001036655,0.187381083618,0.0158928673346,0.925589311805,0.378065116093,-0.00993027272698
0.0455889329314,-0.0356870219111,-0.0346985161304,-2.48270797729,-0.0592252761126,2.43927121162,-0.719016373158,0.0361540950835,-0.000448980164947,-0.276119589806,0.00121817772742,0.103048324585,5.99664890615e-05,-0.3760894835,0.000104880695289,0.466756947651,0.000872816409377,0.189901722525,0.0159359551258,0.925636585475,0.377945279225,-0.0100161150121
0.0455704443157,-0.050548709929,-0.0347174480557,-2.47625684738,-0.0592330358922,2.41940617561,-0.71901601553,0.0361540950835,-0.000377116637537,-0.332864552736,-0.000248716620263,0.16821436584,-0.000118800577184,-0.455430686474,-0.000207380653592,0.467427468975,0.00067006662111,0.197693589949,0.016381582808,0.925786979281,0.377573295309,-0.00940845852836
0.0455832928419,-0.0565063841641,-0.0347072482109,-2.47325778008,-0.0592329502106,2.41159439087,-0.719014883041,0.0361540950835,0.000272573583061,-0.359186828136,0.000813313177787,0.180891126394,-0.000247946765739,-0.464877307415,-0.000403534213547,0.467843490741,0.000613026941907,0.200805596003,0.0166396748262,0.925839703452,0.377444187896,-0.00893585139237
0.0456027090549,-0.0622378885746,-0.034692492336,-2.47005677223,-0.0592328384519,2.40416312218,-0.71901422739,0.0361540950835,-0.000117613417387,-0.354636579752,-0.000291636533802,0.218469038606,6.8719346018e-05,-0.459053486586,0.000116789524327,0.468433623898,0.000558562950009,0.20433779619,0.0169950693333,0.925895860276,0.377306763414,-0.00822371616622
0.0455892123282,-0.0699641406536,-0.0347018800676,-2.46490573883,-0.0592345297337,2.39424037933,-0.719016194344,0.0362374931574,-0.0010354174301,-0.378289043903,-0.000851936114486,0.2624091506,-0.00013053623843,-0.485125541687,-0.00531236408278,0.469539663447,0.000461106962692,0.209190754132,0.017615447205,0.92598227174,0.377093111871,-0.00687845223795
0.0455854795873,-0.0796511694789,-0.0347110256553,-2.45787596703,-0.0592339746654,2.38192534447,-0.719014883041,0.0362374931574,0.000738042057492,-0.39729771018,0.00170341972262,0.296139359474,6.47308552288e-05,-0.49691966176,0.000150569510879,0.471123286775,0.000347978369036,0.215551366493,0.0185144049944,0.926088255711,0.376821035147,-0.00486483258902
0.0455930531025,-0.0885018855333,-0.0347020886838,-2.45102095604,-0.0592353902757,2.37083482742,-0.719014763832,0.0362374931574,9.69719476416e-05,-0.405873507261,0.000325721543049,0.319943934679,-0.000365349114873,-0.506936967373,-0.00109862815589,0.47270707853,0.000258827210454,0.221589265072,0.019439101929,0.926176571609,0.37657872234,-0.00274683146548
0.0456002242863,-0.0954588279128,-0.0346994139254,-2.44550395012,-0.0592366270721,2.36214876175,-0.719016253948,0.0362374931574,-0.000280938198557,-0.422463178635,0.00230722152628,0.336366117001,8.24444650789e-05,-0.514955699444,-0.000493563129567,0.473952872594,0.000186282597536,0.226415265043,0.0201921044263,0.926243567113,0.376382943357,-0.00100644650375
0.045590352267,-0.102706126869,-0.0347065404058,-2.43938493729,-0.0592353381217,2.35340189934,-0.719014704227,0.0362374931574,-0.000151832777192,-0.424316674471,-3.96409595851e-05,0.382830142975,-0.000130508618895,-0.509685218334,-0.000503005052451,0.475414977518,0.000101948520349,0.231650059307,0.0210902455366,0.926314555954,0.376158588097,0.00112305598046
0.0455973595381,-0.123661719263,-0.0347008444369,-2.41974782944,-0.0592372938991,2.32741808891,-0.719015419483,0.0362374931574,0.000267318333499,-0.434658199549,-0.00297497818246,0.419068425894,0.000464266748168,-0.534334599972,0.000639100384433,0.479926410156,-0.000130070392744,0.247705427929,0.0239181931578,0.926484811742,0.375489017086,0.00786202131451
0.0455912016332,-0.131394028664,-0.0347046852112,-2.4117603302,-0.0592392385006,2.31803488731,-0.71901512146,0.0362374931574,-0.000640570418909,-0.43553301692,-0.000722463824786,0.463403791189,-0.000202646609978,-0.518585264683,4.08498963225e-05,0.48178242078,-0.000222769411971,0.25403365,0.025124940451,0.926533949236,0.375216090333,0.0107918265114
0.0455939434469,-0.138232991099,-0.0347048901021,-2.40442323685,-0.0592383183539,2.30976700783,-0.719013333321,0.0362374931574,1.525191783e-05,-0.419666230679,-1.0213520909e-05,0.458432883024,-0.000322249281453,-0.515968263149,0.000340169208357,0.48346272513,-0.000300430660648,0.259784758637,0.0262435035494,0.926567024333,0.37496916961,0.0135258813255
0.0455964952707,-0.146791145205,-0.034700203687,-2.39513993263,-0.0592390485108,2.29947686195,-0.719011306763,0.0362486578524,-0.000348039291566,-0.421318948269,-0.00274709030055,0.453484803438,0.000186066390597,-0.515294730663,-4.34420908277e-05,0.485511404725,-0.000398265150003,0.267073716219,0.0276681790954,0.926595490166,0.374653875488,0.0170218311446
0.0455848239362,-0.166501551867,-0.0347165875137,-2.37273168564,-0.0592394955456,2.27678108215,-0.719010770321,0.0362486578524,0.00124301423784,-0.40842717886,0.000417235743953,0.481643378735,-0.000475028005894,-0.472881793976,-0.000575418758672,0.490369105141,-0.000643662151793,0.284603841628,0.0312828783468,0.926591512979,0.373860960954,0.0260294286575
0.045597024262,-0.180942565203,-0.034708160907,-2.35536575317,-0.0592408962548,2.26047277451,-0.719007372856,0.0362486578524,-0.000820196873974,-0.382060557604,-0.000239410292124,0.484454721212,-5.40463333891e-05,-0.427386522293,0.000316780497087,0.493803968304,-0.000807093390165,0.297709333213,0.0340611289733,0.926511302546,0.373264471863,0.0330193802897
0.045599039644,-0.199543491006,-0.0347140841186,-2.3332490921,-0.0592407286167,2.24155688286,-0.719005346298,0.0362867414951,-0.000886864087079,-0.356177151203,-5.18938250025e-05,0.437376886606,-0.000240251581999,-0.342887818813,-0.000112075504148,0.49751452456,-0.000999869635019,0.312877603651,0.0374296048032,0.926325587826,0.37254177285,0.0416239977472
0.045581612736,-0.206128567457,-0.0347306840122,-2.32523345947,-0.0592408888042,2.23529553413,-0.719003915787,0.0362867414951,-0.00188191782217,-0.345397919416,-0.000324654858559,0.41294375062,-8.02582653705e-05,-0.315894901752,-0.000399949989514,0.499736819656,-0.00112819180488,0.322189590434,0.039604249706,0.926155523334,0.372069277642,0.0472430134771
0.0455865003169,-0.211407139897,-0.0347411334515,-2.31921696663,-0.0592422224581,2.23077988625,-0.719002306461,0.0362867414951,0.000861945445649,-0.354918390512,0.000870476593263,0.372062206268,4.79928530694e-05,-0.289897054434,0.000364370294847,0.500859969242,-0.00118836784561,0.327233935467,0.0408153517044,0.926038166452,0.371816052738,0.0504008328144
0.0455975346267,-0.218005746603,-0.0347354263067,-2.31224226952,-0.0592391826212,2.22554326057,-0.719002664089,0.0362867414951,0.00153865572065,-0.313020586967,-0.00010356085113,0.351662635803,-6.56745469314e-05,-0.23994012177,-0.000577186467126,0.502095038232,-0.00124851806655,0.333342391718,0.0422952155332,0.92587260351,0.37151579599,0.0542867371148
0.0455936342478,-0.2319483459,-0.0347553566098,-2.29754281044,-0.0592410005629,2.2164618969,-0.71900165081,0.0362867414951,0.000490623700898,-0.265683472157,0.000605447625276,0.257057875395,-0.000108052139694,-0.145416483283,-0.000400284916395,0.504840634453,-0.00138848265984,0.34653924832,0.0457364826995,0.925406345811,0.370823957546,0.0634102631682
0.0455954372883,-0.235732480884,-0.0347577445209,-2.29402303696,-0.0592401325703,2.21449494362,-0.71900331974,0.0362867414951,2.18567438424e-05,-0.24549049139,0.000440058822278,0.222409158945,0.000223542170716,-0.121892079711,2.76536338788e-05,0.505479791398,-0.00141879903367,0.349965064989,0.0466659556994,0.925258228345,0.370643293859,0.0659018046658
0.0455981492996,-0.240339919925,-0.0347582101822,-2.29038619995,-0.059241104871,2.21241497993,-0.719000816345,0.0362867414951,0.000566998089198,-0.234912782907,-0.000541090557817,0.166642695665,2.65535909421e-05,-0.100739978254,-0.000139369585668,0.506091331654,-0.00145116678106,0.353858736191,0.0477328182473,0.925077273876,0.37043586172,0.068781447026
0.0456015504897,-0.248828738928,-0.0347628593445,-2.28494000435,-0.0592416971922,2.20866656303,-0.719003021717,0.0363629162312,0.000193794781808,-0.18399874866,0.00105080532376,0.0835272446275,-0.000153593762661,-0.0908957570791,0.000305717927404,0.506774528186,-0.00151245389401,0.360177005757,0.0494217472342,0.924772991291,0.370092896907,0.073373379514
0.0456097275019,-0.252250432968,-0.0347695685923,-2.28331971169,-0.0592412687838,2.2066962719,-0.719002842903,0.0363629162312,0.00208400189877,-0.110437758267,-0.00156425696332,0.0530782416463,8.09315133665e-06,-0.0797156989574,-1.99323790184e-06,0.506770867586,-0.00154535507448,0.362735280885,0.050008731365,0.924668381763,0.369953603733,0.074978939193
0.0456062890589,-0.253539741039,-0.0347762852907,-2.28277802467,-0.0592410080135,2.20567464828,-0.719001948833,0.0363629162312,-7.35668872949e-05,-0.103290311992,-0.000697000999935,0.0358050949872,1.67956841324e-05,-0.0810377523303,0.000754878274165,0.506675735604,-0.00156780233703,0.363603858119,0.0501578595257,0.924648781058,0.369899948265,0.075384671993
0.0456425845623,-0.255589693785,-0.0347711928189,-2.28238582611,-0.0592408329248,2.20379543304,-0.719002366066,0.0363629162312,0.00352956424467,-0.065982952714,9.20903621591e-05,0.00330488709733,-7.38306189305e-05,-0.0742971971631,-0.000121673438116,0.506365234289,-0.00157320017777,0.364535322694,0.0502419718965,0.924637662565,0.369868023897,0.0756213052519
0.0458309166133,-0.256389677525,-0.0347675345838,-2.28248262405,-0.0592424832284,2.20168423653,-0.719001173973,0.0363629162312,0.0122258421034,-0.00332753267139,0.00123565015383,-0.00125678360928,-2.20774891204e-05,-0.0962955132127,-6.70087902108e-05,0.505889736416,-0.0015051702989,0.364627293315,0.0500002557363,0.924671138869,0.369950601024,0.0749654043761
0.0461599379778,-0.256281971931,-0.0347357951105,-2.28267025948,-0.0592437200248,2.19953036308,-0.719002783298,0.0363629162312,0.0209358856082,0.00994822755456,0.00318556046113,-0.0173373315483,-2.34961844399e-05,-0.109099335968,0.000479958223877,0.505407195753,-0.00135136925674,0.364210218665,0.0495838770615,0.924710038813,0.370139047368,0.0738232250095
0.0465554259717,-0.255893588066,-0.0346914678812,-2.28292679787,-0.0592434890568,2.197742939,-0.719001412392,0.0363629162312,0.0289853122085,0.0384682491422,0.00532589759678,-0.0227900948375,0.000137059832923,-0.108384512365,-0.000173028296558,0.504985644449,-0.00115258622132,0.363663382837,0.0491680772594,0.924729858362,0.370369090897,0.0726906144114
0.0472042448819,-0.254807382822,-0.0345661826432,-2.28334259987,-0.0592423081398,2.19591927528,-0.719000577927,0.0363629162312,0.040002848953,0.0675606876612,0.00837834645063,-0.0244542825967,-0.000113565896754,-0.0969498082995,-1.75420518644e-05,0.504529694132,-0.00078556423177,0.362681771548,0.0486015811585,0.924717245379,0.370775608253,0.0711431684388
0.0499906614423,-0.25106215477,-0.0333972685039,-2.28493690491,-0.0592441596091,2.19184541702,-0.718979537487,0.0363629162312,0.0790402293205,0.106155596673,0.0380709208548,-0.0296248253435,1.07747764559e-05,-0.086717531085,-0.000240272536757,0.50333686426,0.00114462661926,0.359504508242,0.0470372557496,0.924331493422,0.372747433074,0.0667692868012
0.0515012741089,-0.249266639352,-0.0326255038381,-2.28543424606,-0.0592445023358,2.19040298462,-0.718920171261,0.0363819599152,0.0995259508491,0.0992088541389,0.0526040308177,-0.0295977145433,-6.49715293548e-05,-0.0878067538142,0.00757203018293,0.502937782876,0.00226631945251,0.358183202442,0.0464333773427,0.92404658183,0.373834363077,0.065036334019
0.0532972179353,-0.247653305531,-0.0314656533301,-2.28595662117,-0.0592442713678,2.18875956535,-0.718692958355,0.0363819599152,0.113848306239,0.0905864611268,0.0826826319098,-0.031953625381,5.88810653426e-05,-0.102463640273,0.0161174274981,0.502477379443,0.00371721115799,0.35692115734,0.0458429737568,0.923665415244,0.375147425922,0.063285313832
0.0555893443525,-0.245643988252,-0.0295955408365,-2.28641963005,-0.0592444017529,2.18691420555,-0.718260705471,0.0363819599152,0.128295168281,0.120855554938,0.114507965744,-0.0163954216987,-2.20572255785e-05,-0.0919049978256,0.0276014842093,0.501965271063,0.0058804108527,0.355391965415,0.0451755336152,0.923075560662,0.377025846303,0.0611734531698
0.0599777325988,-0.242145627737,-0.0255076121539,-2.28672480583,-0.0592453107238,2.1842417717,-0.71693277359,0.0363819599152,0.166190385818,0.107677832246,0.163862034678,-0.00346436817199,0.000103682621557,-0.0788540914655,0.054808806628,0.501359141827,0.00993005122736,0.353272033398,0.0443341334817,0.921961727507,0.380294478909,0.0582852177955
0.0629217177629,-0.240375518799,-0.0226701386273,-2.28668642044,-0.0592446289957,2.18303632736,-0.715848386288,0.0363819599152,0.196286544204,0.119640521705,0.194816634059,0.00485685560852,5.51816356165e-06,-0.0695671960711,0.0765754282475,0.50109430737,0.0127799528953,0.352276365244,0.0439866297023,0.921156755325,0.382483219809,0.0569385174766
0.0669391602278,-0.238165542483,-0.0187036637217,-2.28662467003,-0.0592442676425,2.18185687065,-0.714013040066,0.0363819599152,0.23018117249,0.111987449229,0.219682767987,0.000751775631215,1.59169921972e-05,-0.0577417463064,0.111578390002,0.500796294485,0.0167198572115,0.35107951422,0.0436256295291,0.920075123465,0.385339349302,0.0554270438534
0.0709807500243,-0.236293047667,-0.0147243933752,-2.28663063049,-0.0592446736991,2.18108916283,-0.711942255497,0.0363819599152,0.241931438446,0.108082778752,0.249171718955,0.0034601369407,0.000128752319142,-0.0460485853255,0.132443487644,0.50052126644,0.0206813884444,0.350064805388,0.0433720868581,0.918999479489,0.388093494888,0.0542425818651
0.0846943259239,-0.231023296714,0.000312489835778,-2.28560972214,-0.0592457726598,2.17875099182,-0.702313542366,0.0363819599152,0.306951254606,0.102184928954,0.350610285997,0.0445431359112,-0.000187193538295,-0.0422444120049,0.244691252708,0.499651141833,0.0348779415717,0.347700417083,0.0429907380152,0.915429620536,0.396862918385,0.051383168282
0.0897970795631,-0.229578226805,0.00630382355303,-2.28488278389,-0.0592442564666,2.17808413506,-0.698156416416,0.0363819599152,0.337883234024,0.0851842239499,0.398256748915,0.0504481717944,-0.000214444226003,-0.0437955409288,0.268146783113,0.499348365422,0.0403627442141,0.347266996718,0.0430413494523,0.914086138018,0.400012484526,0.0508329265746
0.095518052578,-0.228086978197,0.0132208736613,-2.28389573097,-0.0592454262078,2.17751407623,-0.693473696709,0.0363819599152,0.334219425917,0.0876248478889,0.406405866146,0.0699201151729,0.000143679106259,-0.0303407460451,0.282926291227,0.499015712114,0.046619074497,0.346945460618,0.0431874312911,0.912517049395,0.403612248667,0.0504443529872
0.103190287948,-0.22626671195,0.0226199459285,-2.28222322464,-0.0592421926558,2.17676210403,-0.686790108681,0.0363944359124,0.360529094934,0.0678947865963,0.450847804546,0.0833399668336,0.000132775894599,-0.0399311035872,0.314329206944,0.498547727841,0.0550828591727,0.34676812452,0.0434594721662,0.910434754789,0.408289425221,0.0501953830918
0.110183924437,-0.225097581744,0.0312034673989,-2.28053212166,-0.0592419691384,2.17601656914,-0.680348694324,0.0363944359124,0.382317870855,0.0664123445749,0.468643546104,0.0977947637439,0.00021258853667,-0.0291303228587,0.373855113983,0.497998562056,0.0632321441478,0.346928882876,0.0438050597013,0.908471645659,0.41259258278,0.0502766953147
0.117916598916,-0.223773449659,0.0409593135118,-2.2784807682,-0.0592404492199,2.17552876472,-0.672669708729,0.0363944359124,0.380914211273,0.0620703361928,0.490794509649,0.109399698675,-0.000189967919141,-0.0214927382767,0.398371428251,0.497418206295,0.0715078873861,0.347185628311,0.0442052078597,0.906532430439,0.41675468094,0.0506002742373
0.124808691442,-0.222879603505,0.0498536489904,-2.27650237083,-0.0592399276793,2.17524337769,-0.664993584156,0.0363944359124,0.393680274487,0.0388902500272,0.497654378414,0.115787640214,0.000142565069837,-0.013194616884,0.45710760355,0.496766424215,0.0798176113642,0.347682207904,0.0446645497611,0.904721207321,0.420545215605,0.0512477934019
0.133366197348,-0.222087129951,0.0610313229263,-2.27384138107,-0.0592391714454,2.17505073547,-0.654475748539,0.0363944359124,0.390419602394,0.0347867533565,0.510818362236,0.121010258794,3.98449919885e-05,-0.00312731042504,0.494299769402,0.495859339488,0.0901276405076,0.348576317556,0.0452814611912,0.90264884474,0.424764753657,0.0524362097242
0.142521858215,-0.221554473042,0.0733379721642,-2.27085280418,-0.0592387504876,2.17500138283,-0.64245146513,0.0363944359124,0.385476648808,0.0133525291458,0.519687831402,0.120707593858,0.000619498023298,-0.000714775058441,0.510113477707,0.494838084415,0.099962517785,0.349620990491,0.0459005898626,0.900746125328,0.428544464312,0.0538441764799
0.149238720536,-0.221495226026,0.0826599374413,-2.26866006851,-0.0592398196459,2.17499113083,-0.632986307144,0.0363944359124,0.36684307456,-0.0035173043143,0.512742459774,0.116413846612,0.000751432671677,-0.00121244473848,0.539224982262,0.493845816986,0.107980294252,0.350609177902,0.0464200079606,0.899273379793,0.431404672443,0.0551595823713
0.160258620977,-0.221715375781,0.0979257673025,-2.26505494118,-0.0592337697744,2.17499375343,-0.6154987216,0.0363944359124,0.344253689051,-0.0117794880643,0.469508141279,0.110219180584,-2.65111120825e-05,-0.000369746965589,0.575573086739,0.491933714905,0.121115980918,0.352378805879,0.0471943857766,0.897257532193,0.435188222762,0.0575571135337
0.166026026011,-0.222011014819,0.105798363686,-2.26323342323,-0.0592365600169,2.17499542236,-0.605822443962,0.0363944359124,0.328156203032,-0.0283544529229,0.455833166838,0.104327462614,1.8737389837e-05,-0.000480189715745,0.560334324837,0.490782612039,0.127920655153,0.353356167324,0.0475627176024,0.896330101398,0.436877291009,0.0588928645822
0.171212434769,-0.222426012158,0.112987808883,-2.2616276741,-0.0592332705855,2.17500257492,-0.596828103065,0.0363944359124,0.320832937956,-0.0271850153804,0.431460469961,0.096880145371,-0.000286464026431,0.00027401704574,0.554475784302,0.489567213374,0.134458409397,0.354346552672,0.0479073720671,0.895483671084,0.438388323684,0.0602457953485
0.17662088573,-0.22292855382,0.12021291256,-2.25994229317,-0.0592360682786,2.17500591278,-0.586674511433,0.0363944359124,0.281946867704,-0.0299165006727,0.376238048077,0.0895969420671,3.19421342283e-05,7.68687823438e-05,0.569916725159,0.488400162409,0.140374282141,0.355299422194,0.0481748968653,0.894917561003,0.439331483817,0.0615596078802
