imanlab/tactile_prediction_flat_dataset/train/data_sample_2021-11-24-16-27-05/robot_state.csv
position_panda_joint1,position_panda_joint2,position_panda_joint3,position_panda_joint4,position_panda_joint5,position_panda_joint6,position_panda_joint7,position_panda_finger,velocity_panda_joint1,velocity_panda_joint2,velocity_panda_joint3,velocity_panda_joint4,velocity_panda_joint5,velocity_panda_joint6,velocity_panda_joint7,ee_state_position_x,ee_state_position_y,ee_state_position_z,ee_state_orientation_x,ee_state_orientation_y,ee_state_orientation_z,ee_state_orientation_w
0.084173053503,0.0226577632129,-0.0873322784901,-2.51960778236,0.0260663367808,2.54929709435,-0.736157596111,0.065181389451,-8.80199877429e-06,-2.28200406127e-05,-0.000370161811588,-4.33357236034e-05,-1.7524103896e-05,3.99222917622e-05,-0.000579969550017,0.463936272481,-0.00051715074844,0.158183732169,-0.00460942699139,0.937368981386,0.348262301975,0.0056137889765
0.0841772034764,0.0226563662291,-0.0873292833567,-2.51960849762,0.0260641332716,2.54929685593,-0.736176371574,0.065181389451,-2.19231296796e-05,-0.000915289274417,2.16322405322e-05,-0.00201796297915,-3.32230520144e-05,-0.000186541859875,-0.000506140233483,0.463936114131,-0.000513910238656,0.158184084781,-0.00460883331952,0.937364151988,0.348275307544,0.00561382807103
0.0841803327203,0.0226543564349,-0.0873280242085,-2.51960992813,0.026064645499,2.54929709435,-0.736186802387,0.065181389451,2.98177528748e-05,0.000331505871145,0.000580970023293,-0.00330804567784,-9.64646824286e-05,-2.67322848231e-05,-0.00172181788366,0.46393581939,-0.00051181515408,0.158184498871,-0.0046089014279,0.937361642715,0.348282052418,0.00561430699666
0.0841794982553,0.02265339531,-0.087326861918,-2.51960968971,0.026066141203,2.54929709435,-0.736193537712,0.065181389451,0.000181014518603,0.000474779342767,0.000345402368112,0.00014371945872,9.87627063296e-05,-0.000131675740704,0.000322096195305,0.463936246376,-0.000511438975196,0.158185070323,-0.00460905552578,0.937360509705,0.34828508533,0.00561520047967
0.0841833129525,0.0226538609713,-0.0873246118426,-2.5196082592,0.026064876467,2.54929852486,-0.736205101013,0.065181389451,-0.000328256021021,0.000314637145493,0.000525222683791,-5.048570074e-06,-7.57171583246e-05,4.32374108641e-05,-0.00319564365782,0.463937036252,-0.00050882832329,0.158185477778,-0.00460834052121,0.937357368297,0.348293535598,0.00561605231621
0.084187194705,0.0226579215378,-0.0873228833079,-2.51960682869,0.026065742597,2.54929757118,-0.736226558685,0.065181389451,0.000278578954749,-0.000111821864266,0.000236527004745,0.00356976292096,0.000110873559606,0.000450323335826,-0.000830959354062,0.463936823403,-0.000506230840312,0.158184049871,-0.00460901185705,0.937352785976,0.348305884581,0.00561445331851
0.0841862484813,0.0226548779756,-0.0873241201043,-2.51960945129,0.0260647889227,2.54929685593,-0.736232817173,0.065181389451,-0.000234055216424,9.80738423095e-06,-0.000353725801688,9.67966334429e-05,-0.000102242840512,-5.2345199947e-05,-0.000618590333033,0.463935875158,-0.000507425800263,0.158184426639,-0.00460898843686,0.937351811916,0.348308509869,0.00561422850729
0.0841862857342,0.0226530712098,-0.0873241722584,-2.51960849762,0.0260648578405,2.5492978096,-0.736243188381,0.0651820451021,-0.000529760727659,-0.000409013940953,6.86696585035e-05,-0.000171509105712,-0.000139774288982,5.63498833799e-05,5.63714866075e-06,0.463936902705,-0.000507227976409,0.158185689162,-0.00460831181658,0.937350137164,0.348312996143,0.00561606839356
0.0841879919171,0.0226481445134,-0.0873238518834,-2.51960659027,0.0260653477162,2.54929852486,-0.736255645752,0.0651820451021,-0.000504369323608,-0.000477306573885,0.000138434756082,6.48297282169e-05,4.09753229178e-05,2.45389292104e-05,-0.000132623608806,0.463939187137,-0.000506273641299,0.158189182302,-0.0046071690415,0.937347703383,0.348319490357,0.0056204341654
0.0841906890273,0.0226497612894,-0.0873235240579,-2.51960921288,0.0260647907853,2.54929947853,-0.736268162727,0.0651820451021,0.00243306159973,0.000687726191245,7.69618127379e-05,-0.000200751586817,1.50288324221e-05,5.21910842508e-05,0.000160131385201,0.463937496167,-0.000504846885098,0.158187100228,-0.00460761716288,0.937344889762,0.348327092902,0.00561814363959
0.0841920375824,0.0226511787623,-0.0873204693198,-2.51960968971,0.0260663833469,2.54929876328,-0.736274957657,0.0651820451021,-0.000229612531257,0.00407174741849,0.000107842519355,-0.0001550448942,3.97526018787e-05,0.000115363698569,-0.000240654611844,0.463936863145,-0.000502729745972,0.158186200736,-0.00460846689318,0.937343172472,0.348331719951,0.00561708246623
0.084192186594,0.0226461198181,-0.0873204469681,-2.51960945129,0.0260654035956,2.54929733276,-0.736298561096,0.0651820451021,2.55231079791e-05,-0.00452544772997,0.000776071334258,-3.38122081303e-05,9.4236303994e-05,-7.65246659284e-05,0.000138383373269,0.463937495603,-0.000502353544361,0.15818824433,-0.004607734402,0.937338778147,0.348343527519,0.00561874438277
0.0841932073236,0.0226426105946,-0.0873218178749,-2.51960921288,0.0260654874146,2.54929876328,-0.736305952072,0.0651820451021,-7.30857645976e-05,-7.31932013878e-05,-0.00365156424232,0.000278969324427,6.93858601153e-05,2.55993782048e-05,-0.000557798834052,0.463938381551,-0.000502858984444,0.158190130067,-0.00460697715625,0.937337810453,0.34834610396,0.00562106743143
0.0841934233904,0.0226450115442,-0.0873214676976,-2.51960635185,0.0260664280504,2.54930090904,-0.736312150955,0.0651820451021,-0.00386577332392,6.62607562845e-05,0.000421577948146,-0.000107003776066,7.34168934287e-05,-0.00012192298891,-0.000589768285863,0.463940038166,-0.000502477545008,0.158190494034,-0.0046065523743,0.937336603284,0.348349331525,0.00562269790654
0.0841942802072,0.0226464010775,-0.0873200669885,-2.51960921288,0.026065165177,2.54929995537,-0.736322760582,0.0651820451021,-0.000126874627313,-0.000377637130441,-0.00034702589619,-0.000719685747754,5.61483720958e-05,-3.11371950374e-05,0.000349644542439,0.463938188427,-0.000501498988738,0.158188693324,-0.00460707989167,0.937334195844,0.348355843657,0.00562014160494
0.0841957256198,0.0226484946907,-0.0873177275062,-2.51960968971,0.0260654948652,2.5493016243,-0.736334562302,0.065181389451,0.000166537021869,-7.52730120439e-05,0.000233425118495,0.000224090050324,-1.93990963453e-05,1.17267754831e-05,-0.000111591689347,0.46393795644,-0.000499759133337,0.158187694579,-0.0046072237966,0.937331534825,0.348363008192,0.00561974387675
0.084197409451,0.0226443558931,-0.0873155817389,-2.5196082592,0.0260650590062,2.54929876328,-0.736342072487,0.065181389451,6.48004861432e-05,0.00384402857162,-0.000375725503545,-1.07836021925e-05,-4.26880660598e-06,-8.2418875536e-05,0.00018110180099,0.46393875287,-0.000497917308411,0.158189884901,-0.00460684767159,0.93732948215,0.348368515134,0.0056210494748
0.0842001438141,0.0226374659687,-0.0873175859451,-2.51960873604,0.0260653626174,2.54930186272,-0.736347556114,0.065181389451,6.66461928631e-05,0.000452389591374,-0.000315679848427,-6.57935888739e-05,-3.80070123356e-05,9.25213498704e-06,8.45580216264e-05,0.463940397864,-0.000497489810258,0.158193170772,-0.00460547575256,0.937328422273,0.348371311225,0.00562561940781
0.0841992795467,0.0226389765739,-0.0873166173697,-2.51960778236,0.026064876467,2.54930019379,-0.736355185509,0.065181389451,-0.00373508874327,0.000134771675221,0.000137058057589,-0.00041775291902,-9.10757444217e-05,7.83466166467e-05,-0.000161193136591,0.463940235794,-0.000497473720634,0.158192678892,-0.00460568308713,0.937327008302,0.348375130413,0.00562453429415
0.0841979086399,0.022643469274,-0.0873182192445,-2.51961159706,0.0260656960309,2.54930090904,-0.736367225647,0.0651820451021,-7.16100767022e-05,-0.00016284440062,-0.00023245747434,0.000383564562071,-2.18972891162e-05,0.000161514035426,-0.000330816284986,0.463937744511,-0.000498886441838,0.158189240145,-0.00460697762112,0.937325570755,0.348379037654,0.00562102980062
0.0841994509101,0.0226415805519,-0.0873185098171,-2.51961231232,0.0260648839176,2.54930114746,-0.736372888088,0.0651820451021,0.000118674826808,-0.000495607033372,-9.70409746515e-06,-5.80701344006e-05,-5.31109290023e-05,-3.12046067847e-05,0.000281288783299,0.463937775624,-0.000498320056214,0.158189866565,-0.00460657765643,0.93732424711,0.348382594355,0.00562164200345
0.0842016562819,0.0226372983307,-0.0873157158494,-2.51960921288,0.0260657221079,2.54930210114,-0.736397147179,0.0651820451021,0.000149964020238,3.81399295293e-05,-0.000189447513549,-0.00036470030318,2.78382576653e-05,8.28802076285e-05,-0.00134437624365,0.463940247491,-0.000495894373515,0.158193089666,-0.00460547715273,0.9373192468,0.348395995866,0.00562573628239
0.0842026025057,0.0226407721639,-0.087316557765,-2.51960992813,0.026066083461,2.54930090904,-0.73640525341,0.0651820451021,-0.000120931494166,-0.00311387050897,-0.000180345203262,0.000510490150191,-4.09987405874e-05,-8.02013382781e-05,-0.00207289401442,0.463939033283,-0.000495874164656,0.158191110381,-0.00460635303404,0.937317881334,0.348399698394,0.00562322753837
0.0842029005289,0.0226380247623,-0.0873166248202,-2.51961183548,0.0260644853115,2.54930305481,-0.73641204834,0.0651820451021,0.000113850335765,-0.000814095663372,0.00155222578906,4.58101203549e-05,8.32453370094e-05,0.00243905582465,-2.09264944715e-05,0.463939045997,-0.000495818055286,0.15819185756,-0.00460548386867,0.937316426271,0.34840360385,0.00562450636296
0.0842022225261,0.0226330664009,-0.0873171016574,-2.51960706711,0.0260656401515,2.54930210114,-0.736418783665,0.0651820451021,-0.000447668484412,-0.000212027342059,-0.000414123031078,0.00038119617966,0.000102442601928,3.9014244976e-05,0.000411347253248,0.463942033577,-0.000496223378612,0.158195850325,-0.00460443275451,0.937315589361,0.348405799653,0.00562881820279
0.084202490747,0.022629795596,-0.0873166620731,-2.51960587502,0.0260648522526,2.54930210114,-0.736431181431,0.0651820451021,0.00113986327779,0.000298398372252,-0.000311545882141,-0.000284238951281,4.61058007204e-05,1.25299256979e-05,-0.000344444997609,0.463943185315,-0.000495884941457,0.158197807637,-0.00460355037216,0.937313180451,0.348412258296,0.00563089967651
0.084203466773,0.0226319879293,-0.0873173177242,-2.51960897446,0.0260652080178,2.54930138588,-0.73643630743,0.0651820451021,0.000149577026605,-0.00314959813841,-0.000160321375006,-0.00019842920301,2.31504745898e-05,-0.000140527408803,-1.85871067515e-05,0.463941132931,-0.000495746474551,0.158195570749,-0.00460459412638,0.93731229909,0.348414660707,0.00562810610601
0.084203183651,0.0226360522211,-0.0873147696257,-2.51961159706,0.0260636806488,2.54930186272,-0.736441850662,0.0651820451021,-8.66193004185e-05,0.000114504837256,0.000246014096774,-7.6001349953e-05,-7.32064290787e-05,-0.00245860498399,-0.000474117725389,0.463939245399,-0.00049482194528,0.158192749732,-0.00460513072122,0.937310741323,0.348418894449,0.00562500209762
0.084202311933,0.0226340759546,-0.0873163416982,-2.51961064339,0.0260657519102,2.54930233955,-0.736448526382,0.0651820451021,0.000253750011325,-0.000907345325686,-0.000178875096026,0.000107753519842,-2.54233200394e-05,0.000553725694772,-9.46163709159e-05,0.463940161764,-0.000495834546456,0.158194065658,-0.00460510830705,0.937310290114,0.34842007876,0.00562684874497
0.0842059403658,0.0226294063032,-0.0873162150383,-2.5196082592,0.0260661542416,2.54930210114,-0.736459612846,0.0651820451021,0.000260633591097,0.000496781780384,-0.000344778265571,-3.23919921357e-05,-2.02206283575e-05,-0.00501305516809,2.67848395197e-06,0.463942090947,-0.000494003748024,0.158197095513,-0.00460419318191,0.937307740501,0.348426896162,0.00563016145163
0.0842055231333,0.0226318575442,-0.087316557765,-2.51961040497,0.0260652098805,2.54930233955,-0.736466944218,0.0651820451021,-0.000371845788322,0.00262605911121,0.000516995380167,-9.20795719139e-05,8.52029097587e-06,5.27368465555e-05,-0.000198255918804,0.463940534996,-0.00049462201315,0.158194937596,-0.00460459968338,0.937306515157,0.34843022499,0.00562781544036
0.0842028185725,0.0226333774626,-0.0873177871108,-2.51961183548,0.0260643325746,2.54930210114,-0.73647081852,0.065181389451,-0.000221838752623,0.000431416876381,9.79523829301e-05,8.92648095032e-05,-3.07365953631e-05,-0.000136743561598,-0.00019547874399,0.463939646915,-0.000496332737766,0.158193921354,-0.00460481600748,0.937306369581,0.348430636259,0.00562642112117
0.0842039212584,0.0226321108639,-0.0873163938522,-2.51961159706,0.0260652508587,2.54930281639,-0.736478745937,0.065181389451,0.000435755180661,-0.000253176316619,8.19344568299e-05,-0.000139050767757,-0.000146552265505,6.22604275122e-05,0.00033474637894,0.463940142107,-0.00049511045756,0.15819465946,-0.00460471135875,0.937304679612,0.348435164965,0.00562758499948
0.0842090174556,0.022627517581,-0.0873159989715,-2.51960515976,0.0260660722852,2.54930520058,-0.736487567425,0.065181389451,0.000253273785347,0.000151245869347,-0.000119654854643,-0.000261317065451,-5.14191924594e-05,-3.9396531065e-05,0.000310101895593,0.463944613124,-0.000492473924322,0.15819940609,-0.00460273116775,0.937302267818,0.348441575057,0.00563400990383
0.0842054635286,0.0226290002465,-0.0873151645064,-2.51960945129,0.0260659046471,2.54930710793,-0.736495792866,0.065181389451,-9.71158297034e-05,-0.000356681208359,0.000559620268177,-0.000537712301593,-4.72565516247e-05,3.64135412383e-05,0.000180933857337,0.463942671428,-0.000493771580738,0.158197284139,-0.00460326417347,0.937301301611,0.348444196621,0.00563218297685
0.08420586586,0.0226308740675,-0.0873142257333,-2.51961135864,0.0260642580688,2.54930591583,-0.736499905586,0.065181389451,-0.00206135422923,0.000500737689435,-0.000297856779071,-2.57320443779e-05,-0.000109377848275,-0.000114604998089,0.000482695904793,0.463941150751,-0.000493245172995,0.158195595358,-0.00460364393681,0.937300129001,0.348447386377,0.00562967589505
0.0842072889209,0.0226316079497,-0.0873157605529,-2.51961159706,0.0260636806488,2.54930400848,-0.736504673958,0.065181389451,0.000482731411466,-0.000306221074425,0.000514362589456,0.000215505220694,-4.03376398026e-05,6.41646183794e-05,-0.000364814128261,0.463940489783,-0.000493329500544,0.158194997112,-0.004603957087,0.937299239382,0.348449797904,0.00562827321197
0.0842021629214,0.0226261969656,-0.0873202756047,-2.5196082592,0.0260646473616,2.54930639267,-0.736517190933,0.065181389451,0.000255171995377,-4.72297833767e-05,0.000182987292646,-3.31446244672e-05,-5.29392236785e-05,0.000155890564201,-1.76740741153e-05,0.463943582357,-0.000497710613882,0.158198965968,-0.00460234301302,0.937298848093,0.348450784316,0.00563368427371
0.0842039585114,0.022626567632,-0.087319098413,-2.5196082592,0.0260655879974,2.5493080616,-0.736521601677,0.065181389451,0.000138297953526,-8.6674146587e-05,0.000463202595711,8.05328527349e-05,1.51538060891e-05,-4.65264929517e-05,-4.45152218163e-05,0.463943884315,-0.000496296926358,0.158198943586,-0.00460233752481,0.937297695976,0.348453872156,0.00563438309782
0.0842085406184,0.0226300694048,-0.0873164981604,-2.51961064339,0.0260653011501,2.54930830002,-0.73652690649,0.065181389451,0.000799262197688,-7.81694470788e-05,-0.000542263791431,-0.000321075553074,5.12897277076e-05,-0.000104088729131,0.00283216591924,0.463942163214,-0.000493020099326,0.158196451211,-0.00460314060794,0.937295497357,0.348459819435,0.00563166551373
0.0842117741704,0.0226281415671,-0.0873132497072,-2.51961112022,0.0260654743761,2.54930758476,-0.736535608768,0.0634156167507,-0.000176264162292,3.40266233252e-05,0.000166909114341,0.00024902264704,-0.000118418072816,-6.88183863531e-05,0.000220222951612,0.463942112093,-0.000489958510297,0.158197097035,-0.0046031729533,0.937292872567,0.348466872588,0.00563207140793
0.0842078998685,0.0226253755391,-0.0873185992241,-2.51960611343,0.0260647479445,2.54930782318,-0.73655384779,0.0634156167507,-0.000196576074813,-0.00021616925369,-0.000494391890243,-1.87124860531e-05,8.42111330712e-05,3.41093727911e-05,0.000331981602358,0.463945089904,-0.00049425878477,0.158200275573,-0.00460155231064,0.937291174047,0.348471401788,0.00563583101506
0.0842057913542,0.0226265005767,-0.0873190760612,-2.51960873604,0.0260653588921,2.54930758476,-0.736558318138,0.0634156167507,0.000199578877073,0.000573761761189,-0.000348932255292,-0.000392591551645,-9.67726373347e-05,-7.31712061679e-05,-0.00070654618321,0.463943559439,-0.00049544295307,0.158198753227,-0.0046023429866,0.937290944482,0.348472037971,0.00563402780618
0.0842064172029,0.0226270481944,-0.0873191952705,-2.51961016655,0.0260669905692,2.54930734634,-0.736566483974,0.0634156167507,0.000118485251733,0.00257281586528,0.000350895745214,0.000215980675421,0.000138800314744,-4.42002310592e-05,0.00033590910607,0.46394271496,-0.0004951334241,0.158197944372,-0.00460311585723,0.937289672297,0.348475463476,0.00563316709366
0.0842066332698,0.0226264987141,-0.0873169600964,-2.51960968971,0.0260664392263,2.54930734634,-0.736578643322,0.0634156167507,-0.000176246001502,0.000332029012498,0.000345776847098,0.000392529444071,5.90778563492e-06,-0.00451808795333,-0.000707177037839,0.463943043577,-0.000494007076764,0.158198374528,-0.00460281118573,0.937287044803,0.348482527102,0.00563362796557
0.0842119157314,0.0226260349154,-0.0873162597418,-2.51960968971,0.026065710932,2.5493080616,-0.736611783504,0.0634156167507,0.000216621236177,0.000177700509084,-0.000324850523612,1.76902303792e-05,7.9723795352e-05,8.74684628798e-05,0.000136636328534,0.46394328232,-0.00049126240579,0.158198651879,-0.00460235677723,0.937280122176,0.348501142977,0.00563417386797
0.0842121765018,0.0226252898574,-0.0873152762651,-2.51960968971,0.0260647945106,2.5493080616,-0.736624419689,0.0634156167507,0.000667115382385,-3.37913297699e-05,1.78566242539e-05,0.00010417951853,4.09065978602e-05,0.000106232975668,0.000493245606776,0.463943411269,-0.000490715546757,0.158198994834,-0.00460199577325,0.937277570594,0.348508005283,0.00563446863546
0.084208458662,0.0226255301386,-0.0873166322708,-2.51961183548,0.0260650999844,2.54930925369,-0.736644148827,0.0634156167507,-0.000905463530216,-0.000362044578651,-0.00043825560715,-0.000395918003051,1.74584693013e-05,-0.000129392094095,-0.00367183284834,0.463942578974,-0.000493069312359,0.15819818865,-0.00460217881533,0.937275067222,0.348514743165,0.00563398590764
0.0842079371214,0.0226245746017,-0.087320305407,-2.51960897446,0.0260651782155,2.54931116104,-0.73668128252,0.0634156167507,0.000191074985196,0.00104950624518,-0.000201309536351,-0.000403432903113,-7.83627765486e-05,7.84568692325e-06,-0.00485767330974,0.46394455963,-0.000495026172988,0.158199875458,-0.0046010575439,0.937269325464,0.348530154229,0.00563676262521
0.084209382534,0.0226271767169,-0.0873173028231,-2.51960945129,0.0260662343353,2.54931497574,-0.736778438091,0.0634156167507,0.000274975958746,-0.000110013796075,0.000449463870609,-0.000492138846312,0.000266282586381,-1.96137498278e-05,-0.0029123283457,0.463944708435,-0.000492961818795,0.15819883363,-0.00460082953089,0.937251776141,0.34857733725,0.00563738683085
0.0842104405165,0.022626709193,-0.0873167812824,-2.51960897446,0.0260656364262,2.54931473732,-0.736799120903,0.0634156167507,-0.000107434156234,-8.38896085043e-05,0.000350657908712,-0.000405227183364,0.000134281042847,-6.82943064021e-05,-0.00109936844092,0.463944970813,-0.000492248387624,0.158199206059,-0.00460052276187,0.937247807969,0.348588005486,0.00563770918468
0.0842108279467,0.0226257126778,-0.0873162746429,-2.5196120739,0.0260669570416,2.54931354523,-0.73681807518,0.0630334317684,0.000214910498471,-4.31063199358e-05,-0.000143126191688,-0.000354643329047,-3.51153466909e-05,-0.000106234489067,0.000443497759989,0.463943370858,-0.000491741844068,0.158198400099,-0.00460145504997,0.93724454423,0.348596790039,0.00563636253818
0.0842100307345,0.0226239394397,-0.0873173847795,-2.51960921288,0.0260666143149,2.54931330681,-0.736851215363,0.0630334317684,6.17242258159e-05,-7.32308253646e-05,0.000149865765707,4.81107999803e-05,4.52250387752e-05,-6.40632788418e-05,0.000291069591185,0.463945025333,-0.000492622438317,0.158200270227,-0.00460055796403,0.937239037187,0.348611573509,0.00563848743194
0.0842137411237,0.0226253569126,-0.0873179808259,-2.51961708069,0.0260642766953,2.54931235313,-0.736859738827,0.0630334317684,0.000457910442492,0.00120051146951,0.000370298977941,-0.00062008126406,-3.92430192733e-05,2.56605994764e-06,-0.00128707766999,0.463941002827,-0.000491343483384,0.158196884653,-0.00460173063956,0.937236940249,0.348617270247,0.0056338689739
0.0842100977898,0.022623013705,-0.0873161926866,-2.51961874962,0.0260671488941,2.54931282997,-0.736866891384,0.0630334317684,0.000139710027725,-0.000764269498177,0.000324056833051,0.000170617102413,2.70809159701e-05,4.40735166194e-05,-0.00019215157954,0.463940421237,-0.000491983339987,0.158197084736,-0.0046023104423,0.937236189058,0.348619274519,0.00563433926966
0.0842115357518,0.0226228348911,-0.0873190537095,-2.51961302757,0.0260649137199,2.54931282997,-0.736873090267,0.0630334317684,-7.72346174926e-06,0.000214676590986,-0.000336404249538,0.000654077157378,4.42947894044e-05,-0.000152828535647,-0.000492994848173,0.463943247206,-0.000492766297197,0.158199310543,-0.00460064371646,0.937235019238,0.348622400321,0.00563688498159
0.0842118933797,0.0226233229041,-0.0873166546226,-2.51961565018,0.0260653104633,2.54931259155,-0.736882567406,0.0630334317684,0.000322928390233,-4.67346435471e-05,0.000555577571504,-0.000480057147797,0.000110282249807,-2.24580544455e-05,0.000239681015955,0.463941622248,-0.000491198514783,0.158197969464,-0.00460148959469,0.937232863965,0.348628209593,0.0056352604291
0.084214232862,0.0226246491075,-0.0873164609075,-2.51961708069,0.0260667540133,2.54931235313,-0.73688685894,0.0630334317684,-0.000120782169688,-6.52995950077e-05,6.21299695922e-05,-0.000107754000055,9.93137728074e-05,-0.000134993635584,-0.000205040720175,0.463940849677,-0.00049023203692,0.158196910808,-0.00460217379985,0.93723197801,0.348630600939,0.00563410750021
0.0842146277428,0.0226243324578,-0.0873159393668,-2.51961684227,0.0260662101209,2.54931235313,-0.736895799637,0.0630334317684,-1.60968465934e-05,0.000249662261922,-0.000180384362466,0.000150422667502,-2.76427726931e-05,8.98040962056e-05,0.000375049741706,0.463941021003,-0.000489827179967,0.158197145623,-0.00460193024426,0.93723018048,0.348635432761,0.0056343362698
0.0842127278447,0.0226236917078,-0.0873168706894,-2.51961779594,0.026065710932,2.54931282997,-0.736899375916,0.0630334317684,0.000218318964471,4.36592708866e-05,0.000261145731201,-0.000400794902816,-7.08113657311e-05,-1.94670283236e-05,-0.000430248677731,0.463940768797,-0.000491161784145,0.158197128028,-0.004601764494,0.937229980239,0.348635972532,0.00563438090061
0.0842124670744,0.0226213503629,-0.087317571044,-2.51961421967,0.0260666254908,2.54931354523,-0.736908435822,0.0495862141252,0.000104250357253,-0.000297706981655,0.000352638482582,0.0002308596886,2.24618670472e-05,0.000114557558845,0.00019030222029,0.463943081913,-0.000491538325964,0.158199614315,-0.00460089188445,0.937228680207,0.348639426375,0.0056376285339
0.0842126011848,0.0226220618933,-0.0873175114393,-2.51961612701,0.0260656569153,2.54931282997,-0.736913025379,0.0495862141252,0.00186463352293,0.000706454506144,-0.000107259635115,-7.38721792004e-05,-0.000190653270693,-0.000108487831312,-0.000186243472854,0.463941868328,-0.000491500243886,0.158198506705,-0.00460119058315,0.937227716787,0.348642039101,0.00563597274354
0.0842142701149,0.0226267687976,-0.0873160585761,-2.51962280273,0.0260654948652,2.5493118763,-0.736917257309,0.0495862141252,-0.000353390350938,0.000782495772,6.30939102848e-05,0.000713703164365,-6.18902922724e-05,4.29903375334e-05,0.000372192065697,0.463937577635,-0.000490112217161,0.158193745159,-0.00460314351946,0.937226447444,0.348645519999,0.00563012892487
0.0842135101557,0.0226218663156,-0.0873156115413,-2.51961255074,0.0260654184967,2.54931616783,-0.736922502518,0.0495862141252,0.000431445863796,0.0014425595291,-0.00013791724632,-0.000193268657313,-7.69579055486e-05,0.0012444970198,-0.000278384570265,0.463944379736,-0.000490223171494,0.158200232868,-0.00459985507823,0.937225527372,0.348647888711,0.00563928706433
0.0842117741704,0.0226195752621,-0.0873182341456,-2.5196185112,0.026067296043,2.54931879044,-0.736933410168,0.0495862141252,-0.0004115938209,-4.11978544435e-05,-0.000439611758338,0.000439275085228,0.000136367962114,-1.73071348399e-05,5.31700825377e-05,0.463942438436,-0.000492141720484,0.158199299006,-0.00460052699867,0.937224664009,0.348650204763,0.00563903624339
0.0842115879059,0.0226213987917,-0.0873192697763,-2.51961970329,0.0260662473738,2.54931783676,-0.736935973167,0.0495862141252,-0.000222983173444,0.00106539193075,-0.000400623132009,0.000786337186582,1.27944404085e-05,7.76089000283e-05,-0.000250442913966,0.463941328348,-0.00049278387082,0.1581979247,-0.00460086248734,0.93722429041,0.348651236645,0.00563705613333
0.0842093452811,0.0226209629327,-0.0873188748956,-2.51961565018,0.0260663833469,2.54931807518,-0.736935794353,0.0495862141252,0.00303882570006,0.00044848350808,4.25810758315e-05,0.00074726116145,1.54546032718e-05,-3.55921147275e-05,0.00033640107722,0.463943436836,-0.000493631182202,0.158199664507,-0.00460008240373,0.937224648854,0.348650247219,0.00563929272894
0.0842108130455,0.0226213485003,-0.0873174071312,-2.51961731911,0.0260651446879,2.54931712151,-0.736939370632,0.0495862141252,0.000619961938355,-0.000178854272235,-6.18441554252e-05,-0.000500895781443,0.000105657090899,6.63016226099e-06,-0.00312953814864,0.463942345095,-0.000492322803327,0.15819877405,-0.00460029505693,0.937223343952,0.348653776907,0.00563776299753
0.0842117443681,0.0226230695844,-0.0873195230961,-2.51961660385,0.0260664187372,2.54931664467,-0.736944019794,0.0495862141252,0.0036525442265,4.407684537e-05,0.00054439692758,0.000311482319376,1.60106883413e-05,-5.43441492482e-05,-0.0006042754394,0.463942292553,-0.000492840527318,0.158198206213,-0.00460078270076,0.937222924877,0.348654906352,0.00563718427685
0.0842120200396,0.022621139884,-0.0873177573085,-2.51961779594,0.0260663665831,2.54931640625,-0.736944496632,0.0495862141252,3.64321422239e-05,-9.17297948035e-05,0.00123139948118,-0.00046950954129,3.0605304346e-05,-1.2936492567e-05,-1.6361966118e-05,0.463941994218,-0.000491858385778,0.158198629023,-0.00460078739727,0.937222476523,0.348656107353,0.005637441457
0.0842109397054,0.0226210597903,-0.08732085675,-2.51961898804,0.0260666627437,2.54931807518,-0.736949265003,0.0495862141252,0.000433430599514,4.35632246081e-05,-0.000334721902618,0.00041214065277,0.000171626161318,9.49317400227e-05,-0.00023410769063,0.463941789027,-0.000493803597567,0.15819837218,-0.00460069448995,0.937222418778,0.348656259008,0.00563773804837
0.0842094868422,0.0226202290505,-0.0873193591833,-2.51962041855,0.0260662008077,2.54931688309,-0.736949086189,0.0495862141252,-0.00075453473255,-0.00110543356277,7.25842473912e-05,0.000110391352791,0.000105732993688,7.8554803622e-06,-0.00217873905785,0.463940973161,-0.000493778793237,0.158198112335,-0.00460095205207,0.937222378935,0.34865637671,0.00563687223292
0.0842114835978,0.0226212050766,-0.0873208418489,-2.51961731911,0.0260653570294,2.54931688309,-0.736950933933,0.0435974150896,0.000122525860206,-0.000255968130659,2.20042420551e-05,0.000284190027742,-1.74548204086e-05,4.92971339554e-05,0.00017992669018,0.463942318072,-0.00049360422694,0.158198822204,-0.00460029781771,0.937221840008,0.348657819586,0.00563776554753
0.0842112004757,0.0226224865764,-0.0873204767704,-2.51961779594,0.0260658599436,2.54931735992,-0.736953556538,0.0435974150896,-0.000401248864364,0.000780434987973,0.000656322867144,0.000224426388741,1.06752022475e-05,-0.00013928617409,-0.000257978099398,0.463941966364,-0.000493561631977,0.158198094005,-0.00460059342962,0.937221445346,0.348658885636,0.00563720466841
0.0842122137547,0.0226214975119,-0.0873191952705,-2.51961708069,0.0260655991733,2.54931712151,-0.736953675747,0.0435974150896,0.000580298830755,0.00259281997569,8.1867830886e-05,0.000585238216445,6.83602138452e-06,-0.000363798288163,3.87804029742e-05,0.463942436648,-0.000492489382976,0.158198796301,-0.00460033109789,0.937220982223,0.348660123125,0.00563787746925
0.0842118933797,0.0226236507297,-0.0873186141253,-2.51961922646,0.0260660741478,2.54931735992,-0.736957132816,0.0435974150896,0.000560035114177,-0.000196853245143,0.000201669361559,0.000594948476646,-3.23187668982e-05,-2.91753476631e-05,8.66622867761e-05,0.463941065167,-0.00049237435897,0.15819701884,-0.00460107463256,0.93722041494,0.34866166849,0.0056360042451
0.0842126682401,0.0226218141615,-0.0873220339417,-2.51961946487,0.0260652676225,2.54931759834,-0.736957907677,0.0435974150896,-0.000212420913158,0.00145304889884,-2.38455249928e-05,-0.000194010019186,-3.06192237076e-06,-0.000108889849798,0.000103040656541,0.463941319411,-0.000493628600171,0.158197802452,-0.00460056782141,0.937220621038,0.34866110826,0.00563680317886
0.0842107757926,0.0226222164929,-0.0873192548752,-2.51961970329,0.0260661393404,2.54931688309,-0.736960530281,0.0435974150896,-0.000155321700731,0.000207759105251,3.07487316604e-05,0.000368205161067,4.02500882046e-05,5.08850462211e-05,-0.000478676374769,0.463940977221,-0.000493164802799,0.158197461246,-0.00460104997784,0.937220135946,0.348662414517,0.00563626702039
0.0842093750834,0.0226212199777,-0.0873233303428,-2.51961636543,0.0260665211827,2.54931640625,-0.73696321249,0.0435974150896,0.000177548383363,0.00475492607802,-0.000417433970142,-0.000183226758963,-6.56126285321e-05,-0.000128612417029,-0.000114933187433,0.46394267757,-0.000495687024932,0.158199132577,-0.00460045050458,0.937220664225,0.348660972214,0.00563813322172
0.0842109844089,0.0226217899472,-0.0873227119446,-2.51961517334,0.0260672830045,2.54931664467,-0.736964166164,0.0435974150896,3.51231246896e-05,0.000183103999007,-7.70521583036e-05,-0.000157276910613,9.11872266443e-05,9.41315156524e-05,0.000116054063255,0.46394321492,-0.000494624477072,0.158199336627,-0.0046004827231,0.937220216086,0.348662168799,0.00563860388571
0.084214836359,0.0226247850806,-0.0873181447387,-2.51962065697,0.0260656457394,2.54931592941,-0.736967802048,0.0435974150896,0.000133938316139,0.00310371187516,0.000267264374997,-0.0006156853633,-7.11161919753e-05,3.86233368772e-05,-0.000226404648856,0.463939857008,-0.000490816783223,0.158195830219,-0.00460161690197,0.937217907644,0.348668431794,0.00563409885157
0.0842137634754,0.0226205810905,-0.0873188376427,-2.51962184906,0.0260662846267,2.54931688309,-0.73696821928,0.0435974150896,8.55717953527e-05,-0.000526646792423,-0.000518623797689,0.000672523339745,0.000243208181928,0.000127938823425,-0.00163128552958,0.463940214812,-0.000491550681342,0.158197413691,-0.00460123796838,0.937218224499,0.348667553133,0.00563607621219
0.084212757647,0.0226146504283,-0.0873202458024,-2.51961636543,0.0260669719428,2.54931688309,-0.736972153187,0.0435974150896,4.1519801016e-05,0.000417093833676,0.000229095254326,-9.61112818914e-05,-2.92071854346e-05,8.97664504009e-05,-0.000800377049018,0.463943928653,-0.000492559197333,0.158202209622,-0.0045996240856,0.937218022444,0.348668028546,0.00564157949358
0.0842083990574,0.0226210970432,-0.0873256102204,-2.51961874962,0.0260657649487,2.54931759834,-0.736973404884,0.0435974150896,-0.000144326215377,0.000418961048126,0.000332589901518,-0.000397019699449,-1.36942355766e-06,-2.3123837309e-05,-0.000148766848724,0.463941791886,-0.000497247628782,0.158198405202,-0.00460037107187,0.937219353629,0.348664505196,0.00563757680871
0.0842070057988,0.0226240623742,-0.0873282179236,-2.51961922646,0.0260665901005,2.54931664467,-0.73697322607,0.0435974150896,-0.000386667699786,0.000313166645356,-0.0011776117608,-0.000165431134519,5.1930994232e-05,-0.000116800903925,0.000336065131705,0.463940833975,-0.000499110199704,0.158196773425,-0.00460120692409,0.937220210914,0.348662222232,0.00563556771209
0.0842078775167,0.0226230062544,-0.0873266085982,-2.51961970329,0.0260661803186,2.54931759834,-0.736975431442,0.0435974150896,-1.43469492286e-06,-0.000368609616999,-0.000245098577579,0.000372619746486,-4.18218041887e-05,1.33268094942e-05,-0.000833485682961,0.4639409932,-0.000497963480693,0.158197166813,-0.00460088284436,0.937219333292,0.348664574425,0.00563625835386
0.0842169299722,0.0226139295846,-0.0873210504651,-2.51961922646,0.026066057384,2.54931616783,-0.736976563931,0.0435974150896,1.62032356457e-05,-0.000229534765822,2.6376619644e-05,-0.00033962240559,8.47130140755e-05,-1.86433608178e-05,3.02347889374e-05,0.463942500267,-0.000491027430179,0.158201407934,-0.00459991225793,0.937216543208,0.348672023828,0.00564016234343
0.0842164009809,0.0226105563343,-0.0873228758574,-2.51961731911,0.0260657928884,2.54931664467,-0.736977219582,0.0435974150896,-0.000329503323883,-0.000211199527257,-0.000128342202515,0.000263076799456,0.000116870156489,-0.000143426339491,-0.000286956405034,0.463944123446,-0.000492094696956,0.158203725411,-0.00459893783381,0.93721678522,0.348671342262,0.00564287547819
0.0842086821795,0.0226139035076,-0.0873260572553,-2.51961779594,0.0260666124523,2.54931664467,-0.736978888512,0.042925644666,0.000228057047934,-4.17781848228e-06,-0.000412949826568,0.000363156868843,0.000137380935485,-0.000121042678074,-0.000198332971195,0.463943303998,-0.000497172427391,0.158202003007,-0.00459961536422,0.937218523012,0.348666690197,0.00564114295172
0.0842073559761,0.0226212833077,-0.0873280614614,-2.51961922646,0.0260667335242,2.54931688309,-0.736977994442,0.042925644666,0.000146164064063,-0.000444568693638,0.000228217017138,-0.000134716028697,6.46352930289e-07,-9.93059293251e-05,-0.000642890983727,0.463941370459,-0.000498828185631,0.158198079359,-0.00460081658153,0.937219303298,0.348664643261,0.00563704169536
0.0842116475105,0.0226153265685,-0.0873263254762,-2.51961898804,0.0260662734509,2.54931735992,-0.736982107162,0.042925644666,0.000147330531036,-0.000149135812535,-0.00144870998338,7.22326367395e-05,2.43066642724e-05,-7.60384646128e-05,-0.000170974453795,0.46394263051,-0.000495963494012,0.158200963002,-0.00459979007749,0.937217450992,0.348669584774,0.00564019747651
0.084212988615,0.0226120688021,-0.0873254835606,-2.51962018013,0.0260672345757,2.54931521416,-0.736981272697,0.042925644666,-8.46791735967e-05,-0.000121145123558,-0.000460296403617,-0.000203717965633,0.000110058696009,-2.66937095148e-05,-0.000425281614298,0.463942076277,-0.000494779954372,0.158201858191,-0.00460020956601,0.937217269322,0.348670065811,0.00564030580886
0.0842112079263,0.022609334439,-0.0873257219791,-2.51961922646,0.0260651782155,2.54931783676,-0.736982226372,0.042925644666,0.000465578952571,0.000128406725707,0.00217200466432,-1.15536215617e-06,5.50476033823e-05,-0.000132252229378,0.000474179920275,0.463943630949,-0.000495549622915,0.158203605927,-0.00459873388097,0.937217184585,0.348670269168,0.00564301785649
0.0842103883624,0.0226188320667,-0.0873256474733,-2.51962089539,0.0260657072067,2.54931664467,-0.736984968185,0.0427549108863,-0.000196013046661,-0.000106863088149,-6.44574756734e-05,0.00036387599539,2.42472942773e-05,3.71949790861e-05,-0.000118578987895,0.463940930169,-0.000496303800998,0.158198563563,-0.00460057869159,0.937216989697,0.3486708622,0.0056372367459
0.0842099636793,0.0226158834994,-0.087327092886,-2.51961755753,0.0260667707771,2.54931712151,-0.736984789371,0.0427549108863,9.55816649366e-05,-1.83461979759e-05,0.000445706245955,4.72398169222e-05,8.02483846201e-05,4.78914589621e-05,-8.37249099277e-05,0.46394318042,-0.000497086922171,0.158201220711,-0.00459976492619,0.937217478948,0.348669504284,0.00564054827431
0.0842102468014,0.0226151272655,-0.0873270407319,-2.51961922646,0.0260653253645,2.54931688309,-0.736986339092,0.0427549108863,0.000929765461478,-0.000682800193317,-0.000106418083305,-0.000203454168513,4.96595130244e-05,9.84513171716e-05,0.000592545664404,0.463942442626,-0.000496988362483,0.158200923232,-0.0045996202552,0.937216947291,0.348670946143,0.00563987641403
0.084213860333,0.0226143617183,-0.0873257368803,-2.51961827278,0.0260653421283,2.54931783676,-0.736987531185,0.0427549108863,-0.000392427056795,-4.57332243968e-05,0.000384134269552,0.000211895196117,2.06159093068e-05,2.08475939871e-05,0.000247810909059,0.463943252372,-0.000494696866023,0.158201718347,-0.00459920166471,0.937215878749,0.34867380356,0.00564113125347
0.0842145606875,0.0226167533547,-0.087327234447,-2.51962041855,0.0260667111725,2.54931712151,-0.736989140511,0.0427549108863,-0.000201978997211,0.000805672665592,-7.48004895286e-05,-0.000125812875922,-4.26585975219e-05,0.000114781425509,0.000354025250999,0.463941772156,-0.000494725550207,0.158199897779,-0.00460028433579,0.93721585436,0.348673890181,0.00563894607443
0.0842135921121,0.0226140134037,-0.0873244479299,-2.51962137222,0.0260634496808,2.54931712151,-0.736991047859,0.0427549108863,0.000409265892813,0.00068266002927,-7.28909217287e-05,8.61836742843e-05,0.000113437585242,-2.91657397611e-06,0.000433199951658,0.463941639512,-0.000494299368899,0.158200652722,-0.00459934481661,0.937214826905,0.348676658043,0.00563933321471
0.084213078022,0.0226157736033,-0.0873238742352,-2.51962423325,0.0260663107038,2.54931616783,-0.736991405487,0.0427549108863,-0.000993801280856,0.000359282945283,0.000160624695127,0.000179918366484,-0.000105405502836,-0.000175014254637,-0.000198920271941,0.463939729418,-0.000494146146229,0.158198683955,-0.00460101480584,0.937215177077,0.348675732545,0.00563699746648
0.084214001894,0.0226114261895,-0.0873251855373,-2.51962208748,0.0260669719428,2.54931688309,-0.736991941929,0.0427549108863,-0.000529163051397,-0.000902081548702,8.01648202469e-05,0.0008571028593,4.4620315748e-05,8.64783432917e-05,-0.00187743303832,0.463941506593,-0.000494077560552,0.158201391409,-0.00460009678976,0.937215159596,0.348675737338,0.00564035550033
0.0842116400599,0.022615544498,-0.0873263925314,-2.51961803436,0.0260646492243,2.54931783676,-0.736993670464,0.0427549108863,-0.000323125161231,0.000452841515653,-0.000101433499367,0.00023072095064,0.00011130610801,4.89681133331e-06,0.000345546344761,0.463943160863,-0.00049608531993,0.158201261,-0.00459910487269,0.937215213794,0.348675600442,0.00564062138495
0.0842057615519,0.0226179603487,-0.0873317122459,-2.51961421967,0.026066172868,2.54931783676,-0.73699349165,0.0427549108863,-0.000394369213609,0.000653633032925,-0.000588630675338,-0.000196958746528,1.93773685169e-05,-4.62264943053e-05,0.000206189506571,0.463944602948,-0.000501264465508,0.158201577974,-0.00459906813566,0.93721740977,0.34866968552,0.00564140773633
0.0842096656561,0.0226255413145,-0.0873287022114,-2.51961350441,0.0260670837015,2.54931735992,-0.736994981766,0.0427017211914,0.00103643885814,0.000155340065248,0.00431344099343,0.000392087793443,-0.000112307650852,1.78934915311e-05,0.000558827479836,0.463943649397,-0.000498892552068,0.158198391574,-0.00460024578178,0.937216305575,0.348672692073,0.00563806632656
0.084219366312,0.0226090122014,-0.0873204618692,-2.51960396767,0.0260664951056,2.54931640625,-0.736997246742,0.0427017211914,-0.000761112431064,-0.0002276400337,0.00013898711768,0.000956974457949,7.69683538238e-06,0.000187867088243,-0.000462938012788,0.463950869932,-0.000489541190087,0.158209414254,-0.004596596432,0.937212409345,0.348683021844,0.00564987030636
0.0842154324055,0.0225051343441,-0.0873249918222,-2.51945233345,0.026064414531,2.54929280281,-0.736994087696,0.0427017211914,0.000663519022055,-0.00046725384891,-0.00141734455246,0.0116593828425,-6.4699241193e-05,0.00053875456797,-0.00055334897479,0.464037919439,-0.000492024312852,0.158312100477,-0.00455976912333,0.93721335379,0.348679169844,0.00575970368133
0.0842107087374,0.022475650534,-0.0873285755515,-2.51911759377,0.0260634701699,2.54925656319,-0.736995697021,0.0427017211914,-0.000706035236362,7.53014610382e-05,-0.000656425603665,0.0357716828585,-7.23545599612e-05,-0.00693357316777,0.000268262869213,0.464184361139,-0.000494821619238,0.158435872629,-0.0045081874344,0.937213067709,0.348678249979,0.00590081679994
0.0842034369707,0.022396016866,-0.0873410031199,-2.51838827133,0.0260626636446,2.54901361465,-0.736995756626,0.0427017211914,5.81153253734e-05,-0.00777570903301,0.000166913843714,0.062077537179,-0.000227135285968,-0.0303184334189,-0.000145134836202,0.464539713785,-0.000502792472537,0.158759272562,-0.0044030508547,0.937213955054,0.348672038396,0.00619878396095
0.0842070952058,0.0215472690761,-0.0873472839594,-2.51253890991,0.0260534826666,2.54450750351,-0.736983895302,0.0425874590874,-0.000998083152808,-0.0416510663927,-0.000251356366789,0.182984992862,-0.000349842273863,-0.174190744758,0.000369954825146,0.466529882385,-0.000467223073701,0.16092440573,-0.00410184428212,0.937195459849,0.348705471678,0.00723454350933
0.0842049494386,0.0206402130425,-0.0873540490866,-2.50886893272,0.026050562039,2.54044532776,-0.736971378326,0.0425874590874,0.000365447514923,-0.0707215592265,0.000462346739369,0.246614843607,0.000294092460535,-0.295912563801,0.000808892422356,0.467581329464,-0.000435020628618,0.162366641474,-0.00408872536606,0.937186112858,0.348725069013,0.00750320720465
0.0842029303312,0.0192562211305,-0.0873570293188,-2.50449633598,0.0260471850634,2.53457355499,-0.736958444118,0.0425874590874,-6.56906104268e-06,-0.101680524647,-0.000254424114246,0.296348214149,-0.0007070217398,-0.43469658494,0.000344001862686,0.46865225282,-0.000383237073956,0.164140360269,-0.00422397034863,0.937173761104,0.348756927179,0.0074903273426
0.0841721072793,0.0164883099496,-0.0873828604817,-2.49755144119,0.0260460563004,2.52331805229,-0.736940264702,0.0425874590874,-0.00561720132828,-0.15982234478,-0.000808779324871,0.356255441904,0.000634094525594,-0.612258374691,0.000350895454176,0.470006648717,-0.00030392940073,0.167067315247,-0.00472090339126,0.937162473875,0.348794069273,0.00684890923652
0.0840663686395,0.0101493308321,-0.0875025466084,-2.48493337631,0.0260384548455,2.50099778175,-0.736913859844,0.0425874590874,-0.00366186909378,-0.267876535654,-0.00216514524072,0.490721046925,-0.00114685669541,-0.91297608614,0.00205641845241,0.472195438725,-0.000191525754174,0.172893083403,-0.00579093548517,0.937154679906,0.348823624268,0.00544516632231
0.0839005336165,0.00509551772848,-0.0875728800893,-2.47601866722,0.0260402616113,2.48372006416,-0.73689031601,0.0425874590874,-0.0138649744913,-0.323084771633,-0.00537227047607,0.54333871603,0.000377558695618,-1.09285485744,0.00283389841206,0.473500891078,-0.000129991131487,0.17746624463,-0.00681536470862,0.937159026394,0.348813785106,0.00393103777094
0.0836068466306,-0.00248231249861,-0.0876175165176,-2.46432042122,0.0260375458747,2.45984959602,-0.736764490604,0.0425874590874,-0.0179001763463,-0.419696092606,0.00166653993074,0.633483409882,0.000808713957667,-1.28048956394,0.0120673896745,0.474845909467,-5.78960918859e-05,0.183252477344,-0.00810101548615,0.937175026362,0.34875929552,0.00207291742312
0.0832843407989,-0.00954279769212,-0.0876224637032,-2.45372629166,0.0260289236903,2.43846678734,-0.736573934555,0.0425874590874,-0.018028466031,-0.464339256287,0.000552573881578,0.680868387222,-0.00416606012732,-1.38460528851,0.0102086802945,0.476100690163,-4.80382222622e-06,0.188918799954,-0.00924953967706,0.937199351621,0.348671147105,0.000502194206094
0.0819254443049,-0.0366775169969,-0.087668299675,-2.41770124435,0.0260401889682,2.36495566368,-0.736093521118,0.0425874590874,-0.0345536321402,-0.652969479561,-0.00389621569775,0.798986673355,-0.000445642217528,-1.62601733208,0.00828695204109,0.479810580877,2.96092912641e-05,0.210072485758,-0.012872954671,0.937264360101,0.348361996092,-0.0037048194242
0.0812783464789,-0.0490035489202,-0.0877378582954,-2.40228652954,0.0260307863355,2.33508753777,-0.735842049122,0.0425874590874,-0.0380062609911,-0.702874839306,-0.00341300619766,0.879212975502,-0.00151552003808,-1.67447805405,0.0217749830335,0.481327106891,-3.80334208178e-05,0.21924667772,-0.0139583594947,0.937308908196,0.348192201274,-0.00440062216882
0.0806028097868,-0.0613479949534,-0.0878030061722,-2.38728952408,0.0260389950126,2.30624294281,-0.735521256924,0.0426235757768,-0.0392126813531,-0.766649663448,-0.00425206404179,0.911037504673,0.00420659035444,-1.69028043747,0.0287198480219,0.482813845717,-0.000150004491954,0.229583099176,-0.0150437236271,0.937377066747,0.347957281386,-0.00486324311396
0.0798091962934,-0.0768350735307,-0.0879653021693,-2.36859488487,0.026009188965,2.27241420746,-0.735113322735,0.0426235757768,-0.0440455637872,-0.784535467625,-0.0137811517343,0.922829806805,0.0039263186045,-1.70294034481,0.0182977747172,0.484666187473,-0.000342031369742,0.242134884136,-0.0158941798146,0.93746732234,0.347682665182,-0.00437705508963
0.0784749090672,-0.101409457624,-0.0883131548762,-2.33964037895,0.0259988941252,2.22284626961,-0.734330117702,0.0426235757768,-0.0510595738888,-0.86188852787,-0.0132322432473,0.975561797619,0.00130920275114,-1.6018654108,0.0290093719959,0.48738113986,-0.000807331554517,0.262382983868,-0.0166054468351,0.93767629656,0.347107054381,-0.00202842051592
0.0776679888368,-0.114193126559,-0.0885270535946,-2.32491064072,0.025985352695,2.19912910461,-0.733929216862,0.0426235757768,-0.0616519600153,-0.846993505955,-0.0131280897185,0.994894623756,0.00104557233863,-1.56220591068,0.0227999612689,0.488711204222,-0.00116323702743,0.27306852858,-0.016641469485,0.937811300206,0.346746342981,-3.79504399418e-06
0.0764989033341,-0.130605518818,-0.0887912735343,-2.30636787415,0.0258951466531,2.17040872574,-0.733550906181,0.0426235757768,-0.0648660808802,-0.865039110184,-0.0148539282382,0.96962583065,-0.0109268659726,-1.44617795944,0.0199149940163,0.490252617438,-0.00172923365604,0.286878234467,-0.0163952697968,0.937972277774,0.346307471647,0.00321496875714
0.0755778029561,-0.142953082919,-0.0890714451671,-2.29281401634,0.0256477165967,2.15052390099,-0.733325779438,0.0426235757768,-0.066763818264,-0.867263376713,-0.0238394141197,0.947171449661,-0.0215923618525,-1.38242578506,0.00706688826904,0.491344675339,-0.00227093780888,0.297307567319,-0.015888690351,0.93808467914,0.345985456892,0.00622475606413
0.0687503740191,-0.202837646008,-0.0923573300242,-2.23425006866,0.0177695006132,2.07219576836,-0.73276257515,0.0426235757768,-0.139145642519,-0.869712352753,-0.0788393244147,0.737563610077,-0.224073901772,-0.907690107822,0.000757819681894,0.494614560343,-0.00834088339611,0.346777174803,-0.00861391302537,0.938629386804,0.343923154095,0.0248503218057
0.0659505948424,-0.218258529902,-0.0940547063947,-2.22137308121,0.012868902646,2.05761790276,-0.732759058475,0.0426235757768,-0.168226450682,-0.864325523376,-0.10780902952,0.667731523514,-0.307086467743,-0.736865341663,0.000188389894902,0.495056403153,-0.011386401731,0.359091873683,-0.00489193445721,0.938812277052,0.343019212369,0.0307473098995
0.0539522282779,-0.258018314838,-0.101962089539,-2.19271326065,-0.0101488688961,2.02840900421,-0.732965707779,0.0426235757768,-0.282779455185,-0.703359603882,-0.21077594161,0.475369632244,-0.593929708004,-0.415565311909,-0.0167444441468,0.494906639214,-0.0251871028681,0.389522510352,0.00982077027473,0.939839216707,0.338373391017,0.0459265408012
0.0483509451151,-0.269804358482,-0.106511481106,-2.18485569954,-0.0214095581323,2.02223944664,-0.733738481998,0.0426235757768,-0.336099296808,-0.617211222649,-0.295552253723,0.390690773726,-0.643471419811,-0.287867605686,-0.066816739738,0.494616628689,-0.0321634916561,0.398480315031,0.0163500349607,0.940385452886,0.335945391664,0.0504833622517
0.0413817986846,-0.280911207199,-0.112876266241,-2.17775249481,-0.0341791287065,2.01810717583,-0.735563516617,0.0426235757768,-0.396879643202,-0.549062371254,-0.368172228336,0.357505112886,-0.691454410553,-0.16123752296,-0.132746979594,0.494221271542,-0.0409916667257,0.406938903321,0.0235900951462,0.941144346404,0.332666696436,0.0549881388384
0.0355350933969,-0.287915349007,-0.118526279926,-2.17300963402,-0.0439233072102,2.016507864,-0.737896025181,0.0426248908043,-0.450710505247,-0.456778675318,-0.444495469332,0.31956538558,-0.69870442152,-0.0754410326481,-0.208432137966,0.493912336474,-0.0489621241131,0.412867910326,0.0294386051271,0.941821483913,0.32971497257,0.0582554505526
0.0255769789219,-0.295992106199,-0.128918707371,-2.16657185555,-0.0587187409401,2.01574087143,-0.743665337563,0.0426248908043,-0.500909149647,-0.311959981918,-0.545768618584,0.303327172995,-0.704142689705,0.00179299758747,-0.361788928509,0.493405126326,-0.0610964425954,0.419474440373,0.0370864976965,0.942828000941,0.325401203294,0.0617576627861
0.0119794430211,-0.301639199257,-0.144485220313,-2.15907502174,-0.0759766176343,2.0159277916,-0.755664050579,0.0426248908043,-0.58844268322,-0.148998469114,-0.690765440464,0.295682936907,-0.672715902328,0.0190038755536,-0.597525119781,0.492443208228,-0.0786521634051,0.425805393491,0.0460183015874,0.94409697931,0.320018740313,0.0644299240514
