imanlab/tactile_prediction_flat_dataset/train/data_sample_2021-11-24-15-41-35/robot_state.csv
position_panda_joint1,position_panda_joint2,position_panda_joint3,position_panda_joint4,position_panda_joint5,position_panda_joint6,position_panda_joint7,position_panda_finger,velocity_panda_joint1,velocity_panda_joint2,velocity_panda_joint3,velocity_panda_joint4,velocity_panda_joint5,velocity_panda_joint6,velocity_panda_joint7,ee_state_position_x,ee_state_position_y,ee_state_position_z,ee_state_orientation_x,ee_state_orientation_y,ee_state_orientation_z,ee_state_orientation_w
0.221972644329,-0.0919086560607,-0.201503366232,-2.45610022545,-0.129221513867,2.3514046669,-0.697454631329,0.0758929401636,0.000388566986658,-0.000534027174581,-0.000506947690155,-8.83903776412e-05,-8.39944186737e-06,-0.000127032893943,-3.01122399833e-05,0.466944405012,-3.04294711626e-05,0.218787622833,0.032030117858,0.918370246611,0.393987034345,-0.0185574281514
0.221972793341,-0.0918813869357,-0.201503917575,-2.45611739159,-0.129221558571,2.35140490532,-0.697475016117,0.0758929401636,0.000224913484999,-0.00028798065614,3.7893481931e-05,0.000314781704219,1.39371040859e-05,-4.27275299444e-05,0.00025021500187,0.466934584156,-3.1322098952e-05,0.218769171633,0.0320245914227,0.918366045397,0.393996315268,-0.0185778212465
0.221968993545,-0.0918431207538,-0.201506093144,-2.45614767075,-0.129222452641,2.35140585899,-0.697497367859,0.0758929401636,-7.74317741161e-05,0.00208298233338,0.0016552034067,-0.00327588897198,8.61778098624e-05,9.82486308203e-05,0.000196324966964,0.466917323114,-3.51530943802e-05,0.218739303447,0.0320155187831,0.918361798453,0.394005399168,-0.0186107175157
0.221971705556,-0.091816008091,-0.201504513621,-2.45619630814,-0.129222154617,2.35140681267,-0.697523653507,0.0758929401636,0.000453753338661,0.000620338483714,-0.000315172743285,-0.00177326076664,-0.000102189362224,0.00011933506903,0.00437135342509,0.466893290535,-3.38765309044e-05,0.218706962931,0.0320038590132,0.918354828935,0.394020902525,-0.0186464268526
0.221971943974,-0.0917452350259,-0.201505169272,-2.45641112328,-0.12922231853,2.35141301155,-0.697610199451,0.0758929401636,-0.000160906580277,0.00242375908419,0.000172365122125,-0.00543410563841,-2.03103491003e-06,7.50137987779e-05,-0.000561008404475,0.466793016251,-3.60364007889e-05,0.218586556345,0.0319573454472,0.918334062232,0.394066776601,-0.018779070162
0.221969857812,-0.0917217358947,-0.201505094767,-2.45651435852,-0.129220888019,2.35141348839,-0.697636842728,0.0758929401636,-3.52369934262e-05,0.00115697062574,0.000423704099376,-0.00784652400762,6.06056664765e-06,-0.000125773396576,-0.000372679583961,0.466745427083,-3.75985177621e-05,0.218533273304,0.0319352236383,0.918327747618,0.394080450197,-0.0188384686428
0.221973240376,-0.0915922001004,-0.201504543424,-2.45710778236,-0.129220888019,2.35141730309,-0.697717010975,0.0758929401636,0.000224489864195,0.00124214356765,-0.000237829051912,-0.00572067080066,-9.6955736808e-05,-0.000128401254187,-0.00118787190877,0.466472687333,-3.99495869515e-05,0.218229788026,0.0318122804703,0.918301527195,0.394135202209,-0.0191761837642
0.221966996789,-0.091579452157,-0.201506569982,-2.45729494095,-0.129222109914,2.35141825676,-0.697730541229,0.0758929401636,-7.25282152416e-05,-0.00110298523214,-1.0362367675e-06,-0.00997029524297,-7.3048795457e-05,0.000248163443757,-0.000142863806104,0.466389726189,-4.45153528298e-05,0.21814687128,0.0317763553832,0.918297602564,0.394142713065,-0.0192690887691
0.221962824464,-0.0915803611279,-0.201508268714,-2.45747494698,-0.129221752286,2.35141897202,-0.697738826275,0.0758929401636,0.000474261643831,0.000381044956157,0.000118183801533,-0.0125666772947,-2.6303834602e-05,-0.000179225025931,-0.000203571020393,0.46631133677,-4.74687937145e-05,0.218073105146,0.0317425389663,0.918294744068,0.394148046012,-0.0193517891743
0.221970587969,-0.0915807038546,-0.201506599784,-2.45779156685,-0.12922206521,2.35142302513,-0.697753429413,0.0758929401636,0.000829874246847,-0.00391486240551,5.55138140044e-05,-0.0143386302516,6.19658021606e-05,0.000217279884964,-0.000245049712248,0.466180576788,-4.36163214892e-05,0.217949290968,0.0316868749963,0.918286000676,0.394166100859,-0.0194896775294
0.221967875957,-0.0915803164244,-0.201507344842,-2.45822691917,-0.129221975803,2.35144734383,-0.697773039341,0.0758929401636,-0.000772257975768,0.00128482386936,-0.00026235418045,-0.018464513123,-0.000116589697427,0.00172402348835,-0.000481218245113,0.465988877878,-4.51556378281e-05,0.217765559147,0.0316057968529,0.918276410119,0.394185157852,-0.0196867781718
0.221962347627,-0.0915573984385,-0.201509907842,-2.45853638649,-0.129221349955,2.35149168968,-0.697781383991,0.0758929401636,-0.000213660488953,0.00470232311636,0.000326823763316,-0.018806245178,-4.58485883428e-05,0.0081897135824,-0.00208332226612,0.465860655481,-4.85869595798e-05,0.21763134758,0.0315517143163,0.918271765883,0.394193621991,-0.0198202262466
0.221963956952,-0.0915205404162,-0.201510578394,-2.45882368088,-0.129221975803,2.35169863701,-0.697786092758,0.0758929401636,-0.00186878605746,0.00437595555559,0.000150129402755,-0.0173206161708,-0.000130485685077,0.0141811612993,6.05190434726e-05,0.465776083034,-4.32181220198e-05,0.2175135581,0.0315245428494,0.918265567934,0.394207606002,-0.0198724179656
0.221975341439,-0.0914477705956,-0.201504573226,-2.45920157433,-0.129221737385,2.35211730003,-0.697796702385,0.0758929401636,0.00048542994773,0.00529360584915,-3.77647775167e-05,-0.0168687961996,-0.000184810720384,0.0218201633543,-0.00207129702903,0.465694067006,-2.46916985167e-05,0.217359897977,0.0315077385854,0.918252831403,0.394238099147,-0.019882678196
0.221985831857,-0.0913913026452,-0.201497510076,-2.45963907242,-0.129221647978,2.35250997543,-0.697807431221,0.0758929401636,-0.000387768115615,0.000987808452919,0.000491123413667,-0.0207360237837,-7.91783459135e-05,0.0155678484589,8.61429143697e-05,0.465582054744,-6.6223493894e-06,0.217187000014,0.0314776176254,0.918239469982,0.394269489578,-0.0199249749277
0.221977695823,-0.09137519449,-0.2014991045,-2.45996308327,-0.129221469164,2.35276770592,-0.697818338871,0.0758929401636,-0.000743172131479,0.000187839337741,0.00215564016253,-0.0170236509293,5.88427210459e-05,0.0147420763969,1.45472185409e-07,0.465494704091,-4.10444209698e-06,0.217067839445,0.0314522883526,0.918233912388,0.394282691122,-0.0199598311866
0.221966385841,-0.0913608968258,-0.201510563493,-2.46086025238,-0.129222288728,2.35364866257,-0.697841346264,0.0758929401636,0.000606473535299,0.00108257250395,3.36374541803e-05,-0.0226516295224,-8.27776675578e-05,0.0304189883173,-9.06824061531e-05,0.465292646121,1.07534225881e-05,0.21676566838,0.0314092130967,0.918218916859,0.3943209708,-0.0199613056678
0.221969753504,-0.0913437381387,-0.201507911086,-2.46155118942,-0.12922295928,2.35463881493,-0.697865843773,0.0758929401636,3.64440966223e-05,0.00172677857336,-0.000150930558448,-0.0189104545861,0.00017096058582,0.0278299693018,-0.000144357298268,0.465204314985,4.25477340438e-05,0.216556388971,0.0314210107367,0.918200534951,0.394370153122,-0.0198161476451
0.221974030137,-0.0913327634335,-0.201504021883,-2.46246981621,-0.129221349955,2.35617280006,-0.697941124439,0.0758929401636,-7.70890110289e-05,5.83645196457e-05,-8.18495391286e-06,-0.00728957122192,-2.86850772682e-05,0.018708076328,-0.00133573636413,0.465135471292,9.2197475467e-05,0.216301869527,0.0314678106791,0.918167593891,0.394458191203,-0.0195136232698
0.221967294812,-0.0913214236498,-0.2015093714,-2.46266102791,-0.129221484065,2.35661506653,-0.697966098785,0.0758929401636,-0.000160683644935,0.00152273545973,-0.000654079078231,-0.0128447292373,-4.81985516672e-05,0.0216851644218,-0.00246717152186,0.465146932802,9.97481522404e-05,0.216255040953,0.0314940723608,0.918161096973,0.394476987936,-0.0193966255008
0.221973583102,-0.0912508741021,-0.201505869627,-2.46304297447,-0.12922206521,2.35794138908,-0.698007822037,0.0758929401636,0.000273958605248,0.00202949717641,0.000457382877357,-0.00643284013495,0.00011610367801,0.0215773135424,-0.000496407912578,0.465261097872,0.000142966421751,0.216177053962,0.0316070339909,0.918141076165,0.394535100895,-0.0189740218285
0.221976011992,-0.0912102982402,-0.201507478952,-2.46307849884,-0.12922218442,2.35833072662,-0.698021233082,0.0758929401636,0.00309753604233,-0.00289272028022,-8.29911659821e-05,-0.00420667650178,5.06767319166e-05,0.0305749475956,-0.000674047740176,0.465325924321,0.000154367167749,0.216176652545,0.0316525526056,0.918136122039,0.39455015234,-0.0188243005553
0.221971288323,-0.0911637693644,-0.20150911808,-2.46309614182,-0.129221782088,2.35873270035,-0.698029279709,0.0758929401636,-0.00010395811114,0.00238102744333,-6.80587618263e-05,-0.000488017831231,9.32715047384e-05,0.0200681388378,5.42457091797e-05,0.465400663172,0.000162747789589,0.216181981244,0.0317025034567,0.918133823821,0.394559145488,-0.0186631514794
0.22197535634,-0.091141924262,-0.201506450772,-2.46311306953,-0.129220947623,2.35912299156,-0.698044657707,0.0758929401636,-0.000483639974846,-0.000691161549184,0.000124049853184,-0.00134513597004,-7.66727971495e-05,0.0161512959749,-8.01286514616e-05,0.465475969571,0.000177484360241,0.216197893998,0.0317532660436,0.918127887747,0.394576792684,-0.0184950316156
0.221973329782,-0.0911393836141,-0.201505616307,-2.46314263344,-0.129221260548,2.35964751244,-0.698053896427,0.0758929401636,-0.0030440047849,0.00112751580309,-2.53043617704e-05,-0.000681606587023,2.79386786133e-05,0.0153873655945,-3.07847403747e-05,0.465573292908,0.000192694428786,0.216227871211,0.0318203754319,0.918124241381,0.394590438783,-0.0182681799403
0.221971273422,-0.091139882803,-0.201504528522,-2.46315288544,-0.129222333431,2.36002445221,-0.69805765152,0.0758929401636,0.00269634905271,0.000255636754446,0.000155926230946,-0.00102769234218,8.88648646651e-05,0.0233567729592,-0.000235684812651,0.465655089894,0.000204273339927,0.216256432749,0.0318757530405,0.91812209093,0.394599478014,-0.0180835324699
0.22196662426,-0.0911030173302,-0.201508745551,-2.46318006516,-0.129222422838,2.36142158508,-0.698062717915,0.0758929401636,0.000401566911023,0.000788456120063,0.000121976481751,0.000113588568638,-8.18569969852e-05,0.0519144162536,2.05235592148e-05,0.465943847048,0.000242704404303,0.216346299478,0.0320680556384,0.918117183317,0.394624020982,-0.0174458949586
0.221971392632,-0.0910094305873,-0.201506823301,-2.46318292618,-0.12922206521,2.36322116852,-0.69806432724,0.0758929401636,0.000425466016168,0.00163955742028,-0.000356682547135,-0.00119863532018,-5.23924536537e-05,0.0356554538012,-0.000122888901387,0.466331837715,0.000300722265409,0.216456968967,0.0323229088546,0.918107372455,0.39466189173,-0.0166154477649
0.221972852945,-0.0909699499607,-0.201506316662,-2.46319317818,-0.129222035408,2.36399102211,-0.698064804077,0.0758929401636,-0.000292913900921,0.00577547540888,-8.50844880915e-05,-0.000240290377405,-5.64069341635e-06,0.0523226708174,-0.000305793393636,0.466464591506,0.000320611829108,0.216493324791,0.032410878848,0.918103946943,0.394674627872,-0.0163283598243
0.221970438957,-0.0909078344703,-0.201509267092,-2.46320056915,-0.129221320152,2.36487650871,-0.698064506054,0.0758929401636,9.70846231212e-05,0.00366464629769,-0.00389148434624,-0.000681035162415,6.27070330665e-05,0.0505079850554,1.5839774278e-05,0.466665905357,0.000346960167894,0.216542195899,0.0325430871651,0.918100011321,0.394690477299,-0.0158979087241
0.221972391009,-0.0906774997711,-0.201506823301,-2.46321320534,-0.129221498966,2.36767315865,-0.698065698147,0.0758929401636,-0.000307971582515,0.00811256282032,0.00015400936536,-0.00150969007518,0.000934887793846,0.0629575625062,2.78585011984e-05,0.467230339067,0.000428433853569,0.216668501587,0.0329136997363,0.918083443044,0.394744488,-0.0147060822084
0.221968486905,-0.0905609205365,-0.201508969069,-2.46321034431,-0.129222348332,2.36868476868,-0.698067426682,0.0758929401636,-0.000203283270821,0.0107017382979,-0.00412753410637,0.000432995759184,-9.31999966269e-05,0.0595917627215,-6.78251308273e-05,0.467451432946,0.000455957941087,0.21670601525,0.0330576521901,0.918077534908,0.394762901617,-0.014250709389
0.221973702312,-0.0902414247394,-0.201506108046,-2.46321201324,-0.129222810268,2.37074375153,-0.698066115379,0.0758929401636,0.00033200107282,0.0144031867385,0.000419009564212,-0.000517650390975,-4.41164302174e-05,0.0572586618364,0.00157887721434,0.467862308601,0.000515742519517,0.216736961142,0.0333245738893,0.918061736138,0.394806208912,-0.0134230585098
0.221976459026,-0.0896591693163,-0.201506823301,-2.4632024765,-0.129222676158,2.37290883064,-0.698065459728,0.0758929401636,2.94873661915e-05,0.0116653861478,-0.000151567830471,-0.000912114162929,-1.81763753062e-05,0.0376664660871,0.000314490462188,0.468276626405,0.000570173043852,0.216658846226,0.0335879683284,0.918042973495,0.394852761067,-0.0126587503114
0.221972078085,-0.0893999859691,-0.201507538557,-2.46321344376,-0.129219904542,2.37344717979,-0.6980676651,0.0758929401636,-0.000669671630021,0.0183276031166,4.36760601588e-05,-0.000682142621372,-1.16308046927e-05,0.0288167409599,0.000270786433248,0.46835373632,0.000577479768483,0.216585991932,0.0336349899241,0.918038393514,0.394863097666,-0.0125430965112
0.221966385841,-0.0890370234847,-0.201507762074,-2.46322321892,-0.129222393036,2.37415266037,-0.698064267635,0.0758929401636,0.000296740967315,0.0213871728629,-0.00223153713159,-0.00199952395633,-8.62176530063e-05,0.0418164879084,-1.70087147922e-07,0.468461506008,0.000587218421147,0.216477299546,0.0337021533773,0.918031934234,0.394877264651,-0.0123886289583
0.221974626184,-0.0884452387691,-0.201506793499,-2.46321392059,-0.129221811891,2.37508916855,-0.698066174984,0.0758929401636,2.20221318159e-06,0.0173718426377,-0.000173808279214,0.000665023515467,-0.000102964113466,0.0188675131649,8.7510998128e-05,0.468601678405,0.000605684061243,0.216291953711,0.0337842518446,0.918018430429,0.394906689968,-0.0122266765572
0.221970617771,-0.0880492851138,-0.201507255435,-2.46321415901,-0.129222199321,2.37546825409,-0.698065876961,0.0758929401636,6.31217699265e-05,0.0230298880488,-0.00055880198488,-0.0011190342484,-0.000212934668525,0.0185705758631,6.31515140412e-05,0.46863959457,0.000605012807142,0.216134459757,0.0338028821841,0.918012849399,0.394917559896,-0.0122431230373
0.221968650818,-0.0876463353634,-0.201506435871,-2.46323275566,-0.129222899675,2.37571334839,-0.698066234589,0.0758929401636,0.000257972977124,0.0207114703953,8.26387840789e-05,-0.000705430225935,-7.78523317422e-05,0.0117684127763,-1.40681322591e-05,0.468637930568,0.000601889311886,0.215973101842,0.0337976330425,0.918007574023,0.394927589567,-0.0123293437308
0.221973866224,-0.0872875005007,-0.20150783658,-2.46323084831,-0.12922218442,2.37584519386,-0.698065280914,0.0758929401636,0.00015381751291,0.0264660995454,0.000432651984738,0.000434487767052,-2.07241664612e-05,0.013084997423,2.8112444852e-05,0.468626404958,0.000598636278525,0.215821238687,0.0337838192198,0.918002830536,0.394936281536,-0.0124414587329
0.221973642707,-0.086209371686,-0.201506599784,-2.46329426765,-0.129222586751,2.37596464157,-0.698063671589,0.0758929401636,-0.000149349609273,0.0179667919874,2.11618462345e-05,-0.00348004861735,0.000120851487736,0.00294639123604,0.00521595729515,0.468501010393,0.000574792553783,0.2153124969,0.0336905619644,0.917990851041,0.39495596668,-0.0129432416799
0.221973314881,-0.0859018489718,-0.201507300138,-2.46338176727,-0.12922154367,2.37597250938,-0.698064982891,0.0758929401636,-0.000105552186142,0.0165894888341,0.000739704293665,-0.00590907037258,-1.82104868145e-05,-3.92413858208e-05,0.000365081563359,0.468428924957,0.000566489504376,0.215136484679,0.0336467304217,0.917986916776,0.394962651744,-0.0131309393651
0.221973091364,-0.0856233611703,-0.201506659389,-2.46350860596,-0.129221335053,2.3759765625,-0.698066413403,0.0758929401636,-0.000312932068482,0.0104572325945,-0.000173426262336,-0.0108752446249,-8.72859891388e-05,0.000321615865687,-0.000840872467961,0.468341999609,0.000559306824032,0.214957238714,0.0335979670089,0.917982419874,0.394970772609,-0.0133244842967
0.221972852945,-0.0848304033279,-0.201506659389,-2.4640212059,-0.12922206521,2.37599086761,-0.698066711426,0.0758929401636,6.66161577101e-05,0.011173880659,0.000118791453133,-0.0106339780614,6.93909896654e-05,0.000104407074105,-0.00237430632114,0.468028054761,0.000537746543958,0.21438495691,0.0334314688855,0.917968617693,0.394995577967,-0.0139444213255
0.22197163105,-0.0846662446856,-0.201504170895,-2.46416211128,-0.129222676158,2.37599492073,-0.698065638542,0.0758929401636,7.70166589064e-05,0.0122031848878,0.000370658643078,-0.0184100084007,2.79961932392e-05,-0.000279205705738,-0.000625291664619,0.467947900895,0.000533765019445,0.214252343448,0.0333908997414,0.917965227625,0.395001780207,-0.014088363991
0.221974253654,-0.0843696221709,-0.201505377889,-2.46452093124,-0.129222154617,2.37600374222,-0.698064565659,0.0758929401636,0.000125491453218,0.0145843317732,-0.000386743835406,-0.0191648993641,-4.49900326203e-05,0.00013833277626,0.000441695039626,0.467757349936,0.000526149708185,0.213969984412,0.0332974768915,0.917958167339,0.39501499047,-0.0143957644486
0.221970617771,-0.0841780528426,-0.201506718993,-2.4649245739,-0.129222005606,2.37601661682,-0.698066473007,0.0758929401636,-0.000242839494604,0.0110187772661,1.54874178406e-05,-0.0249447114766,-3.74178421225e-06,2.68646658697e-06,-0.000320229853969,0.467559974429,0.000518261858796,0.213717624984,0.0332058962145,0.917952255228,0.395026328214,-0.0146705581597
0.221971929073,-0.0839750021696,-0.201506882906,-2.46581625938,-0.129222273827,2.37602996826,-0.698066055775,0.0758929401636,-0.000189007798326,0.00747552327812,0.000103732352727,-0.0340381078422,2.27113669098e-05,0.00218955450691,0.00065330718644,0.46714588699,0.000511691932151,0.213259709083,0.0330220094898,0.917939862132,0.395051427064,-0.0151764967637
0.221971407533,-0.083945684135,-0.201505601406,-2.46640944481,-0.129221737385,2.37603592873,-0.698064923286,0.0758929401636,-6.51533991913e-05,0.000425007601734,-0.00012588968093,-0.0409845672548,4.53557477158e-05,0.000133977737278,0.000179425012902,0.46688189075,0.00051004127927,0.213003299598,0.0329087775602,0.91793294891,0.395065850882,-0.0154624323242
0.221971586347,-0.0839223712683,-0.201504915953,-2.46707105637,-0.129222050309,2.37604498863,-0.698065817356,0.0758929401636,-0.000369969260646,0.0027512810193,0.000856614031363,-0.0438684187829,1.06376755866e-05,0.000988738494925,-9.73209607764e-05,0.46658888945,0.000508450123675,0.212721990075,0.0327839369178,0.917924661772,0.395083099185,-0.0157757158399
0.221970960498,-0.0839102566242,-0.201507270336,-2.46797013283,-0.129221171141,2.37605118752,-0.698065876961,0.0758929401636,2.31752574109e-06,0.00255109160207,6.6288652306e-05,-0.0470611415803,7.25512800273e-05,1.7904678316e-05,-5.21676811331e-05,0.466171433171,0.000504669902282,0.212329564898,0.0326061860264,0.9179141343,0.395104446055,-0.0162158895206
0.221975713968,-0.083901040256,-0.201504021883,-2.46934771538,-0.12922218442,2.37606835365,-0.69806522131,0.0758929401636,8.10781712062e-05,0.000714863301255,0.0003014326212,-0.0501834079623,-0.000110729044536,0.00188053282909,-0.00231659831479,0.46558443716,0.00050527503498,0.211781612572,0.0323582762449,0.91789654216,0.395140084723,-0.0168283384712
0.221969053149,-0.0838739424944,-0.201506450772,-2.47032213211,-0.1292219311,2.37610507011,-0.69806677103,0.0758929401636,-0.00054202391766,0.000491296930704,0.00037955128937,-0.0489770434797,4.51263949799e-05,-0.000341457198374,-0.00026700476883,0.465157562568,0.000499074931836,0.211373913427,0.0321779402049,0.917885743883,0.395160617507,-0.0172750512109
0.221975728869,-0.0838237553835,-0.201504290104,-2.47113847733,-0.12922206521,2.37616825104,-0.698065876961,0.0758929401636,0.000739674142096,0.00246372306719,-0.000291699660011,-0.0457022674382,-1.88502792753e-06,0.00481980852783,-0.00560702895746,0.464803433385,0.00050171984453,0.211022990698,0.0320294326615,0.917873213377,0.395185350123,-0.0176470489908
0.221976161003,-0.0837811380625,-0.201504603028,-2.47193169594,-0.129222214222,2.37627410889,-0.698065400124,0.0758929401636,-0.00035576467053,0.00243049743585,-0.000233453669352,-0.047592125833,4.92685649078e-05,0.00500552216545,-0.000319039914757,0.464469488431,0.000501923664187,0.210688815805,0.0318919042138,0.917862418679,0.395206338996,-0.0179843298693
0.221966400743,-0.0837036967278,-0.201504603028,-2.47278308868,-0.129222333431,2.37631011009,-0.698064625263,0.0758929401636,-0.000478234374896,0.00349229038693,0.0028683678247,-0.0410273000598,3.34395990649e-05,0.000535935745575,0.000109298474854,0.464090019094,0.000494240226528,0.210309560574,0.0317301402606,0.917852562279,0.395223153196,-0.0183992112731
0.221974894404,-0.0835618898273,-0.201502665877,-2.47385692596,-0.129221782088,2.37632131577,-0.698065876961,0.0758929401636,0.000492758816108,0.00554117420688,-7.61445844546e-05,-0.0385736040771,2.83765803033e-05,0.000123734309454,-4.92533763463e-05,0.463598127092,0.000492835932452,0.209808921807,0.0315171813385,0.917834586105,0.395255427021,-0.0189601403396
0.221974730492,-0.0835045129061,-0.201502606273,-2.4744720459,-0.129222035408,2.37632966042,-0.698064506054,0.0758929401636,-0.000130559084937,0.0063263582997,-8.22019865154e-05,-0.0296177584678,3.27932029904e-05,4.91401624458e-05,-3.95357201342e-05,0.463319390714,0.000489860215438,0.209533371651,0.0313977579222,0.917825970046,0.395270005758,-0.0192689318833
0.221977904439,-0.083414748311,-0.201501265168,-2.47492408752,-0.129222407937,2.37633466721,-0.698065578938,0.0758929401636,0.000648509594612,0.00741140078753,0.00028118037153,-0.0320255570114,9.33505216381e-05,-2.84226189251e-05,0.000484089745441,0.463108449676,0.000488428951196,0.209309410026,0.031305602011,0.917817612735,0.395284413399,-0.0195197654103
0.221979722381,-0.0833340659738,-0.201500996947,-2.47539687157,-0.12922206521,2.37633371353,-0.698065817356,0.0758929401636,-5.66263224755e-05,0.00377225712873,0.0030681330245,-0.0231476966292,-1.46447755469e-05,0.000121760458569,-0.00283084157854,0.462887937015,0.000485940393035,0.209080738295,0.0312092368393,0.917809800972,0.395297308937,-0.0197785238011
0.221968531609,-0.0832323953509,-0.201504677534,-2.47614455223,-0.129222258925,2.37634015083,-0.698065638542,0.0758929401636,-0.000302861066302,0.000423100398621,0.000143643759657,-0.0147330928594,-3.65211963071e-05,0.000478074973216,0.00240671471693,0.462537704963,0.000474417753456,0.208726023572,0.0310576799832,0.917801024839,0.395309436672,-0.0201779156021
0.221968218684,-0.0832394883037,-0.201507627964,-2.47640991211,-0.129221379757,2.37634205818,-0.698065698147,0.0758929401636,-0.00178625329863,-0.000192129504285,0.00019121603691,-0.0109179764986,-0.000113374619104,-0.000234065490076,-0.0001889559353,0.462426791505,0.000472665927063,0.208627342247,0.0310109227215,0.917798439441,0.395313381882,-0.0202898254738
0.221974000335,-0.0832352563739,-0.201502814889,-2.47650170326,-0.12922218442,2.3763449192,-0.698063671589,0.0758929401636,0.000587127462495,0.00111155060586,0.000273183628451,-0.00249542365782,-7.15780424798e-06,-0.000157215254148,-0.000135590264108,0.462385984873,0.000477166867637,0.208588469782,0.0309942996658,0.917795292578,0.395319776695,-0.0203329325102
0.22198061645,-0.0832283571362,-0.201499655843,-2.4765086174,-0.129221960902,2.37635016441,-0.698065519333,0.0758929401636,-0.000558526196983,-0.000272245291853,0.000117108604172,0.00137046561576,-5.93958829995e-05,0.00035880994983,2.30321911658e-05,0.462386056528,0.000481479926404,0.208585243614,0.0309944658643,0.917792983487,0.395325110131,-0.0203332124817
0.221976414323,-0.0832298621535,-0.201499536633,-2.47649407387,-0.129221811891,2.3764193058,-0.698063194752,0.0758929401636,-5.0526978157e-06,0.000168346174178,-1.32052828121e-05,-0.00149448704906,-3.27608759108e-05,0.00679396605119,0.000256362371147,0.462404997356,0.000482006156684,0.208595341572,0.0310059886205,0.91779418925,0.395323302054,-0.0202963391221
0.221969261765,-0.0832324549556,-0.201502948999,-2.47650957108,-0.129221618176,2.3765463829,-0.698065936565,0.0758929401636,4.23956262239e-05,-3.32578456437e-05,-0.000370032212231,-0.0001809153473,-0.000126843806356,0.00887071713805,0.000471324601676,0.462426179483,0.000481205048762,0.208600760628,0.031021219246,0.917795308486,0.395322316592,-0.0202415751195
0.221968874335,-0.0832401067019,-0.201502978802,-2.4764945507,-0.129222214222,2.37673521042,-0.698064386845,0.0758929401636,0.00397041579708,-0.00171464891173,-0.000255148333963,0.00111747498158,4.89178055432e-05,0.00805476680398,0.0058031687513,0.462472148571,0.000486674684224,0.208624167131,0.0310502702567,0.917795483109,0.395324487502,-0.0201464925938
0.221971794963,-0.0832457616925,-0.201503589749,-2.47648525238,-0.129222512245,2.37696242332,-0.698066294193,0.0758929401636,0.00368562829681,0.000383822771255,-0.000334213196766,-0.000623406551313,9.06040895643e-06,0.0138484267518,-0.00331669137813,0.462529594246,0.000495528342678,0.208651258895,0.0310869964055,0.91779429039,0.395330556119,-0.0200247412459
0.22197586298,-0.0832367017865,-0.201500788331,-2.47649407387,-0.129220589995,2.37756919861,-0.698064804077,0.0758929401636,0.000773761130404,0.00400073966011,0.000234542414546,0.0010859350441,1.58193852258e-05,0.0104831848294,0.00128450139891,0.462657164321,0.000517661832289,0.20869416695,0.0311711667126,0.917791837363,0.395343816414,-0.0197425464281
0.221977949142,-0.0832401737571,-0.201499432325,-2.47649145126,-0.129221796989,2.3777358532,-0.698064923286,0.0758929401636,0.000307159731165,0.000555748643819,-7.77073801146e-05,-8.10777928564e-05,-6.14866110027e-07,0.00908697303385,-0.000211128150113,0.462692075547,0.000523854899267,0.208709402247,0.0311943543469,0.917790734171,0.395348320816,-0.0196668613607
0.221983417869,-0.0832394585013,-0.201497197151,-2.47649908066,-0.129222646356,2.37809634209,-0.698066413403,0.0758929401636,-0.000329820468323,0.000509953708388,-0.000237756394199,-0.00053389405366,2.75541060546e-05,0.0171191897243,-0.00023111923656,0.462770478613,0.000539249846226,0.208737416725,0.0312470373028,0.917787637545,0.39536004242,-0.019491320354
0.221972256899,-0.0832393467426,-0.201499789953,-2.47649312019,-0.129222303629,2.37845206261,-0.698065638542,0.0758929401636,-0.000402807228966,0.000265044771368,-0.00031230202876,8.53577366797e-05,3.30761358782e-05,0.0183674916625,0.000304050307022,0.462850837342,0.00054415309232,0.208769486346,0.0312988522811,0.917789710831,0.395359612662,-0.0193185117065
0.221970871091,-0.0832383111119,-0.201504454017,-2.47650098801,-0.129221722484,2.37900924683,-0.69806522131,0.0758929401636,0.00041379686445,0.000623457541224,0.00311634689569,-0.000433557957876,2.869214768e-05,0.0177955254912,7.01978933648e-05,0.462972647235,0.000559736101075,0.208813534998,0.0313793701458,0.917789258528,0.395367423106,-0.0190476373246
0.221971765161,-0.0832398533821,-0.201500073075,-2.47650074959,-0.129221767187,2.37931013107,-0.698064506054,0.0758929401636,-0.00039360896335,-0.000825894414447,4.12380359194e-05,0.000717447081115,-0.000148687453475,0.0168825052679,0.000284215784632,0.46303491733,0.000570845563541,0.208838421905,0.0314204220215,0.917787712343,0.395374309036,-0.0189110440736
0.221972748637,-0.0832397639751,-0.201502069831,-2.47650051117,-0.129222214222,2.37973284721,-0.698066651821,0.0758929401636,-0.000274513324257,0.00307330442593,-0.0017171400832,-0.000345285661751,1.32805025714e-05,0.0256163105369,-0.000103246144135,0.463127322847,0.000583665572639,0.208873901015,0.0314811521143,0.917786194917,0.395382624917,-0.0187087433195
0.221968635917,-0.0832395479083,-0.201503798366,-2.4765086174,-0.129221603274,2.38050484657,-0.698064208031,0.0758929401636,-0.000493582687341,-0.000168648795807,-0.00106341019273,-0.00039186081267,-3.28710520989e-05,0.0483375824988,0.000264304573648,0.463292221906,0.000605309045569,0.208935307257,0.0315900898926,0.917785475864,0.395392738417,-0.0183430805136
0.221980839968,-0.0832388177514,-0.201498419046,-2.47648215294,-0.129221633077,2.38276457787,-0.698065340519,0.0758929401636,0.000490517355502,0.00293170986697,0.00161048269365,-0.000403398502385,-5.36478728463e-05,0.0461354069412,-0.00563297886401,0.463796978265,0.000684606465406,0.209136278969,0.0319196016818,0.917774434486,0.3954411255,-0.0172494166878
0.221976488829,-0.0832376927137,-0.201500937343,-2.47649884224,-0.129222020507,2.38335967064,-0.698064863682,0.0758929401636,-0.000203163639526,-0.000645376276225,1.98757497856e-05,-0.00085349206347,-0.000104128135717,0.0400419570506,2.79987325484e-05,0.463919182779,0.000700087033465,0.209179305943,0.0320017101843,0.917773399347,0.395448853105,-0.0169729860583
0.221971943974,-0.0832412093878,-0.201502397656,-2.47649788857,-0.12922218442,2.38400125504,-0.698064446449,0.0758929401636,-0.000416543276515,-0.000138631599839,-0.000129251784529,0.000479174777865,2.2232219635e-05,0.0378421545029,8.65660476848e-05,0.464051920888,0.000716860274469,0.209232317271,0.0320890195273,0.917772139119,0.395457119302,-0.016681185741
0.221974253654,-0.0832410380244,-0.201502487063,-2.4764945507,-0.129222035408,2.38580918312,-0.698065817356,0.0758929401636,-0.000485705619212,0.000236399602727,-0.000333506148309,0.000463862699689,-7.23878620192e-05,0.0249429270625,0.000632076291367,0.464455336921,0.00077562901775,0.209390629496,0.0323541327635,0.917764090112,0.395490505042,-0.0157969964542
0.221972510219,-0.0832392796874,-0.201503306627,-2.47649240494,-0.129221946001,2.38626050949,-0.698064148426,0.0758929401636,-0.000310496398015,0.000338939513313,-0.000360418111086,3.85657804145e-05,-6.16851593804e-06,0.0310885328799,-0.00372916669585,0.464564456679,0.000789851450215,0.209432776192,0.0324256423921,0.917762837184,0.395496994586,-0.0155588995075
0.221977412701,-0.0832377299666,-0.201501339674,-2.47649383545,-0.129221215844,2.38675689697,-0.698065280914,0.0758929401636,0.00048738103942,0.000322289270116,-1.27356970552e-05,-0.000431776134064,-2.06596650969e-05,0.0211784653366,1.97866247618e-05,0.464661650253,0.000807467800476,0.209470283085,0.0324897293683,0.917759220888,0.395508502511,-0.0153445131311
0.221975818276,-0.083237528801,-0.201500192285,-2.47649550438,-0.129222109914,2.38752317429,-0.698066055775,0.0758929401636,-0.000208154757274,-0.000177131267264,-2.31109152082e-05,-3.82356520277e-05,-4.43780554633e-05,0.0256058983505,-0.000319399376167,0.464827725751,0.000831316136726,0.209535046598,0.0325996369325,0.917755430951,0.395522274743,-0.0149787347374
0.2219735533,-0.0832409411669,-0.201501995325,-2.47648596764,-0.129222273827,2.38793540001,-0.698064684868,0.0758929401636,0.000114834736451,6.93997062626e-05,-5.24956667505e-05,0.000127289647935,-5.65264690522e-06,0.0217653494328,-8.71692973305e-05,0.464922108117,0.00084254551345,0.209575775032,0.032660828578,0.917754650865,0.395526685341,-0.0147753834726
0.221974059939,-0.0832435339689,-0.201500982046,-2.47648859024,-0.129222050309,2.38831043243,-0.698065280914,0.0758929401636,0.00367320002988,0.000422114884714,0.000604799832217,-1.41389709825e-05,1.5217930013e-05,0.0101758353412,-0.000345143082086,0.465002870118,0.000855146890925,0.209608036835,0.0327143417055,0.917752435893,0.39553407071,-0.0145957818813
0.221976369619,-0.0832426249981,-0.201500877738,-2.4764957428,-0.129222154617,2.38854837418,-0.698064625263,0.0758929401636,6.41139558866e-05,0.000992604531348,-0.000114410315291,0.000410729786381,-4.66581332148e-06,0.0118888225406,-0.000244638009463,0.465051354304,0.000863718264328,0.209625117668,0.0327471021974,0.917750806552,0.395539190489,-0.0144856080308
0.22197265923,-0.0832409635186,-0.201501920819,-2.47649073601,-0.129221320152,2.38892197609,-0.698065757751,0.0758922770619,0.000248447817285,2.47606512858e-05,4.56553789263e-05,-0.000399982061936,7.39443112252e-06,0.00562243722379,0.000106765248347,0.465134662414,0.000873338339289,0.209658470884,0.0328011208583,0.917749815107,0.395543577902,-0.0143052788353
0.221971780062,-0.0832392200828,-0.201502487063,-2.4764945507,-0.129221811891,2.38908243179,-0.69806355238,0.0758922770619,-7.16526192264e-05,-0.000810134108178,-0.000296426878776,-9.38106095418e-05,0.000190837236005,0.0107901366428,-3.53925061063e-05,0.465167668065,0.000877633131702,0.209669904752,0.0328233978933,0.917749586129,0.395544935758,-0.0142311344476
0.221974700689,-0.0832344815135,-0.201502203941,-2.47649383545,-0.129221737385,2.38921570778,-0.698066174984,0.0758922770619,8.40180946398e-05,0.000251691410085,-0.000482315139379,0.000514441460837,0.000151592292241,0.0128855314106,0.000272883073194,0.465196406267,0.000883202289157,0.209679502277,0.0328422033855,0.917747721725,0.395549919647,-0.0141693222697
0.221978202462,-0.0832366198301,-0.201499834657,-2.47649025917,-0.129221305251,2.38934326172,-0.698064029217,0.0758922770619,-6.47561391816e-05,0.000350372807588,0.000515451887622,-0.000346070708474,-6.80017080867e-07,0.00338872126304,-0.000187177560292,0.465225997025,0.000890032393943,0.209692918044,0.0328613800028,0.917746456021,0.395553548175,-0.0141054022684
0.221979215741,-0.0832355320454,-0.201502248645,-2.47649264336,-0.129221752286,2.3894712925,-0.698065042496,0.0758922770619,5.78953440709e-05,-0.000491856713779,0.000303619890474,-0.000116819785035,0.000185246492038,0.0089154439047,-8.65405381774e-05,0.465252654766,0.000893372758825,0.209702443272,0.0328792225984,0.9177457651,0.39555578846,-0.0140458271186
0.22197560966,-0.0832385569811,-0.201501861215,-2.4764945507,-0.129222020507,2.38964080811,-0.698065876961,0.0758922770619,-0.000242198482738,-0.0004552929895,-1.09178245111e-05,0.000691912777256,0.000110531691462,0.0131331132725,0.000270823540632,0.465289046994,0.000897271064001,0.209717626497,0.0329035277515,0.917745323436,0.395557682823,-0.0139641832593
0.221976727247,-0.0832398533821,-0.201502159238,-2.47649002075,-0.129222154617,2.38986325264,-0.698065817356,0.0758922770619,9.03088366613e-05,-0.000197915418539,-0.000280303647742,0.00066520011751,3.70474808733e-05,0.00955174583942,-4.28274415754e-06,0.465341211779,0.000904989461812,0.209739832046,0.0329375107843,0.917743985994,0.39556192762,-0.0138512690423
0.221974283457,-0.083238683641,-0.20150321722,-2.47649550438,-0.129221990705,2.38998436928,-0.698065042496,0.0758922770619,-0.000624708540272,6.92083849572e-05,0.000347552471794,-7.22737313481e-05,0.000124749378301,0.00493382988498,0.000115319402539,0.465363355668,0.000906877086208,0.209746860239,0.0329525551601,0.917744206856,0.395561949578,-0.0138001311104
0.221972256899,-0.0832378268242,-0.201501920819,-2.47649860382,-0.12922154367,2.39014577866,-0.698064923286,0.0758922770619,-0.000122553756228,-0.000715213420335,0.00014701182954,0.000600802944973,9.60524412221e-05,0.00655537471175,0.000151822576299,0.465395027463,0.000911252139112,0.209758074733,0.0329736629851,0.917743593935,0.395564082998,-0.0137291392126
0.221973821521,-0.083240121603,-0.201502263546,-2.47649335861,-0.129220604897,2.39034318924,-0.698066353798,0.0758929401636,0.000695093534887,-0.000189182159374,-0.000719735922758,-0.000178147427505,-4.93953557452e-05,0.0118232639506,-0.000241912523052,0.465442497056,0.000918573136834,0.209779309156,0.033004138113,0.917742185464,0.395568356594,-0.0136265487281
0.221976369619,-0.0832380056381,-0.201500207186,-2.47649240494,-0.129221707582,2.39050173759,-0.698064267635,0.0758929401636,0.000264792703092,0.000541036715731,0.000247244315688,-0.000349991518306,9.5479463198e-06,0.0115905441344,0.000132008484798,0.465477151151,0.000925545225132,0.209792432836,0.0330273447567,0.917740645355,0.395572578391,-0.01355128287
0.22197702527,-0.0832395553589,-0.201502069831,-2.4764919281,-0.129222393036,2.3906443119,-0.698064804077,0.0758929401636,-0.000288302166155,-7.71598352003e-05,-0.000227376847761,-0.000788640987594,-9.762229638e-06,0.0101205511019,0.00202375464141,0.46550855101,0.000929487532596,0.209805618468,0.0330481561224,0.917739917153,0.395574892088,-0.013482146392
0.221974730492,-0.0832387059927,-0.20150360465,-2.47649693489,-0.129222050309,2.3907763958,-0.698064506054,0.0758929401636,-8.71186712175e-05,0.00113663985394,0.000159971183166,-0.00046380967251,2.08835062949e-05,0.00334064732306,-1.35382233566e-05,0.4655349345,0.000931881619772,0.20981456757,0.0330658827684,0.917740004732,0.395575264254,-0.0134216653919
0.221975922585,-0.0832402557135,-0.201501086354,-2.47649693489,-0.129222497344,2.39082527161,-0.698065757751,0.0758922770619,3.12446695716e-06,0.000390453409636,0.00015653698938,-0.000421116419602,6.83132529957e-05,0.00132500741165,0.000122568351799,0.465545752743,0.000935125762815,0.209819513966,0.0330732974972,0.917738699518,0.395578490412,-0.0133975372153
0.221977159381,-0.0832400470972,-0.201502516866,-2.47649741173,-0.12922231853,2.39088392258,-0.698065400124,0.0758922770619,-0.000194792912225,0.000271817814792,-4.776341666e-05,2.48817596002e-05,-7.71362283558e-06,0.00143922073767,-5.54623657081e-05,0.465558261017,0.000936910394311,0.209824273747,0.0330814849632,0.917738507429,0.395579191466,-0.0133697529938
0.221974000335,-0.0832404494286,-0.201502814889,-2.47649359703,-0.129222154617,2.39100384712,-0.698066353798,0.0758922770619,-0.00035449094139,3.41045779351e-05,5.59131112823e-05,-0.000166429308592,-9.68347667367e-05,0.0116237932816,-7.52472915337e-05,0.465587426244,0.000939123990856,0.209836914998,0.0331001784049,0.917738501022,0.395579743511,-0.013307446674
0.221974998713,-0.083236195147,-0.201501652598,-2.47649478912,-0.129221603274,2.39114665985,-0.698063910007,0.0758922770619,0.000129571664729,5.75785497858e-06,0.000107991625555,-7.475080929e-05,4.08367777709e-05,0.00191937549971,3.40924561897e-05,0.465616487572,0.000944726429949,0.209846456499,0.0331193261657,0.917737656317,0.39558224138,-0.0132436549785
0.221978694201,-0.0832340717316,-0.201502323151,-2.47649765015,-0.129222482443,2.39119315147,-0.6980651021,0.0758922770619,0.000659104203805,0.000364897918189,0.000101993035059,0.000107558378659,-2.7328307624e-05,0.00230587902479,0.000147767437738,0.465624656275,0.000947290984275,0.209848168496,0.0331253104894,0.917736421137,0.395585237728,-0.0132247682594
0.221978351474,-0.0832380279899,-0.201501622796,-2.47649884224,-0.129222348332,2.39124250412,-0.69806522131,0.0758922770619,-0.000270383490715,0.0002822856477,-0.00014912772167,0.000417469331296,0.00010564373224,0.00154444295913,0.000124346275697,0.465635328612,0.00094912170641,0.209853747769,0.0331325145656,0.917736099436,0.395586216664,-0.0131997400767
0.221977084875,-0.0832402333617,-0.201501742005,-2.47649502754,-0.129220575094,2.39130997658,-0.698063671589,0.0758922770619,-6.40587677481e-05,0.000471800740343,-0.000152694614371,-0.00032802176429,0.000102668207546,0.00765601219609,0.00254604639485,0.465651092279,0.000950666452792,0.209861957277,0.0331419402575,0.917736703934,0.39558513851,-0.0131663175905
0.221974939108,-0.0832397714257,-0.201502203941,-2.47649812698,-0.129222124815,2.3914103508,-0.698064625263,0.0758922770619,0.000356159434887,6.40584112261e-05,-0.000398343720008,0.000242679423536,-7.60524853831e-05,0.000650699075777,-0.00559818698093,0.465672337875,0.000952631668238,0.209869332039,0.03315676121,0.917736125496,0.395586835789,-0.013118238339
0.221973791718,-0.083239749074,-0.201502472162,-2.47649645805,-0.129222214222,2.39143443108,-0.698064088821,0.0758922770619,-0.000199122878257,0.000145524260006,-0.000102327991044,-2.77592389466e-05,4.30881118518e-05,0.00324551621452,-0.00099432701245,0.465678312595,0.000952731402757,0.209872084425,0.0331605380088,0.917736378908,0.395586337851,-0.0131059732758
0.221973121166,-0.0832364708185,-0.201501742005,-2.47649693489,-0.129221647978,2.39146375656,-0.698064804077,0.0758922770619,0.000320040853694,0.000526088580955,0.000369484594557,0.000172553045559,9.42692131503e-05,0.000100090866908,-0.000161418807693,0.465684076432,0.000953633326369,0.209872937437,0.0331641959075,0.917736110565,0.39558705947,-0.0130937212626
0.221978783607,-0.0832386165857,-0.201500535011,-2.47649741173,-0.129221409559,2.3915438652,-0.698066055775,0.0758922770619,-0.000182300776942,1.17552399388e-05,0.000155935296789,-0.00410856213421,-4.1597213567e-05,0.00197211327031,-0.00540650170296,0.465701526293,0.000959422526279,0.209880652614,0.0331758006932,0.917734104748,0.39559203821,-0.0130544328692
0.221976920962,-0.0832396224141,-0.201501235366,-2.4764957428,-0.129221767187,2.39156198502,-0.698065519333,0.0758922770619,-0.000249520322541,-9.38933953876e-05,-0.000302097789245,1.25090182337e-05,-7.24968340364e-05,0.00303736655042,-8.81144733285e-05,0.465706331574,0.000958810204044,0.209883355584,0.0331788783538,0.917734586722,0.395590987604,-0.0130445610359
0.221973925829,-0.0832387506962,-0.20150116086,-2.47649669647,-0.129221871495,2.39158296585,-0.698064386845,0.0758922770619,0.000218961577048,-0.00041420548223,-0.000159254297614,-2.78736406472e-05,-0.000118302756164,0.00291534001008,-3.11239564326e-05,0.465710366537,0.000958076184191,0.209884384869,0.0331816526433,0.917735234731,0.395589552599,-0.0130354293205
0.22197496891,-0.0832382589579,-0.201502174139,-2.47649598122,-0.129221662879,2.39160013199,-0.698065638542,0.0758922770619,0.000301809661323,0.000431980151916,0.0001881896751,-0.000131249544211,-8.47077608341e-05,0.00450838636607,0.000279788422631,0.46571435183,0.000958649427417,0.209885928702,0.0331840871296,0.917734919369,0.395590353961,-0.0130271127144
0.221977695823,-0.0832397788763,-0.201502412558,-2.47649717331,-0.12922206521,2.39164423943,-0.698068201542,0.0758929401636,-0.000771227467339,-0.000544623995665,8.31388460938e-05,-0.000281781191006,0.000204274896532,0.00173827121034,-0.000311487732688,0.465723281398,0.000961372644627,0.209889694784,0.0331902912587,0.917733521245,0.395593746249,-0.0130067735906
0.221974790096,-0.083237580955,-0.201500877738,-2.47649812698,-0.129221558571,2.39169359207,-0.698067307472,0.0758929401636,0.000204099764233,0.000447953440016,-8.98784492165e-05,8.56411934365e-05,-0.00016683524882,0.000784348114394,-0.000619358499534,0.465733628024,0.000962088111249,0.209892836622,0.0331970397888,0.917733823961,0.395593235354,-0.0129837101755
0.221978038549,-0.0832392647862,-0.201500326395,-2.4764995575,-0.129221335053,2.39175915718,-0.698067903519,0.0758929401636,7.89838304627e-05,-0.000203851072001,-9.65399158304e-05,4.08337837143e-05,-4.43271601398e-05,0.00240787258372,-7.39550978324e-06,0.46574743781,0.000965980609078,0.209898692039,0.0332062993106,0.917732617522,0.395596293619,-0.0129520878199
0.221978515387,-0.0832386314869,-0.201501309872,-2.47649502754,-0.129222154617,2.39181828499,-0.69806843996,0.0758929401636,-4.65926132165e-05,0.000864653964527,0.000405871105613,0.000608515110798,2.47587413469e-05,0.00452121905982,-0.000394243746996,0.465762231328,0.000967547173685,0.209905370124,0.0332157878852,0.917732185514,0.395597479895,-0.012922100761
0.221976950765,-0.0832381471992,-0.201500371099,-2.47649621964,-0.129221692681,2.39188241959,-0.698067128658,0.0758929401636,-0.000153130647959,0.000360047008144,-0.000148737861309,-0.00041773574776,-1.22399997053e-05,0.00279172090814,-4.33300047007e-05,0.465775578008,0.000969290785814,0.209910217439,0.0332246105159,0.917732255881,0.395597553423,-0.0128921362824
0.221973851323,-0.0832364335656,-0.201503351331,-2.47649908066,-0.129220843315,2.39191269875,-0.698067724705,0.0758929401636,0.000123499543406,-0.000256587954937,0.000221465728828,0.000245003931923,-2.28769931709e-05,0.00126572116278,-4.61424715468e-05,0.465781000779,0.000967697883538,0.209911057848,0.0332280363593,0.917733190578,0.395595524329,-0.0128790264869
0.221977487206,-0.0832399204373,-0.201501145959,-2.47649741173,-0.129222601652,2.39194869995,-0.698069095612,0.0758929401636,-4.59647017124e-05,-0.000202130671823,-0.000124808400869,-0.000435041292803,-8.36936305859e-05,0.000297153717838,3.66828753613e-05,0.465789670853,0.0009712484015,0.209916271338,0.0332343004621,0.917731397068,0.395599770596,-0.0128602213569
0.221979036927,-0.08323957026,-0.201500996947,-2.47649550438,-0.129221126437,2.39200377464,-0.698068857193,0.0758929401636,7.15841160854e-05,0.000136435570312,-0.000347218185198,0.000120420030726,0.000178669783054,-6.43089078949e-05,-0.000257783045527,0.465802428429,0.00097389495176,0.209921652517,0.0332420687028,0.917731037102,0.395600838396,-0.0128329555982
0.221978619695,-0.0832383260131,-0.201500207186,-2.47649908066,-0.129221498966,2.39201784134,-0.698066711426,0.0719279870391,-0.000263125286438,-0.000136908362038,6.38805795461e-05,-6.93898182362e-05,-2.83824774669e-05,0.000483438401716,-0.000249848875683,0.465803750545,0.000974428825348,0.209920850248,0.0332434675667,0.917731199757,0.395600488251,-0.0128284930559
0.221976354718,-0.0832368135452,-0.201501816511,-2.47649693489,-0.129222169518,2.39203000069,-0.698070406914,0.0719279870391,-0.000427862541983,0.00023782037897,0.000456775422208,-0.00031343838782,-0.000118994037621,7.19483796274e-05,0.000342941813869,0.465807171833,0.000972934695818,0.209922083844,0.0332455767102,0.917731067621,0.395600808269,-0.0128226101298
0.221976920962,-0.0832385346293,-0.201501563191,-2.47649502754,-0.129222437739,2.39204645157,-0.698068022728,0.0719279870391,2.20496949623e-05,-0.00025202325196,-0.000527020660229,-0.000429964391515,-4.94116247864e-05,0.000205239135539,-0.000115098468086,0.46581180349,0.000973861595457,0.209925074749,0.0332485694745,0.917731276275,0.39560038453,-0.0128129861781
0.221978977323,-0.0832408964634,-0.201501250267,-2.47649812698,-0.129222512245,2.39207005501,-0.698068261147,0.0719279870391,-0.000231927391724,0.000727923179511,0.000131850698381,-0.00353376497515,7.56992958486e-05,0.00070279679494,0.000596358266193,0.465815836759,0.000975755999788,0.209926926916,0.0332516392103,0.917730604499,0.395602042645,-0.0128019370215
0.2219812572,-0.0832391381264,-0.20150013268,-2.47649860382,-0.129221394658,2.39208602905,-0.698069632053,0.0719279870391,-0.000325202214299,-1.71209994733e-05,0.000110803957796,-0.000145794532727,1.72862728505e-05,0.000799106725026,0.000529885408469,0.465818872805,0.000977874631155,0.209927318309,0.0332533779827,0.917729720755,0.395604163704,-0.0127952271451
0.221977487206,-0.0832399129868,-0.201503098011,-2.47649621964,-0.129222095013,2.39210176468,-0.698067843914,0.0719279870391,-0.000653593626339,-0.000347407301888,-0.000334908458171,-0.000549526303075,2.16911666939e-05,-5.6125161791e-05,-0.000167557285749,0.465823451713,0.000975236382809,0.209929987899,0.0332562261417,0.917731239405,0.395600688359,-0.012786347915
0.221979081631,-0.0832365229726,-0.201501905918,-2.47649812698,-0.129222363234,2.3921277523,-0.698074102402,0.0719279870391,9.1520283604e-05,-2.52215613727e-05,0.000269779149676,-0.00120467110537,0.000154569555889,0.000287583447061,0.000504147901665,0.465827845899,0.000977221182067,0.209929928348,0.033259395364,0.917729204517,0.395605458999,-0.0127765523234
0.221978738904,-0.0832379087806,-0.201502606273,-2.47649693489,-0.129221573472,2.39214587212,-0.698073446751,0.0719279870391,-0.000323903106619,-0.000674999086186,-0.000245190109126,5.2453346143e-05,5.95513702137e-05,0.00129475945141,0.000133878027555,0.465832471045,0.000977422068724,0.209932604669,0.0332620602447,0.917729584954,0.395604674954,-0.0127665611902
0.221978247166,-0.0832384452224,-0.201501950622,-2.47649598122,-0.129222080112,2.39217162132,-0.698070049286,0.0719279870391,-1.02923313534e-05,-0.000108046224341,3.68470682588e-05,-0.000688630738296,-6.40603902866e-05,0.00230150134303,-0.000254432176007,0.465838560447,0.000978277689702,0.209935477396,0.0332661934937,0.917730010471,0.395603760515,-0.0127535327914
0.22197663784,-0.0832376182079,-0.201502814889,-2.47649884224,-0.129221856594,2.3922097683,-0.698072493076,0.0719279870391,0.000258706160821,-3.04131826852e-05,5.80656924285e-05,-0.000534448074177,2.99827297567e-06,0.00131032383069,0.000259584456217,0.465845768974,0.000978854569983,0.209937058356,0.0332711837539,0.917729759885,0.395604495206,-0.0127357452543
0.221978873014,-0.0832409188151,-0.201501786709,-2.47649645805,-0.129222095013,2.39228725433,-0.698073148727,0.0704163387418,-0.000284251611447,0.00387821113691,-0.000107852683868,0.00208850717172,-0.000106970292109,0.00247434410267,1.14596912226e-06,0.465863768734,0.000982356588389,0.209946424519,0.0332829095996,0.917728585518,0.395607471206,-0.012697230369
0.221976950765,-0.0832404494286,-0.201502040029,-2.4764945507,-0.129221901298,2.39230632782,-0.698071479797,0.0704163387418,-6.39052304905e-05,1.76329831447e-05,-1.90274477063e-05,-9.33999835979e-05,9.78148000286e-06,4.4794896894e-06,3.97169606003e-05,0.465868704061,0.000981956290451,0.209948640826,0.033285884166,0.917729279518,0.395605925299,-0.0126874339577
0.221976920962,-0.0832380726933,-0.20150193572,-2.47649669647,-0.129221528769,2.39231967926,-0.698073148727,0.0704163387418,0.000160461786436,-0.000101879362774,0.000205713848118,-0.000291935168207,-2.55182976616e-06,-0.000194357242435,0.000274987221928,0.465870471255,0.000982508234652,0.209947858676,0.0332871003742,0.917728897366,0.395606858786,-0.0126827777327
0.221983447671,-0.0832378715277,-0.201501756907,-2.47649788857,-0.12922115624,2.39235782623,-0.698070883751,0.0704163387418,-0.000208978628507,-0.000945305102505,-4.26346487075e-05,0.000166216457728,9.3058542916e-06,0.000150959152961,-0.000289302843157,0.465878085897,0.000986720563084,0.209950562615,0.0332922235049,0.917727813016,0.395609500159,-0.0126653912905
0.221981033683,-0.0832382887602,-0.201502174139,-2.4764957428,-0.129221901298,2.39236736298,-0.69807267189,0.0704163387418,1.90259834199e-05,-0.00012687034905,-0.000445679208497,-4.74590087833e-05,3.5777415178e-05,7.65129734646e-05,-6.33409654256e-05,0.46588117107,0.000985661636557,0.209952457799,0.0332942257903,0.917727872848,0.395609372322,-0.0126597843453
0.221980959177,-0.0832406654954,-0.201500043273,-2.47649884224,-0.129222005606,2.39238023758,-0.698070883751,0.0704163387418,-0.000328577007167,-0.000122160592582,-6.95694325259e-05,0.000104719372757,-4.11284509028e-06,0.0012318585068,0.000269359763479,0.465882879245,0.000987048769137,0.209953404181,0.0332958528147,0.917727719459,0.39560978101,-0.0126538520614
0.221979141235,-0.0832368284464,-0.201502263546,-2.47650241852,-0.129222407937,2.39239454269,-0.698071777821,0.063287563622,0.000279636617051,3.49549009115e-05,0.000349850830389,-2.18073382712e-05,-1.20807226267e-05,0.000205945674679,0.00013345615298,0.465883939478,0.000985497536314,0.209951419214,0.0332968867993,0.917728122591,0.395608861121,-0.0126506528991
0.221979260445,-0.0832389518619,-0.201503396034,-2.47649860382,-0.129222452641,2.39240050316,-0.698069095612,0.063287563622,-0.000432350119809,-0.00023940349638,0.000149023559061,0.000212953935261,-1.0668941286e-05,0.000198393900064,0.000180704257218,0.465887184183,0.000985290326333,0.209954453102,0.0332986322703,0.917728871199,0.395607159577,-0.0126449606153
0.221981495619,-0.0832398086786,-0.201502412558,-2.4764957428,-0.129221633077,2.39240837097,-0.698071181774,0.063287563622,4.22304801759e-05,-0.000723404984456,-0.000318359961966,-0.000694056390785,-2.86256977233e-06,0.000230130608543,0.00430769566447,0.465890259362,0.000987126125279,0.209956698793,0.0333001608149,0.917727940267,0.395609369812,-0.0126393489025
0.221982374787,-0.0832389593124,-0.201502531767,-2.47649693489,-0.129221707582,2.39242482185,-0.698073089123,0.063287563622,0.000254097743891,6.84662736603e-05,0.000512243015692,0.000272576551652,-5.18241286045e-05,0.00420845998451,0.000251638150075,0.465893350497,0.000987896931684,0.209957299937,0.0333022095224,0.917727476111,0.395610505831,-0.0126320935892
0.221982717514,-0.0832363441586,-0.201502546668,-2.47649645805,-0.129221871495,2.39244651794,-0.698070347309,0.063287563622,0.000274323858321,-0.000496266235132,-0.000103933998616,-0.000233516388107,6.76120762364e-05,5.22314621776e-06,-0.000180095332325,0.465897814039,0.000988722400976,0.209958137066,0.0333052613116,0.917727588101,0.395610275725,-0.0126231149097
0.221978724003,-0.0832384079695,-0.201502218843,-2.4764995575,-0.12922154367,2.39245343208,-0.698071658611,0.063287563622,0.000312834366923,0.000460966053652,-0.000322273292113,-0.000188580495887,-0.000151410800754,-2.51564451901e-05,-0.00175656483043,0.465898187012,0.00098730429972,0.20995840695,0.033305736658,0.917728053714,0.395609246193,-0.012620274912
0.221977218986,-0.0832390487194,-0.201503127813,-2.47649502754,-0.129222214222,2.39246439934,-0.698071062565,0.063287563622,0.000325413187966,0.00021496489353,0.000428083993029,0.000504452968016,4.05103055527e-05,0.000275229744148,0.000144045770867,0.465902667427,0.000986509032851,0.209961499198,0.0333083864247,0.917728531779,0.39560815529,-0.012612711921
0.221978798509,-0.0832369476557,-0.20150116086,-2.47649598122,-0.129221752286,2.39247870445,-0.698071420193,0.063287563622,-4.30336876889e-05,0.000489754194859,0.000142582211993,-2.08882793231e-05,-9.72012494458e-05,-0.000129821026349,0.000121375538583,0.465905095451,0.000988569284807,0.209961407255,0.0333100172992,0.9177277165,0.395610083377,-0.0126072489743
0.221980825067,-0.0832383036613,-0.201501250267,-2.47649884224,-0.129221975803,2.39249229431,-0.698072373867,0.063287563622,3.09454480885e-05,5.30173838342e-06,-7.78702451498e-05,-0.000308731687255,2.31949888985e-06,0.000183381765964,-0.000308260758175,0.465906938657,0.000989912204576,0.209962031349,0.0333116274039,0.917727014782,0.395611761695,-0.012601408977
0.221982195973,-0.0832357704639,-0.201500922441,-2.47649812698,-0.129221960902,2.39250302315,-0.698071718216,0.0622060336173,0.000249930977589,0.000483745185193,-0.000365522195352,0.000110692941234,2.42617788899e-05,0.00238781026565,-0.000103755999589,0.465909282339,0.000990972876797,0.2099621049,0.0333130908291,0.917726729776,0.395612435302,-0.0125971484339
0.221977815032,-0.0832385644317,-0.201500937343,-2.47649788857,-0.129221782088,2.39251065254,-0.69807267189,0.0622060336173,0.000252331781667,-9.24600244616e-05,9.51974070631e-05,0.000138371367939,2.51540914178e-05,0.000110059292638,-0.00148481444921,0.465911383689,0.000989257018389,0.209964133007,0.0333143947403,0.917727423518,0.395610877436,-0.0125920832937
0.221979573369,-0.0832389220595,-0.201501592994,-2.47649860382,-0.129221469164,2.39251875877,-0.6980727911,0.0622060336173,-6.73594040563e-05,0.000139905503602,-0.000250846787822,0.000333412899636,-1.24947500808e-05,0.00108077027835,0.00227201567031,0.465912864026,0.000990068235385,0.209964698118,0.0333153344777,0.917727179796,0.395611483999,-0.0125883025465
0.221981689334,-0.0832383334637,-0.201501831412,-2.47649884224,-0.129220917821,2.39253973961,-0.698070645332,0.0622060336173,-0.000380285113351,-0.000666774692945,-0.000231471756706,-0.000190556631424,4.91070277349e-05,0.00235570920631,3.74281626137e-05,0.465917237558,0.000991637483619,0.209966146303,0.0333180825278,0.917727187505,0.395611545537,-0.0125785297074
0.221976995468,-0.0832397192717,-0.201501995325,-2.47650027275,-0.129222050309,2.39254879951,-0.698071062565,0.0622060336173,0.000882133841515,0.000212529790588,0.000270534917945,0.000414554495364,-6.43025123281e-05,0.00048632506514,-0.00392034184188,0.46591839288,0.000989216150401,0.209966933548,0.0333193268103,0.917728069011,0.395609514312,-0.0125748032404
0.221979394555,-0.0832367762923,-0.20150244236,-2.47649598122,-0.12922206521,2.3925549984,-0.698073804379,0.0622060336173,-0.000165443270816,-5.21873880643e-05,-2.73790919891e-05,0.000171237057657,1.49248935486e-05,-0.000124551879708,-0.000248082127655,0.465921650229,0.000990641174949,0.209967933775,0.0333209707032,0.917726881644,0.395612254661,-0.0125708895063
0.221981287003,-0.0832380652428,-0.201499819756,-2.47649741173,-0.129222363234,2.3925652504,-0.698071658611,0.0622060336173,0.000525101087987,0.000196815599338,-0.000254343642155,0.000358844787115,3.45314037986e-05,-1.89543479792e-05,-0.000103619386209,0.465923400451,0.000993044127139,0.20996884708,0.033322535113,0.917726302956,0.395613622144,-0.0125659528709
0.221982017159,-0.0832368209958,-0.20150154829,-2.47649717331,-0.129221141338,2.39257931709,-0.698071599007,0.0622060336173,0.000316593796015,-0.000247501797276,-0.000111284738523,8.00116904429e-05,3.39327780239e-05,0.00192610488739,0.00142086308915,0.465926398111,0.000993112276991,0.209969576454,0.0333240135374,0.9177266114,0.395612984199,-0.0125595885608
0.22198395431,-0.0832384899259,-0.201501578093,-2.47649788857,-0.129221454263,2.39258790016,-0.698072373867,0.0622060336173,-0.000217389693717,8.40897628223e-05,5.16645195603e-05,-0.000520880101249,-6.1049235228e-05,0.00297796702944,-1.494404205e-05,0.465928146092,0.000994289236867,0.20997078834,0.0333253697539,0.917725990556,0.395614455599,-0.0125550065899
0.221980080009,-0.083239376545,-0.201501697302,-2.47649788857,-0.129222244024,2.39259839058,-0.698072314262,0.0575647130609,-7.66043740441e-05,-0.000643824401777,0.000294885219773,0.00339435902424,-0.000123123041703,0.000132627319545,0.000374242430553,0.465930542843,0.000992718702878,0.209972104756,0.0333271797441,0.917726615677,0.395613021337,-0.0125497011004
0.221980825067,-0.0832384973764,-0.201499715447,-2.47649407387,-0.129220992327,2.39260697365,-0.698072969913,0.0575647130609,-1.60631898325e-05,-0.000237822721829,-0.000370481371647,0.0034703835845,-0.000131292050355,0.00236175139435,-4.35712900071e-05,0.465933987342,0.000994328199805,0.209974019771,0.0333287382357,0.917726119677,0.395614218186,-0.0125441030492
0.2219812572,-0.0832396745682,-0.201500341296,-2.47649979591,-0.129221871495,2.3926346302,-0.698073029518,0.0575647130609,-0.000141862721648,2.89752351819e-05,4.7491677833e-05,5.55473088752e-05,0.000146000325913,0.000148510851432,-6.64368562866e-05,0.465937600103,0.000995061163756,0.209974610932,0.033331992301,0.917725800522,0.395615035349,-0.0125330296285
0.221981152892,-0.0832390263677,-0.201500311494,-2.47649884224,-0.129221275449,2.3926448822,-0.698073685169,0.0575647130609,0.000339568505296,0.000417953880969,1.16872306535e-05,0.0005475411308,-3.81434401788e-05,-1.80609822564e-05,0.00591496843845,0.465940274722,0.000995688522025,0.209975521929,0.0333334251763,0.91772560707,0.395615525489,-0.0125279115219
0.221984550357,-0.0832397639751,-0.201500505209,-2.47649884224,-0.129221141338,2.39266204834,-0.698071360588,0.0575647130609,-0.000549739052076,0.000636766373646,0.000232901482377,-0.000454298948171,-0.000125151142129,0.00248651206493,-0.000364384672139,0.465943980319,0.00099745241406,0.209977413643,0.0333359000631,0.917725474038,0.39561589946,-0.0125192589739
0.221981987357,-0.0832379981875,-0.20150257647,-2.47649621964,-0.129222109914,2.39268136024,-0.698071658611,0.0575647130609,5.53578065592e-05,0.000594057433773,-0.000306053640088,0.000136246322654,6.83735852363e-05,0.00167605164461,-0.000178884263732,0.465949138933,0.000995804227928,0.209979347175,0.0333391956015,0.917726075898,0.395614523488,-0.0125098417127
0.221981793642,-0.0832371115685,-0.201502963901,-2.47650170326,-0.129222273827,2.39272069931,-0.698073327541,0.0575647130609,-0.000160271360073,0.000275012047496,-0.000303607870592,-0.000238749140408,-5.27004776814e-05,-5.74197656533e-05,7.36121501177e-06,0.465955141573,0.000996727266998,0.209980108679,0.0333437473439,0.917725539277,0.395615884177,-0.0124940361766
0.221980109811,-0.0832401961088,-0.201502636075,-2.47650122643,-0.129222333431,2.39275312424,-0.698072195053,0.0575647130609,-0.000253187463386,0.000138672578032,0.000437240378233,0.000233015103731,8.7078064098e-05,0.00489799724892,-0.000262584595475,0.465962769917,0.00099719455154,0.209984521898,0.0333488011778,0.917725864428,0.395615248119,-0.0124767926889
0.221978574991,-0.0832399874926,-0.201503232121,-2.47649645805,-0.129220992327,2.39279198647,-0.698073387146,0.0575647130609,0.000438786722952,0.000154341279995,-1.97073995878e-06,0.000259529188043,-0.00011553926015,0.000101021578303,-0.000463556003524,0.465973294153,0.00099755396193,0.209989736728,0.0333547747753,0.917726074182,0.395614913446,-0.0124559907801
0.221981287003,-0.0832396894693,-0.201502293348,-2.47649598122,-0.129222273827,2.39284396172,-0.698072969913,0.0575647130609,0.000158820999786,0.000917722238228,5.91881544096e-05,6.98244693922e-05,-3.35713252753e-06,0.00461353221908,-0.000477971538203,0.46598477136,0.00100077004367,0.209994320851,0.0333627652585,0.917724926047,0.395617685393,-0.0124311178966
0.221984609962,-0.0832372233272,-0.201499655843,-2.47649598122,-0.129221946001,2.39289236069,-0.698073387146,0.0575647130609,1.19586065921e-05,1.77803376573e-05,-0.000347131455783,0.000452620181022,0.00010143682448,-0.000148239341797,-0.000468866986921,0.465994985154,0.00100500495758,0.209997418724,0.0333695153054,0.917723401538,0.395621345199,-0.0124090539991
0.221983239055,-0.0832364857197,-0.201502948999,-2.4764995575,-0.129221513867,2.39290928841,-0.698073148727,0.0575647130609,-0.000504836905748,6.12938965787e-05,9.60569886956e-05,-0.000211910984945,-1.232863724e-05,0.00023260099988,-0.000343328516465,0.465996976729,0.00100341082778,0.209997057576,0.0333709020151,0.917724297202,0.395619341371,-0.0124029689578
0.22198137641,-0.0832392424345,-0.201502516866,-2.47650003433,-0.129221916199,2.39291906357,-0.698073387146,0.0558573789895,0.000459665257949,0.000146500271512,0.000152157488628,0.000172394662513,2.82995733869e-05,0.0020185795147,0.000113872069051,0.46599922512,0.00100308735885,0.209998970333,0.0333726040597,0.917724433574,0.395619061273,-0.0123972318909
0.221981063485,-0.0832388326526,-0.201501384377,-2.4764957428,-0.129220604897,2.39293265343,-0.698073506355,0.0558573789895,-0.000125207239762,0.000568839313928,-0.000539403874427,3.6739063944e-05,-8.46002003527e-05,0.00022983145027,0.000161625517649,0.466003857974,0.00100423296336,0.21000179324,0.0333748930472,0.917724387859,0.395619229446,-0.0123890846183
0.221981063485,-0.0832388699055,-0.2015016675,-2.47649788857,-0.129222363234,2.39294862747,-0.698073625565,0.0558573789895,-0.000167460369994,-0.000216477026697,-0.000171466308529,-0.00150818168186,6.22120205662e-05,0.00045069216867,0.000104172511783,0.466006561603,0.00100421841246,0.210002254591,0.0333773924204,0.917724050641,0.395620012566,-0.0123823216272
0.221982061863,-0.0832394510508,-0.201501727104,-2.47650051117,-0.12922167778,2.39296793938,-0.698072075844,0.0558573789895,-0.000171269988641,-0.000378860393539,0.000793096434791,-0.000625193468295,-6.48407440167e-05,-5.9720918216e-05,0.000285416695988,0.466009652342,0.00100533236613,0.210003116485,0.0333795149026,0.917724142949,0.395619883229,-0.0123738881789
0.221984505653,-0.0832386538386,-0.201501041651,-2.47650003433,-0.12922167778,2.39297986031,-0.698074102402,0.0558573789895,-0.000137321796501,-0.000215814856347,3.96557661588e-05,0.000224095521844,-3.47383247572e-05,0.00284688803367,-0.000360112317139,0.466012356353,0.00100713851365,0.210003989447,0.0333812753749,0.91772304825,0.395622447562,-0.0123683398642
0.221987113357,-0.0832382962108,-0.201501280069,-2.4764983654,-0.129221946001,2.39299845695,-0.698073685169,0.0518050901592,0.000305591907818,0.000316207500873,-0.00016492017312,-0.000375913659809,-8.94947515917e-05,0.000585767440498,-0.000369320943719,0.466017094315,0.00100880442191,0.210006123572,0.0333843163789,0.917722521797,0.395623709581,-0.0123588229641
0.221986636519,-0.0832387804985,-0.201499819756,-2.47649621964,-0.129222214222,2.39301085472,-0.698074877262,0.0518050901592,-0.00013458338799,0.000102781137684,7.50726394472e-05,-0.000370668451069,1.12071666081e-05,0.000575111655053,-0.000126317478134,0.466020804046,0.00100963326752,0.210008312251,0.0333866863444,0.917722000125,0.395624942078,-0.0123517022441
0.221981421113,-0.0832351744175,-0.201502904296,-2.47650074959,-0.129222214222,2.39306473732,-0.698073148727,0.0518050901592,0.000255046412349,-0.000285474816337,-0.000116506809718,-0.000175609660801,-9.79422329692e-05,0.000338656740496,-0.000465237448225,0.466030062336,0.00100739199995,0.210009468335,0.0333930633238,0.917723582693,0.395621414044,-0.0123298630653
0.221982806921,-0.083238594234,-0.201503381133,-2.47649908066,-0.129221647978,2.39309191704,-0.698073089123,0.0518050901592,-0.000119677577459,-0.000539579603355,0.00014699267922,0.00409026071429,2.42663554673e-05,5.76882266614e-05,0.000184694130439,0.466036495964,0.0010087246466,0.210013569524,0.0333970091188,0.917723362097,0.395622040118,-0.0123154982677
0.221984550357,-0.0832381471992,-0.201500177383,-2.47649526596,-0.129222512245,2.39312338829,-0.698074817657,0.0518050901592,0.000456135487184,4.91512801091e-05,0.000180333736353,-0.000212633633055,-0.00011649991211,0.00351318251342,0.000162319964147,0.46604559846,0.00101201018755,0.210018181766,0.0334030099417,0.917721775679,0.39562576479,-0.0122977757334
0.221987977624,-0.0832408815622,-0.20150052011,-2.47649765015,-0.129222288728,2.39316391945,-0.698073744774,0.0518050901592,-9.15195341804e-05,9.29849484237e-05,-0.00019488648104,-0.000103057107481,-5.23515009263e-05,0.00781906675547,-0.000206046097446,0.466053663493,0.0010148173733,0.210021964001,0.0334085647269,0.917721171633,0.395627309979,-0.0122780380824
0.221984088421,-0.0832388848066,-0.2015016675,-2.4765021801,-0.129221558571,2.39322209358,-0.69807267189,0.0518050901592,5.89263363509e-05,0.000242427398916,-0.000512151862495,0.000508958066348,3.95725692215e-06,0.0019276838284,-0.00024648863473,0.466064040234,0.00101431453294,0.21002423827,0.0334155656547,0.917722080051,0.395625380146,-0.012253245465
0.221982970834,-0.083239980042,-0.201502397656,-2.47649788857,-0.129220560193,2.39325332642,-0.698075056076,0.0518050901592,0.000472781364806,0.000206399607123,0.000530212651938,5.551868162e-05,-4.44259349024e-05,3.11521653202e-05,6.32695882814e-05,0.466073130213,0.00101497707915,0.210029250791,0.0334206541913,0.917721883256,0.395625963691,-0.0122352524258
0.22198484838,-0.0832410305738,-0.201501101255,-2.47649645805,-0.129221200943,2.39327764511,-0.698072612286,0.0518050901592,9.80831609922e-05,-2.73845726042e-05,-7.07727595e-05,-0.000261497771135,0.000104071790702,-6.56562187942e-05,-6.53439055895e-05,0.466079430815,0.00101677849299,0.21003263369,0.033425034608,0.917721605327,0.39562665709,-0.0122217044013
0.221986010671,-0.0832377299666,-0.201501697302,-2.4764983654,-0.129222407937,2.39334797859,-0.698074758053,0.0518050901592,-4.72987194371e-05,-0.000632056791801,-0.000249042379437,0.000102887650428,-6.32073133602e-05,0.000442926335381,-0.00055354059441,0.46609294312,0.0010190771352,0.210036212945,0.0334344972185,0.917720423444,0.395629519069,-0.0121918871132
0.221986487508,-0.0832355618477,-0.201502472162,-2.47649645805,-0.129221946001,2.39337062836,-0.698073685169,0.0518050901592,0.000788618403021,-1.77715890004e-07,-1.11124054456e-05,-0.000299778359476,-4.07633597206e-05,0.00213321414776,9.40215031733e-05,0.466098443821,0.00101964693164,0.210037965913,0.0334377287622,0.917720627339,0.395629103474,-0.0121811582781
0.221985757351,-0.0832365229726,-0.201500609517,-2.47650074959,-0.129222199321,2.39340162277,-0.698073267937,0.0518050901592,0.00017046299763,-0.000555060454644,-3.60552985512e-05,-0.000298555445625,-1.60992804012e-05,0.000378639815608,0.000112526082376,0.466103474307,0.00102130184678,0.210039417596,0.0334417107595,0.917720190396,0.395630206235,-0.0121673216526
0.221987858415,-0.0832372382283,-0.201501011848,-2.47649812698,-0.129222050309,2.3934545517,-0.698073804379,0.0517991818488,0.00167411472648,-9.182755457e-05,-0.000157457252499,-0.000490942969918,-0.000149764775415,0.00425372645259,-0.000384501559893,0.466116129753,0.00102363057028,0.210045349191,0.0334497123025,0.917719515392,0.395631906869,-0.0121409128428
0.221987009048,-0.0832377448678,-0.201501175761,-2.47649741173,-0.129222169518,2.39349317551,-0.698073804379,0.0517991818488,-0.000186602570466,-0.00034441932803,0.00020736346778,0.000148440652993,8.01858259365e-05,0.00109457480721,1.09678342142e-06,0.466125622474,0.00102469228969,0.210049702193,0.0334558786797,0.917719445045,0.395632185653,-0.0121201371804
0.221985295415,-0.0832386538386,-0.201501324773,-2.47650074959,-0.129220962524,2.39354324341,-0.698075354099,0.0517991818488,0.00377275072969,-0.000786259188317,-7.18518203939e-05,-0.000358513760148,9.98100222205e-05,0.00226370850578,8.55070247781e-05,0.466134385562,0.00102521531167,0.210052617106,0.0334616777745,0.91771939429,0.395632462093,-0.0120989290036
0.221985906363,-0.0832378342748,-0.201501920819,-2.47649884224,-0.129221379757,2.3935790062,-0.698074102402,0.0517991818488,0.00406730780378,-0.00046383307199,-0.000199951944523,0.000161150761414,-8.33641897771e-05,0.000350241403794,-7.79976762715e-05,0.466142903797,0.00102630567578,0.210056131003,0.0334672060945,0.917719365676,0.395632598034,-0.0120813506863
0.221984982491,-0.0832387655973,-0.20150090754,-2.47649717331,-0.129221394658,2.39363384247,-0.698073744774,0.0481146238744,-0.000250418001087,0.000565157271922,0.000338994315825,6.49137800792e-05,0.000118452968309,0.000128640880575,4.53511347587e-05,0.466155667287,0.00102809453924,0.210062013261,0.0334755169293,0.917719104513,0.39563333879,-0.0120538747444
0.221985056996,-0.0832399949431,-0.201500609517,-2.47650074959,-0.129222482443,2.39365267754,-0.698073446751,0.0481146238744,-0.000139177514939,-0.000486290489789,5.83844084758e-05,-0.000110353619675,3.64119659935e-05,5.56557424716e-05,-0.000164903438417,0.466158325951,0.0010287921936,0.210062754287,0.0334780240436,0.917718780985,0.395634116345,-0.0120460200677
0.221987679601,-0.0832378342748,-0.201501280069,-2.47649788857,-0.129221767187,2.39369034767,-0.698073863983,0.0481146238744,0.000308889342705,0.000377459509764,-0.000363789818948,-0.000645652587991,3.76714160666e-05,0.00117148074787,-1.40247502713e-05,0.466167507845,0.00103090760493,0.210066207913,0.0334835165659,0.917718199879,0.395635559378,-0.0120276168456
0.221987873316,-0.0832369551063,-0.201500490308,-2.47649979591,-0.129221618176,2.39371418953,-0.69807267189,0.0481146238744,5.54607577214e-05,0.00112236803398,3.28691021423e-05,0.00320135755464,8.28278207337e-05,0.00264589581639,-0.000173064647242,0.466171995475,0.00103201032396,0.210066875007,0.0334866885792,0.917718076562,0.395635896641,-0.0120170965443
0.221984922886,-0.0832391083241,-0.201501891017,-2.47650051117,-0.129222109914,2.39374136925,-0.698073208332,0.0481146238744,-4.75439446745e-05,-0.000256829778664,-0.000249131000601,2.42230871663e-05,1.77903639269e-05,0.000259726919467,0.000404595135478,0.466177579147,0.00103095408251,0.210070146422,0.0334905253297,0.917718615106,0.395634724491,-0.0120038601644
0.221986725926,-0.0832380950451,-0.201500356197,-2.47650241852,-0.12922231853,2.39375901222,-0.698073804379,0.0481146238744,-0.000388945656596,0.000123059406178,0.00040572398575,-0.00140148890205,7.93021026766e-05,0.000404677819461,0.000191588245798,0.466180873928,0.00103298756803,0.210070511771,0.0334929887512,0.917717843493,0.395636548126,-0.0119958704522
0.221987694502,-0.0832358300686,-0.201500862837,-2.47650408745,-0.129221886396,2.39382624626,-0.698073744774,0.0481146238744,0.000354592484655,0.000299174280372,0.000321213447023,6.50127840345e-05,-2.98760969599e-05,0.000223710434511,-6.85263003106e-05,0.466194022332,0.0010353131255,0.210074578345,0.0335017115171,0.917717201957,0.395638189389,-0.011966425335
0.221985921264,-0.0832364782691,-0.201500535011,-2.47650551796,-0.129222273827,2.39385032654,-0.698072552681,0.0481146238744,-3.87566797144e-06,0.000104839498817,-3.33612206305e-06,-4.3421969167e-05,-9.19219382922e-05,0.00294123776257,-0.000139927127748,0.466198698772,0.0010353769459,0.210076386718,0.0335050912276,0.917717506388,0.39563753363,-0.0119552915167
0.221990257502,-0.083238363266,-0.201499596238,-2.47650742531,-0.129222035408,2.39387845993,-0.698073089123,0.047986574471,-4.56507659692e-05,0.00019171963504,-8.77379570738e-05,-0.000627570552751,6.51369482512e-05,0.00431330548599,0.000236721796682,0.46620417986,0.0010387792584,0.210078916582,0.0335089299526,0.917716218931,0.395640605866,-0.011941683083
0.22199088335,-0.0832376778126,-0.201501250267,-2.47650909424,-0.129220694304,2.39390039444,-0.698074102402,0.047986574471,-5.41461758985e-07,-0.000371577392798,5.38098720426e-05,0.000574786332436,-7.87071803643e-06,6.53854949633e-05,0.0001326171041,0.466208102661,0.00103910063726,0.210079807005,0.0335111879581,0.917716274059,0.395640573866,-0.0119321666306
0.221984386444,-0.0832397416234,-0.201500982046,-2.47650694847,-0.129221171141,2.39392638206,-0.698072552681,0.047986574471,-0.000351971044438,0.000674783659633,0.00412633409724,0.000305930589093,-5.82189568377e-05,-7.98838154878e-05,0.000107195897726,0.466214958065,0.0010370354216,0.210083890619,0.0335156432935,0.9177176171,0.395637512586,-0.011917853666
0.221986442804,-0.0832398757339,-0.201501369476,-2.47650671005,-0.129220873117,2.39393472672,-0.698073267937,0.047986574471,0.000316064775689,0.000692930945661,0.000378131459001,-0.00014041904069,-4.82103860122e-05,0.00021801974799,0.000401660014177,0.466216886401,0.00103811052352,0.210084770142,0.0335167910833,0.917717144058,0.395638639776,-0.0119136314874
0.221985757351,-0.0832387283444,-0.201501563191,-2.47650933266,-0.129222139716,2.39395070076,-0.698074579239,0.047986574471,0.000139779163874,-0.000456769805169,-0.000210406840779,0.000277171173366,4.2248317186e-05,0.00131758407224,-0.000261254550423,0.466219064279,0.00103806333708,0.210084569437,0.0335188688359,0.917716725335,0.395639606472,-0.0119079362067
0.221987172961,-0.0832343101501,-0.201502293348,-2.47651028633,-0.12922231853,2.39396309853,-0.698073685169,0.047986574471,6.81676101522e-05,-0.00107087567449,0.000155597081175,0.000538945547305,-4.95816275361e-05,0.00208320678212,-0.000311844662065,0.466220801838,0.0010386456866,0.210083241942,0.0335200980283,0.917716610928,0.395639868092,-0.0119046004734
0.221989825368,-0.0832376778126,-0.201500177383,-2.47651433945,-0.129221856594,2.3939807415,-0.698075532913,0.047986574471,-3.36959346896e-05,0.000183903786819,-0.0001524129475,-0.000985717168078,1.73070311575e-05,0.000288307666779,-0.000136828195537,0.466223230053,0.00104152041098,0.210084664111,0.0335221310028,0.917715256617,0.395643087141,-0.01189629287
0.22198921442,-0.0832364559174,-0.201500400901,-2.47651124001,-0.129221901298,2.39398765564,-0.698073327541,0.047986574471,-0.000156857422553,0.000828234828077,-0.000282934663119,-5.73139805056e-05,0.000203334260732,0.00226020603441,0.000449725659564,0.466225963123,0.00104132341545,0.210085977589,0.0335236059078,0.917715826239,0.395641766055,-0.0118921298196
0.221986830235,-0.0832419991493,-0.201500028372,-2.47651219368,-0.129221484065,2.39399862289,-0.698073625565,0.047986574471,0.00021728136926,0.000679933174979,0.000265633862,0.00115047313739,9.78214302449e-06,0.00135040457826,5.9162866819e-05,0.466228583891,0.00104090978281,0.21008906405,0.0335253763257,0.91771620551,0.395640962718,-0.011884594497
0.221986651421,-0.0832390338182,-0.201500639319,-2.47651219368,-0.129222124815,2.3940076828,-0.69807356596,0.047986574471,-0.000196324472199,-0.000361331010936,0.000536319857929,-0.00140891119372,2.98171562463e-05,4.08833693655e-05,0.000150888925418,0.466230201095,0.00104070080739,0.210088501707,0.0335265791681,0.917716189162,0.395640982884,-0.0118817920873
0.22198843956,-0.083236515522,-0.201500818133,-2.47651600838,-0.129221007228,2.39402318001,-0.698072910309,0.0470915362239,-0.000316825578921,0.000722079828847,0.000270393909886,0.000443213793915,1.40758174894e-05,-5.35591643711e-05,-0.00012774017523,0.466231555353,0.00104195770865,0.210087133453,0.0335275000305,0.917716018488,0.395641438215,-0.0118772135438
0.221988871694,-0.0832372382283,-0.201500028372,-2.4765150547,-0.129221245646,2.39402723312,-0.698074519634,0.0470915362239,0.000153031724039,7.09403366272e-06,-0.000316937890602,-0.00064200774068,2.42495498242e-05,-4.09299318562e-05,-0.000101616191387,0.466232948693,0.00104264828106,0.210088213694,0.0335284333309,0.917715411435,0.395642848189,-0.0118745160573
0.221988856792,-0.0832392424345,-0.20150180161,-2.47651433945,-0.129222378135,2.39403533936,-0.698074281216,0.0470915362239,-9.23261759453e-05,0.000748414022382,-1.96556247829e-05,-0.00303719053045,-9.90933112917e-05,-3.7398927816e-05,6.8529247983e-06,0.466235275766,0.00104205243232,0.21009011576,0.033530196338,0.917715611587,0.395642386315,-0.0118694572326
0.221988499165,-0.0832376927137,-0.201501190662,-2.47651720047,-0.129221349955,2.39404201508,-0.698074638844,0.0470915362239,8.83441680344e-05,-0.000265869108262,2.87430539174e-05,0.000327402085532,-0.000132732558995,2.21081372729e-05,9.88837928162e-05,0.466235258815,0.00104241074854,0.210088818553,0.0335301675225,0.917715567505,0.395642527523,-0.0118682400048
0.221989199519,-0.0832372531295,-0.201501488686,-2.47652006149,-0.129221796989,2.39404940605,-0.698076069355,0.0470915362239,0.000183266136446,0.000857506820466,-5.79438310524e-05,0.00050743331667,-2.74676367553e-05,0.000653610040899,-9.84118232736e-05,0.466235542426,0.00104277839919,0.210088089881,0.0335307743935,0.917715057566,0.395643716945,-0.0118663055834
0.221989497542,-0.0832388177514,-0.201501592994,-2.47651767731,-0.129222840071,2.39405441284,-0.6980727911,0.0470915362239,-1.73227836058e-05,-0.000125231163111,0.00024866629974,-0.000174952481757,9.26613502088e-05,0.000160818672157,0.000395060516894,0.46623788646,0.00104298930548,0.210090219453,0.0335324354455,0.917715511138,0.395642650404,-0.011862093076
0.221992194653,-0.083237528801,-0.201499044895,-2.47651600838,-0.129220336676,2.39405608177,-0.698073983192,0.0470915362239,9.35841890168e-05,-0.000209410703974,0.000170684972545,3.21408151649e-05,-8.60213767737e-05,3.73180296265e-06,-0.00025798715069,0.466238811899,0.00104563663691,0.210090468331,0.0335321941671,0.917714621148,0.395644773033,-0.0118608321055
0.221985682845,-0.0832348242402,-0.201500743628,-2.47652029991,-0.129221901298,2.39406204224,-0.698073446751,0.0451228506863,0.00017840640794,-0.000814830127638,-0.000346311600879,0.000238983004238,6.52281596558e-05,1.05411791083e-05,0.000188811507542,0.466237894286,0.00104180131659,0.210087993462,0.0335323810727,0.917716003873,0.395641527467,-0.0118615799455
0.221989139915,-0.083237439394,-0.201502814889,-2.47652029991,-0.129222512245,2.3940653801,-0.698074758053,0.0451228506863,0.000627785455436,-0.000250700075412,2.70447380899e-05,-0.000431499240221,-3.58425353397e-07,0.00154902727809,0.005565777421,0.466238932359,0.00104259649178,0.210089460032,0.0335332121566,0.917715379924,0.395642989221,-0.0118587476325
0.221988797188,-0.0832389220595,-0.201500624418,-2.47651958466,-0.129222214222,2.39406847954,-0.698075711727,0.0451228506863,7.32015541871e-05,-0.000697515381034,0.000247157149715,0.000262827874394,5.00313035445e-05,-0.000245755945798,0.00017508683959,0.466240101049,0.00104359732135,0.210090714099,0.0335339263197,0.917714872683,0.39564418239,-0.0118561740962
0.221989378333,-0.0832416564226,-0.20150257647,-2.47651815414,-0.129222035408,2.39407157898,-0.698073983192,0.0451228506863,0.000388902728446,-0.000148212551721,9.4229260867e-05,0.000143670258694,3.51281123585e-05,0.000294449768262,0.000123024510685,0.466241732889,0.00104317122991,0.210092796427,0.0335347560041,0.917715535159,0.395642681157,-0.0118526450822
0.221990510821,-0.0832371860743,-0.201502412558,-2.47652840614,-0.129221439362,2.39407157898,-0.698074996471,0.0451228506863,8.17239342723e-05,-0.000785183510743,0.000482715840917,0.000137408220326,9.79319593171e-05,-7.53896019887e-05,0.000455078639789,0.466236633501,0.00104367604252,0.210086560689,0.0335322352289,0.917715030893,0.395643858634,-0.0118595143531
0.221987590194,-0.083238735795,-0.2015016675,-2.47652792931,-0.129222139716,2.39407396317,-0.69807523489,0.0451228506863,-0.000958476855885,-0.000687938008923,0.000347332563251,0.000458887196146,-6.58846283841e-06,0.000190434788237,0.000349072157405,0.466237559652,0.00104271298357,0.210087679126,0.0335330501286,0.917715308531,0.395643205513,-0.0118575144696
0.221988081932,-0.0832357481122,-0.201502457261,-2.47652411461,-0.129221186042,2.39407610893,-0.698076307774,0.0451228506863,2.10455964407e-05,-0.000134725065436,0.000635598495137,-0.000222312068217,-9.50470857788e-05,0.000144241013913,0.000246354233241,0.466239352037,0.00104265962964,0.210088056553,0.033533453491,0.917715299681,0.395643234173,-0.0118561023065
0.221991032362,-0.0832398310304,-0.201501235366,-2.47652506828,-0.129222378135,2.39407801628,-0.698074519634,0.0451228506863,-0.000149276747834,0.000243791262619,-0.000344175379723,-5.07371914864e-05,3.51368580596e-05,3.68285668628e-06,-0.000263106980128,0.466239841809,0.00104465938688,0.210089707192,0.0335343910571,0.917714658558,0.39564471484,-0.0118536654754
0.221991986036,-0.0832390487194,-0.201500713825,-2.47652626038,-0.129222214222,2.39408516884,-0.698073983192,0.0451228506863,-0.00037718139356,-0.000160351220984,4.80353046441e-05,0.000309627735987,2.24237501243e-05,-0.000444502016762,-1.0454070889e-06,0.466240769095,0.00104555635363,0.210089488748,0.0335351012008,0.917714434757,0.395645249727,-0.0118511297417
0.221988230944,-0.0832365080714,-0.20150321722,-2.47652506828,-0.129222109914,2.39408230782,-0.69807523489,0.0426912121475,0.000187199795619,4.52967086062e-08,0.000327680289047,-0.000738753296901,1.32233644763e-05,9.82394994935e-05,-6.90168017172e-05,0.466240373047,0.00104252013436,0.210088550241,0.0335345012711,0.91771544813,0.395642885271,-0.0118532908102
0.221989512444,-0.0832390710711,-0.201501876116,-2.47653198242,-0.129222154617,2.39408493042,-0.69807612896,0.0426912121475,-0.000672746624332,-0.000307083217194,-3.05981739075e-05,-0.00337320379913,-6.40487414785e-05,-6.8612069299e-05,9.78329408099e-05,0.46623780578,0.00104411350903,0.210086634668,0.0335336716043,0.917714485882,0.395645151725,-0.0118544872561
0.221988976002,-0.0832402780652,-0.201499894261,-2.47652864456,-0.129221841693,2.39409065247,-0.69807600975,0.0426912121475,-5.73664656258e-05,-0.000106027044239,0.000313186988933,-0.000837553991005,0.000100893543276,0.00026666992926,-0.000304931454593,0.466241047853,0.00104475687845,0.210089553406,0.0335354412437,0.917714479602,0.39564517947,-0.0118490401435
0.221988558769,-0.0832402035594,-0.201501533389,-2.47652769089,-0.129222288728,2.39409351349,-0.698074698448,0.0426912121475,0.00030053788214,0.000406331382692,-0.000744834484067,1.15374659799e-05,6.16581965005e-05,-1.74419164978e-05,1.8744258341e-05,0.466242086755,0.00104387050867,0.210090147946,0.0335360960511,0.917715067382,0.395643812248,-0.0118473150185
0.221992433071,-0.0832389071584,-0.201502531767,-2.47653031349,-0.12922206521,2.39409708977,-0.698074281216,0.0426912121475,-0.000106210929516,-0.000462809082819,0.000255966180703,-0.00012799052638,-6.56273623463e-05,0.000107990286779,-4.98052395415e-05,0.466241534681,0.00104531263026,0.210088785206,0.0335359037265,0.917714556837,0.395645011265,-0.0118473656565
0.221994325519,-0.083238966763,-0.201499924064,-2.47652864456,-0.129222393036,2.3941013813,-0.698076188564,0.0426912121475,-1.06025645437e-05,-0.000113994326966,0.000163202290423,0.000114416296128,-6.86600615154e-05,0.000241943314904,-5.50837758055e-05,0.466243100241,0.00104736467753,0.210089791879,0.0335369600784,0.917713320684,0.395647865611,-0.011844807544
0.221996322274,-0.0832388848066,-0.201500058174,-2.476531744,-0.129221230745,2.39410424232,-0.698075711727,0.0426912121475,-7.94397578829e-07,-2.80360982288e-05,-0.00015888598864,0.00027495334507,-0.000116813687782,0.000137549941428,0.000146749502164,0.466242439846,0.00104854176428,0.210088827403,0.0335365206094,0.917713085719,0.39564845829,-0.011844459414
0.221996903419,-0.0832372605801,-0.201502367854,-2.47652888298,-0.129221618176,2.39410710335,-0.698074579239,0.0426912121475,0.000404705118854,-0.000139610798215,-1.1949272448e-05,-0.000595403660554,4.21504919359e-05,-1.90982846107e-05,0.000258636835497,0.46624413826,0.00104778400185,0.210089492048,0.033537345776,0.917713586546,0.395647282362,-0.0118425988925
0.221997484565,-0.0832411572337,-0.20150141418,-2.47652864456,-0.129221662879,2.39410924911,-0.698074102402,0.0426912121475,-7.53229105612e-05,-0.000460702955024,-0.000663796090521,-0.000191370927496,2.06301028811e-05,-4.92009421578e-05,5.77823775529e-05,0.466245290495,0.00104848110725,0.210091803793,0.0335382158307,0.917713467457,0.395647587119,-0.0118391813623
0.221998736262,-0.0832417979836,-0.201501280069,-2.4765291214,-0.129221692681,2.3941116333,-0.698075473309,0.0426912121475,3.10059040203e-05,0.000138235423947,-0.000156429377967,-0.000408478284953,-3.27470879711e-05,7.96398308012e-05,-4.54257278761e-05,0.466245248022,0.00104913132535,0.210091459689,0.0335383033283,0.917712960896,0.395648764821,-0.0118388424576
0.222000047565,-0.083239518106,-0.201500713825,-2.47652745247,-0.12922167778,2.39411616325,-0.698074996471,0.0403692387044,0.000217154389247,-0.000464590179035,0.000176098619704,0.000530970864929,-5.39383581781e-05,0.0021997555159,9.19324957067e-05,0.466247010967,0.00105034777968,0.210091908049,0.0335392337494,0.917712523042,0.395649773514,-0.0118364374461
0.222000420094,-0.0832419469953,-0.20149987936,-2.47652196884,-0.129222303629,2.39411950111,-0.698073625565,0.0403692387044,1.0791754903e-06,0.00030600556056,0.000109135704406,-0.000351592403604,2.4916129405e-05,3.34314172505e-05,0.000122827143059,0.466250214921,0.00105102113172,0.210095245747,0.0335410693146,0.917712491002,0.395649834774,-0.0118316715913
0.221997588873,-0.083245664835,-0.201500594616,-2.47652196884,-0.129221603274,2.3941218853,-0.698075711727,0.0403692387044,-0.000534289807547,0.000177236404852,1.60994168255e-05,0.000543430505786,-1.98729685508e-05,5.96155950916e-05,-0.000177774985787,0.466251429415,0.00104962303135,0.210097449851,0.0335416127489,0.917712930794,0.3956488728,-0.0118281867282
0.221996828914,-0.0832448378205,-0.201502218843,-2.47652411461,-0.129222348332,2.39412474632,-0.698072731495,0.0403692387044,0.000300663727103,-8.55271864566e-05,-0.000824237533379,0.000180165297934,4.70700470032e-05,-5.50499407836e-06,7.62870549806e-05,0.466251003814,0.00104853032908,0.210096434279,0.0335417200794,0.917713830181,0.395646774905,-0.0118282753333
0.221997857094,-0.0832437127829,-0.201501443982,-2.47652125359,-0.129222407937,2.3941283226,-0.698073506355,0.0387984924018,0.00121393520385,-0.000882647756953,-0.000330960116116,0.00031053359271,6.74924594932e-05,2.95150925922e-06,-0.000125270235003,0.466252917394,0.0010494469076,0.210097412465,0.0335427239475,0.917713304803,0.395647982785,-0.0118257877954
0.22199639678,-0.0832422748208,-0.201503768563,-2.47652411461,-0.129222124815,2.39412856102,-0.698076069355,0.0387984924018,0.000261806679191,-0.000416183960624,8.25066381367e-05,-0.00029786862433,7.79023957875e-06,-0.000155801099027,-0.000391141482396,0.466251521135,0.00104769396768,0.210095585572,0.0335418649073,0.917713549682,0.395647428631,-0.0118277609157
0.222000002861,-0.0832431614399,-0.201501563191,-2.47652173042,-0.129221513867,2.39413118362,-0.698074638844,0.0387984924018,-0.000500724650919,-0.000430316955317,-0.000420959433541,0.00013482090435,1.99473324756e-05,2.2395473934e-05,-7.78032263042e-05,0.46625324939,0.00105054203259,0.21009720889,0.0335427072225,0.917712792116,0.395649203042,-0.0118247956317
0.222001537681,-0.0832433328032,-0.201498687267,-2.47652292252,-0.129222869873,2.39413332939,-0.698074400425,0.0387984924018,6.8606052082e-05,-0.0005971735809,-0.000110362758278,0.000354751042323,-9.63122074609e-05,-0.000101774392533,-0.000260324217379,0.466253221018,0.00105252122715,0.210097017719,0.0335433868173,0.917711729823,0.395651623369,-0.0118243288294
0.22200101614,-0.0832430124283,-0.201500818133,-2.47652339935,-0.129222199321,2.3941347599,-0.698075652122,0.0387984924018,0.000699863827322,0.00242660613731,-0.000226493182709,-6.45372128929e-05,-0.000182092233445,-9.39030578593e-05,0.000124146041344,0.466253272697,0.00105140048976,0.210096779084,0.0335431475066,0.917712096477,0.395650803109,-0.0118239974834
0.221997544169,-0.0832432582974,-0.201501265168,-2.47652411461,-0.129221990705,2.39413499832,-0.698076188564,0.0387984924018,9.34874842642e-05,-1.40273705256e-05,-0.000166301106219,0.000155738453032,1.1404765246e-05,-5.17017497259e-07,-5.3857871535e-05,0.466253037112,0.00104960817268,0.210096613694,0.033542958306,0.917712792514,0.395649200371,-0.0118241418592
0.221997603774,-0.0832430794835,-0.201501503587,-2.47652292252,-0.129221349955,2.39413881302,-0.698074698448,0.0387984924018,-0.000438635179307,0.000730979372747,0.00349320867099,0.000110085202323,2.97577389574e-05,-7.74429645389e-05,0.000125221937196,0.466254367094,0.00104969976295,0.210097346802,0.033543505157,0.917713208876,0.395648259486,-0.0118217580745
0.222001299262,-0.0832417234778,-0.201500862837,-2.47652363777,-0.129222735763,2.39413976669,-0.698073685169,0.0387984924018,-8.0655234342e-05,-0.00052575574955,0.00021367581212,-8.10135461506e-05,1.31037668325e-05,-4.4895314204e-05,9.68238528003e-05,0.46625410407,0.0010515899004,0.21009653348,0.0335438854908,0.917712308778,0.395650296869,-0.0118223657873
0.22200204432,-0.0832432955503,-0.201502740383,-2.47652292252,-0.129221349955,2.39413952827,-0.698075413704,0.0387984924018,0.000163392454851,-0.000736498215701,-0.000188031524885,1.28465007947e-05,-7.41605845178e-06,-0.00016159961524,-0.000142323973705,0.466254542129,0.00105123627563,0.210097496921,0.0335435917996,0.917712431873,0.395650069338,-0.0118212583171
0.221999868751,-0.0832441821694,-0.201500892639,-2.47652292252,-0.129222497344,2.39414262772,-0.698075354099,0.0387984924018,7.87981480244e-06,-0.00415937509388,3.71756032109e-05,-4.83823823743e-05,6.95738199283e-05,-2.73263303825e-05,-0.000120007971418,0.466255337013,0.00105108799074,0.210098192614,0.0335445599117,0.917712317017,0.395650306682,-0.0118194839102
0.221996501088,-0.083243213594,-0.20150385797,-2.4765150547,-0.129221707582,2.39414763451,-0.698076725006,0.0386894866824,-0.000468963116873,0.000107637730252,-5.45912589587e-05,0.00128937838599,0.000102720550785,-0.000225063660764,0.00013334392861,0.466259797017,0.00104838775059,0.210101380814,0.0335462472949,0.917713458535,0.395647681336,-0.0118139430644
0.22199383378,-0.08326946944,-0.201505050063,-2.47649979591,-0.129222974181,2.39415621758,-0.69807767868,0.0386894866824,9.30543101276e-05,0.00141975400038,0.00048567604972,4.72007050121e-05,-0.00013610944734,8.20504501462e-05,0.000274019112112,0.466271761615,0.00104776703825,0.210120574771,0.0335532297842,0.917714167187,0.395646170741,-0.0117896300047
0.221999242902,-0.0832806825638,-0.201503247023,-2.47649669647,-0.129220962524,2.39416456223,-0.698074996471,0.0386894866824,0.000168672413565,0.000623532920144,0.000203436735319,0.000676120340358,-1.23055815493e-05,0.00158702000044,-6.04442648182e-05,0.466276113108,0.00105160187645,0.210127426047,0.0335553851719,0.917713676556,0.395647449068,-0.0117787824446
0.221988245845,-0.0832803919911,-0.201508507133,-2.47649717331,-0.129222884774,2.39418625832,-0.698076665401,0.0386894866824,0.000132420682348,0.000809752731584,-0.000218237153604,-0.000187862227904,5.53092322662e-05,0.00010395024583,-1.09487882582e-05,0.466280600386,0.00104459757339,0.210128954262,0.0335586764551,0.917716121362,0.395641783301,-0.0117692316974
0.221993148327,-0.0832830369473,-0.201508060098,-2.47649979591,-0.129222467542,2.39418983459,-0.698075890541,0.0386894866824,0.000501302652992,0.000652611546684,0.000131762906676,6.59323413856e-05,-5.07536024088e-05,0.000101157784229,0.000163758013514,0.466280519583,0.00104729927913,0.210129396111,0.0335588598401,0.917715258907,0.395643826047,-0.0117672888537
0.221999764442,-0.083282366395,-0.201504975557,-2.47649788857,-0.129222914577,2.3941988945,-0.69807690382,0.0386894866824,7.4227238656e-05,-0.000318684265949,0.000526833406184,3.09950519295e-05,0.000124209109345,-3.60873345926e-05,0.000593339966144,0.466283254855,0.00105202219524,0.210130689864,0.0335607762563,0.917713022737,0.395648997926,-0.0117623262121
0.222000718117,-0.0832797959447,-0.20150719583,-2.4765021801,-0.12922270596,2.39420747757,-0.698076069355,0.0386894866824,6.90075248713e-05,-0.000341839768225,8.58947823872e-05,-0.000617245503236,3.76381249225e-05,1.37443348649e-05,0.000190116770682,0.466282897123,0.00105166502898,0.21012848921,0.0335608038233,0.917713353234,0.395648255556,-0.011761432727
0.221998214722,-0.0832769870758,-0.201505690813,-2.47650456429,-0.129222512245,2.39421510696,-0.698075294495,0.0386894866824,-0.000261361856246,-7.57508678362e-05,9.45824431255e-05,-0.000172804357135,0.000161582574947,0.00120126281399,0.00011552702199,0.466283351913,0.001051396206,0.210127121165,0.0335612390543,0.917713732192,0.395647390528,-0.0117597206437
0.221996203065,-0.0832792669535,-0.201505303383,-2.47650337219,-0.12922129035,2.39422178268,-0.698074698448,0.0351756624877,-9.52034970396e-05,0.00257114879787,-0.000232368736761,-0.000233232989558,-8.83149768924e-05,8.21336798253e-05,-0.00013857751037,0.466285402675,0.00105097261244,0.210129013069,0.0335621976361,0.917714257372,0.395646223103,-0.0117552767556
0.221999257803,-0.0832785815001,-0.201504573226,-2.47650647163,-0.129222348332,2.39425110817,-0.69807612896,0.0351756624877,-3.00439205603e-06,-0.000145942816744,0.000247081945417,-0.000342845014529,5.09701894771e-05,0.00395155884326,-0.00011069780885,0.466290317296,0.00105353971753,0.210129997126,0.0335661400566,0.917712839433,0.395649539428,-0.0117430921836
0.221992090344,-0.0832766890526,-0.201505437493,-2.47650361061,-0.129222899675,2.39444112778,-0.698076546192,0.0351756624877,-0.000349319161614,0.000178628295544,0.000125600636238,0.00106102158315,1.92770102103e-08,0.00128300511278,-5.32030344402e-06,0.466332623428,0.00105571258943,0.210146852868,0.0335938407365,0.917713070169,0.395649348229,-0.0116519368709
0.221994280815,-0.0832785964012,-0.201506629586,-2.47649359703,-0.12922257185,2.39445447922,-0.698077559471,0.0351756624877,3.65458909073e-05,6.44672836643e-05,6.21617509751e-05,-0.000547134783119,-1.77251422429e-05,0.00429960293695,-0.00457738526165,0.466340193351,0.00105671825049,0.210152974859,0.0335976584204,0.917712752293,0.395650114739,-0.0116399319485
0.2219979316,-0.0832801908255,-0.201504185796,-2.47650027275,-0.129222869873,2.39447069168,-0.698075890541,0.0351756624877,0.000292319979053,0.000826391216833,0.000289184419671,-0.000137108159834,-7.19298986951e-05,0.00274020968936,-0.000250871613389,0.466340938903,0.00106004483187,0.210152400099,0.0335991154804,0.917711677744,0.395652646199,-0.0116343976821
0.222001627088,-0.0832797139883,-0.201503902674,-2.47649812698,-0.129222780466,2.39448523521,-0.698075592518,0.0351756624877,-1.32557188408e-05,-0.000111459987238,-0.000267274532234,0.000370546156773,-3.99196578655e-05,2.13806083593e-06,-0.000369367015082,0.466344987825,0.00106235616041,0.210154331177,0.0336015678456,0.91771088703,0.395654501252,-0.0116265981873
0.221998289227,-0.0832823440433,-0.201505735517,-2.4764919281,-0.129222467542,2.39451360703,-0.698076188564,0.0351756624877,-0.00382337882183,-5.18284068676e-05,-8.44948008307e-05,0.000110540415335,-5.62498280487e-06,-0.000171263731318,0.000205687669222,0.466354214601,0.00106097493655,0.210160522737,0.0336068337392,0.917711745121,0.395652583165,-0.0116089064623
0.221997335553,-0.0832813978195,-0.201506003737,-2.47650337219,-0.129221752286,2.3945376873,-0.698074996471,0.0348158106208,-0.000199752612389,-0.000391162495362,-0.00038956393837,0.000126924089273,-7.83247814979e-05,8.0523226643e-05,0.000167781618075,0.466354236196,0.00106117284396,0.210157494488,0.0336078077064,0.917712064673,0.395651930777,-0.0116030585796
0.221995934844,-0.0832820534706,-0.201504915953,-2.47649979591,-0.129222795367,2.39455032349,-0.698076963425,0.0348158106208,-0.00060084956931,7.23291013855e-05,-0.000150452367961,0.00041791566764,2.78611114481e-05,0.00135824631434,0.000332685740432,0.466358659822,0.0010613531046,0.210160374778,0.0336107178853,0.917711533253,0.395653146729,-0.0115951947621
0.221997112036,-0.0832837000489,-0.2015042454,-2.47649693489,-0.129222378135,2.39456391335,-0.698076963425,0.0348158106208,1.52327238538e-05,-3.05283101625e-05,-0.000264623551629,0.000210797588807,-2.03593772312e-05,-0.00439928146079,-7.03618352418e-05,0.46636307385,0.00106272278602,0.210163483916,0.0336132596231,0.917711188558,0.395653985449,-0.0115864857752
0.221995905042,-0.0832796171308,-0.201504260302,-2.47650051117,-0.129221528769,2.39458441734,-0.698075830936,0.0348158106208,-0.000877808779478,0.000754286942538,0.000215106148971,0.000270185410045,0.000106175961264,6.4591091359e-05,5.41825829714e-06,0.466365438937,0.00106275155734,0.210161941711,0.0336148781071,0.917711584735,0.395653111905,-0.0115802389586
0.221997514367,-0.0832805782557,-0.201505348086,-2.47649884224,-0.12922231853,2.39460849762,-0.69807612896,0.0348158106208,0.00200243783183,0.000295178848319,0.000175114910235,-0.000124600264826,-5.87553877267e-05,9.82102719718e-05,-7.72576240706e-05,0.466371527249,0.00106373191992,0.210165157078,0.0336189430488,0.917711171014,0.395654097538,-0.0115675428278
0.22199767828,-0.0832800418139,-0.20150513947,-2.47649979591,-0.129222840071,2.39461994171,-0.698075890541,0.0348158106208,-0.000460605078842,-0.00026731233811,-6.39462305116e-05,-0.000454681081465,-4.50447769254e-05,-5.79968800594e-05,-0.000149562387378,0.46637352833,0.001064203999,0.210165524369,0.0336205347466,0.917710975824,0.395654553132,-0.0115628180716
0.221995189786,-0.0832835510373,-0.201505824924,-2.47650170326,-0.129220947623,2.39463281631,-0.698076784611,0.0348158106208,0.000234898441704,-0.000424714613473,0.00014148397895,0.000286593160126,-0.000138056988362,9.93817156996e-05,0.000173379856278,0.466375879107,0.00106338598437,0.21016744502,0.0336216858878,0.917711655961,0.395653086598,-0.0115556695367
0.221995607018,-0.083282828331,-0.201504930854,-2.47650122643,-0.129222795367,2.39463973045,-0.698076546192,0.0348158106208,-0.000109355183668,0.000283835193841,-0.000208391851629,0.000451033964055,1.87158602785e-05,-2.61606928689e-05,0.000168620157638,0.466377523761,0.00106403295003,0.210167932678,0.0336233389278,0.917711107797,0.395654304941,-0.011552677926
0.221994876862,-0.0832806825638,-0.201504796743,-2.47650289536,-0.129221618176,2.39464259148,-0.698076844215,0.0348158106208,-6.3135936216e-05,-0.000125626145746,-0.000449338695034,-0.000295672769425,1.7173751985e-05,9.50268949964e-05,-0.000333889620379,0.466377184303,0.00106397031609,0.210166524146,0.0336229185739,0.917711294463,0.395653900571,-0.0115529219528
0.221996665001,-0.0832792297006,-0.201505467296,-2.47650361061,-0.129222810268,2.39464783669,-0.69807446003,0.0348158106208,0.000128927335027,-0.000323507585563,0.000162939395523,0.000180065020686,8.6810454377e-05,3.84788909287e-05,-0.000242544047069,0.466377790944,0.00106443355473,0.210166019793,0.0336237201331,0.917711307511,0.395653840153,-0.0115516217476
0.221999034286,-0.0832799896598,-0.201504319906,-2.47650289536,-0.129222482443,2.39465618134,-0.69807523489,0.0348158106208,-0.000149418337969,0.000129588239361,-0.00099649047479,-0.000285825284664,0.000101061945315,6.33288436802e-05,-5.34547689313e-05,0.466380006732,0.00106637353921,0.210167393837,0.0336250783125,0.917710469729,0.395655807228,-0.0115468500286
0.221997201443,-0.0832763388753,-0.201504305005,-2.47650551796,-0.129222512245,2.39465594292,-0.69807612896,0.0348158106208,-4.46305202786e-05,0.000739489914849,0.0001373673731,-0.000570490781683,-9.85023216344e-05,5.27113224962e-05,0.000233184095123,0.466378354354,0.0010654099839,0.210164636968,0.0336242100716,0.917710590562,0.395655508239,-0.0115500194332
0.221998631954,-0.0832778811455,-0.201504334807,-2.47650671005,-0.129221946001,2.39465689659,-0.698076069355,0.0348158106208,-0.000389532855479,0.000241594505496,0.000274750898825,-0.000419208052335,-0.000110655062599,8.18701519165e-05,-0.000387016247259,0.466378066088,0.00106611636453,0.210164693766,0.0336239827993,0.917710403759,0.395655975281,-0.0115495246359
0.221998512745,-0.0832798779011,-0.201505154371,-2.47650694847,-0.129222601652,2.39466047287,-0.698075413704,0.0348158106208,-0.00014196781558,-0.000553509453312,0.000272553588729,0.000288731534965,0.000107759406092,-2.36606429098e-05,-0.000223007693421,0.466379276772,0.00106586894876,0.210166327417,0.0336249638324,0.917710648236,0.395655414823,-0.0115464420765
