imanlab/tactile_prediction_flat_dataset/train/data_sample_2021-11-24-16-20-11/robot_state.csv
position_panda_joint1,position_panda_joint2,position_panda_joint3,position_panda_joint4,position_panda_joint5,position_panda_joint6,position_panda_joint7,position_panda_finger,velocity_panda_joint1,velocity_panda_joint2,velocity_panda_joint3,velocity_panda_joint4,velocity_panda_joint5,velocity_panda_joint6,velocity_panda_joint7,ee_state_position_x,ee_state_position_y,ee_state_position_z,ee_state_orientation_x,ee_state_orientation_y,ee_state_orientation_z,ee_state_orientation_w
0.300908237696,0.153533160686,-0.281057357788,-2.46439409256,0.00425415020436,2.5654501915,-0.740226089954,0.0686052516103,-0.000347519438947,-0.000907661975361,0.000331678136718,-3.05855064653e-05,-8.66117043188e-05,0.000132959845359,-0.000448743288871,0.471059551345,0.00202315675895,0.121040135322,0.0106618236004,0.928484900485,0.37009825137,-0.0287992900169
0.300903260708,0.153533056378,-0.281060785055,-2.46439743042,0.00425325380638,2.56545090675,-0.740227103233,0.0686052516103,0.000293017248623,0.000107440704596,-2.87602324534e-05,-0.00035993711208,-1.01762616396e-05,4.55947374576e-05,-2.6884394174e-05,0.471057821962,0.00201897435987,0.121038998763,0.0106616626373,0.928486016608,0.370095318828,-0.0288010516968
0.300899684429,0.153536960483,-0.281062096357,-2.46439886093,0.004255075939,2.5654501915,-0.740227162838,0.0686052516103,-0.00040172302397,-0.000306278845528,0.000288916780846,0.000439225317677,4.09852073062e-05,4.02222576668e-05,0.000323353568092,0.471056411658,0.00201645296295,0.121036888001,0.0106607718115,0.92848721119,0.370092162671,-0.0288034271225
0.300902396441,0.153536051512,-0.281060546637,-2.46439647675,0.00425419816747,2.56545186043,-0.740227937698,0.0686052516103,0.000750342675019,-0.000577561149839,0.000624938635156,-6.12840449321e-05,-6.47635024507e-05,3.3393278045e-06,-0.000135391106596,0.471058165691,0.00201859221738,0.121038212922,0.0106616635174,0.928486181573,0.370094898206,-0.0288011382499
0.300909161568,0.15353487432,-0.281057626009,-2.46439933777,0.00425471132621,2.56545162201,-0.740227818489,0.0686052516103,-0.00112938077655,-0.000225073570618,0.00012879051792,9.03802429093e-05,-6.12107469351e-05,0.000289143965347,8.06566313258e-05,0.471056739362,0.00202326826663,0.121037653374,0.0106609085514,0.928484537585,0.370098983051,-0.0288019256751
0.300908923149,0.153535068035,-0.281058430672,-2.46439814568,0.00425466895103,2.5654501915,-0.740229129791,0.0686065629125,0.00023102130217,-0.000708345265593,-0.000438528426457,0.000420373282395,-3.63304134225e-05,0.000214544008486,0.000841972010676,0.471057100215,0.00202274405461,0.121037909132,0.0106609472347,0.928484435318,0.37009922413,-0.0288021103213
0.300904542208,0.153534263372,-0.281059890985,-2.46439313889,0.00425505917519,2.56545066833,-0.740228176117,0.0686065629125,-0.000451599276857,0.000100350691355,0.000120858618175,-0.00014176874538,2.00361209863e-05,-0.000118030387966,4.63410906377e-05,0.471059958786,0.0020201589938,0.121040054014,0.0106618844372,0.928485801824,0.370096000215,-0.0287991378359
0.300903856754,0.153535246849,-0.281060427427,-2.46440005302,0.00425412971526,2.56545042992,-0.740228593349,0.0686065629125,-0.000234008024563,-0.00278055830859,-0.000146407968714,-0.000188415011507,5.484371286e-05,0.000133621520945,-0.000117271498311,0.471056174241,0.00201928197053,0.121037236685,0.0106608382734,0.928485735567,0.370095889654,-0.0288030817874
0.300905048847,0.153534471989,-0.281059116125,-2.46440005302,0.00425481330603,2.56545042992,-0.740227520466,0.0686065629125,-6.02602049184e-05,0.00031316492823,0.000125569975353,0.000274597696261,-4.7135323257e-05,0.000138477771543,3.28027599608e-05,0.471056557424,0.00202068008949,0.121037622464,0.0106608064166,0.928485525567,0.37009646991,-0.0288024072485
0.300904870033,0.153534829617,-0.281061708927,-2.46439790726,0.00425486871973,2.5654501915,-0.740229010582,0.0686065629125,0.000175135966856,-0.000147661179653,-0.000229663710343,0.000272938923445,9.36817741604e-05,-0.000108735352114,-0.000355004827725,0.471057316635,0.00201923756945,0.121038166881,0.0106610962452,0.928485844218,0.370095700241,-0.0288019176727
0.30090585351,0.153535395861,-0.281058639288,-2.46439790726,0.0042544528842,2.56545138359,-0.74022936821,0.0686065629125,7.39487513783e-05,0.00171315006446,0.00036524006282,-6.89738517394e-05,-4.44755896751e-05,8.31635406939e-05,0.00025857030414,0.471057430295,0.00202117922411,0.121037940528,0.0106612041808,0.928484967171,0.370097918546,-0.0288016463729
0.300908386707,0.153532877564,-0.281059890985,-2.464397192,0.0042539127171,2.56545066833,-0.740228593349,0.0686065629125,6.76035488141e-05,-0.000287156493869,0.000193519183085,-0.000160801195307,-4.11959699704e-05,-3.53712202923e-05,0.000168390703038,0.47105815694,0.00202189822393,0.121039291824,0.0106615577959,0.92848482104,0.370098368687,-0.0288004420487
0.300905644894,0.153535202146,-0.281058996916,-2.46439838409,0.00425510760397,2.56545162201,-0.740230023861,0.0686065629125,0.000211273159948,0.000203878167667,-0.000185564014828,-0.00345579301938,9.28293884499e-05,-7.49297469156e-05,-1.16954133773e-05,0.471057282422,0.00202093456082,0.121037889284,0.0106610213437,0.928485057743,0.37009769986,-0.028801604381
0.300904661417,0.153535187244,-0.281060814857,-2.46439909935,0.00425475370139,2.56545090675,-0.740230023861,0.0686065629125,-9.32728471525e-06,-0.00340920989402,0.000164579963894,-0.000144697914948,6.28367779427e-05,2.39145429077e-05,0.000665749132168,0.471056797276,0.002019603188,0.121037666166,0.0106608830541,0.928485381488,0.370096839975,-0.0288022683274
0.300901591778,0.153536215425,-0.281059712172,-2.46439695358,0.00425422657281,2.56545066833,-0.740229666233,0.0686065629125,8.39903805172e-05,0.00160152593162,2.38973152591e-05,9.88828251138e-05,8.62864617375e-05,0.00011237324361,6.34119278402e-05,0.471057585263,0.00201895989661,0.12103798395,0.0106613143273,0.928485765281,0.370095906571,-0.0288017303489
0.300905197859,0.153533831239,-0.281059741974,-2.46439671516,0.00425426010042,2.56545042992,-0.740230441093,0.0686052516103,0.00032533184276,0.00132633757312,0.000150543186464,-0.00256807776168,8.00445413915e-05,-7.06036516931e-05,0.000145110592712,0.471058159377,0.00202043673413,0.121039003268,0.0106613956813,0.928485085341,0.370097682774,-0.0288007956471
0.300908595324,0.153533682227,-0.281058549881,-2.46439838409,0.00425387639552,2.56545209885,-0.740228831768,0.0686052516103,-0.000769788865,0.000276905368082,8.71677457326e-06,-0.000787628930993,5.30914185219e-05,4.56059824501e-05,0.000142842633068,0.471057686252,0.002022589372,0.121038603882,0.0106614956945,0.928484477121,0.370099211581,-0.0288007209311
0.300904870033,0.153536066413,-0.281060665846,-2.46439838409,0.00425388803706,2.56545066833,-0.740230739117,0.0686052516103,0.000115616239782,0.000130781074404,-0.000320456718327,-0.000194587017177,8.48304352985e-06,9.00602462934e-05,-0.00016608054284,0.471056839837,0.00201973376838,0.121037382915,0.0106611940565,0.928485152499,0.370097376289,-0.0288026435925
0.300903826952,0.153532445431,-0.281060308218,-2.46439862251,0.00425379257649,2.56545066833,-0.740231096745,0.0686052516103,-3.02778244077e-05,0.000453389278846,-1.74030919879e-05,-0.000179466835107,-0.000154273511725,-4.72113060823e-05,-0.000148044695379,0.471057526009,0.00201952720113,0.121039005413,0.0106612779709,0.928485255383,0.370097247489,-0.0288009509154
0.30090841651,0.153532162309,-0.281059682369,-2.4643945694,0.00425405101851,2.56545305252,-0.740231812,0.0686052516103,-0.000148887076648,-0.000356709875632,-0.000125393460621,9.68980893958e-05,6.77199568599e-05,-5.62767818337e-05,-0.000272014789516,0.47106017324,0.00202215381652,0.121040693113,0.0106623725556,0.928484249478,0.370099989082,-0.0287977438191
0.300909906626,0.15353409946,-0.281057417393,-2.46439766884,0.00425470434129,2.56545305252,-0.740231752396,0.0686052516103,-0.000382413505577,-0.00366074917838,1.52176771735e-05,0.0025560115464,-1.56065489136e-05,3.80080746254e-05,0.000329754897393,0.471058163974,0.00202380667739,0.121038709689,0.0106614784415,0.928483626751,0.37010139682,-0.0288000605649
0.300909221172,0.153534978628,-0.281059771776,-2.46439933777,0.00425435556099,2.56545114517,-0.740231513977,0.0686045959592,-7.564068801e-05,-0.000366974622011,-0.00197121314704,0.000316971068969,2.91310625471e-05,-0.000148851133417,0.00022801286832,0.471056952532,0.00202195220714,0.121037834781,0.0106611737078,0.928484268908,0.370099648948,-0.0288019321981
0.30090534687,0.15353487432,-0.281060397625,-2.46440076828,0.00425494275987,2.56545257568,-0.740231275558,0.0686045959592,-0.000385286984965,0.000399800861487,-0.000302940548863,-1.76746070792e-05,-0.000123512494611,3.32982272084e-05,0.000317415018799,0.471056357255,0.00202005619004,0.121037324039,0.0106608902424,0.928485106302,0.370097539198,-0.0288021519764
0.300904989243,0.153533965349,-0.281060427427,-2.46439766884,0.00425477605313,2.56544995308,-0.740232646465,0.0686045959592,0.000214560495806,0.000218619330553,-2.20244237426e-05,0.000191870203707,-3.8888763811e-05,4.40126132162e-05,-0.000558229337912,0.471057275582,0.00201966334928,0.121038567973,0.0106608791737,0.928485218972,0.370097287907,-0.0288017529747
0.300907492638,0.153534725308,-0.281060189009,-2.46439266205,0.00425296742469,2.56545233727,-0.740231335163,0.0686045959592,-2.62039884547e-05,7.01474127709e-05,-0.000205029908102,2.7497130759e-06,-6.93766269251e-05,-8.96436613402e-05,0.000307011010591,0.471060480539,0.0020213016877,0.121040149042,0.010662767274,0.928484393424,0.370099551571,-0.0287985793471
0.300909072161,0.153536781669,-0.281059890985,-2.46440148354,0.00425370596349,2.56545209885,-0.740231990814,0.0686045959592,7.83709692769e-05,-0.00031744671287,0.000298599741654,0.00211549201049,1.78327354661e-05,-1.95263328351e-06,2.5775982067e-05,0.47105548631,0.0020218641096,0.121036174313,0.0106609184796,0.92848395351,0.370100305086,-0.0288037627904
0.300908982754,0.153533816338,-0.281059354544,-2.464397192,0.00425497954711,2.56545209885,-0.740232408047,0.0686045959592,0.000377438263968,-0.00116757163778,-9.28044173634e-05,-0.00209409790114,6.50205111015e-05,7.78287067078e-05,-0.00029998717946,0.471058277167,0.00202244549343,0.121038966794,0.0106614350652,0.928484075952,0.370100264598,-0.0288001446941
0.300909668207,0.153531327844,-0.281059980392,-2.46439433098,0.00425418512896,2.56545066833,-0.740231752396,0.0686045959592,-0.000208356650546,0.000127280218294,5.72966746404e-05,0.000154413544806,-0.000111947061669,-0.000159665112733,-0.000151762433234,0.471060248208,0.00202255011875,0.121041189926,0.0106621397655,0.928484136098,0.37010026535,-0.0287979350288
0.300906538963,0.15353474021,-0.281059771776,-2.46439528465,0.00425396347418,2.56545114517,-0.740232586861,0.0686045959592,-0.000263836118393,0.0032988130115,-0.000243520145887,-0.00012287190475,2.65164862867e-06,9.20800885069e-05,-0.000119601296319,0.471058865155,0.00202102605594,0.121039140609,0.0106617986063,0.928484397927,0.370099435936,-0.0288002788337
0.300903320312,0.153537169099,-0.281060308218,-2.46439838409,0.00425441050902,2.56545042992,-0.740231156349,0.0686059072614,0.000249165284913,0.000367763394024,-0.000135260561365,0.000272651057458,1.01266059573e-05,1.93219893845e-05,0.00533245690167,0.471056663954,0.00201893057141,0.121036803769,0.0106609406692,0.928485453816,0.37009657149,-0.0288033652997
0.300908058882,0.15353628993,-0.281059294939,-2.4644036293,0.00425425823778,2.56545090675,-0.740233302116,0.0686059072614,0.000733300519641,0.000398185045924,0.000173203487066,0.000181561990757,-4.55961308035e-05,-3.4465079807e-05,0.000441705342382,0.471054216107,0.00202167337964,0.121035554541,0.0106601478682,0.928483864106,0.370100452958,-0.028805029885
0.300911337137,0.153535470366,-0.281058073044,-2.46440219879,0.00425499444827,2.56545186043,-0.740231752396,0.0686059072614,-0.000616224424448,-0.000438781018602,-0.000718948605936,0.000422670709668,0.00122556101996,-5.50209115318e-05,7.46963269194e-05,0.471055305561,0.00202395396644,0.121036460835,0.0106604134683,0.928483469463,0.370101562806,-0.0288033923568
0.300912648439,0.153531238437,-0.281057626009,-2.46439051628,0.00425485894084,2.56545209885,-0.740232586861,0.0686059072614,3.46914202964e-05,0.000399303447921,-0.00292159034871,0.00044184201397,-1.21232887977e-05,0.000136191316415,-0.000371736241505,0.47106219031,0.0020253626346,0.121042379043,0.0106626751349,0.928483112977,0.37010298986,-0.0287957089798
0.300905555487,0.153534814715,-0.281059831381,-2.46439909935,0.0042543974705,2.56545257568,-0.740231156349,0.0686059072614,0.000228664954193,0.000114185117127,-0.00021128654771,-0.000511102494784,0.000100820965599,-0.000113207184768,4.94910746056e-05,0.471057217478,0.00202045846532,0.121037911734,0.0106612862276,0.928484909631,0.37009808067,-0.0288013876718
0.300906330347,0.153538748622,-0.281060397625,-2.46440434456,0.00425386754796,2.56545233727,-0.740231096745,0.0686059072614,-0.000290298106847,-7.28232998881e-06,5.03517803736e-05,1.67187572515e-05,-9.50658577494e-05,5.90721901972e-05,-0.00037323628203,0.471053687349,0.00202013127067,0.121034336954,0.0106603490814,0.928484697657,0.370098282821,-0.0288059700653
0.30090585351,0.153537273407,-0.281061857939,-2.46439838409,0.00425385823473,2.56545209885,-0.740232944489,0.0686059072614,-0.000249340315349,0.000501478207298,9.46731379372e-05,0.000674059498124,3.95578463213e-05,0.000138893039548,-0.000281954475213,0.471057003206,0.00201942901694,0.121037055778,0.0106614658147,0.928484769953,0.370098332677,-0.0288025857567
0.300908327103,0.153533175588,-0.281058490276,-2.46439504623,0.00425348151475,2.56545186043,-0.740231692791,0.0686052516103,-0.000308077287627,-0.00034190621227,-0.000322669395246,0.000869556213729,-7.85414958955e-05,3.58583383786e-05,0.000337500532623,0.471059445241,0.00202259258199,0.121039956607,0.0106621039149,0.928483950525,0.370100643386,-0.0287990730171
0.300911515951,0.153534665704,-0.281057775021,-2.46439480782,0.00425399653614,2.56545352936,-0.740232408047,0.0686052516103,7.04458143446e-05,9.36308206292e-05,7.63659045333e-05,-0.000178383779712,-2.41306975113e-06,-0.000100779310742,-4.56180896435e-05,0.471059622218,0.00202439831632,0.121039480651,0.0106622481362,0.928483171587,0.370102610694,-0.0287988504243
0.300904035568,0.15353640914,-0.281060576439,-2.46440196037,0.00425514345989,2.56545329094,-0.740231096745,0.0686052516103,-0.00014975052909,-8.16268002382e-05,8.1955906353e-05,-0.000154429522809,-3.40864025929e-05,-2.30136611208e-05,0.000483724201331,0.471055599933,0.00201923636035,0.121036283178,0.0106606941151,0.928485420922,0.370096679566,-0.0288031282055
0.300903618336,0.153536945581,-0.281060427427,-2.46440243721,0.00425457814708,2.56545138359,-0.740231752396,0.0686052516103,3.67994725821e-05,0.000111859408207,-2.48032920354e-05,0.000289913179586,-4.67963873234e-05,-3.16008117807e-05,0.000231918573263,0.471055332084,0.00201897373767,0.121035993629,0.0106606679164,0.928484975786,0.370097730769,-0.0288039799806
0.300909459591,0.153532102704,-0.281058877707,-2.46439576149,0.00425383448601,2.56545114517,-0.740233242512,0.0686052516103,-0.000382856553188,7.89656187408e-05,-4.33252243965e-05,-0.000520958274137,0.000143742086948,-3.3817403164e-05,-0.000353629788151,0.471059138723,0.00202299300617,0.121040146833,0.0106618270083,0.928483589038,0.370101550003,-0.0287991788384
0.300908058882,0.153536766768,-0.281058758497,-2.46439981461,0.00425359560177,2.56545138359,-0.740232348442,0.0686052516103,-2.33231439779e-05,0.000248106982326,-9.69678731053e-05,-0.000142209493788,3.55919328285e-05,-0.000135373935336,3.9948077756e-05,0.471056173682,0.00202198358311,0.121036673581,0.0106610213949,0.928483856238,0.37010058107,-0.0288033141068
0.300907164812,0.153537184,-0.28106161952,-2.46440124512,0.00425467267632,2.56545329094,-0.740232884884,0.0686052516103,0.000235646424699,-0.00383744598366,3.81461795769e-05,-0.00337071809918,3.92332440242e-05,4.8088710173e-05,0.000195130167413,0.471055815555,0.0020201412866,0.12103620198,0.0106609869859,0.928484617909,0.370098677665,-0.028803231357
0.300907462835,0.153535753489,-0.281057834625,-2.46439743042,0.00425405893475,2.5654528141,-0.740234255791,0.0686052516103,-1.81142991096e-06,-0.00078185350867,-3.54543544745e-06,0.000308740360197,-7.97579195932e-05,1.07063920041e-06,-6.02328909736e-05,0.47105790848,0.00202231961081,0.121038037691,0.0106615245167,0.928483561565,0.370101487437,-0.028800980512
0.300909131765,0.15353423357,-0.281059473753,-2.4643945694,0.00425380701199,2.56545305252,-0.740233957767,0.0686052516103,-0.000132839719299,-6.36841796222e-05,-3.1270828913e-05,0.000581412459724,3.26176927956e-06,-0.000193664309336,-0.000259419117356,0.471059750289,0.00202245310171,0.121039756078,0.0106623171702,0.928483610484,0.370101511121,-0.0287988056123
0.300907850266,0.153535842896,-0.28105917573,-2.46439933777,0.00425425032154,2.56545138359,-0.740233540535,0.0686052516103,-3.93801383325e-05,-0.000335847871611,0.000234431761783,-0.000105671089841,-2.68597818831e-06,-3.32450326823e-05,-3.24012944475e-05,0.47105660959,0.00202177853019,0.121037260724,0.0106609877135,0.928483874302,0.370100594101,-0.0288025768471
0.300910383463,0.153536036611,-0.281058579683,-2.46440052986,0.00425481842831,2.56545257568,-0.740234136581,0.0686052516103,-0.000243440634222,0.000455483677797,-0.000338457524776,0.000251076911809,2.30760124396e-05,3.05883258989e-05,0.000461847201223,0.471056212887,0.00202325887436,0.121036844068,0.0106608352756,0.928483276171,0.370102097244,-0.0288025998966
0.300910294056,0.153533667326,-0.281057775021,-2.46439504623,0.00425364356488,2.56545209885,-0.740234255791,0.0686052516103,-0.000156560985488,-0.00329606654122,-0.000224428265938,-0.00018899688439,-5.23513481312e-05,2.83485132968e-05,0.000414686510339,0.471059386378,0.00202385249051,0.121039738247,0.0106620345213,0.928483002031,0.370103016154,-0.028799185362
0.300908535719,0.153533145785,-0.281059473753,-2.46439528465,0.00425442168489,2.56545257568,-0.740234196186,0.0686052516103,0.000113615715236,0.000165735924384,-0.00028552301228,-0.000299514882499,-4.23279852839e-05,7.79118854553e-05,-0.000548225594684,0.471059498664,0.00202224624174,0.121039962902,0.0106619894079,0.928483785181,0.37010108553,-0.028798764065
0.300909310579,0.153535276651,-0.281058877707,-2.46439957619,0.0042538754642,2.56545186043,-0.740235209465,0.0686052516103,0.000661978439894,0.000435878668213,0.000163736345712,-1.7987458989e-07,7.75846201577e-05,6.0096183006e-05,-0.0005816417397,0.471056702254,0.00202263017916,0.121037465585,0.0106611218481,0.928483190264,0.37010233416,-0.0288022188741
0.300907790661,0.153535321355,-0.281059861183,-2.46439909935,0.00425357418135,2.56545209885,-0.740236401558,0.0686052516103,2.02654755412e-05,0.000396038609324,0.000149820654769,-0.00010166750144,-2.82155706373e-05,7.18355368008e-05,-0.000229173281696,0.471057005254,0.00202142375626,0.121037648591,0.0106613405109,0.928483385831,0.370101857208,-0.0288019622661
0.300907194614,0.153536826372,-0.281060934067,-2.46439671516,0.00425371993333,2.56545233727,-0.740235745907,0.0686052516103,-0.000314812990837,0.000115377290058,-0.000409219152061,3.21284242091e-05,1.25793094412e-05,1.97103345272e-05,4.25488506153e-05,0.471058148348,0.00202134348877,0.121037892712,0.0106617312378,0.928483708707,0.370101107129,-0.0288010475115
0.300907850266,0.153536006808,-0.281060904264,-2.46439576149,0.00425530737266,2.5654540062,-0.740237295628,0.0686052516103,0.000234333056142,0.000336923083523,-6.82071840856e-05,-5.11136749992e-05,-0.00012196075113,0.00110382656567,-0.000297779595712,0.471059011143,0.00202107175331,0.121038650299,0.010661865781,0.928483706943,0.370101213236,-0.0287996910572
0.300913721323,0.153533965349,-0.281056523323,-2.46439814568,0.00425475370139,2.56545376778,-0.740235567093,0.0686052516103,0.000287276256131,-8.77385100466e-05,0.000198561887373,0.000103856458736,-5.05491479998e-05,4.68750477012e-05,8.16028841655e-05,0.471058088104,0.00202605094,0.121038643392,0.0106614592027,0.92848206347,0.370105334216,-0.0287998675353
0.300910711288,0.153535559773,-0.281057626009,-2.464397192,0.00425412319601,2.56545424461,-0.740236580372,0.0686052516103,-0.00398693233728,0.00105321768206,0.000207142089494,-0.000127899373183,-6.58870976622e-06,-0.000148177379742,-0.000166433674167,0.471058379377,0.00202398539715,0.121038313259,0.0106618110229,0.928482517216,0.370104168475,-0.0288000897807
0.30090841651,0.153533965349,-0.281058996916,-2.46439790726,0.00425446266308,2.5654540062,-0.740237534046,0.0686052516103,-0.000994788249955,-0.000149391024024,-0.00075756496517,0.000754781707656,-6.06366666034e-05,5.17791595485e-05,-0.000173765074578,0.471058303013,0.00202231880033,0.121038796213,0.0106616621347,0.928483089133,0.370102765183,-0.0287997403228
0.300909101963,0.153535827994,-0.281059741974,-2.464397192,0.00425419770181,2.56545305252,-0.740237116814,0.0686052516103,0.000445260287961,-8.44867190608e-06,-1.05185372377e-05,-6.67231051921e-06,6.28359848633e-05,6.83573307469e-05,-0.000272189412499,0.471058087299,0.00202215445925,0.121038144237,0.0106616722716,0.92848310206,0.370102649333,-0.0288008085512
0.30090841651,0.153535276651,-0.281059265137,-2.46439838409,0.00425234856084,2.56545257568,-0.740236461163,0.0657559707761,-0.000866754213348,-0.000225933617912,-9.28678127821e-05,0.000345393462339,9.34970958042e-05,-7.41009571357e-05,0.000109700697067,0.471057479697,0.00202198394182,0.121037940512,0.0106618200497,0.928482959559,0.370102949093,-0.0288014957707
0.300906926394,0.153535664082,-0.281061202288,-2.46439909935,0.00425511691719,2.5654540062,-0.740236282349,0.0657559707761,0.000187179190107,0.000636374112219,-7.82940987847e-05,0.000161218194989,-5.31894111191e-05,-5.28115233465e-05,0.000172912827111,0.471057376678,0.00202041360577,0.121037667781,0.0106613617518,0.928484071944,0.370100202031,-0.02880110505
0.300909429789,0.153532937169,-0.281059116125,-2.46438503265,0.00425457628444,2.56546998024,-0.740238130093,0.0657559707761,0.000517052365467,4.98629451613e-05,-5.19904824614e-05,0.00181191321462,8.70207168191e-06,0.000607284309808,-0.000347850669641,0.471068661596,0.00202326435278,0.121044913592,0.01066675774,0.928483045334,0.370103819025,-0.0287857192584
0.300910532475,0.15352872014,-0.281058490276,-2.4643676281,0.00425628107041,2.56545805931,-0.740238189697,0.0657559707761,2.21993809646e-06,0.000115013252071,-0.000114179660159,-0.00304528977722,3.45338630723e-05,-0.000174390530447,0.000188106001588,0.471073864316,0.00202466667071,0.121050470606,0.0106667224847,0.928483158588,0.370103760185,-0.0287828357121
0.300912052393,0.153532549739,-0.281058251858,-2.46440839767,0.00425426941365,2.56545615196,-0.740237474442,0.0657559707761,-0.000202841125429,-9.51468173298e-05,-7.0731897722e-05,-0.000593067728914,8.34022503113e-05,-8.62148681335e-06,-0.000230114979786,0.471053679491,0.0020242213521,0.121035991332,0.0106603166173,0.928482226727,0.3701047189,-0.0288029344747
0.300905704498,0.153534993529,-0.281060814857,-2.46437978745,0.00425653345883,2.56545829773,-0.740236401558,0.0657559707761,0.000193185187527,-0.000388155109249,0.000250791985309,0.00244282162748,-2.0642949039e-06,-0.000119820375403,0.000163040385814,0.471068354744,0.00202067712204,0.121044908787,0.0106651338239,0.928484604502,0.370099653747,-0.028789583268
0.300905019045,0.153532579541,-0.281059622765,-2.46436476707,0.00425599329174,2.56546115875,-0.740236222744,0.0657559707761,5.58346400794e-05,-0.000721546995919,0.000155890331371,-0.00100332929287,-3.37724741257e-05,-0.000117242299893,-0.000137784314575,0.471077160575,0.00202148979671,0.121051340621,0.0106684085081,0.928484615715,0.370100272358,-0.0287800542828
0.300912857056,0.153529807925,-0.281057655811,-2.4643676281,0.00425603659824,2.56546020508,-0.74023848772,0.0657559707761,0.000174805274582,0.00121664186008,6.24797467026e-05,0.000635456701275,-1.37012866617e-05,-7.4648327427e-05,4.09059566664e-06,0.471076005357,0.00202625235281,0.121051493437,0.0106677964048,0.928482410485,0.370105795219,-0.0287804025259
0.300908952951,0.153532609344,-0.281059533358,-2.46438074112,0.00425632763654,2.5654604435,-0.740237295628,0.0657559707761,-0.000448212755146,5.05844127474e-06,0.00026121159317,-0.000943363120314,-1.7267977455e-05,0.000759640475735,0.000306870031636,0.471068805694,0.00202297487635,0.121045796232,0.0106654435776,0.928483615555,0.37010226202,-0.0287878323332
0.300909131765,0.153534218669,-0.281059592962,-2.46438789368,0.00425652740523,2.56546020508,-0.740237355232,0.0657559707761,-0.000418829265982,0.000696068222169,4.09524182032e-05,0.00248165731318,0.000116908988275,-0.000545238726772,0.000444371806225,0.471064764137,0.00202274744614,0.121042603092,0.0106640452836,0.928483540896,0.370102159638,-0.0287920742205
0.300906538963,0.153530925512,-0.281059861183,-2.46437430382,0.00425628898665,2.56546020508,-0.740237474442,0.0657559707761,0.000280444743112,-4.10146494687e-05,1.937975685e-05,0.00111735332757,-4.31641893783e-07,-0.000110535300337,-6.72279475111e-06,0.471072398692,0.00202194665367,0.121048748737,0.0106665849294,0.928484149735,0.370101178342,-0.0287841124844
0.300913363695,0.153529912233,-0.281056433916,-2.46438360214,0.00425637187436,2.56546020508,-0.740238726139,0.0628495663404,-3.93153131881e-05,0.000368379231077,-1.04120335891e-05,0.000103109581687,-2.9945606002e-05,-7.20457610441e-05,0.000190041027963,0.471067839816,0.00202675702664,0.121046061963,0.0106648649997,0.928482021526,0.370106283537,-0.0287877565594
0.300911307335,0.153531894088,-0.281058222055,-2.4643805027,0.00425608549267,2.56546068192,-0.740237891674,0.0628495663404,0.00012631372374,0.000642177183181,0.000231162252021,0.00175047619268,5.81587883062e-05,-0.000105658764369,0.000349658250343,0.47106910591,0.00202477696772,0.121046191496,0.0106655581279,0.928482804784,0.370104337767,-0.0287872531018
0.300908148289,0.153531625867,-0.281058460474,-2.46437859535,0.0042561548762,2.5654604435,-0.740239500999,0.0628495663404,-0.000550610828213,-0.00072772736894,-0.000135015667183,-0.00326891010627,-8.26451578178e-05,9.76920273388e-06,9.80022377917e-05,0.47107009295,0.00202323890773,0.121046952174,0.0106657892301,0.928483161534,0.37010350566,-0.0287863590962
0.300908893347,0.153532207012,-0.281058013439,-2.46438097954,0.00425586197525,2.56546092033,-0.740239083767,0.0628495663404,0.000123107558466,-0.00022987362172,-0.000235420142417,9.49192180997e-05,9.03411782929e-05,-8.06087609817e-06,0.000199397254619,0.471068854144,0.00202370278653,0.121045901695,0.010665494018,0.928482950135,0.370103951087,-0.0287875601509
0.300909608603,0.153534621,-0.281060755253,-2.46438336372,0.00425613997504,2.56546115875,-0.74023848772,0.0628495663404,-5.90181261941e-05,0.0011605231557,6.87163410475e-05,-0.00156248174608,1.80201059266e-05,6.81550591253e-05,-0.000670636654831,0.471067227774,0.00202247845371,0.121044073099,0.0106651462172,0.928483423163,0.370102603029,-0.0287897635116
0.300907671452,0.15353114903,-0.28106045723,-2.46438169479,0.0042558144778,2.56546068192,-0.740240514278,0.0628495663404,0.000484538642922,-0.00023039788357,-0.000207830918953,-2.5552471925e-05,3.71510977857e-05,7.89055684436e-06,-0.000109580752905,0.471068828954,0.00202149997547,0.12104620421,0.0106656312085,0.928483485285,0.370102616467,-0.0287874075458
0.300910115242,0.153531387448,-0.281059503555,-2.46437883377,0.00425619678572,2.5654604435,-0.740241348743,0.0628495663404,0.00025357271079,0.000422437733505,0.000156903042807,0.00017425918486,-8.12916186987e-05,0.000146434118506,-0.000219631168875,0.471070027209,0.00202365821197,0.121046999785,0.0106658130759,0.928482655122,0.370104775434,-0.0287863588195
0.300913840532,0.153521865606,-0.281057417393,-2.46436810493,0.00425600027665,2.56546807289,-0.740242600441,0.0628495663404,0.000747047190089,-0.00150494382251,0.000555604172405,0.00092574255541,2.43587746809e-05,0.000589661707636,-5.54981170353e-06,0.471081032466,0.00202842447404,0.121057568023,0.0106699227605,0.928481433412,0.37010900635,-0.0287698394264
0.300943255424,0.153494030237,-0.281039446592,-2.46433806419,0.00425781682134,2.56547760963,-0.740241885185,0.0628495663404,-0.000164567012689,-9.70507026068e-05,0.00417729048058,0.00187409622595,1.31996484924e-05,0.000822919770144,0.000783858995419,0.471101987728,0.00205285012038,0.121078707507,0.0106762632687,0.928473984258,0.37012982321,-0.0287400698007
0.300990670919,0.153483301401,-0.28103813529,-2.46432375908,0.00425736838952,2.56548404694,-0.740243256092,0.0628495663404,0.00290437485091,-0.00131068844348,0.000189401383977,0.00157970411237,-5.94870152781e-06,5.21150977875e-05,0.000418036652263,0.471112805289,0.00207691762904,0.121088916597,0.0106810082345,0.928464946781,0.37015354128,-0.0287248015457
0.301046103239,0.15346467495,-0.281036376953,-2.46431851387,0.00425710948184,2.56548833847,-0.740241408348,0.0628495663404,0.00466058403254,-0.00116799992975,0.000278212304693,-7.73435094743e-05,-3.11280127789e-05,-1.7896776626e-05,3.49030528923e-06,0.471120080338,0.00210523467001,0.121099403201,0.0106841871507,0.928455015356,0.370179449182,-0.0287107591884
0.301086395979,0.153466910124,-0.281035482883,-2.46430635452,0.00425691762939,2.56549477577,-0.740243017673,0.0611199066043,0.00124510598835,1.75706941263e-06,-0.000358992401743,-0.000239995948505,-7.74710497353e-05,0.00264071952552,0.000349235371687,0.471127192419,0.00212488150919,0.121103044807,0.0106879067489,0.928447156119,0.370199656941,-0.0287029724881
0.301095992327,0.15346942842,-0.281035661697,-2.46430444717,0.00425672903657,2.56549668312,-0.740243077278,0.0611199066043,-6.75214550938e-07,-4.87018151034e-05,-0.000181251089089,0.000116562951007,-0.000102743411844,-3.9587757783e-05,-1.6790765585e-05,0.471128066118,0.00212921166445,0.121102716142,0.0106886718173,0.928445358242,0.370204187258,-0.0287024123512
0.301098316908,0.153468862176,-0.281037122011,-2.46430182457,0.00425716675818,2.56549787521,-0.740244269371,0.0611199066043,3.00672991216e-06,-0.000330463051796,-0.000198306588572,-0.000335611635819,6.70080407872e-05,0.00206133606844,0.000127064267872,0.471129780266,0.00212983322353,0.12110403825,0.0106893995557,0.928445026653,0.370205169402,-0.0287001995006
0.301095575094,0.153467386961,-0.281038492918,-2.46430063248,0.00425688875839,2.56550049782,-0.740243434906,0.0611199066043,-0.000515187450219,0.000465398246888,0.00027764562401,0.000140950243804,-2.107403634e-05,-8.0126337707e-05,0.000431308028055,0.471131316054,0.00212787419703,0.121105299025,0.0106902168878,0.92844599588,0.37020289754,-0.0286978454647
0.301096260548,0.153469085693,-0.281038939953,-2.4643099308,0.00425704149529,2.56550145149,-0.740245223045,0.0611199066043,0.000847882474773,-0.000347193330526,0.000621177314315,-0.000539320986718,3.33300486091e-05,6.09778871876e-05,-0.000154109817231,0.471126427194,0.00212763679815,0.121101430482,0.0106886687785,0.928445563811,0.370203657638,-0.0287025949079
0.301102906466,0.15346711874,-0.281035095453,-2.4643008709,0.00425645522773,2.565502882,-0.740246117115,0.0611199066043,1.57787474109e-06,3.08183080051e-05,2.61646782747e-05,0.0001160416723,0.000177434398211,0.000159796443768,-0.000398197153118,0.471131724246,0.00213302385643,0.121105452787,0.0106905677191,0.928443469961,0.370209311828,-0.0286966891575
0.301096528769,0.153467789292,-0.281039983034,-2.4643034935,0.00425671553239,2.56550478935,-0.740246713161,0.0611199066043,-0.000125307167764,-0.000629337038845,0.000237854241277,-0.000177721056389,9.39157034736e-05,-0.000253557111137,0.000255280698184,0.47113074108,0.00212750695816,0.12110450258,0.01069055948,0.928445461691,0.370204259919,-0.0286974254216
0.301099300385,0.153467446566,-0.281038075686,-2.46430706978,0.00425698701292,2.56550526619,-0.740245938301,0.0611199066043,0.000161017262144,5.75608210056e-05,0.00337350042537,8.4160710685e-05,-0.000102731726656,8.63758759806e-06,5.62526520298e-06,0.471129056956,0.00212970274291,0.121103427875,0.010689898885,0.928444772524,0.370205913345,-0.0286986383593
0.301101982594,0.153466403484,-0.281038671732,-2.46429991722,0.00425680540502,2.56550621986,-0.740245819092,0.0611199066043,0.000412032241002,-9.54008010012e-06,0.00335772824474,0.000442894379376,0.000105862010969,9.80089171208e-05,0.000577771454118,0.471133491953,0.00213095335431,0.121106730106,0.0106916025279,0.9284445214,0.370206863793,-0.0286938669727
0.301106005907,0.153466418386,-0.281037718058,-2.46430873871,0.00425650039688,2.56550788879,-0.740245938301,0.0611199066043,0.000130302345497,5.52642404728e-06,6.99783413438e-05,-0.000752995605581,2.5687053494e-05,0.000467175472295,5.11084290338e-05,0.47112897653,0.00213305748767,0.121103516441,0.010690302342,0.928443409804,0.370209392756,-0.0286976902712
0.301101088524,0.153466880322,-0.281040340662,-2.46431016922,0.0042567923665,2.56550812721,-0.740247547626,0.0611199066043,-3.09334827762e-05,-0.000171149542439,1.65884648595e-05,0.000441749405582,-6.97064751876e-05,-7.93107974459e-05,-0.000621187966317,0.471128244607,0.00212938679855,0.121102891289,0.0106900744307,0.928444534187,0.370206515664,-0.028698513746
0.301101058722,0.15346698463,-0.281040459871,-2.46429657936,0.00425661494955,2.56550836563,-0.74024772644,0.0611199066043,7.81737617217e-06,0.000761238508858,-0.000160041483468,4.40745570813e-05,3.46041670127e-05,9.86315717455e-06,-0.000362639664672,0.471135236793,0.00212965984915,0.12110752277,0.0106925345397,0.928444589395,0.370206802384,-0.0286921118228
0.301104217768,0.153468266129,-0.281039267778,-2.46430659294,0.00425676070154,2.56550931931,-0.740248322487,0.0611199066043,-0.000234766353969,-0.00396547885612,5.50737677258e-05,-0.000113407688332,-0.000136243907036,-1.87503865163e-05,-8.7798005552e-05,0.471130041686,0.00213140868979,0.121103562579,0.0106908304587,0.928443621026,0.370208905095,-0.0286969509205
0.301103621721,0.153465256095,-0.281039595604,-2.46430301666,0.00425683287904,2.56550979614,-0.740247488022,0.0611199066043,0.00106147036422,-1.57321278493e-06,-0.000596669386141,0.000520459376276,-3.89849228668e-05,0.000213411694858,0.000717110116966,0.471132593257,0.0021312556173,0.12110618819,0.0106916634189,0.928444030461,0.370208117906,-0.0286935490142
0.30110630393,0.153466150165,-0.281036973,-2.46430110931,0.00425679329783,2.56551146507,-0.740247130394,0.0607600547373,0.000827969110105,-9.49668974499e-05,-0.000254211976426,-0.000575717538595,-0.000195342479856,3.81422178179e-05,0.000394452217733,0.471133724279,0.00213382640443,0.121106513589,0.0106921468689,0.928443124914,0.370210473363,-0.0286922792919
0.301124095917,0.153353616595,-0.281034052372,-2.46425104141,0.00425719749182,2.56551980972,-0.740249335766,0.0607600547373,0.00013653888891,-0.00814485084265,-2.16462158278e-05,-0.000195423548575,-6.98440417182e-05,-0.000141653057653,-0.000702006393112,0.471183914042,0.00215213453544,0.121174967289,0.0107067117852,0.928441061138,0.370221695299,-0.0286087107274
0.30114287138,0.153165176511,-0.281030148268,-2.46420311928,0.00425667501986,2.56551933289,-0.740250885487,0.0607600547373,0.000389912893297,-0.0106910830364,7.53648055252e-05,0.00446091871709,6.36372988083e-06,-9.19643935049e-06,-0.00037337015965,0.47124636645,0.00217599600242,0.121276199495,0.0107224989981,0.928439678766,0.370233664867,-0.0284925251685
0.301152467728,0.152997925878,-0.281028628349,-2.46411037445,0.00425680587068,2.56551718712,-0.740252196789,0.0607600547373,0.000405671016779,-0.00871862284839,0.000456325302366,0.00361793674529,0.000392582267523,-0.000117543590022,0.000225128926104,0.471327131141,0.00219421418885,0.121383192049,0.0107448555963,0.928440527198,0.370240550951,-0.0283666996789
0.301163345575,0.152756676078,-0.281030237675,-2.46401023865,0.0042567406781,2.56551861763,-0.740251779556,0.0607600547373,0.000193115425645,-0.00794025696814,0.000152761029312,0.00250854203478,-5.8395024098e-05,5.42264097021e-05,0.000143608296639,0.471423955084,0.00221512383509,0.121521170857,0.0107713936678,0.928443205898,0.370245413511,-0.0282050342714
0.301179170609,0.152632877231,-0.281028658152,-2.46399140358,0.00425659352913,2.56551909447,-0.740248680115,0.057633664459,1.49452225742e-05,0.00072021712549,0.000959123892244,-0.000976510753389,0.000109210421215,-0.000114498281619,-0.000288935669232,0.471462116952,0.00223283654087,0.121588742448,0.0107807283201,0.928442488695,0.370252794432,-0.0281280817399
0.301177471876,0.152664378285,-0.281029969454,-2.46401596069,0.00425745919347,2.56551647186,-0.740251839161,0.057633664459,0.000331244955305,0.000464534299681,0.000452433887403,-0.000356754055247,-3.01437139569e-05,-0.000178987465915,-0.000117456933367,0.471442626134,0.00222878034939,0.121565930947,0.0107745462305,0.928441950965,0.370252166193,-0.0281564549549
0.301179558039,0.15268830955,-0.281027376652,-2.46402001381,0.00425591366366,2.56551623344,-0.740251243114,0.057633664459,-0.0027244463563,0.000637619406916,0.000314226868795,-5.06681135448e-05,1.08163403638e-05,6.82137761032e-05,-0.000337941892212,0.471435633159,0.0022293715487,0.12155367959,0.0107731134652,0.92844056224,0.370254621918,-0.0281704995587
0.30117803812,0.152700453997,-0.281027853489,-2.46401524544,0.00425604637712,2.56551575661,-0.740249633789,0.057633664459,-0.000276064791251,-0.000127052117023,0.000207346529351,-0.000559760490432,-0.000127789200633,-3.06302463287e-05,0.00026058833464,0.471434364187,0.00222656694508,0.121546997336,0.0107732084056,0.928441037453,0.370252922524,-0.0281771361342
0.301171898842,0.152706846595,-0.281035095453,-2.46402239799,0.00425611296669,2.56551671028,-0.740252017975,0.057633664459,0.00055588351097,0.000381228717742,0.000357959623216,0.00337755517103,-4.3499214371e-05,-5.90061717958e-05,8.98853541003e-05,0.471430813749,0.00222042564259,0.121544823849,0.0107723507169,0.928443110109,0.370247489006,-0.0281805663586
0.301174074411,0.152699649334,-0.28103107214,-2.4640109539,0.0042563774623,2.56551504135,-0.740253329277,0.057633664459,0.000124985555885,-0.000640838232357,-0.000489387544803,-0.000188362304471,-7.96277236077e-05,5.85664020036e-05,-6.21119106654e-05,0.471437768933,0.00222449095595,0.121551659935,0.0107740522278,0.928441821362,0.370251284982,-0.0281725007513
0.301170438528,0.15267726779,-0.28103685379,-2.46399927139,0.00425680400804,2.56551790237,-0.740252017975,0.057633664459,0.00101294124033,-0.00194013409782,-0.000121199118439,0.000368608220015,3.93975096813e-05,2.83967256109e-05,-0.000522491871379,0.47144897858,0.00222165817332,0.121566104598,0.0107776943328,0.928444294233,0.370246341401,-0.0281545764358
0.301156312227,0.152581945062,-0.281044781208,-2.46398353577,0.00425788015127,2.56551885605,-0.740252971649,0.057633664459,-0.00265873153694,0.000205307078431,-0.000147465209011,-0.000478542788187,-6.66213672957e-05,-0.000148561797687,9.69187967712e-05,0.471476610664,0.00221750963,0.121614725723,0.0107843546233,0.928449896269,0.37023629626,-0.0280993314773
0.301151126623,0.152594253421,-0.281043320894,-2.46397089958,0.00425679562613,2.56551647186,-0.740252494812,0.057633664459,0.00061865139287,0.000619156518951,0.000207828968996,-0.00172781082802,-5.36666675544e-06,-0.000279124767985,0.00030604362837,0.471479937193,0.00221564729231,0.121613047985,0.0107856906915,0.928450166811,0.370235436403,-0.0281012088828
0.30116122961,0.152587488294,-0.281038880348,-2.46393752098,0.00425681518391,2.56550383568,-0.740252792835,0.057633664459,0.000340196158504,-0.00151419034228,0.000203104136745,0.00263472786173,-0.000140897391248,-0.00241356762126,-7.71542909206e-05,0.471495611189,0.00222346414447,0.121626730037,0.0107894934035,0.928447875049,0.37024210643,-0.0280875854943
0.301164239645,0.152447044849,-0.281037539244,-2.46383213997,0.00425679748878,2.56544399261,-0.74025285244,0.057633664459,8.77859129105e-05,-0.0123107992113,-1.78712689376e-05,0.00605302583426,7.03734986018e-05,-0.00941339507699,0.000295608740998,0.471564521427,0.00223668386311,0.121721553,0.0108028004717,0.928449429546,0.37024473993,-0.027996223248
0.301116287708,0.150961518288,-0.281066834927,-2.46304249763,0.00425669131801,2.56233000755,-0.740252256393,0.057633664459,-0.00214922334999,-0.0622397884727,-0.000362869846867,0.0302476808429,-9.61067926255e-05,-0.166950747371,0.000181492127012,0.47158385185,0.00228722120873,0.12239609367,0.0104723645548,0.928469822698,0.370179334618,-0.0283086175254
0.301107883453,0.149932742119,-0.281078070402,-2.46242880821,0.00425624893978,2.55917978287,-0.74025285244,0.0571240894496,4.98516164953e-05,-0.0928900539875,-0.000381350022508,0.0535715520382,-0.00060988496989,-0.284340649843,0.000103429396404,0.471393256088,0.00233740928392,0.122851350086,0.0100427221572,0.928470690599,0.37013426598,-0.0290162930309
0.30110347271,0.148012682796,-0.28112205863,-2.46114039421,0.00425526872277,2.55279588699,-0.740255534649,0.0571240894496,0.00103805260733,-0.131905719638,-0.008216207847,0.0909465029836,-0.000237699307036,-0.446915984154,1.65284400282e-05,0.470988509076,0.00242463092581,0.123724168096,0.00916382845172,0.928469024959,0.370038817509,-0.0305379626152
0.301121115685,0.142120301723,-0.28133007884,-2.45735239983,0.00425270898268,2.53448343277,-0.740257143974,0.0571240894496,-0.0012282547541,-0.23579120636,-0.00712775997818,0.15887863934,0.000139028852573,-0.72214704752,-0.000237611457123,0.470023788003,0.00265410541132,0.126242032856,0.00689004129351,0.92846567689,0.369767202179,-0.0342962103621
0.301112532616,0.136611372232,-0.281565308571,-2.45379734039,0.00425023259595,2.51818060875,-0.740256726742,0.0571240894496,-0.00119139824528,-0.320953577757,-0.0159716792405,0.19671189785,6.94256823408e-06,-0.89860111475,0.000394612288801,0.469259251592,0.00284552107771,0.128743614388,0.00485839874905,0.928464188524,0.369491041791,-0.0375102160752
0.301140934229,0.131276667118,-0.281879335642,-2.45046377182,0.00424762349576,2.50362944603,-0.740257799625,0.0571240894496,0.00344032212161,-0.390217483044,-0.0197993777692,0.236680030823,-3.87433174183e-05,-1.03278934956,0.000275477999821,0.468715039677,0.0030091996383,0.131243366161,0.0030923578617,0.928470941259,0.369221490029,-0.0400953805951
0.301152527332,0.124007508159,-0.28221347928,-2.44607114792,0.00424724817276,2.48459720612,-0.740257143974,0.0571240894496,-0.00226062745787,-0.461121439934,-0.0205298196524,0.281843006611,-0.000335117947543,-1.18684220314,0.00458416994661,0.468035459429,0.00326316783529,0.134684334577,0.000790424446226,0.928459445958,0.368898825615,-0.0433138382508
0.301155388355,0.0961015447974,-0.283785820007,-2.42760515213,0.00424053985626,2.41982293129,-0.740258216858,0.0571240894496,0.000258804968325,-0.67672431469,-0.0409298352897,0.46282428503,-3.69591930394e-07,-1.43798780441,0.000957831740379,0.467669941306,0.00410063448503,0.149317736463,-0.00632732320196,0.928506211697,0.36773838763,-0.0510358478858
0.301137655973,0.0833475291729,-0.284508734941,-2.41898870468,0.00423889281228,2.39326739311,-0.740257740021,0.0568200536072,-0.000543111120351,-0.746049761772,-0.0437139198184,0.520437538624,0.000917769386433,-1.49936318398,-6.25047687208e-05,0.468049256566,0.00445186958029,0.156402077829,-0.00902892844562,0.928549590756,0.367286678722,-0.0530530986377
0.301160246134,0.0709121897817,-0.285320878029,-2.41005015373,0.00423978734761,2.36920332909,-0.74025863409,0.0568200536072,0.00109280785546,-0.809225261211,-0.0532597973943,0.590370237827,-2.06008371606e-05,-1.5128827095,7.96201929916e-05,0.468951328589,0.0047502823519,0.163693149341,-0.0112526570618,0.928638946186,0.366873948532,-0.0539128083852
0.301184356213,0.0545496158302,-0.286482453346,-2.39762616158,0.0042406921275,2.33889889717,-0.740259587765,0.0568200536072,0.000208456083783,-0.852248609066,-0.0557496845722,0.641591012478,0.000598984595854,-1.50945043564,0.000385056657251,0.470536280345,0.00506226588577,0.173721589742,-0.0138357089826,0.928801065605,0.366347843168,-0.0540963138981
0.301216900349,0.0278682522476,-0.28853097558,-2.3767285347,0.00424268608913,2.29450035095,-0.740259885788,0.0568200536072,7.40000905353e-05,-0.901926279068,-0.0743020623922,0.749710321426,-0.000286939990474,-1.44476342201,-0.000582897162531,0.473976510689,0.00538549676039,0.190879697027,-0.0170800424713,0.929191390711,0.365559503813,-0.0517482408789
0.3011944592,0.0132105946541,-0.289837956429,-2.36466526985,0.00423668371513,2.27185988426,-0.740258872509,0.0568200536072,-0.00283691077493,-0.9275649786,-0.0926134139299,0.779978454113,0.000780397967901,-1.37675619125,1.89826241694e-05,0.476208113067,0.00538896236754,0.20076846818,-0.0184671954151,0.929481701128,0.365083305852,-0.0493650628854
0.301190435886,-0.00290751177818,-0.291534692049,-2.35092735291,0.00423149950802,2.2492685318,-0.740257143974,0.0568200536072,-0.0028805534821,-0.951304793358,-0.101252019405,0.824343919754,-0.00267404736951,-1.27852535248,-0.000171391598997,0.479294036409,0.00520075646673,0.212760196032,-0.0195692410214,0.929917079329,0.364458145076,-0.045183299464
0.301112890244,-0.0209642164409,-0.293582469225,-2.33551073074,0.00420462433249,2.22592759132,-0.740261018276,0.0568200536072,-0.00418071867898,-0.977963685989,-0.113786302507,0.807828187943,-0.0024917924311,-1.15947377682,0.000969361397438,0.482661214978,0.00479300516208,0.225740641468,-0.0203861599601,0.930433584793,0.363724393678,-0.039778309416
0.300084918737,-0.0666467025876,-0.300124704838,-2.29598855972,0.00279658008367,2.17907905579,-0.740261912346,0.05680757761,-0.0405437983572,-0.922977745533,-0.155641958117,0.793597102165,-0.083039291203,-0.792548716068,-2.11357164517e-05,0.492127232766,0.00209927200923,0.259459915846,-0.0198479699085,0.931992485107,0.36133236133,-0.0208564171171
0.299304813147,-0.081387296319,-0.30278518796,-2.28377723694,0.0010764967883,2.16733980179,-0.740268528461,0.05680757761,-0.056650172919,-0.924968004227,-0.176304206252,0.767152369022,-0.135444656014,-0.662566065788,3.59301557182e-05,0.495217177733,0.00039407460219,0.270766200905,-0.018732040606,0.932515975837,0.360390135577,-0.0134913056164
0.297990947962,-0.0975891724229,-0.306169122458,-2.27035474777,-0.00178890838288,2.1566901207,-0.740427136421,0.05680757761,-0.0880275592208,-0.877918541431,-0.197121188045,0.708737134933,-0.181529566646,-0.529661893845,-0.0264216735959,0.498783112178,-0.00218093392655,0.2834641451,-0.0167363243597,0.93310204793,0.359194016139,-0.00448576100513
0.290973007679,-0.137706309557,-0.317594617605,-2.23917746544,-0.0189506597817,2.13880324364,-0.745369195938,0.05680757761,-0.189722910523,-0.735576331615,-0.293885439634,0.551557004452,-0.518608093262,-0.213665992022,-0.202757820487,0.507110335582,-0.0139108030691,0.315048529179,-0.00663146803528,0.933777611441,0.357273654397,0.0192595836578
0.287186175585,-0.150349274278,-0.323350280523,-2.22975301743,-0.0291234776378,2.13595986366,-0.74958640337,0.05680757761,-0.232942864299,-0.672513127327,-0.340832233429,0.511208355427,-0.614799022675,-0.101496823132,-0.261901646852,0.509636592489,-0.0203471228825,0.325130708017,-0.00107831626721,0.933664506736,0.357123651796,0.0270577735491
0.28340318799,-0.159810423851,-0.328838378191,-2.22240710258,-0.038949996233,2.13505983353,-0.754110872746,0.05680757761,-0.279263943434,-0.592121839523,-0.396499842405,0.460802108049,-0.691589653492,-0.0326861217618,-0.343696832657,0.511761365164,-0.0271002767812,0.333427732154,0.00465079523226,0.93346187337,0.357072708302,0.033561611088
0.276902109385,-0.171114891768,-0.338090568781,-2.21329021454,-0.0544618368149,2.13483333588,-0.762434661388,0.05680757761,-0.334883064032,-0.479922294617,-0.481473982334,0.417161524296,-0.792609333992,-0.000856023572851,-0.450570434332,0.513887666631,-0.0371979025381,0.342478589775,0.0124403895998,0.933174842361,0.356940713091,0.0402899157963
0.265207290649,-0.18251748383,-0.354333609343,-2.20090103149,-0.0797245576978,2.13514947891,-0.77921128273,0.05678524822,-0.435575008392,-0.274742633104,-0.594025194645,0.413892894983,-0.868090510368,0.0231489725411,-0.656185507774,0.516178960773,-0.0556604542065,0.353545634191,0.0253069858412,0.932569785285,0.357010556968,0.0470809296884
0.256731361151,-0.18635289371,-0.366084098816,-2.19352459908,-0.0952860191464,2.13581204414,-0.79200732708,0.05678524822,-0.493784785271,-0.147717282176,-0.697554171085,0.420133948326,-0.853951573372,0.0565648749471,-0.755446255207,0.517072450578,-0.0686698104878,0.358717253073,0.0331967735141,0.932311498705,0.356724067055,0.0494083320768
0.248407885432,-0.187638744712,-0.378029167652,-2.18672347069,-0.108377732337,2.13701677322,-0.804796218872,0.05678524822,-0.542978167534,-0.0166189111769,-0.784811198711,0.430808722973,-0.77147012949,0.0833929032087,-0.836726784706,0.517676370451,-0.0822100307822,0.362634777581,0.0403980602706,0.932313841846,0.355790368513,0.0507159776355
0.237988755107,-0.18693383038,-0.393175035715,-2.17897439003,-0.121067799628,2.13887119293,-0.820630550385,0.05678524822,-0.595452308655,0.0877787917852,-0.884452342987,0.45551776886,-0.624555706978,0.12876483798,-0.914456486702,0.517882023173,-0.0969040961399,0.365628945408,0.046853176866,0.932719421747,0.353841828163,0.0513343982189
0.206279426813,-0.173387467861,-0.44128459692,-2.15606760979,-0.142154544592,2.14741826057,-0.867795526981,0.05678524822,-0.723093152046,0.431135177612,-1.10122919083,0.504849255085,-0.234691485763,0.227069124579,-1.01692259312,0.516625515523,-0.143099517743,0.369758139825,0.0609719250418,0.936117173693,0.342613012325,0.050827010007
0.193094566464,-0.164703607559,-0.461837142706,-2.14642167091,-0.14473426342,2.15194153786,-0.885943710804,0.0567524172366,-0.751691758633,0.546644032001,-1.17890048027,0.549143612385,-0.0497103519738,0.25845977664,-0.994710683823,0.515301294746,-0.161920934175,0.370169085446,0.064740908219,0.938383213421,0.33570305156,0.050487824596
0.18042512238,-0.154561981559,-0.482161164284,-2.13703775406,-0.144575625658,2.15639662743,-0.902689516544,0.0567524172366,-0.738614141941,0.631075441837,-1.2112351656,0.544566392899,0.0372406728566,0.259183824062,-0.975624740124,0.513473154852,-0.180025073528,0.36977450317,0.0674582905237,0.940974880072,0.327925937302,0.049801942181
0.165092200041,-0.14110212028,-0.50701802969,-2.12592077255,-0.143305316567,2.16133260727,-0.921979665756,0.0567524172366,-0.761702537537,0.690859079361,-1.24784839153,0.576839447021,0.09129653126,0.233877837658,-0.946375489235,0.510273419181,-0.201929909816,0.368608334115,0.0703036162295,0.944344605689,0.317726166608,0.0481741631071
0.141636475921,-0.119139261544,-0.544223845005,-2.10928606987,-0.137797042727,2.16712474823,-0.949754834175,0.0567524172366,-0.797899842262,0.754169285297,-1.24623692036,0.519869744778,0.296415328979,0.151131466031,-0.892563521862,0.50349334,-0.234433794934,0.365964935782,0.0732167967964,0.949788268623,0.300896271189,0.0447546547945
0.12913428247,-0.107125371695,-0.56378942728,-2.10132741928,-0.132181912661,2.16915631294,-0.963709115982,0.0567524172366,-0.768254816532,0.748886704445,-1.19363045692,0.488433420658,0.406816273928,0.11700425297,-0.853786706924,0.49878882349,-0.251048876534,0.363922565273,0.0734699052068,0.952927333632,0.291055278341,0.0426438094585
0.114420741796,-0.0932494923472,-0.586220085621,-2.09268260002,-0.123518176377,2.17076516151,-0.97943598032,0.0567524172366,-0.76254171133,0.719536542892,-1.15924990177,0.422081619501,0.497802078724,0.0570255145431,-0.809826254845,0.492466269259,-0.269799563281,0.361295144994,0.0728520034134,0.956696484134,0.278928787179,0.0402883881296
0.101552039385,-0.0816373899579,-0.605198502541,-2.08633136749,-0.114136151969,2.17125940323,-0.992855250835,0.0567524172366,-0.751678228378,0.664436936378,-1.08339512348,0.340769141912,0.577137768269,0.00796796008945,-0.769337832928,0.486146700985,-0.285293858226,0.358626895096,0.0712650531902,0.960008170952,0.268033754706,0.0382558482858
0.0668583214283,-0.0551450960338,-0.651962697506,-2.07701158524,-0.0810901299119,2.16991376877,-1.02765750885,0.0567524172366,-0.659153103828,0.402858823538,-0.819569051266,0.061442617327,0.737149119377,-0.103091046214,-0.636982500553,0.466127135024,-0.321743084656,0.349923360685,0.0621559384927,0.968633613684,0.238135731914,0.0343064808931
0.0568103156984,-0.0496178418398,-0.664386630058,-2.07670593262,-0.0688327029347,2.16791677475,-1.03736209869,0.0567517615855,-0.593371808529,0.299544155598,-0.711221694946,-0.0137198744342,0.783339142799,-0.158785656095,-0.584066271782,0.459469451849,-0.330622410893,0.347114370068,0.057654977213,0.971100978254,0.22910491616,0.033907679405
0.046688914299,-0.0449810475111,-0.676099658012,-2.0773627758,-0.0544876419008,2.16424679756,-1.04720687866,0.0567517615855,-0.536991000175,0.216323062778,-0.606248319149,-0.0580170936882,0.804808974266,-0.249633893371,-0.520263969898,0.452487765787,-0.338467799531,0.344090251057,0.0517383250449,0.973561186975,0.219896200615,0.0338736119465
0.0375053882599,-0.0422510653734,-0.686483561993,-2.07890081406,-0.0394163578749,2.15874528885,-1.05661869049,0.0567517615855,-0.440928280354,0.0800257176161,-0.494112253189,-0.102850742638,0.800800144672,-0.323988318443,-0.471941202879,0.445689670799,-0.344669166032,0.341333824045,0.0448170068563,0.975779891668,0.211340165195,0.0343565595484
0.0219563636929,-0.0435901805758,-0.702138900757,-2.08525872231,1.32980103444e-05,2.13866019249,-1.07657134533,0.0567517615855,-0.192372843623,-0.126630544662,-0.15612988174,-0.131349548697,0.757016539574,-0.472019731998,-0.322492390871,0.433264092867,-0.350280484622,0.336420241688,0.0243602284198,0.979480517371,0.196323309042,0.0384922509681
0.0205521062016,-0.0449563227594,-0.703166007996,-2.08644104004,0.00664668763056,2.13427114487,-1.07923769951,0.0567517615855,-0.186632961035,-0.131398245692,-0.149940133095,-0.130759313703,0.755683839321,-0.473700433969,-0.320256590843,0.431764428261,-0.349605483643,0.335891762598,0.0197208732317,0.979878835851,0.194594173241,0.0397701099661
0.0193155705929,-0.0492754653096,-0.703168332577,-2.0890879631,0.0227594971657,2.12189435959,-1.08487224579,0.0567517615855,0.0270937904716,-0.193785518408,0.0611325986683,-0.0923696383834,0.602275311947,-0.540114223957,-0.188317433,0.43037029611,-0.346316994369,0.335336037778,0.0107771825656,0.980187636872,0.193219729666,0.0422159285476
0.0270484406501,-0.0606332756579,-0.691952705383,-2.09124946594,0.0481267236173,2.0944378376,-1.089666605,0.0567524172366,0.274351149797,-0.234501004219,0.379244238138,0.00339741702192,0.429205477238,-0.555635809898,-0.00665650283918,0.434139023482,-0.331012463595,0.336813602519,-0.00687432001535,0.978799595493,0.199259684634,0.046900675493
0.0309863109142,-0.0637002885342,-0.686343312263,-2.09112691879,0.0534370280802,2.08738946915,-1.08965075016,0.0567524172366,0.342295795679,-0.23748254776,0.485906332731,0.0159856230021,0.382676243782,-0.521732985973,0.0017331893323,0.436418945498,-0.325754272053,0.337600682038,-0.0105683133139,0.978050764431,0.202523255908,0.0478470841581
0.0384056270123,-0.0684179067612,-0.675904631615,-2.09061598778,0.0601748377085,2.0778002739,-1.08954596519,0.0567524172366,0.448212593794,-0.243297219276,0.62602686882,0.0373969934881,0.319621443748,-0.484325051308,0.0126745216548,0.441499417134,-0.315428125999,0.339331939138,-0.0160025954411,0.976276221924,0.210203432763,0.0494284532899
0.0492511466146,-0.0733023062348,-0.660934984684,-2.08946228027,0.0665336549282,2.06768631935,-1.0886336565,0.0567524172366,0.539889633656,-0.212329745293,0.728435337543,0.0619675852358,0.264599144459,-0.446189790964,0.0777169540524,0.448600197006,-0.302026008247,0.341465493212,-0.0210301954969,0.9736839267,0.221188111582,0.0507263319547
0.0664351582527,-0.0786835625768,-0.638253569603,-2.08724880219,0.0730375349522,2.05634880066,-1.08502864838,0.0567524172366,0.682912766933,-0.167715921998,0.887943327427,0.100385710597,0.207713127136,-0.370310723782,0.187579840422,0.459782533186,-0.281267217539,0.344565036573,-0.026409022352,0.969430109395,0.238355600568,0.0519079368459
0.0786444470286,-0.0811709091067,-0.622592449188,-2.08533096313,0.0762720629573,2.05058073997,-1.0811470747,0.0567524172366,0.754635095596,-0.119139745831,0.951797246933,0.127315968275,0.181130811572,-0.310779392719,0.284879237413,0.467185063409,-0.267504313264,0.34647628732,-0.0288185196997,0.9665337935,0.249482567917,0.052348514238
0.0936927869916,-0.0829650610685,-0.603728353977,-2.08279681206,0.0795763283968,2.04506659508,-1.07498311996,0.0567524172366,0.814417302608,-0.0691770240664,1.02720737457,0.141170218587,0.157832056284,-0.260752111673,0.37320548296,0.47544459591,-0.251703707746,0.348382297972,-0.030981149217,0.963225405727,0.26167840311,0.0525490170617
0.108074568212,-0.0836356431246,-0.585593938828,-2.08018422127,0.0818298608065,2.04103708267,-1.06799697876,0.0567524172366,0.852966547012,-0.0175977107137,1.08830606937,0.160981193185,0.110370121896,-0.210551649332,0.447524905205,0.483460690904,-0.235769897144,0.350035605687,-0.0324801738051,0.959864280063,0.273611176797,0.0523691301386
0.15375071764,-0.0816060304642,-0.528324007988,-2.07092905045,0.086049489677,2.03396964073,-1.04015338421,0.0567511022091,0.979095995426,0.115102306008,1.21216237545,0.196361467242,0.0424330532551,-0.0901243165135,0.66971540451,0.506539876144,-0.184761612788,0.354225408067,-0.0344788878558,0.949127747097,0.308820056543,0.0509695825785
0.171606227756,-0.0791952610016,-0.506206929684,-2.06746459007,0.086471863091,2.0326628685,-1.02757430077,0.0567511022091,1.01165163517,0.147144004703,1.2451864481,0.190592929721,0.0104463202879,-0.0679778307676,0.719125986099,0.514276994482,-0.164586355025,0.355076022107,-0.0346059535392,0.944886492835,0.321746080429,0.0497132080538
0.187715321779,-0.076633490622,-0.486268222332,-2.0643992424,0.0865741074085,2.03166604042,-1.01572692394,0.0567511022091,1.00783658028,0.173644393682,1.23103487492,0.189367055893,0.0115328533575,-0.0552407056093,0.763442873955,0.520580856363,-0.146155881699,0.355600348521,-0.0346349927012,0.94098981318,0.333165639274,0.0483657447508
0.207077875733,-0.0727617517114,-0.462554842234,-2.06092357635,0.0867474526167,2.03086066246,-1.00099182129,0.0567511022091,1.01361489296,0.224501252174,1.24701082706,0.17402626574,0.00806477479637,-0.0290005505085,0.773796916008,0.527294107404,-0.123811484624,0.355722853536,-0.034714214108,0.936275016733,0.346446858932,0.0464606285178
0.238289818168,-0.0650878101587,-0.42438134551,-2.0560965538,0.0871508866549,2.03001785278,-0.976062715054,0.0567511022091,0.993523240089,0.257868021727,1.20794677734,0.1269120574,0.00477454578504,-0.0300783272833,0.834801971912,0.535993896745,-0.0871276467103,0.354741368065,-0.0351204336113,0.928547472833,0.367084111965,0.0426075141925
0.255142658949,-0.0604570023715,-0.404002308846,-2.05416965485,0.0873653143644,2.02955436707,-0.96179074049,0.0567511022091,0.975435435772,0.288451552391,1.17761659622,0.101385250688,0.0193929634988,-0.0237620100379,0.83587038517,0.539425958871,-0.0671379955444,0.353559777846,-0.0355702722967,0.924394905919,0.377662193904,0.040001007724
0.272469937801,-0.0550081767142,-0.383117496967,-2.05263137817,0.0877439081669,2.02914166451,-0.946765363216,0.0567511022091,0.958838105202,0.310331434011,1.1507140398,0.0635605752468,0.0256282817572,-0.0236703529954,0.824858367443,0.542070260413,-0.0464389752062,0.351734434581,-0.0362202001293,0.920105764122,0.388246869955,0.036848983496
0.287276238203,-0.0500770024955,-0.365256160498,-2.05184602737,0.0881581604481,2.02876329422,-0.933629989624,0.0567511022091,0.89966827631,0.310792267323,1.09031891823,0.0320380628109,0.0275853089988,-0.0229536928236,0.819642841816,0.543607115155,-0.0274775631268,0.349588209647,-0.0369911104468,0.916174106131,0.397655181901,0.0335711333039
0.306004524231,-0.0433363579214,-0.342762827873,-2.05162739754,0.0886716917157,2.02821922302,-0.916677713394,0.0567511022091,0.857945561409,0.325170099735,1.03871047497,-0.00726653030142,0.0258339270949,-0.0285702422261,0.786672174931,0.544302885285,-0.00608248645097,0.346507063768,-0.0380206281825,0.911713472808,0.40801589061,0.0292576147682
0.328916758299,-0.0339025780559,-0.31533703208,-2.05209803581,0.0892582908273,2.02672123909,-0.89544159174,0.0567511022091,0.780147850513,0.350554794073,0.932014644146,-0.025055732578,0.0232615750283,-0.0780164673924,0.740277051926,0.543544433941,0.0214609842748,0.341431902735,-0.0396191241472,0.905909853515,0.42101952189,0.0223656918584
0.341612905264,-0.0280033759773,-0.300195634365,-2.05263233185,0.0896244570613,2.02514243126,-0.883192002773,0.0567511022091,0.707383096218,0.34196805954,0.82546454668,-0.0440174117684,0.0220536980778,-0.105825729668,0.691065430641,0.542168560701,0.0374971256458,0.337831211186,-0.0407590086594,0.902549015947,0.428298753312,0.0174400291267
0.353286504745,-0.0222341604531,-0.286486178637,-2.05370473862,0.0900717228651,2.02334332466,-0.871824979782,0.0567511022091,0.662706553936,0.340873628855,0.79051977396,-0.07628839463,0.0318005606532,-0.110117010772,0.635704398155,0.540438632316,0.0504698675621,0.334413110525,-0.0418500668647,0.899813285275,0.434073308719,0.0128446829268
0.36578515172,-0.0153834493831,-0.271839231253,-2.05533599854,0.0906508639455,2.02116298676,-0.859490811825,0.0567511022091,0.5793171525,0.33326330781,0.667475700378,-0.0995400622487,0.0232537593693,-0.107249833643,0.597224652767,0.537861640065,0.0651531456084,0.329918761728,-0.0432009330657,0.896690169008,0.440491126168,0.00692731037377
0.382216751575,-0.0055022793822,-0.253435730934,-2.05893540382,0.0911764502525,2.01757192612,-0.842146396637,0.0567511022091,0.477602213621,0.32280421257,0.522682964802,-0.118686944246,0.00483012059703,-0.121192269027,0.513424932957,0.53324893609,0.0837128932749,0.322802506993,-0.0451089050088,0.892896414196,0.447990346852,-0.00241433357471
0.395384907722,0.00471072737128,-0.239503622055,-2.06357097626,0.0912077650428,2.01340079308,-0.826716184616,0.0567511022091,0.332161158323,0.302316278219,0.335887849331,-0.151646494865,0.000186464560102,-0.126083150506,0.432720124722,0.528065226199,0.0981039896217,0.314762675377,-0.0468997035519,0.89018539893,0.452993911205,-0.0129185689646
0.400594174862,0.010193686001,-0.234224379063,-2.06621623039,0.0912093743682,2.01106214523,-0.819091439247,0.0567511022091,0.244085848331,0.303349643946,0.243240684271,-0.146161034703,0.00017166743055,-0.138796389103,0.415023744106,0.525660330805,0.103056784199,0.310751267469,-0.0477363852526,0.889540194035,0.453994524371,-0.0181232512161
0.405183643103,0.0169703830034,-0.229441031814,-2.06980395317,0.0912053510547,2.00756072998,-0.809569776058,0.0567511022091,0.140625432134,0.270023614168,0.149329483509,-0.147262051702,-4.91665552715e-08,-0.140601411462,0.370851874352,0.522532985719,0.107610660867,0.30534046651,-0.0489127638653,0.889459795778,0.45368288692,-0.0253110848404
0.407297044992,0.0224220845848,-0.227647602558,-2.07270121574,0.0912095531821,2.00486660004,-0.802601337433,0.0567511022091,0.0771857947111,0.268800675869,0.0457793734968,-0.141261786222,0.00040694035124,-0.130082547665,0.338166773319,0.520374437054,0.109336657912,0.30102048062,-0.0498153504051,0.89003652995,0.452101355769,-0.0309478594482
0.407643377781,0.027070665732,-0.227714002132,-2.0752966404,0.0911994129419,2.00254583359,-0.796961665154,0.0567511022091,-0.0267335660756,0.250559747219,-0.025524912402,-0.14216299355,-0.000672909256537,-0.120782218874,0.300829708576,0.518790710085,0.109191460096,0.297303818157,-0.0505989781832,0.891122446868,0.449513562797,-0.0357503095097
