imanlab/tactile_prediction_flat_dataset/train/data_sample_2021-11-24-16-37-23/robot_state.csv
position_panda_joint1,position_panda_joint2,position_panda_joint3,position_panda_joint4,position_panda_joint5,position_panda_joint6,position_panda_joint7,position_panda_finger,velocity_panda_joint1,velocity_panda_joint2,velocity_panda_joint3,velocity_panda_joint4,velocity_panda_joint5,velocity_panda_joint6,velocity_panda_joint7,ee_state_position_x,ee_state_position_y,ee_state_position_z,ee_state_orientation_x,ee_state_orientation_y,ee_state_orientation_z,ee_state_orientation_w
-0.0271088834852,0.106424830854,0.00539040425792,-2.55284762383,0.0703576952219,2.70862793922,-0.896281659603,0.0688390210271,-0.00360917532817,-0.00041236449033,-0.00332996435463,-0.000123360718135,-4.45523619419e-05,0.000110089597001,-0.000467261124868,0.465436343107,-0.00915947988017,0.122144625455,-0.0032655822884,0.918436682112,0.394481798829,0.0291119734409
-0.0271104648709,0.106424696743,0.00538944546133,-2.55285692215,0.0703562498093,2.70862674713,-0.89628058672,0.0688390210271,-0.000283961533569,-0.000856069207657,0.000197634028154,-0.00161071820185,2.49368549703e-05,4.16809743911e-05,-0.000454454828287,0.46543129204,-0.0091605675235,0.122141315934,-0.00326740747433,0.91843728391,0.394480740741,0.0291071200746
-0.0271106716245,0.106423020363,0.00538971321657,-2.55286622047,0.0703570470214,2.70862555504,-0.896281123161,0.0688390210271,-9.79537071544e-05,-0.000202891416848,8.42705921968e-05,-0.000175871362444,0.000583439948969,-0.000101606630778,-0.000149279949255,0.465426592797,-0.00916040225205,0.122138725738,-0.00326942725032,0.918437423803,0.394480686765,0.0291032103824
-0.0271090101451,0.106420986354,0.00539236934856,-2.55287528038,0.0703568607569,2.70862746239,-0.896280944347,0.068838365376,0.000521037902217,0.000167562102433,0.000339136749972,-0.000287677277811,0.000138738687383,-9.83292338788e-05,0.000669664994348,0.465422792929,-0.00915829113828,0.122136690986,-0.0032705851793,0.918436663535,0.394482618627,0.0291008870996
-0.0271127838641,0.106425188482,0.00538600701839,-2.5528948307,0.0703577548265,2.70862722397,-0.896279394627,0.068838365376,0.000286745431367,0.00176061294042,0.000219737266889,0.000211729915463,-1.07034284156e-05,7.78570974944e-05,-0.000177840876859,0.465411669086,-0.00916287108434,0.122127868673,-0.00327531894202,0.918439462361,0.394476870256,0.0290899429065
-0.0271131508052,0.106423556805,0.00538762612268,-2.55290269852,0.0703568831086,2.70862674713,-0.896279633045,0.068838365376,-0.000118932934129,-5.18026645295e-05,0.000248846889008,0.0003637788177,2.39191449509e-05,-5.5966880609e-05,-0.000643051578663,0.465407861407,-0.00916217597889,0.122125828578,-0.00327663923818,0.918439111582,0.394477904491,0.0290868441298
-0.0271099954844,0.106421232224,0.00538846291602,-2.55290341377,0.0703565850854,2.70862817764,-0.896281063557,0.068838365376,-0.000169287537574,-4.16959373979e-05,0.000309401890263,0.000236234802287,1.02933563539e-05,-0.000115662427561,-0.000858649204019,0.465408324313,-0.00916034059249,0.12212680133,-0.00327598177184,0.918437956407,0.394480500258,0.029088189553
-0.0271099172533,0.106423161924,0.00538811460137,-2.55290484428,0.0703573822975,2.70862722397,-0.896279036999,0.068838365376,-0.000350599031663,2.21414284169e-05,0.000699928437825,0.000267795025138,-0.000104492690298,3.64833831554e-05,0.0004460302589,0.46540697367,-0.0091604159713,0.122125308892,-0.00327707398387,0.918438603673,0.394479122801,0.0290863099379
-0.0271095596254,0.106421425939,0.00539012392983,-2.55290818214,0.0703569799662,2.70862746239,-0.896279573441,0.068838365376,0.000125102189486,-0.000284771085717,-0.000146722915815,-0.000363268336514,-7.50112230889e-05,-6.52687822367e-06,-6.65934712742e-05,0.46540530874,-0.0091592806766,0.122124499307,-0.00327769580293,0.918437936471,0.394480765072,0.0290850344854
-0.0271079838276,0.106425337493,0.00539230322465,-2.55291032791,0.0703555271029,2.70862770081,-0.896280109882,0.0688390210271,4.17625888076e-05,0.000400354678277,-0.000153733984916,-0.0004581657995,-6.02174477535e-05,-4.38348288299e-05,0.00230180146173,0.465403842737,-0.00915744119127,0.122122425232,-0.00327846120483,0.918436972513,0.394483157172,0.0290829435109
-0.0271068289876,0.106423161924,0.00539123639464,-2.55291128159,0.0703575611115,2.70862841606,-0.896279633045,0.0688390210271,5.3332427342e-05,-0.000151265252498,-0.00010990123701,-0.00021617479797,1.44920040839e-05,-3.55493866664e-05,0.000813054561149,0.465403964008,-0.00915741374516,0.122123175036,-0.0032783942839,0.918437378465,0.394482135774,0.0290839853704
-0.0271106399596,0.106422655284,0.00538791809231,-2.55291318893,0.0703567937016,2.70862627029,-0.89627969265,0.0688390210271,-0.000428890081821,-2.58993222815e-05,0.000565960246604,0.00023222938762,3.65641739108e-07,-8.9351713541e-05,0.000462318537757,0.465402560265,-0.00916074191887,0.122122530821,-0.00327877228342,0.918438673336,0.394479244724,0.0290822649897
-0.0271116402,0.106424406171,0.00538850063458,-2.55291247368,0.070356965065,2.70862793922,-0.896281301975,0.0688390210271,0.000335324963089,5.08096927661e-05,0.000380357407266,-0.000164501660038,-9.84533835435e-06,6.42786908429e-05,-0.00103193742689,0.465402830718,-0.00916082635978,0.122122230002,-0.0032785904771,0.918438445618,0.394479744376,0.0290826995742
-0.0271085333079,0.106421120465,0.00539006479084,-2.55291795731,0.0703571364284,2.70862722397,-0.896278738976,0.0688390210271,0.000391463603592,0.000478481262689,-0.000459061615402,-0.000132739791297,8.18344051368e-05,4.5530814532e-05,0.000550521537662,0.465400666444,-0.00915869044935,0.122121671602,-0.00327946086059,0.918438122952,0.394480592618,0.0290812856311
-0.0271061714739,0.106420792639,0.00539111206308,-2.55291795731,0.0703566670418,2.70862674713,-0.896280407906,0.0688390210271,0.000163137199706,4.77396533825e-05,0.000151017506141,0.000187461875612,7.09206215106e-05,-1.89331476577e-05,0.00072061130777,0.465400665089,-0.00915708049813,0.122121777473,-0.00327948710029,0.918437039666,0.39448312091,0.0290811989581
-0.0271074548364,0.106423683465,0.00539154373109,-2.55291700363,0.0703571736813,2.70862817764,-0.896279990673,0.0688390210271,-0.000519408727996,0.000180846473086,0.000778806454036,-8.19514534669e-05,-9.52995833359e-05,4.04522907047e-05,0.000871041207574,0.46540084631,-0.0091574870985,0.122120906667,-0.0032796734703,0.918437395427,0.394482304903,0.0290810113832
-0.0271101221442,0.106425359845,0.00538902031258,-2.5529191494,0.0703561753035,2.70862698555,-0.896279633045,0.0688390210271,-0.000492590013891,-0.000140698597534,-0.000259563181316,-0.000123894380522,-0.000111713881779,-2.06457589229e-05,0.000303019536659,0.46539908085,-0.00915990519214,0.122119256938,-0.00328036063557,0.918438378414,0.394480188052,0.0290786039077
-0.0271160900593,0.106423482299,0.00538820307702,-2.5529191494,0.0703569352627,2.70862722397,-0.896280288696,0.0688390210271,6.75420551488e-06,0.000159828545293,0.000254165322986,-4.00029493903e-05,-3.32229683409e-05,3.25889559463e-05,-0.000491971150041,0.465399465687,-0.0091630858645,0.122120154356,-0.00327991401704,0.918439689708,0.394477063216,0.0290796288104
-0.0271137598902,0.106421723962,0.00538660492748,-2.55291938782,0.0703571811318,2.70862770081,-0.896279811859,0.0688390210271,0.000497063214425,0.000573089404497,0.000813462422229,-0.000202605908271,-7.16551148798e-05,-0.000174926652107,-0.000404921680456,0.465399821133,-0.00916279129292,0.122120935834,-0.00327947196497,0.918439654913,0.394477082596,0.0290805146877
-0.0271087232977,0.106424503028,0.00538912741467,-2.55292057991,0.0703564956784,2.70862674713,-0.896280288696,0.068838365376,0.000118884345284,0.000588881259318,0.000446463178378,-2.97618844343e-05,-8.49573189043e-05,-1.72673608176e-05,-0.000454260385595,0.465398376438,-0.00915894536031,0.122118978448,-0.00328066688394,0.918437931929,0.394481256455,0.029078177497
-0.027107687667,0.106423787773,0.00539207085967,-2.55292344093,0.070357196033,2.70862817764,-0.896279036999,0.068838365376,0.000232887818129,0.000193473199033,0.000131383523694,0.000190247272258,-1.029591931e-05,-6.34260795778e-05,0.000246115523623,0.465397504375,-0.00915726528993,0.122118605976,-0.00328107700341,0.918437623972,0.39448197957,0.0290780481009
-0.0271100923419,0.106424510479,0.00538739282638,-2.55292248726,0.0703567117453,2.70862722397,-0.896279394627,0.068838365376,-6.34441603324e-05,-0.000196553955902,-8.77281854628e-05,0.000372989074094,-0.000147094891872,-0.000168118407601,-0.000663635612,0.465397572779,-0.00916064626928,0.122118507498,-0.00328082626024,0.918438866216,0.394479122878,0.0290775944185
-0.0271106809378,0.106423407793,0.00538821285591,-2.55292367935,0.070356965065,2.70862770081,-0.896279096603,0.068838365376,-0.000230663077673,0.000595267862082,-2.86517042696e-05,-0.000313456810545,-4.92279905302e-05,-3.86925275961e-05,-0.000550393597223,0.465397294488,-0.00916052215008,0.122118650996,-0.0032808271749,0.918438921582,0.394478978461,0.0290778047778
-0.0271097943187,0.106424473226,0.00538945524022,-2.55292463303,0.0703571662307,2.70862793922,-0.89627879858,0.068838365376,-0.000204048454179,0.000181544470252,-0.00091549300123,-7.86049859016e-05,-4.91695118399e-06,2.45364954026e-05,0.000247401068918,0.465396648888,-0.00915949244565,0.122117845383,-0.00328132687702,0.918438623827,0.394479724212,0.0290770360064
-0.0271114744246,0.106423191726,0.00538939842954,-2.55292415619,0.0703566670418,2.70862770081,-0.896280288696,0.068838365376,-0.000579495565034,0.000773789186496,-0.000119985626952,2.10295570469e-06,0.00012748176232,-0.000109319917101,0.000674715964124,0.46539709784,-0.00916031559563,0.122118585047,-0.00328086703269,0.918438562105,0.394479823929,0.0290776846537
-0.0271115023643,0.106424964964,0.00538848340511,-2.55292582512,0.0703570842743,2.70862793922,-0.896279394627,0.068838365376,-0.000441913114628,-0.000154623878188,-0.000403880665544,-0.000758075155318,2.92355962301e-05,4.17183146055e-05,0.00072185107274,0.465395904692,-0.00916074339745,0.122117199006,-0.00328156631848,0.918439043994,0.394478802171,0.029076246465
-0.0271090772003,0.106424175203,0.0053899125196,-2.55292606354,0.0703577175736,2.70862746239,-0.896280050278,0.068838365376,0.000220815010834,-0.000622809980996,0.000285571382847,0.000110759065137,3.03134202113e-05,0.000159650604473,-0.000603002030402,0.465395883051,-0.00915890546682,0.122117437056,-0.00328180320475,0.918438261545,0.394480612496,0.0290763743475
-0.0271122101694,0.10642708838,0.00538831762969,-2.5529282093,0.0703571215272,2.70862770081,-0.896278858185,0.068838365376,-3.97247567889e-05,-5.98941514909e-05,0.00028087355895,0.000188082602108,0.000132580462378,-8.44771057018e-05,0.000244966067839,0.465394167378,-0.00916110832128,0.122115352919,-0.00328255604485,0.918439395353,0.394478134533,0.0290740940658
-0.027109388262,0.106425791979,0.00538782542571,-2.55292749405,0.0703563466668,2.70862770081,-0.896279036999,0.068838365376,-0.000217850567424,-0.000106529587356,0.000365556159522,0.000326069857692,6.38538549538e-05,-1.87551140698e-05,0.000584600958973,0.4653952955,-0.00915983361668,0.122116657885,-0.00328186839219,0.918438852674,0.394479301277,0.0290754842303
-0.0271106343716,0.1064215675,0.00538934580982,-2.55292797089,0.0703569874167,2.70862698555,-0.896278202534,0.068838365376,0.000119650751003,0.000648700108286,0.000388209125958,-1.24641792354e-05,-0.000213856852497,2.20764522965e-05,0.000319983169902,0.465395325889,-0.00915989679994,0.122117936097,-0.00328158808986,0.918438910839,0.394479100944,0.0290763965417
-0.0271112266928,0.106426820159,0.00538703659549,-2.55292463303,0.0703567191958,2.70862746239,-0.896278500557,0.068838365376,-0.00151006295346,-0.000244623806793,-9.29764501052e-05,-7.65732402215e-05,-7.55817836762e-07,-4.67863646918e-05,-0.000503775198013,0.465396015281,-0.00916131427095,0.12211670496,-0.00328167450875,0.918439400012,0.394478014908,0.0290756694385
-0.0271095000207,0.106426998973,0.00538951391354,-2.55292963982,0.0703565329313,2.70862746239,-0.896278321743,0.068838365376,0.00014242780162,-0.000392331334297,0.000132089771796,-0.000101753867057,-9.47076332523e-05,-2.57055635302e-05,0.000229445649893,0.465393505711,-0.00915933729405,0.122114846791,-0.00328294162656,0.918438654038,0.394479910413,0.0290733731355
-0.0271082427353,0.106425523758,0.00538959354162,-2.55293107033,0.0703570321202,2.70862746239,-0.896276950836,0.0688377097249,0.000143214056152,-0.000108595544589,-0.000687888415996,0.000310214556521,-4.59461080027e-05,-2.51061810559e-05,0.000695503840689,0.465393018082,-0.00915861512732,0.122115057156,-0.0032830246107,0.918438743315,0.394479699473,0.0290734055667
-0.0271093435585,0.106423579156,0.00538930948824,-2.55292582512,0.0703567788005,2.70862674713,-0.896278202534,0.0688377097249,0.000229135461268,-0.000400096469093,0.000737738737371,-0.000118566160381,1.15342982099e-05,-3.15996403515e-05,-0.000859798572492,0.465395951796,-0.00915934812287,0.122117589198,-0.00328166644306,0.918438725756,0.394479551253,0.0290761246044
-0.0271094795316,0.106424696743,0.0053917481564,-2.55292654037,0.0703572034836,2.70862770081,-0.896280527115,0.0688377097249,-0.000211939477595,0.000210897283978,-0.000439112511231,-0.000336092605721,1.45714120663e-05,-8.16042447696e-05,0.00068045797525,0.465395393125,-0.00915847863149,0.122116902754,-0.00328207428415,0.918438009983,0.394481241093,0.0290757616304
-0.0271095018834,0.106427267194,0.00538910320029,-2.55292916298,0.0703571662307,2.70862770081,-0.896277606487,0.0688377097249,9.40464233281e-05,0.000576443911996,0.00289236474782,-9.79990363703e-05,-3.05528737954e-05,-5.16878244525e-05,0.000260029279161,0.465393669876,-0.00915945432062,0.122114936319,-0.00328290675838,0.918438977899,0.394479140458,0.0290735932455
-0.0271127466112,0.106426738203,0.00538828130811,-2.552932024,0.0703566074371,2.70862793922,-0.896278202534,0.0688377097249,-0.00021084168111,-0.00108171487227,0.000184589152923,-8.65846232045e-05,8.14289887785e-05,-0.000214651081478,-0.000281147338683,0.465392317132,-0.00916134521018,0.122114204464,-0.00328311445573,0.918439596181,0.394477774483,0.0290725720709
-0.0271083731204,0.106425113976,0.00538870273158,-2.55293011665,0.0703574493527,2.70862722397,-0.896276652813,0.068838365376,0.000155570785864,0.000191988976439,4.08123341913e-05,-0.000285713816993,2.20504098252e-05,-2.812171806e-05,0.000493807310704,0.465393536438,-0.00915911116868,0.12211555795,-0.00328282657083,0.918439057454,0.394478930192,0.0290739420779
-0.0271088089794,0.106426253915,0.00539033673704,-2.55292701721,0.0703562051058,2.70862722397,-0.896276414394,0.068838365376,-0.000590430165175,-0.000450908672065,-0.000258914544247,0.000118495408969,-0.000114799113362,5.04910190102e-07,0.000384585669963,0.465394906712,-0.00915856505533,0.122116111889,-0.00328227629506,0.91843862525,0.394479881678,0.0290747475448
-0.0271089822054,0.106425002217,0.00538909109309,-2.5529294014,0.0703567415476,2.70862746239,-0.896277785301,0.068838365376,-0.000473864085507,0.000239153363509,-0.000158083043061,-0.000289542309474,-3.33729294653e-05,-0.000109269261884,0.000665901286993,0.465393977594,-0.00915922856666,0.122115883547,-0.00328245756809,0.918438741152,0.394479638504,0.0290743651995
-0.0271106231958,0.106426946819,0.0053904815577,-2.55293083191,0.0703557431698,2.70862722397,-0.896278440952,0.068838365376,-0.000553707999643,0.000472414249089,-6.69563160045e-05,0.000134079615236,-4.05292703363e-05,-1.22585843201e-05,-0.000709592131898,0.465392775793,-0.00915929708173,0.122114454535,-0.00328307360596,0.918438539539,0.394480228266,0.0290726625065
-0.0271114185452,0.106425993145,0.00538764614612,-2.55292797089,0.0703561231494,2.70862770081,-0.896277308464,0.068838365376,-0.000114411122922,-0.00045559447608,0.00239005964249,-0.00347220199183,-0.000272441538982,0.00560786435381,-0.000387750886148,0.465394521056,-0.00916108659997,0.122115945495,-0.00328207120306,0.918439483858,0.394477896355,0.0290745845691
-0.0271107349545,0.106423951685,0.00539010157809,-2.55292868614,0.0703571215272,2.70862793922,-0.896276712418,0.068838365376,-5.04823656229e-05,2.94131791634e-06,0.000273933488643,-0.000709367508534,2.49028362305e-05,0.000238061445998,0.00061369407922,0.465394664209,-0.0091595738276,0.12211667024,-0.00328210560337,0.918439136911,0.394478641069,0.0290754362931
-0.02710968256,0.106423974037,0.00539074512199,-2.5529294014,0.0703567489982,2.70862722397,-0.896276295185,0.068838365376,0.000333138334099,3.86848068956e-06,2.76889750239e-06,-0.000302641536109,-3.96517280024e-05,0.000149312763824,-0.000813941645902,0.465394153106,-0.00915875276544,0.122116339286,-0.00328241476832,0.918438836706,0.394479387278,0.0290747601435
-0.0271076057106,0.106428772211,0.00538968713954,-2.5529294014,0.0703570917249,2.70862698555,-0.89627635479,0.068838365376,-0.00103915843647,-0.000122618454043,0.000122307130368,-0.000252526893746,-7.7163313108e-05,-7.55372320782e-06,0.000785588053986,0.46539309981,-0.0091582629004,0.122114082163,-0.0032835076321,0.918438753988,0.394479738355,0.0290724862941
-0.027110805735,0.106429107487,0.00538796558976,-2.55292892456,0.0703571438789,2.70862722397,-0.896275520325,0.068838365376,-9.35894204304e-05,-0.0002279572509,0.000169781429577,-0.000306254136376,0.00462278863415,-5.41042136319e-05,0.000247110845521,0.465393280191,-0.00916059536865,0.122114115787,-0.00328329106711,0.918439892962,0.394477077796,0.029072629593
-0.0271107815206,0.106428354979,0.00538992555812,-2.55292844772,0.070355951786,2.70862817764,-0.896276533604,0.068838365376,0.000123835459817,7.03690166119e-05,0.000690095534083,-0.000234765859204,7.0602465712e-05,-3.49563269992e-05,-4.59667862742e-05,0.465393805278,-0.00915929626306,0.122114675026,-0.00328276401994,0.918438868055,0.394479406172,0.0290734740536
-0.0271085090935,0.106426954269,0.00539023661986,-2.55292654037,0.0703565850854,2.70862722397,-0.896275639534,0.068838365376,7.74702566559e-05,0.000425127800554,-0.000245008704951,-0.000418096926296,0.000138561052154,0.000239068147494,0.000159421077115,0.465395108679,-0.00915827387786,0.12211616789,-0.00328231382299,0.91843866518,0.394479778014,0.0290748884482
-0.0271076224744,0.106426753104,0.00538949435577,-2.55292677879,0.0703575462103,2.70862770081,-0.896275401115,0.068838365376,-1.27473840621e-05,4.91959981446e-05,0.000349817593815,0.000188049074495,-0.000134475325467,-4.99255911564e-05,0.000561297405511,0.465394896221,-0.00915841995493,0.122115902406,-0.0032825321149,0.918438930006,0.394479164317,0.0290748247364
-0.0271120611578,0.106425702572,0.00538699701428,-2.55292987823,0.0703564807773,2.70862746239,-0.896276831627,0.068838365376,0.000371466740035,-0.000441582786152,0.000128888961626,-0.000113373753265,-4.41235133621e-05,6.351290358e-05,0.000119134740089,0.465393534995,-0.00916167110491,0.122115389842,-0.00328248940746,0.918439919365,0.394476939278,0.0290737654733
-0.0271126385778,0.106426589191,0.00538879167289,-2.55292844772,0.0703571885824,2.70862793922,-0.896277427673,0.068838365376,-8.59019564814e-06,-0.000328947382513,0.00020872852474,0.00019386447093,5.01884424011e-05,0.000117830117233,-0.000134732908919,0.465394201182,-0.00916108211502,0.12211552552,-0.0032825022174,0.918439674928,0.394477466537,0.0290743318777
-0.0271115694195,0.106426768005,0.00538795720786,-2.55292487144,0.0703568458557,2.70862746239,-0.896278381348,0.068838365376,0.000158668219228,-0.00326971709728,-0.00223864079453,-7.77194145485e-05,0.000143630721141,9.49911845964e-05,0.000575858459342,0.465395909136,-0.00916102319242,0.122116646206,-0.00328179250041,0.918439335065,0.394478169052,0.0290756163516
-0.0271073561162,0.106427758932,0.00539014209062,-2.55292725563,0.070357427001,2.70862770081,-0.896276116371,0.068838365376,0.000199159607291,-8.310310659e-05,-0.000422535900725,-0.000419966119807,-0.000317240017466,-1.6694633814e-05,-0.000102327670902,0.465394580808,-0.00915796754223,0.122115375263,-0.00328278426806,0.918438669623,0.39447980871,0.0290742784896
-0.0271089132875,0.106429889798,0.00539072742686,-2.55292701721,0.0703568607569,2.70862746239,-0.896275639534,0.068838365376,-0.000154362860485,0.000142763848999,0.000366625376046,0.000324923952576,8.90070805326e-05,-0.000134848873131,-0.000606060842983,0.465394194637,-0.00915840050485,0.122114443353,-0.0032831464345,0.918438886746,0.394479374233,0.0290732737928
-0.027110895142,0.106428593397,0.00538847548887,-2.55292582512,0.0703572407365,2.70862817764,-0.896275341511,0.068838365376,-0.000126463361084,-9.8486780189e-05,-0.000488234247314,-7.32031840016e-05,-6.69981018291e-05,-6.39909558231e-06,0.000458717811853,0.465395196335,-0.00916044709896,0.122115533589,-0.00328236900967,0.918439803122,0.394477141105,0.0290747127476
-0.0271110460162,0.106425568461,0.00538759538904,-2.55292701721,0.0703575313091,2.70862817764,-0.896277964115,0.068838365376,-3.88627668144e-05,0.000626459426712,-0.0040171011351,0.00034521217458,-1.99308669835e-05,0.000125537873828,0.000180238188477,0.465395394047,-0.00916089929324,0.122116842228,-0.00328163506622,0.918439217018,0.394478424426,0.0290758982316
-0.0271101370454,0.106426313519,0.00538990693167,-2.55292749405,0.070356965065,2.70862841606,-0.896276473999,0.068838365376,-0.000175293418579,-0.00059110467555,-0.0001111464735,-4.08082523791e-05,3.54655312549e-05,0.000130204411107,0.000613144482486,0.465394886904,-0.00915940213698,0.122116034754,-0.00328221036842,0.918439090372,0.394478773594,0.0290750965034
-0.0271094013005,0.106427639723,0.00538919772953,-2.55292534828,0.0703565254807,2.70862770081,-0.896276891232,0.068838365376,-8.63813111209e-05,-0.000163627177244,7.01444660081e-05,0.000647859938908,-2.72860452242e-05,-3.63822655345e-05,-0.00010297902918,0.465395561711,-0.00915941078179,0.122116097396,-0.00328208529748,0.918438919707,0.394479171909,0.029075097498
-0.0271095372736,0.106427386403,0.00538998190314,-2.55292892456,0.0703577101231,2.70862770081,-0.896275818348,0.0683852657676,0.000178240967216,-0.000551338773221,1.56465503096e-05,0.000754847133067,6.32085793768e-05,-3.88495172956e-05,-1.65812775776e-06,0.465393776579,-0.00915904002603,0.122114964788,-0.00328307065412,0.918439257897,0.394478478162,0.0290737157762
-0.0271105356514,0.106426954269,0.00538929691538,-2.55292630196,0.0703574195504,2.70862793922,-0.896276473999,0.0683852657676,-5.61310298508e-05,0.000331098592142,-6.05186460234e-06,0.000128502666485,6.47554406896e-05,0.000100406708953,0.00060178746935,0.465395256286,-0.00915987798365,0.122116106633,-0.00328225601978,0.918439363626,0.394478131593,0.0290751700655
-0.0271078161895,0.106426618993,0.00539015186951,-2.55292797089,0.0703573450446,2.70862817764,-0.896277368069,0.0683852657676,0.00188997527584,0.000862534681801,0.000127880266518,-3.5737077269e-05,-0.000115310605906,-8.04640876595e-06,-0.000211690930882,0.465394549485,-0.00915818637908,0.122115702508,-0.00328254071884,0.918438487372,0.394480205789,0.0290746756154
-0.0271090436727,0.106425531209,0.0053883572109,-2.55292725563,0.0703574940562,2.70862793922,-0.896276772022,0.0683852657676,-1.25577489598e-05,0.000120636541396,-0.00034402255551,-0.000448885199148,5.49135947949e-05,-9.66569768934e-06,0.00049627176486,0.465395068595,-0.00915963586933,0.122116435037,-0.00328212856436,0.918439201123,0.394478496421,0.0290753678626
-0.0271134655923,0.106426745653,0.00538770621642,-2.55292677879,0.0703559666872,2.70862841606,-0.896276831627,0.0683852657676,7.86604359746e-05,-0.00372198293917,-0.000408431194955,1.87297464436e-05,-0.000122394849313,5.23093040101e-05,-6.68246939313e-05,0.465395112147,-0.00916203655584,0.122116082658,-0.0032817634592,0.918439930848,0.394476821018,0.0290750892453
-0.027109734714,0.106427289546,0.00538884382695,-2.55292844772,0.0703564733267,2.70862817764,-0.896277725697,0.0683852657676,-0.000322192179738,-0.000518077518791,0.000183846816071,-0.000519592314959,-2.53588723353e-07,-0.000123226709547,0.000689990527462,0.465394130824,-0.00915971499094,0.12211522272,-0.00328249229811,0.918438917093,0.394479252076,0.0290740464282
-0.0271088555455,0.106428980827,0.00539059657604,-2.55292916298,0.0703573599458,2.70862817764,-0.896278202534,0.0683852657676,-0.000243573289481,0.000540103646927,-4.71993771498e-05,-0.000104324746644,-4.08385749324e-05,2.74205940514e-05,0.0001900861389,0.465393431041,-0.00915842703509,0.122114186219,-0.00328328635606,0.918438494426,0.394480301089,0.0290730755529
-0.0271073058248,0.10642670095,0.00539051415399,-2.55292606354,0.0703566744924,2.70862817764,-0.896276414394,0.0683852657676,-0.000304871995468,-0.000623531348538,0.000244457711233,0.000252736004768,3.91824505641e-05,8.51013610372e-05,0.000414974550949,0.465395524311,-0.00915780244019,0.122116331576,-0.00328207382526,0.918438360856,0.394480447469,0.0290754457602
-0.0271123442799,0.106427580118,0.00538679212332,-2.5529255867,0.0703575089574,2.70862913132,-0.896277546883,0.0683852657676,-0.00341169559397,-0.00288781011477,3.72015492758e-05,0.00038749887608,-7.93174476712e-05,6.40710095468e-06,-0.000259278458543,0.465395707234,-0.00916196381673,0.122116181992,-0.00328177720503,0.918440005556,0.394476602043,0.0290756986908
-0.0271084140986,0.106429696083,0.00539012486115,-2.55292654037,0.0703561678529,2.70862770081,-0.896278142929,0.0683852657676,-0.000581414846238,0.0003580962657,0.000324818916852,-8.70323056006e-05,-4.16387265432e-05,-0.000137219438329,0.000172629806912,0.465394530537,-0.00915848043622,0.122114723322,-0.00328274670418,0.918438280841,0.394480763678,0.0290736070946
-0.027108438313,0.106427080929,0.00539061659947,-2.55293011665,0.0703566297889,2.7086288929,-0.896277308464,0.06820730865,5.88746224821e-05,0.000130538377562,8.80989900907e-05,0.000325248547597,-0.00013066495012,-0.000101623940282,0.000328296649968,0.465393495227,-0.0091582470497,0.12211480699,-0.00328279290804,0.918438438229,0.394480386599,0.0290737463168
-0.0271102711558,0.106428034604,0.00538925547153,-2.55292725563,0.0703566744924,2.70862841606,-0.896276414394,0.06820730865,-0.000411572109442,0.000511197838932,-0.00285316980444,0.000539133674465,2.60892447841e-05,-0.000108638138045,0.000196197317564,0.465394639311,-0.00915977697096,0.122115316701,-0.00328242225961,0.918439227478,0.394478505243,0.0290743824832
-0.027107257396,0.106427334249,0.00539049925283,-2.55292654037,0.0703553855419,2.70862865448,-0.896277308464,0.06820730865,7.4222429248e-05,-0.000194767955691,0.000426000973675,-0.000246800365858,5.83245782764e-05,-5.30725556018e-05,0.000333652307745,0.465395206004,-0.00915766451929,0.1221158229,-0.00328203187028,0.918437926384,0.394481494647,0.0290749670381
-0.0271048229188,0.106427900493,0.0053907809779,-2.55292987823,0.0703564360738,2.70862841606,-0.896275758743,0.06820730865,-0.000295695877867,0.000830696837511,0.000622790597845,-4.62389789391e-06,5.90677445871e-05,7.43550190236e-05,-0.0002508868929,0.465393127479,-0.00915649418033,0.122114097701,-0.00328325205717,0.918437932981,0.39448162363,0.0290728708251
-0.0271094553173,0.106428578496,0.00539075676352,-2.55292844772,0.070356823504,2.70863032341,-0.896275639534,0.06820730865,-0.000102138488728,-0.000185941375094,0.00138303334825,0.000387549516745,0.000119009200716,1.40728416227e-05,-0.000454398192232,0.465394338658,-0.009158690987,0.122114834736,-0.00328248083517,0.918438960694,0.394479118909,0.0290744772271
-0.0271118152887,0.10642785579,0.00538813974708,-2.55292606354,0.0703562274575,2.70862770081,-0.896275758743,0.06820730865,-0.000340864178725,-0.000145501442603,-0.000127408929984,0.000160846742801,-0.00012608410907,1.40145320984e-05,0.000374256051145,0.465395114251,-0.00916104167847,0.122115746058,-0.00328213481327,0.918439788544,0.394477183432,0.0290746254256
-0.0271087456495,0.106427453458,0.00538900541142,-2.55292916298,0.0703558176756,2.70863485336,-0.896277785301,0.06820730865,0.00025924743386,6.19314887444e-05,0.000609705282841,-0.000254307582509,-0.000172058775206,6.59076977172e-05,1.88163921848e-05,0.465395316017,-0.00915959324563,0.122115716006,-0.00328092606594,0.918438676998,0.394479626598,0.0290767260658
-0.0271073970944,0.106428101659,0.00539204757661,-2.55292606354,0.0703562870622,2.70863819122,-0.896278381348,0.06820730865,-0.000324574590195,-0.000647714128718,0.00138305011205,0.000220413392526,2.3472992325e-05,-0.000144831254147,0.000616357021499,0.465397380304,-0.00915731061685,0.122116665343,-0.00327999888949,0.918437564672,0.394482040071,0.0290792219456
-0.0271077249199,0.106430463493,0.00539014255628,-2.55292510986,0.0703563243151,2.70863819122,-0.896279215813,0.06820730865,-0.00064683216624,-0.000109650209197,0.000479072099552,-0.000593937991653,-7.62663785281e-06,-7.29340627004e-06,0.000150636245962,0.465397353238,-0.00915838437473,0.122115898961,-0.00328016750215,0.918437865753,0.394481387195,0.0290785503425
-0.0271110218018,0.106429494917,0.00538878329098,-2.55292797089,0.0703562498093,2.70863938332,-0.896276712418,0.06820730865,-0.000322459440213,-5.2373357903e-05,0.00146307994146,-0.000123805148178,3.04600125673e-05,2.42453961619e-06,-0.00053554889746,0.46539613885,-0.00916052569545,0.122115225429,-0.0032802744536,0.918439219479,0.394478273622,0.0290780199363
-0.0271062701941,0.106428034604,0.00539220310748,-2.55292773247,0.0703570917249,2.70864391327,-0.896278381348,0.0667114257812,-0.000503608374856,-0.000224984483793,-0.000701837940142,0.00019113945018,1.49316092575e-05,0.00139286229387,-0.000451625324786,0.4653978594,-0.00915712796011,0.122116794853,-0.00327910092592,0.918437482627,0.394482097044,0.0290811415871
-0.0271127820015,0.106427840889,0.00538934068754,-2.55292606354,0.0703557431698,2.70864677429,-0.896279156208,0.0667114257812,-0.000435841473518,-0.00045438419329,-6.38761703158e-05,-0.000135690235766,9.83160643955e-05,0.000152748238179,-0.000646441942081,0.465399191331,-0.00916132060191,0.122117630116,-0.00327755620619,0.918438840145,0.394478810406,0.0290830253148
-0.0271123703569,0.106428727508,0.00538977375254,-2.55293035507,0.0703565403819,2.7086622715,-0.896280705929,0.0667114257812,-8.92941607162e-05,0.00054699764587,-0.000382344936952,8.69220384629e-05,-0.000478114903672,0.00241788499989,0.000656316522509,0.465400106063,-0.00916118496603,0.122117241343,-0.00327515057301,0.918438460538,0.394479377544,0.0290875912939
-0.0271073170006,0.106427885592,0.0053922473453,-2.55290579796,0.0703565180302,2.709192276,-0.896283388138,0.0667114257812,0.000229565630434,0.000181434908882,0.00354628963396,-0.00204105651937,-7.07304061507e-05,0.0312807112932,-0.000597784877755,0.465526154071,-0.00916919352717,0.122178415411,-0.00314526908817,0.918431908206,0.394477530286,0.0293328323284
-0.0271110814065,0.106427915394,0.00539051974192,-2.55292606354,0.0703552514315,2.70934772491,-0.896281003952,0.0667114257812,-0.000510259415023,0.00048377312487,-0.000260625616647,-0.00135793560185,-0.000799611269031,0.00489115715027,-0.000584590481594,0.465548809127,-0.00917487445472,0.122186624854,-0.00311249029274,0.91843229947,0.39447247732,0.0293919718962
-0.0271134022623,0.106425635517,0.00538921030238,-2.55292773247,0.0703551694751,2.70935535431,-0.896281003952,0.0590862110257,9.64800565271e-05,0.00036580307642,-0.00411850586534,0.0014841449447,0.000222143818974,0.00021500812727,0.000425906095188,0.465550022172,-0.00917674762575,0.122187853643,-0.00311042906872,0.918432930177,0.394470756348,0.0293955790133
-0.0271112341434,0.106419108808,0.00539065012708,-2.55290269852,0.0703552663326,2.7093603611,-0.896282851696,0.0590862110257,0.000220935573452,0.00139412900899,-0.00351097132079,0.00159027474001,0.000128805768327,0.00221010087989,0.000227862954489,0.465565420723,-0.00917546827939,0.122200149837,-0.00310280965358,0.918431372439,0.394473206329,0.0294121719867
-0.0271086730063,0.106418989599,0.00539066176862,-2.55291175842,0.0703515484929,2.70939040184,-0.896281838417,0.0590862110257,-0.000464826385723,-0.000183396390639,-0.00239520752802,-9.255437908e-05,3.7634436012e-05,0.00108318659477,0.000196834007511,0.465567027026,-0.00917465547239,0.12220003732,-0.00309722200453,0.918430212299,0.394475331036,0.0294204900962
-0.0271197389811,0.106405869126,0.00538253830746,-2.55289006233,0.0703544318676,2.70944404602,-0.89628380537,0.0590862110257,-5.9960220824e-05,-0.000995629932731,-0.000278180727037,-0.000338958692737,-0.00014193241077,0.00592921907082,-0.000155143658048,0.465592431841,-0.00918537516276,0.122218984579,-0.00307689649396,0.918433262688,0.394465395787,0.0294605822123
-0.0271165855229,0.106403790414,0.00538539839908,-2.55289459229,0.0703516155481,2.70949363708,-0.896282792091,0.0590862110257,0.000544688839,0.000594592478592,0.000160287629114,-0.000782343966421,-0.00011867206922,0.00336005282588,-0.00057238060981,0.465601167766,-0.00918356706989,0.122223255935,-0.0030654052396,0.918431428015,0.394468223606,0.0294811053411
-0.0271128341556,0.106401264668,0.00538471527398,-2.55290102959,0.0703527927399,2.70952558517,-0.896282553673,0.0590862110257,0.000169205770362,-0.00014837969502,0.000116898729175,-0.000359662459232,-2.67397399512e-06,0.00107084168121,-0.000755753950216,0.465605223631,-0.00918275865334,0.122225328743,-0.00305893550074,0.918430874813,0.394468635211,0.0294935013349
-0.0271188281476,0.106403179467,0.00538407685235,-2.55289673805,0.0703520998359,2.70954418182,-0.896282851696,0.0590862110257,0.000279094470898,0.000829751952551,-0.000223621624173,-0.000523516326211,1.59237006301e-05,6.42410232103e-05,0.000110227745608,0.465610941167,-0.00918630126062,0.122227772771,-0.0030537985244,0.918431819498,0.39446578679,0.0295027114195
-0.0271208938211,0.106404066086,0.0053822058253,-2.55289959908,0.0703530460596,2.70955777168,-0.896282970905,0.0590862110257,-0.00013346549531,-0.00275869085453,0.000400803197408,-0.000129474559799,-2.91238711725e-06,-0.000131491193315,-0.000242706868448,0.46561214125,-0.00918841141473,0.122227697987,-0.00305141453712,0.918432681073,0.394463474327,0.0295070552381
-0.0271157622337,0.106405161321,0.00538558373228,-2.55289840698,0.0703530907631,2.70957040787,-0.896282315254,0.0590862110257,2.4597195079e-05,-0.000430813466664,0.00026181715657,-0.0004142098187,-4.7991215979e-06,0.00180770049337,0.000805070158094,0.46561530204,-0.00918465827363,0.122228852636,-0.00304872815117,0.9184310402,0.394466890524,0.0295127365076
-0.0271163936704,0.106402337551,0.00538449082524,-2.55290007591,0.0703527703881,2.70957231522,-0.896280884743,0.0590862110257,0.000324644730426,0.000502778799273,0.000300948828226,0.000638161785901,-2.99952444038e-05,0.000172830259544,-0.000214676358155,0.465616279318,-0.00918711836756,0.122229111254,-0.00304699846355,0.918432013591,0.394464442149,0.0295153481065
-0.0271162521094,0.106405645609,0.005383328069,-2.55289888382,0.0703514590859,2.70958304405,-0.896283209324,0.0590862110257,0.000427688733907,0.000145310215885,-8.32926980365e-06,0.000290834665066,1.70754883584e-05,6.00770144956e-05,-0.00071772269439,0.465617622033,-0.00918626093013,0.122229704805,-0.00304546768322,0.918431032253,0.394466565297,0.0295176670104
-0.027117844671,0.106403380632,0.00538510968909,-2.55290150642,0.0703540593386,2.70958757401,-0.896282017231,0.0590862110257,-0.000230011632084,0.000367125845514,-3.29574068019e-05,-0.000156530397362,1.98473640012e-06,1.6308065824e-05,0.000584486988373,0.465617717593,-0.00918618655514,0.122230289777,-0.00304509046138,0.918431652485,0.394464965327,0.0295197891077
-0.0271139368415,0.106405980885,0.00538559025154,-2.55290293694,0.0703512504697,2.70959353447,-0.896280348301,0.0574090816081,-0.000245648552664,-2.35015681938e-06,-1.13232692911e-06,-8.72501550475e-05,9.28433364606e-05,0.000103447673609,0.000161848802236,0.465617741045,-0.00918426229274,0.122229164888,-0.00304408477558,0.918430639428,0.394467292443,0.0295203147389
-0.0271182116121,0.106406986713,0.00538335321471,-2.55290222168,0.070352114737,2.70959734917,-0.896282434464,0.0574090816081,-0.000523085182067,-0.000291486125207,0.000316310266498,-0.000100876888609,7.66152879805e-05,-6.18536796537e-05,0.000498548906762,0.465618772588,-0.00918758718014,0.122229418283,-0.00304307758501,0.91843175826,0.394464555322,0.0295221844283
-0.0271187387407,0.106405735016,0.00538353761658,-2.55290222168,0.0703521892428,2.70960140228,-0.896283149719,0.0574090816081,0.000383855367545,0.000294218858471,-3.19507421409e-06,0.000167745805811,-2.91935921268e-05,4.37314525925e-07,0.000525918847416,0.46561977757,-0.00918766037464,0.122230305333,-0.00304197694615,0.918431522958,0.394464954811,0.0295242801987
-0.027113141492,0.106405250728,0.00538497371599,-2.55290269852,0.0703520923853,2.70961117744,-0.896281898022,0.0574090816081,-0.000254635728197,-0.000343301071553,-0.000452902546385,0.000446951482445,9.32750190259e-05,0.00125806778669,0.000652271439321,0.46562120611,-0.00918355624935,0.122230829245,-0.00304038601746,0.918429807061,0.394468708732,0.0295276661232
-0.0271192491055,0.106393761933,0.00538163539022,-2.55288553238,0.0703527182341,2.70962405205,-0.896284103394,0.0574090816081,-0.000475204840768,-0.00133062025998,-0.000392533052946,0.0013297003461,0.000148206876474,0.000727133126929,-0.00012818526011,0.465635723297,-0.00918955625874,0.122243957943,-0.00303063941309,0.918431298682,0.394463840506,0.0295473017492
-0.0271220132709,0.106356710196,0.00538244750351,-2.55285048485,0.070352293551,2.70964884758,-0.896282494068,0.0574090816081,2.66608021775e-05,-0.00135402218439,0.000181828727364,0.000607613008469,-6.7244618549e-05,0.00115216337144,0.000650489993859,0.465668842981,-0.00919172991419,0.122278037304,-0.00300826580341,0.918430643896,0.394462046263,0.0295938579735
-0.0271204207093,0.106293581426,0.00538192130625,-2.55281949043,0.0703529119492,2.70971870422,-0.896281421185,0.0574090816081,0.000423227262218,-0.00391146121547,-1.19509331853e-05,0.00121266301721,0.000117673851491,0.0106940213591,0.000436546572018,0.465711092497,-0.00919330222082,0.122323082612,-0.00297374756419,0.918428826133,0.394461231325,0.0296645380238
-0.0271121449769,0.106212742627,0.00538582447916,-2.55282402039,0.0703510046005,2.70985460281,-0.896282374859,0.0574090816081,0.00319455633871,-0.00160572538152,-0.000396963325329,0.000396382733015,-8.31458310131e-05,0.000723661214579,-0.000315245735692,0.465754880966,-0.0091908764802,0.122372566476,-0.00292571734502,0.918423672944,0.394466477574,0.0297589466555
-0.0271195918322,0.106191970408,0.00538220349699,-2.55281758308,0.0703521668911,2.70986533165,-0.896281898022,0.0553865507245,-6.53987954138e-05,-0.000537624466233,-0.000157950038556,-0.000523598748259,0.000185684577445,0.000112970548798,2.94147357636e-05,0.465764761892,-0.00919650962531,0.122385556509,-0.00291740183133,0.918425658143,0.394460624394,0.0297760762173
-0.0271260794252,0.106193192303,0.00538041489199,-2.55283045769,0.0703527331352,2.70987558365,-0.896283328533,0.0553865507245,-0.000124602753203,-0.00295981648378,1.0437200217e-05,-0.00023990139016,-0.00013830937678,2.05978403756e-06,-8.36460822029e-05,0.465759972115,-0.00920045689872,0.122381488861,-0.00291779304149,0.918427229409,0.394457103573,0.0297742151204
-0.0271162930876,0.106191821396,0.0053849988617,-2.5528280735,0.0703529417515,2.70987939835,-0.896282315254,0.0553865507245,0.000430338492151,0.00148280686699,-8.21245048428e-05,-1.8284043108e-05,-0.000145236088429,-2.2744457965e-05,-0.000467182311695,0.465762439545,-0.00919378731412,0.122383341128,-0.00291660382305,0.918424548851,0.394463090273,0.0297777027866
-0.0271183811128,0.10620509088,0.00538394972682,-2.55283713341,0.0703524574637,2.70988130569,-0.896284103394,0.0553865507245,-0.000772588129621,0.00106228084769,0.000258982297964,-0.000179059992661,-9.48937449721e-05,0.00218622176908,-0.000489754078444,0.465757391354,-0.00919419205989,0.122377886226,-0.00291892328256,0.918424484359,0.394463661894,0.02977189185
-0.027126705274,0.106212973595,0.00537901185453,-2.55282282829,0.0703537166119,2.70989060402,-0.896281659603,0.0553865507245,-0.000196633307496,-0.000759791117162,-0.000251236837357,0.00127469201107,6.03008265898e-05,7.82355273259e-05,0.000297900784062,0.465762929407,-0.00920171188576,0.122376429638,-0.00291694369275,0.91842818706,0.394454790931,0.029775396653
-0.0271191671491,0.106183946133,0.00538171641529,-2.55280733109,0.0703514516354,2.70990014076,-0.896284282207,0.0553865507245,3.13850978273e-05,-0.00534278014675,-6.2297200202e-05,0.000128252519062,-5.90707968513e-05,-6.49351350148e-05,-0.00033632668783,0.465779855918,-0.00919743825934,0.122397484428,-0.00290453697839,0.918424339768,0.394461910057,0.029800956059
-0.0271179825068,0.106143571436,0.00538528477773,-2.55281996727,0.0703508555889,2.70991110802,-0.896282970905,0.0553865507245,0.000245600385824,-0.00302670011297,0.000307890528347,-0.0010858172318,-2.90244486223e-07,0.000229372191825,-0.000869014882483,0.465783326532,-0.00919546154066,0.122412292923,-0.00289667637606,0.918423044826,0.394463727395,0.0298175694644
-0.0271148961037,0.106113217771,0.00538564473391,-2.55282998085,0.0703519657254,2.70991492271,-0.896281778812,0.0553865507245,-0.000637567776721,-0.00178518902976,-7.43892742321e-05,0.00029672155506,7.74829604779e-05,0.000104883860331,0.000418109877501,0.465785598873,-0.00919401719372,0.122422798509,-0.00289203404465,0.91842265266,0.394463880412,0.0298280732157
-0.0271214805543,0.106117404997,0.00538169173524,-2.55281758308,0.0703535601497,2.70991706848,-0.89628303051,0.0553865507245,-0.000147239989019,0.000206537370104,0.000155137633556,-0.000267603376415,7.35533467378e-05,9.99960029731e-05,-0.000401628349209,0.465791320295,-0.0091994801555,0.122425176212,-0.00288989951848,0.918424824263,0.39445848968,0.0298327045227
-0.027119319886,0.106118753552,0.00538271898404,-2.55281996727,0.070351831615,2.70992302895,-0.896283149719,0.0553865507245,0.000167165984749,-0.000174774846528,0.000164620694704,0.000649061112199,-0.000175813416718,-6.48714049021e-05,0.000543099653441,0.465790591095,-0.00919806498329,0.122423905941,-0.00288926257429,0.918423752996,0.394460979296,0.0298328273717
-0.027117157355,0.106115564704,0.00538262911141,-2.55281996727,0.0703524574637,2.70992541313,-0.896283626556,0.0553865507245,0.000229823330301,0.000182086820132,0.000429312582128,-0.000198407753487,-0.000164175769896,0.000255311140791,0.000823513721116,0.465792459116,-0.00919685292238,0.122426248837,-0.00288782751245,0.918423212877,0.394461993921,0.0298361782818
-0.027118043974,0.106117814779,0.00538309989497,-2.55282092094,0.0703520327806,2.70992803574,-0.896282911301,0.0553865507245,0.000123573467135,-5.98193546466e-05,0.000441935524577,3.68134351447e-05,-5.55759579584e-05,2.68676685664e-05,-0.000366827298421,0.465792048873,-0.0091970743451,0.122425125484,-0.00288782214966,0.918423388623,0.394461609713,0.0298358485427
-0.0271187350154,0.106120958924,0.00538320140913,-2.55281972885,0.0703530758619,2.70993065834,-0.896283507347,0.0553865507245,4.41600750491e-05,0.00351848243736,-0.000385242048651,0.000242617723416,2.07294924621e-05,0.000118946205475,-0.000564209767617,0.465793200886,-0.00919851560992,0.122424333829,-0.0028872419223,0.918423989953,0.394460145665,0.0298367504369
-0.0271158739924,0.106119647622,0.00538413831964,-2.55282402039,0.0703520104289,2.70993542671,-0.896282672882,0.0553865507245,-0.000399590790039,0.00293598836288,8.10605997685e-05,-0.000145637110109,-9.95017326204e-05,-4.7502322559e-05,0.000165025907336,0.465791670518,-0.00919567106466,0.122423916009,-0.00288720491268,0.918422812428,0.39446287766,0.0298368813727
-0.0271152574569,0.106116823852,0.00538336019963,-2.55282878876,0.0703517645597,2.70993733406,-0.896282732487,0.0553865507245,3.12056836265e-05,-0.00274856993929,-0.000290284137009,-0.000239864137257,1.66301888385e-05,0.000171531253727,-0.00059163448168,0.465790209433,-0.00919576670028,0.122423748806,-0.00288706252705,0.91842280189,0.394462909865,0.0298367937384
-0.0271173026413,0.106115780771,0.00538470316678,-2.55282616615,0.0703515708447,2.70994067192,-0.896283388138,0.0553865507245,-0.00036803088733,0.000715824833605,-0.000233572776779,-2.23260631174e-05,-2.11977676372e-05,-2.83466943074e-05,0.000271659489954,0.465792303223,-0.00919652340833,0.122425178934,-0.00288568237783,0.918422838684,0.39446262481,0.029839563161
-0.0271200612187,0.106122232974,0.00538342678919,-2.55282688141,0.0703531503677,2.70994591713,-0.89628380537,0.0553865507245,0.000254798855167,0.0007167768199,0.00044535426423,0.000162845055456,1.45888234329e-05,0.000123261241242,-0.000471632549306,0.465791843488,-0.00919812929457,0.12242274545,-0.00288597092785,0.918423747625,0.394460538779,0.0298391353342
-0.0271162837744,0.106118842959,0.00538576021791,-2.55282926559,0.070351600647,2.7099468708,-0.896282434464,0.0553865507245,0.00073555263225,0.00038046122063,-0.000718575203791,0.000373139424482,-7.80134723755e-05,0.000546350202058,-0.000531192985363,0.465791586388,-0.00919526742804,0.122423583839,-0.0028854465065,0.918422522392,0.394463337488,0.0298398998062
-0.027123067528,0.106118038297,0.00538180861622,-2.55282688141,0.0703520700336,2.70994710922,-0.896282315254,0.0553865507245,-0.000463165604742,-0.000390636065276,-5.13348504683e-06,0.00080806290498,-3.16153182212e-06,-5.68143468627e-06,-0.000300182582578,0.465792936238,-0.00920037707903,0.122424816362,-0.00288447269698,0.918424692107,0.39445817729,0.0298414275082
-0.0271218214184,0.106120176613,0.0053819087334,-2.55282306671,0.070351883769,2.70994853973,-0.896282434464,0.0553865507245,0.000650516652968,0.00119616428856,-5.03936962559e-06,-0.000158160968567,-6.6049011366e-05,-2.08614255826e-05,-0.000387583539123,0.465794771641,-0.00919981205398,0.122425298021,-0.00288377993478,0.918424334517,0.394458910704,0.0298428052829
-0.0271187294275,0.106122322381,0.00538448849693,-2.55282235146,0.0703514069319,2.70995092392,-0.896282613277,0.0540850348771,-0.000525287468918,0.00102491222788,-0.000109182561573,-0.000133617373649,0.000143029348692,7.3511757364e-05,0.000653663242701,0.465795250662,-0.00919717161846,0.122424785218,-0.00288363141695,0.918423101873,0.394461751059,0.0298432111009
-0.0271274708211,0.106110595167,0.00537975085899,-2.55282378197,0.0703521817923,2.70995020866,-0.896283507347,0.0540850348771,-0.000445872516138,-0.000304185086861,1.7952901544e-05,-0.000797273940407,0.000188684178283,5.83606488362e-05,0.000231030862778,0.465796702706,-0.00920356968363,0.12242967533,-0.00288134973477,0.918425566923,0.394455699533,0.0298475565743
-0.0271271243691,0.10609254241,0.00537880510092,-2.55282568932,0.0703509971499,2.70994949341,-0.896280705929,0.0540850348771,0.00032940050005,0.000428012950579,0.000297082820907,0.000773906183895,-0.000112458896183,-4.32280194218e-06,0.000360201171134,0.465799358797,-0.00920394731278,0.122437345918,-0.00287788226207,0.918425796192,0.394454671259,0.029854424896
-0.0271255597472,0.10605725646,0.00537846377119,-2.55280947685,0.0703523904085,2.70994520187,-0.896283149719,0.0540850348771,-0.00148200977128,0.00156190886628,-0.000250155368121,0.00383738195524,6.84224578436e-05,-0.00255504227243,-0.000373577378923,0.465814246913,-0.00920366360567,0.122459042519,-0.002868378731,0.918424585049,0.394455923493,0.0298760453185
-0.027124915272,0.105908952653,0.00537170702592,-2.55255317688,0.0703523829579,2.70991611481,-0.896282792091,0.0540850348771,0.000161220537848,-0.00546943489462,-0.000939074438065,0.00583522580564,-4.38252354797e-05,0.000114968999696,-0.000490195292514,0.465971393275,-0.00920980283966,0.122615108565,-0.00279062793178,0.918420076403,0.394453998839,0.0300469322313
-0.0271250456572,0.105833828449,0.0053697754629,-2.55242538452,0.0703524798155,2.70991039276,-0.896283149719,0.0540850348771,-0.00164440541994,-0.00356494332664,-0.00120410532691,0.0146649703383,-7.91457860032e-05,-7.2895338235e-05,-0.000563114706893,0.466051855904,-0.00921256870882,0.122694369794,-0.00274964150352,0.918417443986,0.394453576562,0.0301365836158
-0.0271263699979,0.105754114687,0.00536779733375,-2.55222797394,0.0703537613153,2.70989632607,-0.896281838417,0.0540850348771,0.000169735794771,-0.0108254570514,8.10842393548e-05,0.0128532415256,-2.8180591471e-05,-0.00265262671746,-0.000304370943923,0.466191102653,-0.00921712278004,0.122823205705,-0.00268350831628,0.918413645322,0.394451711287,0.0302823713461
-0.0271426644176,0.105312943459,0.00535878678784,-2.55164027214,0.0703508928418,2.70972537994,-0.896283268929,0.0540850348771,-0.0025892383419,-0.0269302874804,-0.000934933137614,0.0243149716407,-4.59778966615e-05,-0.0152829661965,0.000778107729275,0.466526224928,-0.00923415257432,0.123194573244,-0.00252007638289,0.918404630422,0.394445535601,0.0306480531202
-0.0271594636142,0.104767747223,0.00535311503336,-2.55114674568,0.070350125432,2.70935297012,-0.896283090115,0.0540850348771,-0.00164941721596,-0.0396016053855,9.26161956158e-05,0.026305148378,-4.04126985813e-05,-0.0261430535465,0.000332721974701,0.466815104384,-0.00924558181075,0.123585606918,-0.00239046103038,0.918396277451,0.394441781841,0.0309555112924
-0.0271922238171,0.103944428265,0.00535495160148,-2.55059838295,0.070350676775,2.70884370804,-0.896282017231,0.0540850348771,-0.0017433144385,-0.0566611364484,-0.000521498965099,0.0316944383085,1.61361404025e-05,-0.022647978738,-0.000455778092146,0.467160722671,-0.00926009693215,0.124112625714,-0.00222389235006,0.91838592015,0.394435392978,0.0313540495269
-0.0272400993854,0.102773204446,0.00535327102989,-2.5500292778,0.0703492537141,2.70826172829,-0.896280646324,0.0540850348771,-0.00574880791828,-0.0884910151362,-0.000283141591353,0.0406375043094,9.29401794565e-05,-0.0468417815864,-0.000105692102807,0.467601512235,-0.00928621208755,0.124852163131,-0.00198094096612,0.918372869289,0.394421357166,0.0319239959883
-0.0273343231529,0.100607216358,0.00533437216654,-2.54901790619,0.0703462809324,2.70696568489,-0.896281719208,0.0540850348771,-0.00461955182254,-0.11005884409,-0.001695573912,0.0510690920055,-0.000402346020564,-0.0778340473771,-0.000425666919909,0.468265060316,-0.00933366788155,0.126044974916,-0.00163447963272,0.91835615978,0.394393454592,0.0327581276564
-0.0274419263005,0.0962806865573,0.00517006544396,-2.54721283913,0.0703427270055,2.70352077484,-0.89628225565,0.0540850348771,-0.000973813934252,-0.178068757057,-0.0123525299132,0.0748375728726,-0.000156125606736,-0.158840596676,-0.000406477600336,0.469344557024,-0.00943585126352,0.128369811187,-0.00115170128246,0.918340923594,0.39432384788,0.0340194695914
-0.0274967737496,0.0931730940938,0.00501224258915,-2.54582214355,0.0703434944153,2.70050430298,-0.896281063557,0.0540850348771,-0.00756232999265,-0.212887406349,-0.00975062977523,0.0881171375513,-0.000665007391945,-0.220164403319,0.000240562076215,0.470045010144,-0.0095075152464,0.130022978046,-0.000911783389159,0.918337162227,0.394271391792,0.034728870113
-0.027595648542,0.0894377753139,0.00484574213624,-2.54420495033,0.0703410804272,2.69651126862,-0.896282672882,0.0540856942534,-0.00879816524684,-0.253713279963,-0.0112541327253,0.10793890059,-1.92353145394e-05,-0.272022157907,0.000611865427345,0.470772701556,-0.0095893121871,0.1319579108,-0.000721342941915,0.918337458947,0.394211840001,0.0353951415187
-0.0277811735868,0.0834568887949,0.00461149215698,-2.54174160957,0.0703395754099,2.68973994255,-0.896281719208,0.0540856942534,-0.00868625752628,-0.318505674601,-0.0122444499284,0.128529682755,-0.000445552315796,-0.368594229221,-0.000899378443137,0.471775021954,-0.00970751959472,0.134981387282,-0.000533582462225,0.918343133091,0.394122234082,0.0362390601089
-0.0280486103147,0.0736727118492,0.00424229446799,-2.53776812553,0.0703357458115,2.6781566143,-0.896281421185,0.0540856942534,-0.0079392278567,-0.377617478371,-0.0148820625618,0.159355312586,-0.000357089593308,-0.463408142328,0.000834003149066,0.473230560296,-0.00986479343966,0.139877741876,-0.000358562740925,0.918346148515,0.39400965971,0.0373712546849
-0.0282425768673,0.0663956031203,0.00397745333612,-2.53465104103,0.0703324899077,2.66917133331,-0.896278381348,0.0540856942534,-0.0141589026898,-0.42970302701,-0.0169696826488,0.185596734285,-0.000336226978106,-0.537312328815,0.000293211254757,0.474276306361,-0.00996796758735,0.143558748277,-0.000282520032063,0.918345361042,0.393939438024,0.038123967352
-0.0284365471452,0.0590793304145,0.00371500873007,-2.53150773048,0.0703308582306,2.66003489494,-0.896280109882,0.0540856942534,-0.0140121085569,-0.471165508032,-0.0146934138611,0.213106811047,0.0011970232008,-0.601034522057,-5.87033136981e-05,0.475275718021,-0.0100665728661,0.147267759082,-0.000228727717055,0.918342430978,0.393876353931,0.0388399876932
-0.0287148170173,0.0487515032291,0.00332120317034,-2.52667999268,0.0703264921904,2.64644742012,-0.896279036999,0.0540856942534,-0.0141983795911,-0.507354855537,-0.0183069445193,0.232695177197,-0.000102765967313,-0.677903413773,0.000646709871944,0.476608508302,-0.0102019590436,0.152342920973,-0.000229137282312,0.918342302507,0.393792368455,0.0396854274428
-0.0291280318052,0.0335201025009,0.00277075939812,-2.51929044724,0.0703202486038,2.62646317482,-0.896277487278,0.0540856942534,-0.0169903691858,-0.580481171608,-0.0197548698634,0.298201590776,-0.00127338850871,-0.7414483428,-0.000498079112731,0.478739549317,-0.0104052734101,0.160645228785,-0.000169214960974,0.918324962396,0.393680074841,0.0411732092695
-0.0294275432825,0.0230415966362,0.00233198679052,-2.5134601593,0.0703157037497,2.61255860329,-0.896270692348,0.054084379226,-0.0188233591616,-0.590121507645,-0.0268618594855,0.332047224045,0.00158549565822,-0.794040739536,0.000653377443086,0.480300056279,-0.0105722282949,0.166161654287,-1.03448763135e-05,0.918311649658,0.393583916555,0.0423723294914
-0.0297002792358,0.0121828466654,0.00184833584353,-2.50718665123,0.0703078061342,2.59799766541,-0.896122694016,0.054084379226,-0.0173603668809,-0.621176123619,-0.0329612568021,0.363883554935,-0.00156702741515,-0.818068444729,0.0261384788901,0.482087033989,-0.0107596116154,0.172667013058,0.00017933012554,0.91831528597,0.39342018172,0.0437899953328
-0.030057515949,0.00137747556437,0.00133701483719,-2.50081920624,0.070304453373,2.58383369446,-0.895478665829,0.054084379226,-0.0267600398511,-0.643866419792,-0.0340329781175,0.3826610744,-9.555464203e-05,-0.838636159897,0.0433122552931,0.483805810737,-0.0109997728371,0.178937731922,0.000454832311682,0.918428561571,0.392980422699,0.0453338447033
-0.0306786354631,-0.0115771414712,0.000824543880299,-2.49270224571,0.0703021809459,2.56642365456,-0.894641637802,0.054084379226,-0.034940764308,-0.644323945045,-0.0187849458307,0.436494767666,-0.00207930104807,-0.881671071053,0.044877987355,0.485870063151,-0.0113281596857,0.186661614225,0.000785833609546,0.918583765734,0.392395224884,0.0472147748557
-0.0319720990956,-0.0320514217019,-8.53339806781e-05,-2.47832632065,0.0702892690897,2.53869748116,-0.893203139305,0.054084379226,-0.043644849211,-0.672998487949,-0.0295055471361,0.484041422606,-0.000306283705868,-0.901616275311,0.0540042296052,0.489479459456,-0.0120640299387,0.199617026934,0.00159595229794,0.918879456082,0.391251885078,0.0507933089294
-0.0326194949448,-0.0413938499987,-0.000546596071217,-2.47154402733,0.0702889189124,2.52575516701,-0.892413794994,0.054084379226,-0.0492312796414,-0.663362145424,-0.034853104502,0.488733619452,-0.000376140495064,-0.925044775009,0.0580553337932,0.4909208895,-0.0124182023226,0.205218669463,0.00192019520427,0.919038902702,0.390678408662,0.0522894717661
-0.0334937460721,-0.0526937507093,-0.00122093723621,-2.46264266968,0.0702826604247,2.51011586189,-0.891180992126,0.054084379226,-0.0535636357963,-0.658016204834,-0.0429227948189,0.549911737442,0.0015923792962,-0.919408321381,0.0815128162503,0.493087186032,-0.0130223556757,0.213292705856,0.00250956662512,0.919329346364,0.389665385955,0.0546638972307
-0.0346526615322,-0.0664377585053,-0.00223291153088,-2.45103478432,0.0702768266201,2.49059271812,-0.889400482178,0.054084379226,-0.054553873837,-0.657199561596,-0.0515462942421,0.551376760006,-0.000348642090103,-0.931521594524,0.0804219990969,0.495631008977,-0.0138648705792,0.222951598474,0.00324066544092,0.919751240357,0.388245729576,0.0575535150706
-0.0378827564418,-0.0959918871522,-0.00463720224798,-2.42436003685,0.0702677294612,2.44750595093,-0.884989857674,0.054084379226,-0.0867455080152,-0.617182850838,-0.0537186041474,0.588976919651,0.000800874608103,-0.945209801197,0.102157622576,0.500898354614,-0.0162226675306,0.245131746845,0.00494627668355,0.920902610553,0.384438772207,0.0641930395718
-0.039209626615,-0.105214610696,-0.00547876348719,-2.41550517082,0.0702678859234,2.433573246,-0.883372485638,0.054084379226,-0.0914126187563,-0.626442193985,-0.0595493689179,0.603616774082,-0.000543423462659,-0.916792690754,0.104715816677,0.502284204426,-0.0170878727087,0.251709036213,0.00543272727411,0.921325828186,0.383089945715,0.0661157845484
-0.0412077344954,-0.117888696492,-0.00683210790157,-2.40267205238,0.0702603980899,2.41449737549,-0.881490826607,0.054084379226,-0.102062486112,-0.576068043709,-0.0677489638329,0.615380227566,0.000287569157081,-0.906781077385,0.0804195031524,0.504404473573,-0.0185585600248,0.261771390788,0.00632028553586,0.92191263246,0.381101187738,0.0692750784001
-0.0443675294518,-0.134125545621,-0.00872931536287,-2.3852481842,0.0702593401074,2.38863348961,-0.879216313362,0.054084379226,-0.116338990629,-0.557520747185,-0.0691425800323,0.603260397911,0.00468548573554,-0.865321099758,0.0682684704661,0.506838714065,-0.0208156884073,0.275071682503,0.00735278118954,0.922757353281,0.378305783765,0.0731405306767
-0.0463570393622,-0.142771020532,-0.00974397640675,-2.37579107285,0.0702508613467,2.3749127388,-0.877925038338,0.054084379226,-0.128709748387,-0.52399289608,-0.0622334480286,0.585640847683,0.00702506722882,-0.842857718468,0.0893843472004,0.50803234841,-0.022184665639,0.282297487045,0.00796502471324,0.923258820701,0.376642679005,0.0752994051405
-0.0487331785262,-0.151786997914,-0.0109579395503,-2.36569952965,0.0702341198921,2.3600165844,-0.876492440701,0.054084379226,-0.129162371159,-0.480044394732,-0.0729538723826,0.554035425186,0.00284840469249,-0.805286407471,0.0661400035024,0.509098784835,-0.0238352446094,0.289910491467,0.00852259279851,0.9238793228,0.374678611514,0.0773970288357
-0.0512108244002,-0.160894811153,-0.0125611862168,-2.35510754585,0.0702067166567,2.34518814087,-0.875318944454,0.0540850348771,-0.12612837553,-0.464137852192,-0.0923811122775,0.542676746845,0.00214977026917,-0.774654090405,0.0605741515756,0.510208985087,-0.0257485616869,0.297855889652,0.00922972887711,0.92450429645,0.372610853075,0.0797983070272
-0.0538183487952,-0.169702231884,-0.0145356552675,-2.34469151497,0.0701824650168,2.3301422596,-0.873988687992,0.0540850348771,-0.138994932175,-0.411904960871,-0.101700201631,0.497257858515,-0.000384253595257,-0.720848917961,0.0667682215571,0.511039252933,-0.0279052888124,0.305575077815,0.00976994341538,0.925263538623,0.370248691392,0.0819013950228
-0.0578150041401,-0.180282473564,-0.0175294727087,-2.33169460297,0.0701597034931,2.31175994873,-0.872341930866,0.0540850348771,-0.156425610185,-0.360722273588,-0.111529223621,0.470960885286,-0.000394223054172,-0.629864871502,0.0611512027681,0.511900135692,-0.0312558610691,0.315091333758,0.0104568101133,0.92642813843,0.366710260993,0.0845289513327
-0.0605628676713,-0.186139523983,-0.0195163805038,-2.32411551476,0.070149064064,2.30134677887,-0.87131434679,0.0540850348771,-0.162399634719,-0.328965038061,-0.11922185868,0.42832288146,-3.35286858899e-05,-0.587551534176,0.0653796121478,0.512330667516,-0.0335556658969,0.320539514731,0.010866840088,0.927231419724,0.364303550635,0.0860623537988
-0.0635943114758,-0.191576883197,-0.0218359157443,-2.31686210632,0.0701401233673,2.29135370255,-0.870449125767,0.0540850348771,-0.180384531617,-0.271443665028,-0.133348569274,0.375950843096,7.4459235293e-06,-0.521187186241,0.0297701843083,0.512633039813,-0.0361733541989,0.325677748938,0.0112204775455,0.928124895361,0.361676511543,0.087455018017
-0.0674047097564,-0.196792557836,-0.0246994439512,-2.30926990509,0.0701347663999,2.28133511543,-0.869863450527,0.0540850348771,-0.184128776193,-0.232363298535,-0.146759524941,0.350786328316,-0.000488844525535,-0.433915495872,0.0256288051605,0.512914615828,-0.039475788201,0.330878762364,0.0116157230816,0.929189385981,0.358564288402,0.0889033785943
-0.0711838379502,-0.200721636415,-0.0277655161917,-2.30264377594,0.0701268091798,2.27322459221,-0.86924880743,0.0540850348771,-0.203726187348,-0.1420584023,-0.16060949862,0.293539047241,-0.000176662695594,-0.343107461929,0.0441297106445,0.51324044985,-0.0445393052134,0.336826614677,0.0120754244783,0.930874592743,0.353714858842,0.0906227070231
-0.0765900313854,-0.204194918275,-0.0319848433137,-2.29530286789,0.0701178088784,2.2643737793,-0.868193030357,0.0540850348771,-0.217416867614,-0.103452429175,-0.174805969,0.249047115445,-0.000143737488543,-0.317113339901,0.0412509329617,0.513324839405,-0.0477488242764,0.339528578536,0.0122124848304,0.931996344601,0.350571462694,0.0912870094482
-0.0800547376275,-0.205546230078,-0.0348836630583,-2.29154753685,0.0701186582446,2.25969982147,-0.867602527142,0.0540850348771,-0.22390127182,-0.0618528798223,-0.189641356468,0.21330101788,-0.000565687892959,-0.271363377571,0.0350010283291,0.513274294727,-0.0507507670656,0.341407516347,0.012205722019,0.933056834299,0.347654800173,0.0916084271269
-0.0843845680356,-0.206115558743,-0.0386772863567,-2.28778147697,0.0701149404049,2.25521540642,-0.866985559464,0.0540850348771,-0.23614269495,-0.00847351457924,-0.206305354834,0.187073349953,-0.000126256301883,-0.208313107491,0.029194092378,0.513129767284,-0.0552991090111,0.343194284501,0.012065799851,0.934664883184,0.343282685881,0.0917222430865
-0.0893995910883,-0.205894336104,-0.0433597937226,-2.28429675102,0.0701109096408,2.25149941444,-0.866328656673,0.0540856942534,-0.249598786235,0.0215146970004,-0.240666121244,0.145173624158,0.000979458447546,-0.152393743396,0.0304708331823,0.512943405744,-0.0600107719929,0.344282019701,0.0118892752351,0.936317554249,0.338760949175,0.0917011545184
-0.0965360030532,-0.2041670084,-0.0505207255483,-2.28096675873,0.0701059624553,2.248244524,-0.865239262581,0.0540856942534,-0.278887629509,0.102649368346,-0.26947081089,0.102325968444,-0.000175058594323,-0.0959769263864,0.0438368991017,0.512457702198,-0.0673035112928,0.34462982481,0.0114286262435,0.938915462223,0.331642659922,0.0912156078011
-0.101393595338,-0.20224404335,-0.055126670748,-2.27944636345,0.0701059252024,2.2467610836,-0.864439189434,0.0540856942534,-0.291300147772,0.117871642113,-0.280238986015,0.079728923738,-0.000403043988626,-0.0792684704065,0.0462963804603,0.512006522542,-0.0721273659665,0.344195963983,0.0109775525955,0.940661687932,0.326864163167,0.0905256909339
-0.106777943671,-0.199780851603,-0.0606108345091,-2.27819538116,0.0701049268246,2.24561595917,-0.863834142685,0.0540856942534,-0.304512441158,0.155941367149,-0.324750036001,0.0642669647932,-0.000157813919941,-0.059933938086,0.0222097337246,0.511390054292,-0.0776625061499,0.343383744778,0.0104289099565,0.942599697006,0.321497259392,0.0896468679376
-0.113084621727,-0.196007922292,-0.0672857910395,-2.27689290047,0.0701025947928,2.24492454529,-0.863475263119,0.0540856942534,-0.323244959116,0.219921320677,-0.345279961824,0.0660768151283,-0.000221575945034,-0.0135108204558,0.0170131456107,0.5106536703,-0.0842908984933,0.341966406322,0.0097350582419,0.944838546705,0.315223074221,0.0884294208239
-0.123547650874,-0.188266202807,-0.0791997015476,-2.2747964859,0.0701042711735,2.24486804008,-0.862959325314,0.0540856942534,-0.343897908926,0.274329394102,-0.402291983366,0.070767454803,-0.000336531084031,-0.00137671025004,0.0190401934087,0.509356332682,-0.0957529146784,0.338931929181,0.00852116808161,0.948603918058,0.304380781474,0.0861993961555
-0.129156887531,-0.183547198772,-0.085818618536,-2.27351927757,0.0701024159789,2.24488449097,-0.86264783144,0.0540850348771,-0.356789112091,0.321059793234,-0.424932092428,0.084779843688,0.000144153818837,0.00415970757604,0.0238262303174,0.508532563317,-0.102422605452,0.336957939478,0.00775613565713,0.95075346877,0.298037725932,0.0847419470667
-0.134857460856,-0.178056448698,-0.0928253829479,-2.27205371857,0.0701065957546,2.24504899979,-0.862256765366,0.0540850348771,-0.362804681063,0.36959245801,-0.454318702221,0.100417837501,-0.000870089919772,0.0080832913518,0.0231458954513,0.507764527915,-0.108552255052,0.334938448742,0.00700582518204,0.952708880314,0.292168368007,0.0832727579068
-0.141890645027,-0.170910045505,-0.101935073733,-2.27012848854,0.070107832551,2.24547195435,-0.861731767654,0.0540850348771,-0.369220197201,0.3811160326,-0.490703880787,0.103044964373,-0.00037787121255,0.0310470461845,0.0312849953771,0.506714022497,-0.116412591153,0.332316156174,0.00608385649671,0.95515830047,0.284614852024,0.0814247716098
-0.160906508565,-0.149881616235,-0.127693787217,-2.2641646862,0.0701279863715,2.2477543354,-0.860627472401,0.0540850348771,-0.408990263939,0.46532446146,-0.552125930786,0.132971718907,-0.000534939579666,0.0606610253453,0.0193659476936,0.503173724803,-0.139991744965,0.32424278786,0.0036736471373,0.96204952434,0.262040467301,0.0760395306588
-0.166960731149,-0.142889007926,-0.136160239577,-2.26208853722,0.0701492279768,2.24859571457,-0.860390424728,0.0540850348771,-0.400029242039,0.46996447444,-0.580503940582,0.140259131789,-0.00210278434679,0.0577518828213,0.0179978460073,0.501760821157,-0.148006816638,0.321471781259,0.00293730505892,0.964246316232,0.254387937962,0.0742104479409
-0.175030261278,-0.133192151785,-0.147952064872,-2.25900626183,0.0702068060637,2.24983286858,-0.860034167767,0.0540850348771,-0.406682163477,0.503839850426,-0.602912247181,0.165166541934,0.00371157191694,0.0745477676392,0.01943394728,0.499937445681,-0.157789506367,0.318136985627,0.00212149842103,0.966837540214,0.245010631331,0.0720448492695
-0.183004319668,-0.123007491231,-0.159996092319,-2.25563144684,0.0706315338612,2.251339674,-0.859593212605,0.0540850348771,-0.390401542187,0.504703819752,-0.613088846207,0.173252090812,0.0268859993666,0.0680175051093,0.0239548142999,0.49790912415,-0.168157194687,0.314534225442,0.00124001757867,0.969510187102,0.234887751896,0.0698298157326
-0.194057956338,-0.108900234103,-0.177595287561,-2.25073647499,0.0718633905053,2.25324821472,-0.858790278435,0.0540850348771,-0.396741271019,0.509786486626,-0.640076577663,0.182837307453,0.0529851354659,0.0780688002706,0.0278122574091,0.494596452574,-0.182890503871,0.30960654736,-9.86271019448e-05,0.973183386628,0.220090543423,0.0668897499994
-0.200344055891,-0.1006571576,-0.187973603606,-2.24783277512,0.0728034153581,2.25443077087,-0.858251154423,0.0540850348771,-0.393206834793,0.515457332134,-0.655464291573,0.181373283267,0.0563216619194,0.0630663186312,0.0345588251948,0.492345759933,-0.19196480513,0.306566448004,-0.000915256274381,0.975355797125,0.210804449427,0.0651284509093
-0.206879213452,-0.0919606983662,-0.198811039329,-2.24467110634,0.0739050135016,2.25536751747,-0.85774731636,0.0540850348771,-0.384058773518,0.495663225651,-0.628328204155,0.191207304597,0.0818612501025,0.0522493459284,0.0252526476979,0.490100358622,-0.200293813215,0.303741436574,-0.00171936436811,0.97728277479,0.202224837077,0.0634077033865
-0.214858755469,-0.0815064385533,-0.212154626846,-2.2407720089,0.0763105005026,2.2563688755,-0.85744202137,0.0540850348771,-0.372244000435,0.499076128006,-0.638094186783,0.181844294071,0.154990434647,0.0478978604078,0.0126686450094,0.486966658019,-0.211024913481,0.30016341531,-0.00302266164811,0.979692694459,0.190839225697,0.0614286380321
-0.225532606244,-0.0669191405177,-0.231263056397,-2.23565626144,0.0832546651363,2.25794959068,-0.857185006142,0.0540850348771,-0.35017696023,0.469891577959,-0.632052302361,0.172655075788,0.284485459328,0.0554522201419,0.00384367210791,0.482271753169,-0.225559251888,0.295065235998,-0.00588368948324,0.982952470878,0.173891304112,0.0594275714177
-0.230936020613,-0.0595923885703,-0.241182550788,-2.23301005363,0.0881690979004,2.25862336159,-0.857146799564,0.0540850348771,-0.331508159637,0.454128712416,-0.605524778366,0.162717670202,0.326771855354,0.0317723676562,0.000786565593444,0.479726398394,-0.232864925021,0.292542354488,-0.00770180505177,0.984547307481,0.164791371025,0.0587459382662
-0.236378058791,-0.0521058551967,-0.251200199127,-2.2302801609,0.0941785275936,2.25920128822,-0.857131481171,0.0540850348771,-0.31261485815,0.431050658226,-0.584692716599,0.152002215385,0.382491797209,0.0397180654109,0.000503138813656,0.477090245449,-0.240111825616,0.289980203948,-0.00983417890218,0.986101554952,0.155285027613,0.0582543744576
-0.24222266674,-0.0442045144737,-0.262196809053,-2.22760009766,0.101872198284,2.25984334946,-0.857128083706,0.0540850348771,-0.290218770504,0.40057015419,-0.561671853065,0.132177516818,0.426618158817,0.0319588966668,-0.000385898689274,0.474067486475,-0.24782540532,0.287204302619,-0.0124718765842,0.987715346023,0.144560349026,0.0580099363178
-0.248126685619,-0.0361324287951,-0.27348947525,-2.22502660751,0.111501641572,2.26051235199,-0.857125937939,0.0540850348771,-0.270078122616,0.365424871445,-0.516459405422,0.108339831233,0.495723485947,0.0262394901365,-0.000166789832292,0.470897054106,-0.255480506273,0.284323733968,-0.015666243133,0.989279871448,0.133035860752,0.0581494989271
-0.256146818399,-0.0262599773705,-0.287246972322,-2.22223997116,0.127660498023,2.2611579895,-0.857130169868,0.0540850348771,-0.275395750999,0.313535362482,-0.416304647923,0.0749106481671,0.593110561371,0.0173241589218,-0.00154340523295,0.466774925601,-0.264663087829,0.280690686089,-0.0209075735002,0.991121042338,0.117181723505,0.0592485964371
-0.260617315769,-0.0211574118584,-0.293761581182,-2.22105813026,0.138290315866,2.26142501831,-0.857130765915,0.0540850348771,-0.257423520088,0.292556703091,-0.358065992594,0.0647418797016,0.649629235268,0.0179668329656,0.000283198518446,0.464699241277,-0.269004680515,0.278732172521,-0.0243340102941,0.991980551326,0.108389431732,0.060284098418
-0.264455854893,-0.0166727658361,-0.299136191607,-2.22017550468,0.148934483528,2.26175832748,-0.857135772705,0.0540850348771,-0.228224545717,0.264404028654,-0.316012769938,0.0452913530171,0.678857028484,0.022575840354,-0.000396594958147,0.463015294191,-0.272478287374,0.276977903972,-0.0277140990023,0.992651493717,0.100455671401,0.0615109625968
-0.268695443869,-0.0119826458395,-0.304863065481,-2.21957826614,0.163133621216,2.26208591461,-0.857147276402,0.0540850348771,-0.198273047805,0.210835471749,-0.269341140985,0.0107955737039,0.743002951145,0.0200374182314,-0.0027574847918,0.461241156548,-0.275925255256,0.27504944149,-0.032208661014,0.993302737528,0.0910165022401,0.0634686520513
-0.273674756289,-0.00600923318416,-0.311450988054,-2.21938538551,0.186158448458,2.26233386993,-0.857175648212,0.0540850348771,-0.139911592007,0.188356980681,-0.182098507881,0.0016117375344,0.787904262543,-0.00222198967822,-0.00207964656875,0.459452591213,-0.279167805524,0.272508215194,-0.0393120579788,0.993903724351,0.0783700667117,0.0668437069736
-0.27555963397,-0.00324890459888,-0.313939750195,-2.21943306923,0.199808523059,2.26232290268,-0.85722142458,0.0540850348771,-0.0948193669319,0.148115411401,-0.118608057499,-0.00477697886527,0.824723780155,-0.000813818478491,-0.0039871907793,0.458992935181,-0.280032891475,0.271211813703,-0.0439227895758,0.994064962173,0.0714767169548,0.0692583436642
-0.276724040508,-0.000847793591674,-0.315640926361,-2.21946597099,0.214000627398,2.26227259636,-0.857330977917,0.0540850348771,-0.0513305217028,0.1380892694,-0.0723831057549,0.00182016042527,0.853381156921,-0.00159052049275,-0.00686568534002,0.459063814747,-0.280104482954,0.270210753651,-0.0484106255704,0.994079933274,0.0655944354129,0.0718252555606
-0.277238070965,0.00147208222188,-0.316511392593,-2.21942830086,0.229549258947,2.26222229004,-0.857452571392,0.0540850348771,-0.0111698079854,0.111154258251,-0.0214182902128,-0.000363518804079,0.865800380707,-0.00772575335577,-0.00670373020694,0.459687077528,-0.279414476766,0.269327299649,-0.0532905709542,0.993965029676,0.0600198394041,0.0747746842568
-0.276951909065,0.00367598887533,-0.31617975235,-2.21942281723,0.248276934028,2.26194310188,-0.857606649399,0.0540850348771,0.0333218425512,0.0992496460676,0.0485771633685,0.00132582592778,0.913262784481,-0.0266133062541,-0.00426375260577,0.461080595514,-0.277518210383,0.268555500976,-0.0592277585842,0.993666299921,0.0544559776813,0.0784468177
-0.273332387209,0.00698809325695,-0.310555070639,-2.21936202049,0.291724532843,2.26023578644,-0.857769966125,0.0540856942534,0.124548889697,0.0576559305191,0.193755879998,0.00344902649522,0.936466872692,-0.0469404384494,-0.000629112357274,0.466310998915,-0.269645365211,0.267739771325,-0.0730863176599,0.992482917334,0.0455473942599,0.0869567912569
-0.271107405424,0.00779332313687,-0.307006895542,-2.21933364868,0.306841820478,2.25951361656,-0.85778439045,0.0540856942534,0.158397167921,0.0424318052828,0.244753837585,-0.00221606181003,0.946614146233,-0.0529871284962,-0.000807838339824,0.469012509114,-0.265388025594,0.267651925797,-0.0784527741588,0.991878459867,0.0435168379778,0.09015856914
-0.267758697271,0.00849013309926,-0.30186393857,-2.21934056282,0.325098842382,2.25826716423,-0.857795894146,0.0540856942534,0.187466114759,0.0264896079898,0.298015117645,0.00487275328487,0.967017114162,-0.0846877768636,-0.000124640224385,0.472417591661,-0.259726579355,0.267674552525,-0.0847547060212,0.991098153724,0.0420118841351,0.0936807919598
-0.261197328568,0.00929504074156,-0.291507959366,-2.21920442581,0.353947877884,2.25507497787,-0.857808589935,0.0540856942534,0.250528395176,0.0221028160304,0.386241286993,0.00715140486136,0.972157657146,-0.131376579404,-0.00262840511277,0.478478718421,-0.248884086828,0.267887699817,-0.0953087843568,0.989668511946,0.0414606268246,0.0987597499352
-0.256963074207,0.00963008776307,-0.284946709871,-2.21907711029,0.369354873896,2.2527885437,-0.857813239098,0.0540856942534,0.281007915735,0.0181461181492,0.436336517334,0.0085858348757,0.958647668362,-0.152801334858,-0.00206977920607,0.482012947541,-0.242115361951,0.268060137374,-0.101256934049,0.988805946057,0.0420850084065,0.101186392929
-0.25112721324,0.00993013381958,-0.275911360979,-2.21890568733,0.387474328279,2.24947500229,-0.857818722725,0.0540856942534,0.326893985271,0.0163470096886,0.500326275826,0.00797601789236,0.955772101879,-0.188816800714,-0.000198316047317,0.486509721861,-0.232942156155,0.268302569116,-0.108614684322,0.987683818863,0.0439488044036,0.103691979413
-0.245324507356,0.0102217877284,-0.267039895058,-2.21869158745,0.403790593147,2.24601578712,-0.857819676399,0.0540850348771,0.363586753607,0.0179463997483,0.54194778204,0.0154954399914,0.961745977402,-0.206482112408,0.00172583560925,0.490678861152,-0.223917260451,0.268530113942,-0.115508390544,0.986586513137,0.046300562951,0.105646208533
-0.240357667208,0.0104944566265,-0.259768515825,-2.2184214592,0.416263967752,2.24301862717,-0.857822716236,0.0540850348771,0.415883481503,0.0228662900627,0.595371365547,0.0256311204284,0.940885066986,-0.255790770054,-0.000479928596178,0.495781106646,-0.2121883962,0.268821678312,-0.123935700558,0.985175152898,0.0501137451981,0.107510336615
-0.228853046894,0.0112052736804,-0.243399620056,-2.21756434441,0.441625446081,2.23590350151,-0.857821643353,0.0540850348771,0.455338895321,0.0325578786433,0.651187479496,0.0397543981671,0.924435079098,-0.284593045712,0.000570928445086,0.500935443618,-0.199425291785,0.269144122376,-0.132612649604,0.983638115416,0.0549638568866,0.108852731697
-0.22001825273,0.0118785928935,-0.230836302042,-2.21674823761,0.458443492651,2.2304854393,-0.857820570469,0.0540850348771,0.503556609154,0.0416471585631,0.709272265434,0.0454780571163,0.900114119053,-0.298787921667,0.00037597224582,0.505790273533,-0.186472077464,0.26942649088,-0.140771868829,0.982090459891,0.0606620712227,0.109552372632
-0.207843706012,0.0130266789347,-0.213572338223,-2.21551609039,0.479749649763,2.22352385521,-0.85782033205,0.0540850348771,0.540314912796,0.0564699470997,0.757185041904,0.0550901517272,0.906847834587,-0.291182339191,-0.000237426793319,0.511947489043,-0.168705744051,0.269768583269,-0.151332867665,0.979918148696,0.0690283730317,0.109972125714
-0.195388540626,0.0142643032596,-0.196148589253,-2.2142791748,0.499226808548,2.21710133553,-0.857816874981,0.0540850348771,0.585211932659,0.0576976947486,0.82316172123,0.0591413788497,0.86636441946,-0.291368424892,-0.00165245251264,0.517803922997,-0.14990319025,0.270100704162,-0.161686313048,0.977560982117,0.0785648827773,0.109816307097
-0.181385189295,0.015977665782,-0.176778480411,-2.21286725998,0.518927335739,2.21080946922,-0.857812941074,0.0540850348771,0.636306941509,0.0885905697942,0.859004557133,0.0678944960237,0.841887712479,-0.264290034771,0.000458418828202,0.523116681029,-0.130792185399,0.27030296267,-0.171455368026,0.975097177322,0.0887878203627,0.109111292744
-0.170445039868,0.0176044777036,-0.161797568202,-2.21168732643,0.532733678818,2.20648765564,-0.857811748981,0.0540850348771,0.6687271595,0.096268042922,0.915119946003,0.0735938921571,0.788317620754,-0.257921993732,7.38841772545e-05,0.526938433425,-0.115377806856,0.270351908743,-0.178780376277,0.973062061826,0.0974465574539,0.108129408714
-0.150056287646,0.0207213517278,-0.133832231164,-2.20946383476,0.5558167696,2.19973993301,-0.857806742191,0.0540850348771,0.701089262962,0.118469722569,0.95676279068,0.0743456929922,0.751776576042,-0.198306962848,-0.000441352050984,0.532958429372,-0.0867818120657,0.270426399092,-0.191218500912,0.969123142131,0.114229816305,0.105770360008
-0.138571381569,0.0228109862655,-0.118077777326,-2.20809698105,0.567528247833,2.19666624069,-0.857801318169,0.0540850348771,0.716782808304,0.135775253177,0.988105416298,0.087303109467,0.709035634995,-0.177894756198,0.0029707995709,0.535756030906,-0.0707682017132,0.270348742987,-0.19761799283,0.966821230119,0.123946424491,0.104120706153
-0.125514119864,0.0252564623952,-0.100256241858,-2.20657706261,0.579765737057,2.19386839867,-0.857787966728,0.0540850348771,0.750207006931,0.143343776464,1.00652658939,0.0822483748198,0.65077316761,-0.135377794504,-4.71757484775e-05,0.538401751609,-0.0527056766823,0.270213538364,-0.204346848635,0.964134752422,0.135155816133,0.102075705642
-0.111816972494,0.0278596896678,-0.0817717388272,-2.20502948761,0.591234862804,2.19164156914,-0.857769489288,0.0540850348771,0.760927975178,0.154100626707,1.02956449986,0.0863698795438,0.622917056084,-0.103921756148,0.0030218991451,0.540554142895,-0.0339992861919,0.270017853018,-0.210748561345,0.961248997246,0.147102913291,0.0997303453207
-0.0965608134866,0.0312042180449,-0.0611685216427,-2.20314121246,0.602937459946,2.19010710716,-0.85761898756,0.0540850348771,0.777435779572,0.175678640604,1.04336321354,0.10532425344,0.554304540157,-0.060679346323,0.0161456204951,0.542343826263,-0.0133028376488,0.269646954395,-0.21728326419,0.957932885691,0.160490120537,0.0969303384636
-0.0754032209516,0.0359219647944,-0.0329826325178,-2.20033240318,0.616501629353,2.18903112411,-0.857007980347,0.0540850348771,0.782716691494,0.181691095233,1.03704917431,0.102207235992,0.462421059608,-0.00761234201491,0.0265980456024,0.543654135587,0.0149090924916,0.269112691206,-0.22514031269,0.953188835062,0.179295909995,0.0927138644658
-0.0627201646566,0.0389093905687,-0.0162537191063,-2.19860935211,0.623662292957,2.18900537491,-0.856440007687,0.0540850348771,0.791247725487,0.192101255059,1.04774188995,0.113627970219,0.432496160269,0.000853441888466,0.043833244592,0.543819489736,0.0316022398122,0.268716663533,-0.229364918575,0.950249083326,0.190548986995,0.0900527457128
-0.0486465282738,0.0424660183489,0.00235189311206,-2.19651341438,0.631020843983,2.1891951561,-0.855084359646,0.0540850348771,0.786517739296,0.199899688363,1.02322304249,0.117151878774,0.379952579737,0.00992869958282,0.10700777173,0.543471394337,0.0500859135539,0.268221236543,-0.233841992728,0.946912614005,0.202803956635,0.0868618370616
-0.0314048826694,0.0470446906984,0.0249856989831,-2.19369697571,0.638660371304,2.18948888779,-0.851944565773,0.0540850348771,0.765776515007,0.197799935937,1.01602101326,0.127088218927,0.303571581841,0.0235460642725,0.178820818663,0.542231119502,0.0725095874824,0.26755166056,-0.23890110806,0.942797523909,0.217391001976,0.0824635763583
-0.0107740052044,0.0524291321635,0.0518449135125,-2.19056105614,0.645955264568,2.19105839729,-0.845654249191,0.0540850348771,0.75223916769,0.20462590456,0.980362415314,0.115707844496,0.24454317987,0.087177477777,0.278022795916,0.539643027421,0.0988654513762,0.266680022007,-0.244079610074,0.937987927638,0.233871612318,0.0768626059212
0.00335082202218,0.0563085004687,0.0700789839029,-2.18857884407,0.65024626255,2.19297719002,-0.839842379093,0.0540850348771,0.727322697639,0.203636243939,0.931445777416,0.0957358628511,0.201923653483,0.112313315272,0.332047969103,0.537221587407,0.116617936448,0.265925928334,-0.247231436144,0.93479541528,0.244397648525,0.0728281376615
0.0150098055601,0.0594360791147,0.0850490555167,-2.18717670441,0.653379440308,2.1950879097,-0.834099769592,0.0540850348771,0.721907913685,0.181178882718,0.935222864151,0.0812894776464,0.195133119822,0.146317020059,0.377375334501,0.534804385085,0.131085884436,0.265253993262,-0.249584024536,0.932239650935,0.252623031637,0.0694165073487
0.0289206057787,0.0629066303372,0.10291801393,-2.18595981598,0.656881153584,2.19883704185,-0.825879275799,0.0540850348771,0.678885817528,0.165332168341,0.846405088902,0.046826697886,0.144793644547,0.224238455296,0.451783955097,0.531506769136,0.148129414217,0.264449510034,-0.252031274947,0.92936239992,0.261679575951,0.0654947729048
0.0487254075706,0.0676793307066,0.128090292215,-2.18511819839,0.66095918417,2.2072095871,-0.810641169548,0.0540850348771,0.627564787865,0.148812949657,0.797762513161,0.00296411640011,0.13764102757,0.33716827631,0.552156627178,0.526220071598,0.171698847987,0.26311335239,-0.254560750352,0.925878781959,0.272620544869,0.060210827074
0.0585948079824,0.0699011608958,0.140405893326,-2.18515467644,0.662911236286,2.21316123009,-0.801528453827,0.0540850348771,0.607131540775,0.137871280313,0.754399478436,-0.00641499692574,0.103981949389,0.393559962511,0.590993225574,0.523456155315,0.183070317008,0.262418042736,-0.255404483373,0.924476829603,0.27703675469,0.0579808385009
0.0685772225261,0.0721096545458,0.152780875564,-2.18531394005,0.664422929287,2.22015070915,-0.791206359863,0.0540850348771,0.572867691517,0.124315537512,0.698029875755,-0.0155457565561,0.0872902274132,0.423787802458,0.620330989361,0.520579021328,0.194351589114,0.261709622169,-0.255905870749,0.923274859292,0.28098028296,0.055908852475
0.0790028423071,0.0741735547781,0.165320754051,-2.18569850922,0.665803909302,2.22869634628,-0.778718531132,0.0540856942534,0.529401242733,0.107446342707,0.62730807066,-0.0234898589551,0.0595063045621,0.47364538908,0.691776514053,0.517593137214,0.205755896947,0.261058631625,-0.256101252193,0.922386398399,0.284057676114,0.0540991404394
0.0935544297099,0.0768244415522,0.182740032673,-2.18679618835,0.667614340782,2.24401807785,-0.757410228252,0.0540856942534,0.44129884243,0.0791135132313,0.5375867486,-0.0451391339302,0.0427209734917,0.559587538242,0.730096638203,0.513570509523,0.221253272924,0.260205844677,-0.255736814356,0.921941473441,0.286140059401,0.0524067497588
0.100306712091,0.0779098197818,0.19077436626,-2.1876347065,0.668053030968,2.25342535973,-0.745614647865,0.0540856942534,0.404103755951,0.0626915171742,0.473228543997,-0.0571944341063,0.0131430476904,0.612614870071,0.754987061024,0.511939856022,0.228165793134,0.25984502922,-0.255016854469,0.922172229344,0.286061944946,0.0522814182977
0.107449762523,0.0787713602185,0.198899760842,-2.18887710571,0.668184101582,2.26527762413,-0.731008470058,0.0540856942534,0.346136271954,0.0355309136212,0.3902169168,-0.0699781179428,2.78139996226e-05,0.636571228504,0.776105821133,0.510499632071,0.235082089645,0.259546330194,-0.253802015074,0.922896480031,0.284721958265,0.0527259941075
0.113469570875,0.0793933942914,0.20561504364,-2.19023633003,0.66826415062,2.27782082558,-0.716257333755,0.0540856942534,0.29550755024,0.0274868737906,0.332103520632,-0.0727402865887,0.00584935583174,0.682012319565,0.768189251423,0.509664595296,0.240905921645,0.259352620587,-0.252278661569,0.924095976236,0.281943743756,0.0539428277112
0.118709392846,0.079747505486,0.211426243186,-2.19174861908,0.668340086937,2.29194307327,-0.70077496767,0.0540856942534,0.225797519088,0.00831497553736,0.246088653803,-0.0748056396842,0.00242483103648,0.733575105667,0.777355194092,0.509545881989,0.245217622236,0.259345741767,-0.250594546171,0.925570039871,0.278200049266,0.0559214359066
0.123860143125,0.0798529088497,0.216675281525,-2.19399571419,0.66837990284,2.31325221062,-0.679250657558,0.0540856942534,0.142663687468,0.000463561096694,0.130847871304,-0.074980340898,0.00015904736938,0.777220487595,0.755479335785,0.510834508754,0.248926866309,0.259575184199,-0.247660225944,0.928412809769,0.270324784352,0.0603206249313
0.12536893785,0.0798446908593,0.217952772975,-2.19491577148,0.668386638165,2.32271075249,-0.670327246189,0.0540850348771,0.11978123337,-0.0010992505122,0.101632580161,-0.0786710679531,-0.000590527255554,0.790741682053,0.743713974953,0.511878200817,0.249644464365,0.259749444613,-0.24629000546,0.929789391246,0.266281878296,0.06266483952
0.126729220152,0.0798189342022,0.219064325094,-2.19631457329,0.668407917023,2.3400990963,-0.654822289944,0.0540850348771,0.0269443616271,-0.00120187632274,0.0166256614029,-0.0629033595324,-0.000374695897335,0.841795802116,0.736400067806,0.514549090229,0.249630036168,0.260231142684,-0.243694193017,0.932448035265,0.25804151391,0.0675897818075
0.126578211784,0.0797824412584,0.218887448311,-2.19751572609,0.668436825275,2.35726070404,-0.640605866909,0.0540850348771,-0.0373000465333,0.000849759555422,-0.0322096683085,-0.0517771244049,0.00237780320458,0.875819981098,0.691489160061,0.517919039625,0.248186838583,0.260827789314,-0.24103820488,0.935151899606,0.249110098834,0.0730456487178
0.124428525567,0.0798358768225,0.216678678989,-2.19893836975,0.668497383595,2.38305974007,-0.621960699558,0.0540850348771,-0.109350867569,0.00246801460162,-0.121609866619,-0.0462970435619,0.00182014156599,0.929335057735,0.643052101135,0.524014104535,0.243975956115,0.261913083411,-0.236858343805,0.93907567782,0.235106952777,0.0822174965477
0.122515663505,0.0798528194427,0.214466378093,-2.19964742661,0.668532133102,2.39707565308,-0.612514853477,0.0540850348771,-0.142178088427,0.00444682640955,-0.173109576106,-0.0407225079834,-0.00140229461249,0.944315075874,0.611616194248,0.527479913801,0.240956321438,0.262529841347,-0.234647356503,0.941049177863,0.227523821787,0.0871778247971
0.119441278279,0.0799046978354,0.210717767477,-2.20038723946,0.668571233749,2.41506481171,-0.60141402483,0.0540850348771,-0.184194236994,0.0013372489484,-0.222380101681,-0.0350750684738,0.00325592816807,0.94383174181,0.565456926823,0.532881102149,0.235675461597,0.263525485486,-0.231320137987,0.943789924143,0.216275983314,0.0947431874979
0.115239024162,0.0799126774073,0.205618172884,-2.20103335381,0.668611168861,2.43383932114,-0.590678155422,0.0540850348771,-0.237149581313,0.000317055935739,-0.288961917162,-0.0274174138904,0.00163610419258,0.930012106895,0.525996029377,0.538718008063,0.229154507335,0.264650819837,-0.227830496429,0.946436092589,0.204465579209,0.102692814496
0.107401803136,0.079979762435,0.196711719036,-2.20154333115,0.668650150299,2.46116805077,-0.575794219971,0.0540850348771,-0.300773203373,0.00523338466883,-0.331288903952,-0.0110818259418,-0.000610643182881,0.939365744591,0.485705554485,0.547864171024,0.21773797815,0.266561768942,-0.22246827381,0.950097813048,0.186079636725,0.114875503372
0.102038368583,0.0800755172968,0.190612658858,-2.20160222054,0.668675601482,2.47686386108,-0.567887544632,0.0540850348771,-0.332707345486,0.0066224783659,-0.385217368603,-0.000435111636762,0.0019749510102,0.919499993324,0.450461596251,0.553443572403,0.210043866832,0.267792096157,-0.21918429273,0.952061976744,0.174927246425,0.122215778062
0.0960832387209,0.08012688905,0.183771669865,-2.20156168938,0.668700277805,2.49255895615,-0.560619175434,0.0540850348771,-0.358087390661,0.00120378471911,-0.412651717663,-5.91049829382e-05,-0.000374140188796,0.923613846302,0.408565968275,0.559196510187,0.201494028635,0.269135562062,-0.215707624142,0.953890051363,0.1634350921,0.129818955309
0.0885045230389,0.0801610350609,0.174936577678,-2.20155930519,0.668756842613,2.51101756096,-0.552682518959,0.0540850348771,-0.396365851164,0.000109128268377,-0.45985609293,-0.000113157970191,0.0070972009562,0.915295541286,0.386993169785,0.566004231584,0.190495372531,0.270763676729,-0.211387840249,0.955853923959,0.149523363682,0.138928832325
0.0807093530893,0.0801900699735,0.165955200791,-2.2014875412,0.668810844421,2.52835321426,-0.54531621933,0.0540850348771,-0.423088312149,0.00245599448681,-0.492041349411,-0.00130467803683,0.00289879157208,0.917666554451,0.391378074884,0.572434970847,0.179216403231,0.272383789827,-0.207117801713,0.957526609552,0.135832534831,0.147629706988
0.0688581466675,0.0802531540394,0.152065485716,-2.20129513741,0.668888390064,2.55257558823,-0.535557329655,0.0540850348771,-0.454895496368,0.00485619204119,-0.543351829052,0.0155391190201,0.00273261638358,0.877725124359,0.331872701645,0.5813882501,0.161823470232,0.2747690974,-0.200723706668,0.959522352016,0.115835247494,0.16002826217
0.0608166456223,0.0803644806147,0.142565712333,-2.20095396042,0.668940126896,2.56740808487,-0.530198395252,0.0540850348771,-0.483149975538,0.00918376259506,-0.566387414932,0.0233947150409,0.00164105661679,0.875407576561,0.306966513395,0.586918278345,0.149957120626,0.276348386097,-0.196476353614,0.960520449659,0.103032947724,0.167874118413
0.0514774695039,0.0806047394872,0.131748408079,-2.20046257973,0.669044911861,2.58368563652,-0.524737894535,0.0540850348771,-0.496456444263,0.0127367675304,-0.569059252739,0.0305222440511,0.0124269407243,0.83829087019,0.281759053469,0.592835148054,0.136227780709,0.278120640249,-0.191590845487,0.961379312992,0.0887234664954,0.17655285515
0.0412168353796,0.0808595195413,0.119961187243,-2.19971203804,0.669171154499,2.60020041466,-0.519233822823,0.0540850348771,-0.51660078764,0.00968947075307,-0.598459541798,0.0430427528918,0.0100875338539,0.817711114883,0.266712278128,0.598758036122,0.121161838395,0.280089892083,-0.186333352535,0.962004095984,0.0734673515254,0.185554706203
0.0258513856679,0.0812832117081,0.102247431874,-2.1981883049,0.669410645962,2.62360882759,-0.511588871479,0.0540850348771,-0.529738485813,0.0107973441482,-0.609304964542,0.0651437714696,0.0158236287534,0.771185457706,0.267834722996,0.606513594651,0.0991555950504,0.283061272415,-0.178692166195,0.962359958243,0.0518251590823,0.198107478631
0.0166697353125,0.0815395340323,0.0917692407966,-2.19694423676,0.669606149197,2.63649392128,-0.507074356079,0.0540850348771,-0.543864250183,0.0165939908475,-0.621575534344,0.0811020731926,0.0147962169722,0.759029567242,0.250490784645,0.611046345289,0.0847762207052,0.285109390757,-0.173816391444,0.962267583308,0.0378928906206,0.205895820048
0.00778496591374,0.0818436965346,0.0816705450416,-2.19543862343,0.669875442982,2.64845180511,-0.503035008907,0.0540850348771,-0.563005745411,0.0238212570548,-0.626523911953,0.101861961186,0.0196364596486,0.738105714321,0.251160860062,0.614891458763,0.0715981715558,0.287080240127,-0.169370500191,0.961952009666,0.0253920758217,0.212878385332
-0.00338296336122,0.0823739767075,0.0693890824914,-2.19309854507,0.670435905457,2.66260266304,-0.498330354691,0.0540850348771,-0.558644711971,0.0244596637785,-0.605368494987,0.131336808205,0.0332259349525,0.686497867107,0.216898962855,0.619287937698,0.0552584179166,0.289639982255,-0.163934119295,0.961264665492,0.0101126312172,0.221344938478
-0.0196940619498,0.0832155421376,0.0515388548374,-2.18885397911,0.671533882618,2.68191432953,-0.492725372314,0.0540850348771,-0.553869009018,0.0295149087906,-0.613164782524,0.162387773395,0.0325302816927,0.638810753822,0.187403187156,0.624957157902,0.0313549875805,0.293682826993,-0.15599319769,0.959708902348,-0.0113955313487,0.233441826984
-0.02899511531,0.0836129039526,0.0413451902568,-2.1860742569,0.6721149683,2.69259953499,-0.489601910114,0.0540850348771,-0.546254456043,0.015480203554,-0.588786303997,0.162793636322,0.0345602929592,0.620157897472,0.173804923892,0.627825320433,0.0176171468184,0.29622834987,-0.151373840977,0.958527061286,-0.023510944733,0.240331163644
-0.0376867875457,0.0838376060128,0.0319127701223,-2.18330955505,0.672722876072,2.70214986801,-0.486792892218,0.0540850348771,-0.547627985477,0.0119512500241,-0.592132925987,0.182000756264,0.0517061799765,0.577243804932,0.174659371376,0.630356231257,0.00400877647671,0.298921990269,-0.146821830962,0.957155383968,-0.0353615209814,0.247075865714
-0.0480163283646,0.0840574651957,0.0208534225821,-2.17956256866,0.673713445663,2.71255660057,-0.483490407467,0.0540850348771,-0.536939680576,0.0065972651355,-0.565518915653,0.207311034203,0.0513039790094,0.524309039116,0.162328675389,0.63272977214,-0.0102688922847,0.301951097302,-0.142204219261,0.95549697918,-0.0477509488344,0.2540144275
-0.0579672753811,0.0840743109584,0.0104551948607,-2.17535042763,0.674681484699,2.72234511375,-0.480450749397,0.0540850348771,-0.517195105553,0.000663061859086,-0.535423994064,0.229517430067,0.044397752732,0.501702606678,0.168979540467,0.634965293061,-0.0247060251207,0.305469973256,-0.13747711861,0.953532834676,-0.0600558359912,0.26128235935
-0.0727139934897,0.0840316191316,-0.00493787461892,-2.16825008392,0.675541698933,2.73552513123,-0.475784957409,0.0540850348771,-0.493355602026,-0.00347999599762,-0.521604597569,0.267835199833,0.020072421059,0.409324944019,0.159338071942,0.637744933278,-0.0460691797862,0.311064835708,-0.130460928705,0.950290010645,-0.0778308639391,0.271792564389
-0.0811902135611,0.0838941559196,-0.0137649932876,-2.1632900238,0.675924003124,2.74249148369,-0.472795963287,0.0540850348771,-0.45918443799,-0.00927691534162,-0.477624356747,0.282414138317,0.0237827114761,0.374533325434,0.18605093658,0.639207043658,-0.0583444561585,0.314772163354,-0.126490171643,0.948155831633,-0.0879495201681,0.277966971077
-0.0889607146382,0.0837482511997,-0.0217754803598,-2.15849471092,0.676598787308,2.74845957756,-0.469624608755,0.0540850348771,-0.453971207142,-0.0142554556951,-0.463481068611,0.283566921949,0.0486839190125,0.327517330647,0.188348352909,0.640357320894,-0.0695360427861,0.318282898287,-0.123057217394,0.946032947076,-0.0974217049259,0.283527062892
-0.102963075042,0.0830241888762,-0.0360748395324,-2.14832639694,0.67834854126,2.75868678093,-0.463317424059,0.0540850348771,-0.388881802559,-0.0278024878353,-0.391942232847,0.316709399223,0.046352494508,0.281848341227,0.190337628126,0.642312740547,-0.08970296243,0.325715386892,-0.117111151389,0.941601178404,-0.114622773691,0.294166310932
-0.109456986189,0.0823411047459,-0.0424650274217,-2.14304852486,0.679061830044,2.76322603226,-0.460093200207,0.0540850348771,-0.376071840525,-0.0559454150498,-0.371273338795,0.305740118027,0.0433999076486,0.252223610878,0.189655929804,0.643146765936,-0.0989408110099,0.329692474687,-0.114400826521,0.939303652656,-0.122456992658,0.299374988323
-0.113886244595,0.0816142782569,-0.0468637496233,-2.13941502571,0.679562985897,2.76611685753,-0.457717955112,0.0540850348771,-0.358819693327,-0.0680625215173,-0.359013199806,0.292583554983,0.0383502617478,0.229283109307,0.202491357923,0.643611069884,-0.105252041955,0.332575700897,-0.11260906145,0.937649679087,-0.127845509874,0.302965020884
-0.121169172227,0.0798756480217,-0.0542996935546,-2.13305163383,0.680604457855,2.77069759369,-0.452801257372,0.0540850348771,-0.309925019741,-0.0819162130356,-0.323449373245,0.277155220509,0.0463671647012,0.179265514016,0.239822939038,0.644283379525,-0.11577710574,0.337881738833,-0.109851650319,0.934615344763,-0.137234752729,0.309181814769
-0.126453369856,0.0781405940652,-0.05974130705,-2.1281015873,0.681248366833,2.7736287117,-0.448110818863,0.0540850348771,-0.2794739604,-0.108025468886,-0.278660148382,0.278858006001,0.0243133120239,0.153933033347,0.275952279568,0.644690639961,-0.12341461425,0.342185935323,-0.108066809531,0.932186671481,-0.144412444236,0.313838525081
-0.131963863969,0.0754831582308,-0.0648448914289,-2.12242746353,0.681609690189,2.77665400505,-0.441782981157,0.0540850348771,-0.246209606528,-0.138571694493,-0.222225248814,0.25410848856,0.01501466427,0.12411467731,0.309133559465,0.645194865599,-0.131048299487,0.347527711025,-0.106452645154,0.929338127817,-0.152047557264,0.319186494919
-0.137821897864,0.071571521461,-0.0701802223921,-2.11607289314,0.681933641434,2.77935361862,-0.433054983616,0.0540850348771,-0.2031622082,-0.166547447443,-0.184977337718,0.236221894622,0.0115913217887,0.0846922770143,0.374344974756,0.645626154062,-0.139050099688,0.354049241566,-0.105204434114,0.925910112597,-0.160821319824,0.325206078059
-0.141098350286,0.0683618336916,-0.0731170475483,-2.11212587357,0.682105004787,2.78080487251,-0.426034837961,0.0540850348771,-0.162930592895,-0.198128446937,-0.143836721778,0.206936240196,0.0131562585011,0.0770375579596,0.402469277382,0.645881240822,-0.143509711366,0.358594518361,-0.104894303055,0.923555963196,-0.166552583936,0.329092395078
-0.143843978643,0.0645483583212,-0.0754042491317,-2.10883426666,0.682288646698,2.78190898895,-0.418634831905,0.0540850348771,-0.135523453355,-0.22078128159,-0.108925767243,0.167573541403,0.004417471122,0.0558517351747,0.409845948219,0.646026875458,-0.147112773032,0.363128772406,-0.104993241342,0.921261443975,-0.171878373967,0.332733520046
-0.146140649915,0.0601038560271,-0.0771977156401,-2.10579204559,0.682454943657,2.78292989731,-0.410631626844,0.0540850348771,-0.0898724943399,-0.227409854531,-0.0789238065481,0.141663372517,0.00661048432812,0.0511739216745,0.404477328062,0.646167969679,-0.150076318131,0.367936114522,-0.105416548563,0.918898358841,-0.176991266622,0.336433126535
-0.147812366486,0.0527999214828,-0.0786613225937,-2.10232758522,0.682496726513,2.78446769714,-0.399021625519,0.0540850348771,-0.0302918329835,-0.27256321907,-0.0289923269302,0.0999395549297,6.224639219e-05,0.0473489910364,0.394687086344,0.64643319744,-0.152514425931,0.374964626858,-0.10653438283,0.915666685216,-0.183052413712,0.34160907537
-0.148030310869,0.0482342988253,-0.0789074748755,-2.1007809639,0.682498395443,2.78516530991,-0.39210832119,0.0540850348771,0.00258927699178,-0.261222600937,-0.00126887019724,0.0883231908083,-7.34964196454e-05,0.0346540436149,0.420079529285,0.646609497909,-0.152989421674,0.378972505561,-0.107542854534,0.913913055272,-0.186005702565,0.344382549117
-0.147780224681,0.0438849404454,-0.078730262816,-2.09932851791,0.682496964931,2.78568601608,-0.384997904301,0.0540850348771,0.023556413129,-0.252620488405,0.0160065665841,0.0782493054867,-8.86165289558e-05,0.0223761610687,0.416040897369,0.646824736571,-0.152911679442,0.382099166192,-0.108571516618,0.91255870028,-0.188202768345,0.346451384743
-0.147112414241,0.0391586646438,-0.0781655535102,-2.09797000885,0.682494401932,2.7860558033,-0.377997636795,0.0540856942534,0.0461596883833,-0.271806716919,0.0487628169358,0.0681104212999,0.000131403314299,0.0209092199802,0.371562063694,0.64718661155,-0.152158521878,0.386719988835,-0.110270975975,0.910688757495,-0.190809185711,0.349396841941
-0.145884856582,0.0338223949075,-0.0770236551762,-2.09657692909,0.682492673397,2.7865293026,-0.370686918497,0.0540856942534,0.0686351954937,-0.230437546968,0.0594838224351,0.0666450113058,0.00019515043823,0.0209277011454,0.333398014307,0.647626234645,-0.150739265912,0.391123878375,-0.112008117612,0.90904102419,-0.192557041217,0.352165278647
-0.143413931131,0.0271996371448,-0.0747173950076,-2.09478831291,0.682491898537,2.7871363163,-0.361398488283,0.0540856942534,0.0945867449045,-0.228913739324,0.0973737388849,0.0507311671972,-0.000240140172536,0.0159349087626,0.310773044825,0.648414947965,-0.14778680931,0.396630869027,-0.114566954443,0.907119778772,-0.193977769479,0.355500695549
-0.141625285149,0.0233461167663,-0.0727632567286,-2.0937693119,0.682488679886,2.78739571571,-0.355941802263,0.0540856942534,0.0975238829851,-0.203827932477,0.110324800014,0.0596633292735,4.60859200757e-06,0.0159066878259,0.298846036196,0.648751058739,-0.146348629465,0.398649760093,-0.115622744816,0.906468964831,-0.194245209143,0.356670989966
