imanlab/tactile_prediction_flat_dataset/test/data_sample_2021-11-25-13-09-52/robot_state.csv
position_panda_joint1,position_panda_joint2,position_panda_joint3,position_panda_joint4,position_panda_joint5,position_panda_joint6,position_panda_joint7,position_panda_finger,velocity_panda_joint1,velocity_panda_joint2,velocity_panda_joint3,velocity_panda_joint4,velocity_panda_joint5,velocity_panda_joint6,velocity_panda_joint7,ee_state_position_x,ee_state_position_y,ee_state_position_z,ee_state_orientation_x,ee_state_orientation_y,ee_state_orientation_z,ee_state_orientation_w
-0.107192322612,-0.0255275908858,0.0937968045473,-2.56595921516,0.0885523408651,2.58430504799,-0.874317109585,0.0776291638613,-6.38160054223e-05,-0.00408458244056,-6.11242794548e-05,-0.000288752256893,-4.08925297961e-05,0.00264424527995,-0.000297449820209,0.457270878232,-0.00289998016679,0.166089969788,-0.0113944687284,0.923144025461,0.383138303764,0.0296700894776
-0.107190169394,-0.0255294032395,0.0937966257334,-2.565959692,0.0885517299175,2.58430480957,-0.874326229095,0.0776291638613,0.000484724645503,0.000330824346747,-0.000348091474734,-0.000539003754966,-1.71467888777e-06,0.000479951675516,-4.32464039477e-05,0.457270900434,-0.00289912572351,0.166090587665,-0.0113939285734,0.923141788532,0.383143675415,0.0296705296426
-0.10719191283,-0.0255296695977,0.0937977060676,-2.56595921516,0.0885512903333,2.58430600166,-0.874333500862,0.0776291638613,4.6964691137e-05,0.000876411155332,-0.000210804209928,-5.97451034992e-05,-5.49031865376e-05,0.00555558828637,-1.06375991891e-05,0.457271426846,-0.00289948674888,0.16609100493,-0.0113932564634,0.923140437628,0.383146884356,0.0296713803999
-0.107191830873,-0.02552578412,0.0937970429659,-2.56596040726,0.0885516032577,2.58430480957,-0.874346971512,0.0776291638613,-9.76649535005e-05,-2.57247138507e-05,0.000199549351237,-0.000538547057658,-4.67099671368e-05,5.10330664838e-06,-0.000337969919201,0.457269948782,-0.00289963306784,0.166088666568,-0.0113945759453,0.923138095763,0.383152693294,0.029668722502
-0.107192672789,-0.0255256202072,0.0937981158495,-2.56595849991,0.0885517895222,2.58430504799,-0.874352455139,0.0776291638613,2.62917255895e-05,0.000152227221406,-1.8315571424e-06,0.000340495898854,-1.94848325918e-05,7.38655726309e-05,-0.00274161319248,0.457270898226,-0.00289953780504,0.166089344411,-0.0113941390815,0.923137002118,0.383155267317,0.0296696768648
-0.107191607356,-0.0255260802805,0.0937957316637,-2.56596088409,0.0885511264205,2.58430528641,-0.874359488487,0.0776291638613,0.000197444940568,-2.18609930016e-05,-0.000200327020139,0.0006434545503,4.90674647153e-05,7.41218245821e-05,0.000153807093739,0.457269864474,-0.00290015793252,0.166088665638,-0.0113941840728,0.923135832736,0.383158145507,0.0296688743087
-0.107193090022,-0.0255262367427,0.0937971845269,-2.56596064568,0.0885509699583,2.58430504799,-0.874368906021,0.0776291638613,0.000199712769245,0.000207855904591,-0.000606021261774,0.000256779429037,-9.6080962976e-05,-0.00012329040328,1.77416222868e-05,0.457269953738,-0.0029001829341,0.166088802946,-0.0113939594784,0.923134005784,0.383162546137,0.0296689732471
-0.107192881405,-0.0255286097527,0.0937962085009,-2.56595778465,0.0885516181588,2.58430504799,-0.87437671423,0.0776291638613,-0.000391720823245,0.000245342380367,-0.000142792952829,-0.000220901551074,-3.88700709664e-06,-0.000350492919097,-0.00525594549254,0.457271687228,-0.00290063880036,0.166090958634,-0.0113928281009,0.923132610287,0.383165745905,0.0296715038375
-0.107191726565,-0.0255274549127,0.0937963575125,-2.56596159935,0.0885509699583,2.58430480957,-0.874387741089,0.0776291638613,0.000357399636414,0.0025973552838,-0.000830520526506,-0.000830489792861,1.16716037155e-05,-1.89066122402e-05,-0.00109515723307,0.457269644429,-0.00289994489666,0.166088969908,-0.0113936487764,0.923130292829,0.383171492938,0.0296690733149
-0.107192836702,-0.0255285520107,0.0937962010503,-2.56596016884,0.0885519236326,2.58430457115,-0.874392867088,0.0776291638613,-0.000338201818522,0.000355925498297,0.000312285061227,-0.000651660433505,3.26585395669e-05,-0.00576314236969,0.000292368116789,0.457270468888,-0.00290050640896,0.166089995592,-0.0113933002794,0.923129664813,0.383172924836,0.0296702545596
-0.10719256103,-0.0255254283547,0.0937969535589,-2.56596136093,0.0885510742664,2.58430457115,-0.874399781227,0.0776291638613,-0.000108354855911,0.00100400811061,0.00012661148503,5.55319275009e-06,6.67495914968e-05,-1.3335760741e-05,0.00047282120795,0.457269372126,-0.00290001187615,0.166088115558,-0.0113939798016,0.923128074305,0.383176890301,0.0296682671738
-0.107192404568,-0.0255251806229,0.0937960147858,-2.56596016884,0.0885516554117,2.58430504799,-0.874404489994,0.0776291638613,-0.00023960332328,-0.000212215090869,-4.02586483688e-05,0.000110258552013,-2.62011453742e-05,9.21259634197e-05,-0.000120027529192,0.457270011237,-0.00290035500099,0.16608850772,-0.0113937658114,0.923127394593,0.383178475723,0.0296690221998
-0.107193283737,-0.0255284290761,0.0937982350588,-2.56596112251,0.0885510742664,2.58430480957,-0.874426960945,0.0776291638613,-0.000158619863214,0.000165475415997,0.000653017603327,0.000108666885353,6.67809872539e-05,-1.42926473927e-05,0.000153079439769,0.457270037738,-0.00289982242508,0.166089593652,-0.011392748486,0.92312271287,0.383189713475,0.0296699415938
-0.107194036245,-0.0255276206881,0.0937958732247,-2.56595993042,0.0885524824262,2.58430480957,-0.874433577061,0.0776291638613,-9.71214176388e-05,-0.000145355545101,0.000479953741888,-6.75282135489e-05,-1.54049375851e-05,9.13963303901e-05,-0.000636665499769,0.457270746344,-0.00290139231701,0.166090311049,-0.0113924576886,0.923122145202,0.383191006534,0.0296710151504
-0.107190482318,-0.0255279336125,0.093796223402,-2.56595945358,0.0885509327054,2.58430457115,-0.87444537878,0.0776291638613,0.000450786581496,0.000201612419914,0.000106831394078,-0.000291641510557,-0.000139239651617,-0.000146642443724,-1.30384896693e-05,0.45727071643,-0.00289945322415,0.166089986098,-0.0113923185,0.923118993199,0.383198645258,0.0296704807722
-0.107191182673,-0.025524334982,0.09379645437,-2.56596016884,0.088552467525,2.58430457115,-0.874464809895,0.0776291638613,9.92234199657e-05,-0.000432242377428,-6.80080938764e-06,-0.000328515452566,6.64044418954e-05,-5.16200161655e-05,6.92998146405e-05,0.457269776407,-0.00289953777408,0.166088077799,-0.0113934043419,0.923115659305,0.383206769112,0.0296688670518
-0.107191808522,-0.0255252085626,0.0937986522913,-2.565959692,0.0885511934757,2.58430457115,-0.87447142601,0.0776291638613,8.03048533271e-06,0.00347031233832,-0.000253075006185,0.000263129302766,0.000145832062117,-0.000173176114913,-0.000461748597445,0.457270151613,-0.00289889897709,0.166088652704,-0.0113926864844,0.923113874302,0.383211054169,0.0296693345155
-0.107191577554,-0.0255293361843,0.0937983542681,-2.565959692,0.0885506123304,2.58430504799,-0.8744764328,0.0776291638613,-0.00039919608389,-0.000314599310514,0.000389399996493,0.00013742671581,-0.000105198239908,-0.00311537273228,5.68277282582e-05,0.457270936474,-0.00289903689272,0.16609057607,-0.0113913706459,0.923112777043,0.383213582896,0.0296713178276
-0.107193380594,-0.0255307089537,0.0937965065241,-2.56595873833,0.0885510221124,2.58430576324,-0.874482452869,0.0776291638613,0.000128876170493,0.000306722882669,-1.53802520799e-05,-2.18776749534e-05,-7.87280878285e-05,-4.23817582487e-05,-0.000219864130486,0.457271694842,-0.00290067057735,0.166091543838,-0.011390760333,0.923112245082,0.38321478162,0.0296726201825
-0.107194542885,-0.02552543208,0.0937947407365,-2.56596183777,0.0885521993041,2.58430576324,-0.874492585659,0.0776291638613,0.000168341910467,-0.00155678577721,0.000100263649074,-0.000259191496298,3.64673542208e-05,0.000178604517714,-0.000158934039064,0.457269389364,-0.00290189926058,0.166088055181,-0.0113926612109,0.92311127132,0.383217329664,0.0296692763726
-0.107191480696,-0.0255240611732,0.0937993228436,-2.56595826149,0.088551171124,2.58430504799,-0.874502420425,0.0776291638613,-0.000281067972537,-0.000692344736308,-0.000164438562933,1.97118060896e-05,2.04077532544e-05,-4.8352041631e-05,-0.000146903126733,0.457270759309,-0.00289844487577,0.166088723761,-0.0113921105836,0.923107732903,0.383225823974,0.0296698633859
-0.107192374766,-0.0255260337144,0.0937976613641,-2.56596159935,0.0885509774089,2.58430504799,-0.874508202076,0.0776291638613,-0.000487970333779,0.000839368382003,0.000665020488668,-0.000179925380507,-2.10995222005e-05,-0.000816766463686,-0.00221825926565,0.457269460906,-0.00289963065066,0.166088344943,-0.0113921445523,0.923107107259,0.383227378941,0.0296692312351
-0.107189871371,-0.0255288239568,0.0937984734774,-2.56596016884,0.0885512530804,2.58430552483,-0.874516308308,0.0776291638613,0.000375546194846,0.000442025921075,-0.000182594230864,3.34872020176e-05,6.75284609315e-05,-0.000119078133139,-0.000172334388481,0.45727065463,-0.00289815879991,0.16609000218,-0.0113911578435,0.923104786725,0.383232847336,0.0296711754736
-0.107193224132,-0.0255272462964,0.0937974452972,-2.56596159935,0.0885514318943,2.58430504799,-0.874538660049,0.0776291638613,-0.00154494692106,0.000269815704087,-0.000832822348457,-5.04232448293e-05,-2.43776448769e-05,0.000421207398176,-0.000149311905261,0.457269660761,-0.00290011994001,0.166088897758,-0.0113915006475,0.923101528244,0.383240777085,0.0296699970936
-0.107193000615,-0.0255245342851,0.0937956720591,-2.56596112251,0.0885507464409,2.58430504799,-0.874544680119,0.0776291638613,0.000598016544245,-0.00327450968325,0.00387648981996,0.000462404277641,6.89447915647e-05,3.13864366035e-05,1.26351906147e-05,0.457269435776,-0.0029008031064,0.166087847199,-0.0113917952731,0.923100596264,0.383243090315,0.0296690004352
-0.107193641365,-0.0255232565105,0.0937968567014,-2.56595945358,0.0885520279408,2.58430504799,-0.87454855442,0.0776291638613,0.000406671140809,8.03740040283e-05,0.000130698812427,-0.000507564633153,-3.47619061358e-05,3.06798247038e-05,-0.000249954668107,0.45727003852,-0.00290049365007,0.166087905891,-0.0113920255006,0.923099940827,0.383244633701,0.02966936841
-0.107190385461,-0.0255257971585,0.0937994867563,-2.56595945358,0.0885514393449,2.58430480957,-0.874560117722,0.0776285082102,3.76779353246e-05,-0.000492982275318,-0.000326802575728,-0.000180834074854,-9.86002851278e-06,5.14584498887e-05,-3.25365476783e-06,0.457270422926,-0.0028978776443,0.166089034396,-0.0113912121282,0.923096472032,0.38325293891,0.0296703237008
-0.1071928069,-0.0255293697119,0.0937973707914,-2.56595945358,0.0885519981384,2.58430457115,-0.874576628208,0.0776285082102,-0.000467534933705,-0.000452601991128,-0.00309941451997,0.000203497475013,1.64523480635e-05,-0.00010762058082,0.000188616308151,0.457270954599,-0.00289997857579,0.1660906402,-0.0113902595763,0.923094214274,0.383258276732,0.0296719827366
-0.107194706798,-0.0255309473723,0.0937969833612,-2.56595778465,0.0885512903333,2.58430528641,-0.874582648277,0.0776285082102,0.000538377847988,0.00246517313644,-0.000454327091575,4.96050270158e-05,2.33131390814e-06,-9.10614762688e-05,-0.000106159473944,0.457272169636,-0.00290110588633,0.166092065348,-0.0113890919413,0.923093338002,0.383260287175,0.0296737236968
-0.107192613184,-0.0255290735513,0.0937983393669,-2.56596016884,0.0885503590107,2.58430528641,-0.874588012695,0.0776285082102,0.000332031981088,0.000169549559359,-3.58352772309e-05,0.000506826734636,1.66833797266e-05,-1.52437278302e-05,2.15123909584e-05,0.457270708747,-0.00289952574871,0.166090296693,-0.0113897394861,0.923091568011,0.383264687555,0.0296717012844
-0.107188157737,-0.0255261361599,0.0937993377447,-2.56596064568,0.0885516628623,2.58430504799,-0.874591529369,0.0776285082102,-0.00028797989944,-0.000184868869837,4.39522336819e-05,7.54845896154e-05,-4.23592027801e-05,4.9998605391e-05,0.000381255871616,0.457269959061,-0.00289692222385,0.166088756013,-0.0113909331268,0.923090100919,0.383268299827,0.0296702251055
-0.107189394534,-0.0255267396569,0.0937988907099,-2.56595945358,0.0885516181588,2.58430504799,-0.874599456787,0.0776285082102,0.00190985295922,-0.000260093424004,-0.000128928542836,1.62648266269e-05,-0.000121503711853,-1.32001741804e-05,-0.00082562136231,0.457270522121,-0.00289770606183,0.166089529519,-0.0113903322521,0.923088667904,0.383271709698,0.0296709916675
-0.107193827629,-0.0255290269852,0.0937991514802,-2.56596064568,0.0885512530804,2.58430480957,-0.874608516693,0.0776285082102,-0.000412845460232,-0.000213177481783,-7.66179873608e-05,-0.000794253486674,-4.295591134e-05,2.55977101915e-05,-0.000177178386366,0.457270369461,-0.00289966212125,0.166090047492,-0.0113898567245,0.923087864706,0.38327362126,0.0296714698999
-0.107192762196,-0.0255286209285,0.0937997475266,-2.56595993042,0.0885515138507,2.58430600166,-0.874614536762,0.0776285082102,-0.000261810171651,-0.000402596488129,4.28663188359e-05,-0.000106425046397,1.69436771102e-05,-2.25962940021e-05,1.18509406093e-05,0.457270909334,-0.00289891871304,0.166090252052,-0.0113895300658,0.923086421844,0.383277049455,0.0296722000646
-0.107191771269,-0.0255288761109,0.0937969610095,-2.56595730782,0.0885520577431,2.58430552483,-0.874623298645,0.0776285082102,0.00021227596153,-0.000343464111211,-0.000351479626261,-0.000235806932324,-1.1764555893e-05,-0.00199288642034,-0.00281225098297,0.457272119292,-0.00289971346652,0.166091330221,-0.0113890692548,0.923085129211,0.383280079913,0.0296734453035
-0.107192486525,-0.0255283117294,0.0937982499599,-2.56595849991,0.088550336659,2.58430504799,-0.874627947807,0.0776285082102,0.000297373335343,-0.000376164418412,-0.000224037241424,-0.00023649794457,2.98403083434e-05,-3.98332776967e-05,-4.28881940024e-05,0.457271467678,-0.00289934862453,0.166090686009,-0.0113890022544,0.923083936407,0.383283036742,0.0296723845336
-0.107191868126,-0.0255259107798,0.0937988162041,-2.56595778465,0.0885505750775,2.58430504799,-0.874642431736,0.0776285082102,-0.000305220746668,0.00208076625131,0.000483340612845,-0.000295923498925,-7.35627781978e-06,1.64432858583e-05,8.15297244117e-05,0.457271258282,-0.00289870321796,0.166089874204,-0.0113892603085,0.923080734945,0.383290790284,0.0296717254212
-0.107191964984,-0.0255287028849,0.0937980413437,-2.56595849991,0.0885513722897,2.58430457115,-0.874649941921,0.0776285082102,0.000353278883267,0.00421757716686,-0.000230243764236,-0.000230856137932,-1.89295624295e-05,-3.38623340213e-06,0.000151286134496,0.457271368835,-0.00289960876506,0.16609109511,-0.0113888387389,0.923079838867,0.383292873574,0.0296728525531
-0.107193924487,-0.0255356114358,0.0937963202596,-2.5659570694,0.0885507389903,2.58430504799,-0.874658584595,0.0776285082102,-0.00092798343394,-6.72467876939e-07,-6.03037688052e-06,-6.09365524724e-05,2.48642700171e-05,-2.33218288486e-05,8.08338882052e-05,0.457273238126,-0.00290115279864,0.166094437688,-0.0113866329699,0.923078601724,0.383295646793,0.0296763619838
-0.107191458344,-0.0255264397711,0.0938007906079,-2.56595897675,0.0885513722897,2.58430504799,-0.874672234058,0.0776285082102,0.000275983416941,0.000736686342862,0.000223304799874,2.02117480512e-05,-1.72537038452e-05,0.00460512610152,0.000140569914947,0.457270811604,-0.0028978001634,0.166089530772,-0.0113892174886,0.923074914238,0.383304822773,0.0296715512106
-0.107189767063,-0.0255227871239,0.0938025340438,-2.56596016884,0.0885513722897,2.58430480957,-0.874681472778,0.0776285082102,-0.000397961732233,0.000238847729634,0.000393486057874,0.000130311615067,0.000115559523692,-0.00207272684202,0.00017356875469,0.457269585585,-0.00289615979192,0.166087387436,-0.0113902791806,0.923072556772,0.383310641164,0.0296693196437
-0.107189781964,-0.0255281887949,0.0938001349568,-2.5659570694,0.0885517224669,2.58430552483,-0.874704480171,0.0776285082102,0.000501473317854,-0.000345838954672,0.000135844718898,0.000971450877842,2.91968663078e-05,0.00444621918723,-0.000240165667492,0.457272047232,-0.00289737431765,0.166091094651,-0.0113879325151,0.923068399337,0.383320391183,0.0296735997999
-0.107192054391,-0.025526503101,0.0937999784946,-2.56595873833,0.0885512381792,2.5843038559,-0.874710559845,0.0776285082102,-5.02031180076e-05,0.000281275977613,9.9655435406e-06,-4.09159074479e-05,3.15897850669e-05,0.000119357006042,-0.00164435408078,0.457270678542,-0.00289842081841,0.166089535879,-0.0113888173161,0.923067819387,0.383321933622,0.0296713757475
-0.10719434917,-0.0255262050778,0.0937982425094,-2.56595897675,0.0885511040688,2.58430480957,-0.874714255333,0.0776285082102,-7.9863872088e-05,-0.00441329600289,0.000215017149458,4.67483077955e-05,-1.53951204993e-05,8.54015452205e-05,3.67651118722e-05,0.457270706103,-0.00290027731186,0.166089403331,-0.0113885871275,0.923067865406,0.383321812514,0.029671597051
-0.107188887894,-0.0255273710936,0.0938034504652,-2.56595849991,0.0885508805513,2.58430576324,-0.87472474575,0.0776285082102,-5.08346129209e-05,-0.000165450459463,0.000113571572001,-0.000173399326741,-1.93130181287e-05,-1.22291212392e-05,-0.00023927129223,0.457271362542,-0.00289547617556,0.16609020234,-0.0113878816483,0.923063747934,0.383331663877,0.0296726903604
-0.107191070914,-0.0255298912525,0.0938026085496,-2.5659570694,0.0885520875454,2.58430504799,-0.874742627144,0.0776285082102,0.000333470379701,-0.000332950847223,0.000273936195299,-0.000167378369952,4.01021461585e-05,7.44220014894e-05,-0.00442225020379,0.45727265181,-0.0028985594352,0.166091983358,-0.0113864788028,0.923059420763,0.38334196134,0.0296748074836
-0.107189826667,-0.0255256853998,0.093800611794,-2.56595826149,0.0885515883565,2.58430528641,-0.874927699566,0.074649207294,0.000516774656717,-0.00324762868695,-0.000259173364611,-4.32447450294e-05,-5.60597000003e-05,-2.80933454633e-05,-0.000169593127794,0.457271089272,-0.00289712224012,0.16608948515,-0.0113854886422,0.923025699548,0.383423308933,0.0296731271134
-0.107193492353,-0.025527857244,0.0938015431166,-2.56595802307,0.0885515883565,2.58430671692,-0.874954223633,0.074649207294,-4.82009418192e-05,-0.000374032679247,0.00293118669651,-0.000175213383045,-1.55658908625e-05,-6.34156240267e-05,-0.000196480716113,0.457271862929,-0.00289844996517,0.166090702227,-0.0113841448172,0.923021097249,0.383434284253,0.0296749831023
-0.1071896106,-0.0255288295448,0.0938022211194,-2.56595826149,0.0885513946414,2.58430504799,-0.874985933304,0.074649207294,0.00044302715105,0.000552940473426,0.000441271375166,0.000359404511983,-1.72871750692e-05,-0.00234608887695,-0.000404730759328,0.457271563917,-0.00289635314259,0.166090890195,-0.0113838864541,0.923014112273,0.383451128876,0.0296746882104
-0.107192866504,-0.0255269762129,0.0938013717532,-2.56595826149,0.0885506719351,2.58430480957,-0.875048696995,0.074649207294,-0.00122590223327,-0.000335498771165,-0.000507130112965,-1.11254448711e-05,-1.98968209588e-05,7.45226789149e-05,-0.00402498524636,0.457271191284,-0.00289821760409,0.166090023458,-0.0113832253585,0.923002780928,0.383478471062,0.0296740710749
-0.107197254896,-0.0255280230194,0.0937992483377,-2.56595897675,0.0885509029031,2.58430528641,-0.87508302927,0.074649207294,-0.000248764816206,-0.000545844202861,0.000112809721031,-0.00019229586178,-8.8795357442e-05,-7.12906185072e-05,-0.00235957489349,0.457271103103,-0.00290120225093,0.166090275107,-0.011382480108,0.922997475415,0.38349121534,0.0296746855571
-0.107197418809,-0.0255285743624,0.0937998741865,-2.56595683098,0.0885512903333,2.58430528641,-0.875100255013,0.074649207294,0.00030445336597,-0.000524064933416,7.92454811744e-05,0.000240397479502,-5.51297234779e-05,-1.29475556605e-05,-0.000134895119118,0.457272237435,-0.00290099975672,0.166091347423,-0.0113817630494,0.922994103514,0.383499246608,0.0296760489546
-0.107190825045,-0.0255240909755,0.0938012450933,-2.56595897675,0.0885521620512,2.58430528641,-0.875122725964,0.074649207294,-0.000176127432496,0.00110936886631,0.000309756433126,0.000215276959352,5.19626191817e-05,8.01163114375e-05,-0.000230755846133,0.45727047856,-0.0028972359977,0.16608848632,-0.0113832484458,0.922988498725,0.383512906257,0.0296732757437
-0.107192501426,-0.0255285091698,0.0938008874655,-2.56595659256,0.0885506346822,2.58430552483,-0.875193059444,0.074649207294,-0.000129714637296,-7.75943044573e-05,0.00145367125515,4.68709804409e-05,5.87546355746e-06,-0.000128263272927,-0.000558839528821,0.457272407619,-0.00289832481469,0.166091429694,-0.0113802141013,0.922975064794,0.383545064929,0.0296766464778
-0.107192076743,-0.0255281832069,0.0938031673431,-2.56595921516,0.088552556932,2.58430480957,-0.875231266022,0.074649207294,-9.31316171773e-05,-3.14829776471e-05,-0.00401573441923,0.000447606289526,-0.000120455173601,-0.00453969510272,-0.00144939345773,0.457271163727,-0.00289727346001,0.166090487797,-0.0113806957692,0.922967275624,0.383563874466,0.0296756091371
-0.107191756368,-0.0255242791027,0.0938015058637,-2.56595826149,0.0885514765978,2.58430504799,-0.875319421291,0.0706599578261,0.000491252809297,0.000238771739532,-0.00258613959886,-0.000451005529612,-6.69426808599e-05,8.77565398127e-09,-0.00256129074842,0.45727080109,-0.00289757365729,0.166088820943,-0.0113800164416,0.922950786893,0.383603645321,0.0296746217981
-0.107187747955,-0.0255237463862,0.0938053354621,-2.56595993042,0.0885516479611,2.58430552483,-0.875347793102,0.0706599578261,0.000290938274702,-6.30224094493e-05,0.000303773238556,0.000108588668809,-2.37938402279e-05,0.000147310987813,-0.00552363600582,0.457270027027,-0.00289399155758,0.166087981779,-0.0113800591306,0.922943899594,0.38362026666,0.0296739472659
-0.107190415263,-0.0255277082324,0.0938047245145,-2.56595921516,0.0885511264205,2.58430600166,-0.8753901124,0.0706599578261,-0.00213418272324,0.000690147047862,-0.000324650580296,0.000523078429978,-3.78554177587e-05,-0.000139306939673,-0.00261364504695,0.457271122243,-0.00289559508341,0.166090104024,-0.0113780575584,0.922936260672,0.383638512176,0.029676425003
-0.107191577554,-0.0255287941545,0.0938017070293,-2.56595826149,0.0885514691472,2.58430480957,-0.875420451164,0.0706599578261,-0.000264124159003,-0.000464271462988,7.0282323577e-05,-0.000127601539134,8.70953590493e-05,-0.000110270157165,-0.00444608274847,0.457271500359,-0.00289747618675,0.166090851711,-0.0113774900978,0.922931271371,0.383650482211,0.0296770656689
-0.107193276286,-0.0255283247679,0.0938011407852,-2.56596064568,0.0885510072112,2.58430552483,-0.875460624695,0.0706599578261,0.000213357096072,-0.000112473026093,-0.000441216514446,0.000313253927743,1.81766208698e-05,0.00123971898574,0.000179004331585,0.457270411502,-0.00289852319751,0.166089794596,-0.0113771718547,0.922923966964,0.383668124353,0.0296762733858
-0.107192754745,-0.0255266148597,0.0938021540642,-2.56595849991,0.0885503590107,2.58430504799,-0.875514507294,0.0706599578261,0.00013364739425,-0.00054356578039,0.000340276717907,-0.000145771482494,9.81904740911e-05,4.7031975555e-05,-0.00319028925151,0.457271067836,-0.00289782275704,0.166089789386,-0.0113763198619,0.922913229507,0.383693959332,0.0296765126436
-0.107190832496,-0.0255245026201,0.0938026458025,-2.56596016884,0.0885510072112,2.58430552483,-0.875559449196,0.0706599578261,0.000394553353544,-0.000905188499019,-0.000388802902307,0.000847928866278,0.000143738536281,-0.000131308188429,-0.00485021108761,0.457270019162,-0.0028966585378,0.166088236464,-0.0113765706018,0.922904297501,0.383715525788,0.0296753474602
-0.107187971473,-0.0255266744643,0.0938050672412,-2.56595826149,0.0885519012809,2.58430600166,-0.875628173351,0.0706599578261,-0.000240884226514,0.00223291292787,0.00031141526415,0.000255643390119,4.45761397714e-05,2.60599226749e-05,-0.00130892836023,0.457271423751,-0.00289427753948,0.16608999991,-0.0113748132726,0.922890175008,0.383749350726,0.0296778367893
-0.107189916074,-0.025527337566,0.0938035473228,-2.56595945358,0.0885511189699,2.58430576324,-0.875684142113,0.0706599578261,0.000435415829998,-6.90152737661e-05,-0.000658503267914,-0.000343025458278,-5.51340781385e-05,-0.000147722457768,-0.00311340764165,0.45727089268,-0.00289588677633,0.16608982235,-0.0113738872528,0.922879988889,0.383773882398,0.0296777301846
-0.107192471623,-0.0255261175334,0.0938054844737,-2.56595754623,0.088551864028,2.58430528641,-0.875747442245,0.0706599578261,-0.000183332871529,-0.000593302946072,-0.00010892629507,9.31422910071e-05,-2.3800173949e-05,-6.85803388478e-05,-0.00237695639953,0.457271512995,-0.00289612536037,0.166089950384,-0.0113731266643,0.922868067203,0.38380252839,0.0296782986457
-0.107190445065,-0.0255265068263,0.0938051342964,-2.56596088409,0.0885508432984,2.58430480957,-0.87610822916,0.0669708102942,0.000320136576192,-6.36787954136e-05,-0.000209928373806,8.88118447619e-05,-6.39890640741e-05,-0.000104269987787,-0.0072541735135,0.457269719577,-0.00289542133442,0.166088645559,-0.0113684502246,0.922799561304,0.383967337046,0.029678473031
-0.107189305127,-0.0255249049515,0.0938038751483,-2.56595659256,0.0885524228215,2.58430600166,-0.876222074032,0.0669708102942,-0.000167113073985,0.00291118514724,0.000260026426986,-0.000121393466543,-7.60582697694e-05,5.26618132426e-05,-0.0119387926534,0.457272065844,-0.00289533298352,0.166089967319,-0.0113663485772,0.922778351183,0.384018141484,0.0296814319436
-0.107191704214,-0.0255272015929,0.0938039124012,-2.56595683098,0.0885507911444,2.58430576324,-0.876331210136,0.0669708102942,0.000349698966602,-0.000777976296376,-0.000126803963212,-4.10993598052e-05,-7.90084159235e-05,-1.76110497705e-05,-0.00270164571702,0.457272136271,-0.00289656475786,0.166090763415,-0.0113636917341,0.922755961236,0.384071933688,0.0296825192647
-0.107193931937,-0.0255282726139,0.0938032791018,-2.56595826149,0.0885524973273,2.58430552483,-0.876533448696,0.0669708102942,0.000530270161107,0.000332554744091,0.00044047596748,-0.00028696571826,-4.25072867074e-05,-8.3362145233e-05,-0.00389802502468,0.457271567465,-0.00289780599068,0.166090684001,-0.0113611572743,0.92271794125,0.384163257969,0.029683596658
-0.1071928069,-0.0255288183689,0.0938013419509,-2.5659570694,0.0885511338711,2.58430576324,-0.876622200012,0.0669708102942,-0.000314825912938,-0.0028488652315,0.000325681117829,5.95691517447e-07,-3.3865118894e-05,-4.87172765133e-05,-0.0068910010159,0.457272280724,-0.00289824661602,0.166091411399,-0.011359090438,0.922700809834,0.38420436757,0.0296848483057
-0.107192613184,-0.0255298223346,0.0938039347529,-2.5659570694,0.0885511860251,2.58430528641,-0.876713097095,0.0669708102942,-0.000275977508863,-0.000172443498741,0.000116817187518,0.000320845079841,-3.31360133714e-05,-0.000163071366842,-0.00311674387194,0.457272271441,-0.00289715537125,0.166091706894,-0.011357766794,0.922683581439,0.384245726348,0.0296855375823
-0.107188217342,-0.025526503101,0.093805000186,-2.56595873833,0.0885517373681,2.58430552483,-0.876790344715,0.0669708102942,0.000188431120478,-0.00288694305345,0.000412078894442,0.000245186936809,2.15803574974e-05,-2.91574870062e-05,-0.000632598355878,0.45727106066,-0.00289441026366,0.166089692892,-0.0113577678786,0.922667074769,0.384285486134,0.0296839194724
-0.107193991542,-0.0255259610713,0.0938031002879,-2.56596136093,0.0885523483157,2.58430504799,-0.87693464756,0.0643474236131,0.000174879358383,7.69490179664e-06,0.000410644803196,0.000216799438931,-4.93045990879e-05,0.000175274253706,-0.0063606495969,0.457269756022,-0.00289737388035,0.166088654254,-0.0113562635832,0.922640267626,0.38434992225,0.0296834765581
-0.107191056013,-0.0255257897079,0.0938034653664,-2.56595897675,0.0885512605309,2.58430504799,-0.876969099045,0.0643474236131,0.000242046866333,0.00306969601661,-0.000192092484212,-8.5026906163e-05,-1.81227696885e-05,-6.57485798001e-05,-0.00248130294494,0.45727071102,-0.00289639779527,0.166089231659,-0.0113552786801,0.922633507058,0.384366117824,0.02968427955
-0.107189692557,-0.0255282800645,0.0938038229942,-2.56595897675,0.0885537415743,2.58430528641,-0.877038300037,0.0643474236131,-0.000111464702059,-0.00046443939209,-0.000197239380213,-0.000104026672489,-5.39355050932e-06,-0.000151786924107,-0.00111008272506,0.457271188927,-0.0028955607857,0.166090392238,-0.0113542312849,0.922620225048,0.384397884996,0.0296861492347
-0.107195354998,-0.0255278795958,0.0938022062182,-2.56596112251,0.0885517150164,2.58430504799,-0.877067267895,0.0643474236131,-6.01635474595e-05,-0.00100111251231,0.00098957575392,7.42657648516e-05,-0.000131353066536,9.90932094282e-05,-0.00321356882341,0.457270003517,-0.00289894055696,0.166089363385,-0.0113537884387,0.922615781164,0.384408663459,0.0296848610544
-0.107192054391,-0.0255270898342,0.0938033759594,-2.56595754623,0.0885506048799,2.58430528641,-0.877094268799,0.0643474236131,-0.000283395085717,0.000637550605461,-8.71065858519e-05,-5.04311719851e-05,5.09577103003e-06,0.00171946256887,-0.000681816658471,0.457271665943,-0.00289695840326,0.166090392749,-0.0113525923049,0.922609515669,0.384423628868,0.029686250931
-0.107190474868,-0.0255247149616,0.0938043296337,-2.56595873833,0.0885515585542,2.58430528641,-0.87714189291,0.0632639229298,-0.000563023495488,0.000842670153361,-0.000489208847284,4.82019349874e-05,-7.20217285561e-05,-6.89939843141e-05,-0.00112519506365,0.457270704111,-0.00289571610924,0.166088856671,-0.0113529552197,0.922600074537,0.384446370481,0.0296850261718
-0.107191368937,-0.0255252197385,0.0938038378954,-2.56596040726,0.0885530933738,2.58430480957,-0.87717461586,0.0632639229298,0.000606115441769,0.000811296515167,0.000628416135442,8.12688631413e-06,-1.5596699086e-05,4.15928407165e-05,-0.000423570018029,0.457269878338,-0.00289627342941,0.166088404735,-0.0113531533845,0.922594309473,0.384460228611,0.0296846481282
-0.107190348208,-0.0255271457136,0.0938041731715,-2.56595778465,0.0885511040688,2.58430552483,-0.87719899416,0.0632639229298,-0.000759385409765,0.00431348988786,-2.41481848207e-05,0.000635135453194,3.87559994124e-05,0.00051610765513,-0.00289888121188,0.457271619272,-0.00289580192466,0.166090350074,-0.0113511678423,0.922588982995,0.384472894695,0.0296869057219
-0.107191585004,-0.0255262684077,0.0938037633896,-2.56596016884,0.0885511487722,2.58430600166,-0.877231061459,0.0632639229298,-0.00270266551524,-0.00422433530912,-0.00317756389268,-1.66067047758e-06,2.2795436962e-05,-6.19109123363e-05,-0.000359689991456,0.457270415244,-0.00289653329415,0.166089085051,-0.0113512564423,0.922583188025,0.384486879945,0.0296858381045
-0.107191756368,-0.0255260597914,0.093802601099,-2.56596016884,0.0885515585542,2.58430600166,-0.877309203148,0.0632639229298,-0.000444707169663,0.000495951215271,4.80495873489e-06,0.000281208485831,4.10229804402e-05,-1.11336839836e-06,-0.00362441875041,0.457271307567,-0.0028967757021,0.166089840508,-0.0113496824854,0.922569372512,0.384519971584,0.0296871815135
-0.10718870163,-0.0255272965878,0.0938057154417,-2.56595826149,0.0885514989495,2.58430409431,-0.877331078053,0.0632639229298,-9.93629873847e-05,-0.000144042598549,-0.000637801538687,0.000110169763502,-0.00012750159658,-0.00113049312495,-0.0027283562813,0.457271124686,-0.0028942710556,0.166090116608,-0.0113497319684,0.922563222831,0.384534746039,0.0296869034414
-0.107190266252,-0.02552434057,0.093804821372,-2.565959692,0.0885514318943,2.58430504799,-0.877350389957,0.0632639229298,-0.000286994851194,0.00059442903148,0.000120642471302,0.000234553241171,-1.02321764643e-05,1.47320397446e-05,-0.00243504717946,0.457270129931,-0.00289538565297,0.166088297291,-0.0113501687208,0.922559858399,0.384542914719,0.0296854806713
-0.107191823423,-0.0255285017192,0.0938056111336,-2.56596064568,0.0885513201356,2.58430528641,-0.877368211746,0.0632639229298,-0.000112724970677,0.000517264124937,0.00374058517627,-0.000184504082426,-8.22426154627e-05,-6.04338197263e-07,-0.000442148069851,0.4572704061,-0.00289581910954,0.166089847327,-0.0113489894884,0.922556516557,0.38455084501,0.0296870591401
-0.107191301882,-0.025529505685,0.0938052237034,-2.56595849991,0.0885513424873,2.58430624008,-0.87740778923,0.0612860433757,0.000472977757454,0.000648023502436,0.00124689075164,0.000204156516702,3.9473768993e-05,0.00489703938365,-0.00509022921324,0.457271817749,-0.00289580721211,0.166091218576,-0.0113475254891,0.922548832419,0.384569162138,0.0296891340869
-0.107192091644,-0.0255264937878,0.0938052684069,-2.56595993042,0.0885510519147,2.58430552483,-0.877423346043,0.0612860433757,-0.000512213620823,-5.69036456e-05,-0.00226574507542,0.00065247179009,-7.0464273449e-05,-7.40976101952e-05,1.46530237544e-05,0.457270468113,-0.00289608162827,0.166089230635,-0.0113483854542,0.922546007295,0.384576086393,0.0296868999685
-0.107191734016,-0.0255283936858,0.0938039049506,-2.56595873833,0.0885514244437,2.58430600166,-0.877434253693,0.0612860433757,-0.000177279158379,-0.00157159892842,-0.0029439216014,-0.000241120986175,0.000118822572404,0.00297455606051,-0.0011515088845,0.457271462436,-0.00289657198514,0.166090599968,-0.0113475116841,0.922544113295,0.384580523593,0.0296886099127
-0.107191689312,-0.0255272053182,0.0938057899475,-2.56595730782,0.0885511189699,2.58430457115,-0.877466201782,0.0612860433757,0.000488767575007,0.000120377502753,9.91772831185e-05,-0.000262118584942,-4.12836889154e-05,-0.000138297647936,-0.00062413350679,0.457271656489,-0.00289566395874,0.166090465331,-0.0113473033155,0.922537554201,0.384596292478,0.0296882348968
-0.107193753123,-0.02552774176,0.093802690506,-2.56595873833,0.0885515734553,2.58430552483,-0.877474308014,0.0612860433757,0.000157283662702,-0.000538051477633,0.000260883942246,-0.000134149493533,-4.55942135886e-05,0.000233161976212,-0.000110429107735,0.457271243969,-0.00289801646878,0.166090258822,-0.0113471868397,0.922537067366,0.384597452194,0.0296883838532
-0.107195034623,-0.0255263689905,0.0938015654683,-2.56596040726,0.0885506570339,2.58430552483,-0.877487957478,0.0612860433757,-0.000291252770694,-0.000689192675054,0.00384737015702,0.000462933967356,-8.04156588856e-05,0.000905520457309,-0.000149830899318,0.457270472871,-0.00289889613695,0.166089521081,-0.0113471039731,0.922534601678,0.384603435194,0.0296875269778
-0.107188314199,-0.0255238357931,0.0938055068254,-2.56595826149,0.0885516181588,2.58430480957,-0.87752276659,0.0612860433757,0.00044415058801,0.000630629947409,-0.00366098526865,0.000145114245242,6.98257936165e-05,-0.00571284070611,-0.00185535789933,0.457270696754,-0.00289416843159,0.166088591699,-0.0113475804116,0.922526220316,0.384623581404,0.0296867910003
-0.107189051807,-0.0255250688642,0.0938057824969,-2.56595945358,0.0885518565774,2.58430528641,-0.87753111124,0.0612860433757,0.00270223035477,-0.00139293540269,-0.000199237852939,-0.000128614934511,1.81735940714e-05,-7.89680634625e-05,-0.000298177765217,0.457270424759,-0.00289439752408,0.166088742741,-0.0113473348043,0.922524739713,0.384627118202,0.0296870718685
-0.107188940048,-0.0255272202194,0.0938062444329,-2.56595826149,0.0885510891676,2.58430528641,-0.877536833286,0.0612860433757,-0.00101159629412,0.000134891030029,3.52285023837e-05,0.000628549722023,1.13753749247e-05,-0.00013287429465,0.000111059962364,0.457271358512,-0.0028942137124,0.166090175829,-0.0113463097777,0.922523361321,0.384630344491,0.0296884969249
-0.107192277908,-0.0255276188254,0.0938038751483,-2.56595754623,0.0885505005717,2.58430528641,-0.877544045448,0.0612860433757,1.95402917598e-05,0.000523766095284,-0.00175155245233,0.000141524971696,-3.04080167552e-05,0.000190031190868,-3.11215626425e-05,0.457271753931,-0.00289684825207,0.166090632626,-0.0113457614446,0.92252296338,0.38463127489,0.0296890180457
-0.107193149626,-0.0255290605128,0.0938040837646,-2.56595897675,0.0885528773069,2.58430576324,-0.877560198307,0.0602406300604,-0.00011740638729,0.000287800387014,0.0046766307205,-0.000112424590043,2.53295092989e-05,1.52397760758e-05,-1.9191615138e-05,0.457271407993,-0.00289708388469,0.166090791576,-0.0113459223942,0.922520352438,0.384637489045,0.0296895787501
-0.107189133763,-0.0255273412913,0.0938044115901,-2.56596112251,0.088551402092,2.58430552483,-0.877576828003,0.0602406300604,0.00084552296903,0.00409924658015,0.000485927099362,0.000110654211312,6.86245402903e-05,0.000139910262078,0.000131265042,0.457270038473,-0.00289511125087,0.166089161543,-0.011346267088,0.922516148065,0.384647712975,0.0296876298864
-0.107190191746,-0.02552318573,0.0938070043921,-2.56596064568,0.0885518714786,2.58430552483,-0.87758398056,0.0602406300604,-0.000274940306554,0.000186280158232,-0.000206786527997,-0.00029358669417,-1.17043582577e-05,7.37523150747e-05,-0.000353319948772,0.457269584969,-0.00289433003482,0.166087451367,-0.0113471755771,0.922514602335,0.38465151145,0.0296860995604
-0.107193626463,-0.0255290474743,0.0938049778342,-2.56596159935,0.088550798595,2.58430433273,-0.877599298954,0.0602406300604,-0.000234673425439,0.000457288842881,1.93610267161e-05,-0.000244948867476,4.81288298033e-05,9.10522867343e-05,0.000222950780881,0.457269821658,-0.00289693404551,0.166089637719,-0.0113456806402,0.922512477131,0.384656528429,0.0296877060069
-0.107191078365,-0.0255272481591,0.0938057750463,-2.56596064568,0.0885515809059,2.58430457115,-0.877607643604,0.0602406300604,0.000217325068661,0.000703058147337,0.000395291950554,-0.000115368595289,0.000131349181174,3.4608405258e-05,0.000197296962142,0.457270097169,-0.00289558454909,0.166089688216,-0.0113457556092,0.922510688369,0.384660799916,0.0296879161479
-0.107195034623,-0.0255287196487,0.0938032865524,-2.56595826149,0.0885516703129,2.58430528641,-0.877612471581,0.0602406300604,0.000300947402138,-0.000300712650642,6.1018505221e-05,3.86460487789e-06,0.000125139500597,0.00498764123768,-0.00235814438201,0.457271639862,-0.00289829725437,0.166090895341,-0.0113448562674,0.92251063359,0.384660808015,0.0296898569977
-0.107192017138,-0.0255266707391,0.093803063035,-2.56596088409,0.0885512158275,2.58430576324,-0.877616584301,0.0602406300604,0.000638540368527,-0.000608617498074,-0.000163742835866,-0.00062370870728,3.53632494807e-05,-0.000736906891689,-0.000313732627546,0.457270081489,-0.00289704298676,0.166088972098,-0.0113456419694,0.922509291119,0.384664164172,0.0296877869237
-0.107188239694,-0.0255285259336,0.0938050225377,-2.5659570694,0.0885520651937,2.58430576324,-0.877628803253,0.0602406300604,-0.000662743346766,-0.000226413510973,-3.06068832288e-05,0.000281401997199,-6.3707055233e-05,2.26720603678e-05,-0.00183100474533,0.457272257708,-0.00289444791779,0.166091275853,-0.0113445299725,0.922505885616,0.384672156631,0.0296904738678
-0.107190929353,-0.0255265943706,0.09380620718,-2.56595826149,0.0885510444641,2.58430576324,-0.877634227276,0.0602406300604,-0.000349911249941,-0.000355074560503,0.000248050986556,-0.000155344096129,2.70262171398e-05,-0.000142482982483,-0.000117878946185,0.457271350637,-0.00289514194937,0.166089937319,-0.011344863311,0.922505019133,0.38467433907,0.0296889928239
-0.107191212475,-0.0255250222981,0.093807272613,-2.56595897675,0.0885528847575,2.58430576324,-0.877640724182,0.0602406300604,0.000111844652565,0.000414724781876,-0.000484141230118,-0.000529105367605,3.92487781937e-05,-5.56309059903e-05,-0.000660847232211,0.457270751257,-0.00289468147949,0.166088950631,-0.0113457407807,0.922503938227,0.384676965079,0.0296882189229
-0.107194758952,-0.0255270600319,0.0938070416451,-2.56595873833,0.0885511040688,2.58430504799,-0.877644896507,0.0576461404562,0.000752714113332,-0.00197902857326,7.47923113522e-05,-9.49068416958e-05,-3.70317502529e-05,8.53722449392e-05,0.000435277441284,0.457271034879,-0.00289650181732,0.166089896364,-0.0113448143296,0.922503556907,0.384677866569,0.0296887408943
-0.107190810144,-0.0255317948759,0.0938045457006,-2.56595945358,0.0885522961617,2.58430528641,-0.877657175064,0.0576461404562,-0.000101924342744,-7.84714284237e-05,0.00048704983783,0.000501367379911,-7.17609800631e-05,-0.000124361162307,-0.00142102793325,0.457271534407,-0.00289586379644,0.166091805098,-0.0113439231993,0.922501042952,0.384683761895,0.0296908096022
-0.107191793621,-0.0255359206349,0.0938060879707,-2.56594252586,0.0885515064001,2.5843129158,-0.877669632435,0.0576461404562,-0.000228103584959,-0.000215472464333,0.000427879567724,-8.39736458147e-05,-1.37465967782e-05,-0.000206798111321,0.000163224583957,0.457282056622,-0.00289599261142,0.166100899594,-0.0113374126353,0.922498061781,0.384690105992,0.029703722331
-0.107190415263,-0.0255261529237,0.0938058793545,-2.56595778465,0.088550940156,2.58431625366,-0.877679526806,0.0576461404562,3.13385135087e-05,0.000606046756729,-0.00339845567942,-0.000641594990157,-0.000157410831889,0.000301017804304,0.000107673004095,0.457273752769,-0.00289529768905,0.166090937107,-0.0113417501749,0.922496199254,0.384695202204,0.0296939075921
-0.107191853225,-0.0255278740078,0.0938048958778,-2.56595039368,0.0885518416762,2.58431386948,-0.877688288689,0.0576461404562,0.00035993300844,-0.000215323176235,0.00306228804402,0.00126780266874,8.70580788614e-06,-0.00562077015638,0.000219692796236,0.457277108656,-0.0028963804872,0.166094321189,-0.0113404894372,0.922494994722,0.384697875884,0.0296971713256
-0.10719076544,-0.0255253966898,0.0938028618693,-2.56595087051,0.0885513052344,2.58431434631,-0.877693355083,0.0576461404562,1.66791651282e-05,0.00304523180239,-0.000429294421338,-0.000462616822915,9.83949721558e-05,6.74864058965e-05,4.59838702227e-05,0.457276564627,-0.00289679037305,0.166093059164,-0.0113408706375,0.922494158292,0.384699956013,0.0296960619701
-0.107191935182,-0.0255364496261,0.0938047245145,-2.56594824791,0.0885517448187,2.58431553841,-0.877710700035,0.0576461404562,0.00374742876738,-0.000345391890733,-0.00332616851665,-3.36791845257e-06,-2.27638865908e-05,-2.64351383521e-05,4.05107566621e-05,0.45727992811,-0.00289670337184,0.166099206214,-0.0113372546645,0.922490554852,0.384708185623,0.0297027686071
-0.10719011724,-0.0255334377289,0.0938057303429,-2.56595039368,0.0885514244437,2.58431482315,-0.877718091011,0.0576461404562,-3.12642187055e-05,0.000866941234563,0.000281510408968,-0.000351448892616,-5.00588248542e-05,-9.86917875707e-05,-3.74647825083e-05,0.457278241504,-0.0028953472843,0.166096943217,-0.0113384129988,0.922488619488,0.384712995921,0.0297001306115
-0.107190191746,-0.0255344007164,0.0938055738807,-2.56594824791,0.088551029563,2.58431482315,-0.877738118172,0.0539425387979,-0.000263628549874,-0.000685812148731,8.20248533273e-05,4.01011639042e-05,-8.40306529426e-05,-0.00010870512051,-0.000130622152938,0.457279439699,-0.00289549756875,0.166098202226,-0.0113373588669,0.922484703832,0.384722302173,0.0297016057444
-0.107189372182,-0.0255317091942,0.0938071161509,-2.56595039368,0.0885506123304,2.58431482315,-0.877741217613,0.0539425387979,-0.00030685737147,-0.000209314501262,0.000341021484928,-0.000333997362759,-8.59658466652e-05,8.0505204096e-05,0.000151623156853,0.457277957314,-0.00289438134535,0.166096153577,-0.011338301234,0.92248365967,0.384724949261,0.0296993882947
-0.107187822461,-0.0255327317864,0.093808427453,-2.56594705582,0.0885511934757,2.58431911469,-0.877749919891,0.0539425387979,0.000364629697287,0.000582244654652,0.00029944331618,0.000928870227654,-7.91829552327e-06,0.000206443757634,0.000143720943015,0.457280673078,-0.00289319145469,0.166098312699,-0.0113364392505,0.922481438559,0.384730023176,0.0297033602338
-0.107196509838,-0.0255412347615,0.0938048139215,-2.56593871117,0.0885521844029,2.5843193531,-0.877759456635,0.0539425387979,-4.43444769189e-05,-0.000561741937418,-1.8908707716e-05,-0.000197225512238,-0.0001606567821,0.00134757009801,-0.000259556807578,0.457286150539,-0.00289896404004,0.166105405278,-0.0113326422146,0.922481874501,0.384728478244,0.0297112798153
-0.107197597623,-0.0255482848734,0.0938051044941,-2.565939188,0.0885520353913,2.5843231678,-0.877766251564,0.0539425387979,-0.000364866689779,0.000500894675497,0.00010963184468,0.000661050609779,-0.000104061458842,0.000231406549574,-0.000100679520983,0.457287902166,-0.00289954766956,0.16610879988,-0.0113300029469,0.9224805855,0.384731292813,0.02971586146
-0.107196688652,-0.0255542900413,0.0938042774796,-2.56593728065,0.0885507911444,2.58432364464,-0.877769052982,0.0539425387979,-0.000241987640038,0.000438788876636,-3.6891844502e-05,0.00064728280995,-7.54313214202e-06,-1.55377183546e-05,-0.000232838472584,0.457289921572,-0.00289968645069,0.166112307115,-0.0113277306917,0.922479720799,0.384733155734,0.0297194514199
-0.107198834419,-0.0255550481379,0.0938030034304,-2.5659327507,0.0885517820716,2.58432292938,-0.877771675587,0.0539425387979,-0.00035893250606,0.00108489720151,0.00148398743477,0.00102494389284,1.15283273772e-06,-0.000570200674701,-4.47045385954e-05,0.457292084876,-0.00290122642669,0.166114320366,-0.0113269839241,0.922479951615,0.384732450345,0.0297217031437
-0.10719551146,-0.0255493819714,0.093802973628,-2.56593728065,0.0885505899787,2.58432412148,-0.877775549889,0.0539425387979,1.41703339978e-05,-0.000704816717189,0.000489817408379,-0.000157754300744,-1.41494638228e-05,-2.98487725559e-06,-4.80552844238e-05,0.457289208678,-0.00289967030695,0.16611012148,-0.0113286675755,0.922478530896,0.38473612925,0.0297175345315
-0.107198111713,-0.0255547966808,0.0938015729189,-2.56593418121,0.0885514244437,2.58432435989,-0.877780795097,0.0519712269306,-0.000127637991682,-0.000263651600108,-6.76026029396e-05,-0.000223472481593,-2.90842035611e-05,-0.000223612049012,0.000234924227698,0.457291652882,-0.00290157914989,0.166113798089,-0.0113267783347,0.922478295605,0.384736435565,0.0297215924998
-0.107198521495,-0.0255502369255,0.0938019528985,-2.5659327507,0.0885503590107,2.58432364464,-0.877787649632,0.0519712269306,-8.88605063665e-05,0.00218653632328,-0.000427698047133,0.000398347561713,7.15897767805e-05,-5.82851171202e-05,-0.000308384653181,0.457291432832,-0.00290154805522,0.166112199234,-0.0113273879855,0.922476863841,0.384739985456,0.0297198457821
-0.107201181352,-0.0255521982908,0.0938006192446,-2.56593155861,0.0885526388884,2.58432435989,-0.877789318562,0.0519712269306,-0.000333943142323,0.000617804413196,7.85056399764e-05,0.000375802570488,9.95225054794e-05,3.03739197989e-05,8.63987661432e-05,0.457292486358,-0.00290333335581,0.166113623456,-0.0113270067859,0.922477615129,0.384738038415,0.0297218771639
-0.107200823724,-0.0255522821099,0.093802087009,-2.56593298912,0.088550761342,2.58432483673,-0.877793490887,0.0519712269306,-0.00042552879313,3.05471030515e-06,-0.000111751825898,1.00132656371e-05,8.16212632344e-05,9.40489117056e-05,0.000421765609644,0.457291906645,-0.0029025864719,0.166113154785,-0.0113266454473,0.922476188289,0.384741518439,0.029721251899
-0.107202522457,-0.0255533289164,0.0937998890877,-2.56593418121,0.0885515734553,2.58432412148,-0.877800226212,0.0519712269306,-0.000125838807435,-0.00121856981423,0.000269489741186,0.000263184017967,0.000108720116259,-2.10819725908e-05,-0.000458359107142,0.457291304276,-0.00290423753296,0.16611289458,-0.0113270746275,0.922475877294,0.384742289029,0.0297207655732
-0.107203364372,-0.0255517121404,0.0937991961837,-2.56593585014,0.0885509327054,2.58432483673,-0.877800047398,0.0519712269306,0.00015372064081,-0.000342598970747,8.87327259989e-05,-0.000435381341958,-5.25874638697e-05,4.30008585681e-05,-5.83063920203e-05,0.457290411078,-0.00290502434548,0.166111803848,-0.0113272470395,0.92247604945,0.384741946076,0.0297197960472
-0.107201598585,-0.0255529601127,0.093801163137,-2.56593728065,0.0885511264205,2.58432459831,-0.877803981304,0.0519712269306,0.000451830739621,0.000429812265793,0.000352430506609,6.29042406217e-05,0.000182618183317,-4.08779487771e-05,-0.000100973316876,0.457289884211,-0.00290332685003,0.1661117989,-0.0113273088146,0.922474610522,0.384745409969,0.029719592984
-0.107199296355,-0.0255511794239,0.0938012748957,-2.56593441963,0.0885523706675,2.58432364464,-0.87780559063,0.0519712269306,5.16250584042e-05,-9.0102206741e-05,0.000675957358908,0.000742417993024,-1.05042736323e-05,0.000119585194625,-0.00247367401607,0.457290783285,-0.00290213460357,0.166111993835,-0.0113277082224,0.922474016332,0.384746803435,0.0297198443465
-0.107197791338,-0.025552649051,0.093801446259,-2.56593322754,0.0885511040688,2.58432435989,-0.87780636549,0.0519712269306,0.000205751464819,-0.000168988321093,-0.00015737603826,-0.000394693051931,-0.000140652889968,-0.000138340546982,0.000137232331326,0.457291758394,-0.00290147011217,0.166113185605,-0.0113266510343,0.922473305438,0.384748434599,0.0297211959095
-0.107198812068,-0.025549877435,0.0938022434711,-2.56593704224,0.0885512083769,2.58432340622,-0.877814531326,0.0519712269306,0.000334359297995,0.00011993451335,-9.50154935708e-05,0.000167496909853,1.20779759527e-05,-0.000110402783321,-0.00145492795855,0.457289244338,-0.00290147860345,0.166110370841,-0.0113281885656,0.922471896244,0.384752025269,0.029717865276
-0.107200928032,-0.0255544241518,0.0938005000353,-2.56593489647,0.0885519012809,2.58432459831,-0.877818226814,0.0519712269306,-0.0003459736472,0.00062615837669,-0.0002736983879,0.00061737827491,-2.07052726182e-05,0.000245484436164,0.000332014547894,0.457291286173,-0.0029033282969,0.166113380093,-0.0113264702552,0.922471931711,0.38475170978,0.0297215036626
-0.107206188142,-0.0255637094378,0.093797929585,-2.56592679024,0.0885512456298,2.58432650566,-0.877819895744,0.0519712269306,-0.000568442803342,-3.22284649883e-05,-0.000211220351048,0.000494761858135,0.000120367651107,0.000311901501846,-0.000396165036364,0.457297141117,-0.00290718014174,0.166120895089,-0.0113219101861,0.922472749615,0.384749216936,0.0297301247446
-0.107203289866,-0.0255513675511,0.0937988087535,-2.56592392921,0.0885509327054,2.5843296051,-0.877827644348,0.0518313571811,0.000333494477673,-0.000674459966831,-4.76567438454e-05,0.00364518119022,-2.51589826803e-05,8.82359563548e-06,5.0125632697e-05,0.457297152847,-0.00290533693141,0.166116674265,-0.0113234469489,0.922470599268,0.384754539165,0.0297273831757
-0.107203699648,-0.0255543515086,0.0937987491488,-2.56592464447,0.0885504260659,2.58433032036,-0.87782895565,0.0518313571811,-0.000284000328975,-0.000193283267436,0.000124657162814,-3.49165165971e-05,-0.000158898896188,3.41591621691e-05,-0.000140300238854,0.457297451025,-0.00290563792766,0.166117826564,-0.0113225542211,0.922470323539,0.384755130216,0.0297286294882
-0.107205659151,-0.0255602691323,0.0937987267971,-2.56593108177,0.0885509178042,2.58433008194,-0.877830922604,0.0518313571811,0.000162921947776,0.000702028803062,-0.000433802808402,0.000455999776023,-5.39317115908e-05,9.55903760769e-06,-0.000465275224997,0.457295256847,-0.00290658809261,0.166118032246,-0.0113225264124,0.922470418277,0.38475493366,0.0297282442346
-0.107208877802,-0.025557719171,0.0937962383032,-2.56593298912,0.088551543653,2.58432888985,-0.877838432789,0.0518313571811,-0.00124768353999,0.000972289417405,0.00373690016568,-8.19974229671e-05,-2.40468070842e-05,3.34863034368e-05,1.5664685634e-05,0.457293364569,-0.00290975170086,0.166115402983,-0.0113240946878,0.922470482974,0.384754967964,0.029725195203
-0.107218034565,-0.0255593433976,0.0937923192978,-2.56594228745,0.0885516107082,2.58432769775,-0.877842247486,0.0518313571811,0.000498457404319,-0.000482862174977,0.000912847346626,-0.000473933236208,-6.08115078649e-05,7.33483684598e-05,-9.06161676539e-06,0.457289111033,-0.00291498624699,0.166113098415,-0.0113253220457,0.922472155264,0.38475117419,0.0297219360969
-0.107219807804,-0.0256327055395,0.0937887206674,-2.56594753265,0.0885508880019,2.58432412148,-0.877854049206,0.051077503711,-0.000177418725798,-0.00273823947646,-0.00157427496742,-0.000434234825661,3.88313055737e-05,0.00280406838283,-7.35087633075e-06,0.45729795823,-0.00291865420923,0.166144124209,-0.0113091465178,0.922469863511,0.384754966822,0.0297501144217
-0.107222639024,-0.0256808679551,0.0937880650163,-2.56593799591,0.0885517150164,2.58432126045,-0.877854406834,0.051077503711,-0.000176019530045,-0.00415841583163,-0.000462988507934,0.00119554670528,2.09735426324e-05,-1.98304878722e-05,-0.000127289822558,0.457310656275,-0.00292136763155,0.166170788352,-0.0112958212325,0.922469820799,0.384753476533,0.0297757638833
-0.107220545411,-0.025764869526,0.0937889143825,-2.5659468174,0.0885512977839,2.58431100845,-0.877855300903,0.051077503711,0.00036872018245,-0.00554515002295,0.000553324760403,-0.00170415919274,-0.000116177143354,-0.000320507271681,0.000364224280929,0.457317421992,-0.00292094630266,0.166203259577,-0.0112803156341,0.92246797134,0.384756289187,0.0298025828589
-0.107217289507,-0.02580803819,0.0937896370888,-2.56595921516,0.0885504111648,2.58430528641,-0.877855598927,0.051077503711,0.00350930914283,-0.0101469550282,5.43748101336e-05,-0.00172730023041,5.29269891558e-05,-0.00150172493886,-1.51768072101e-05,0.45731956714,-0.0029169276603,0.166248335394,-0.0112599493062,0.922464046606,0.384763710748,0.0298359319486
-0.107219293714,-0.0275315549225,0.0937886834145,-2.56555557251,0.0885490551591,2.58054542542,-0.877863407135,0.051077503711,-2.891220538e-05,-0.0508009046316,0.000153819739353,0.0227076690644,6.30468130112e-05,-0.158531591296,-0.000123313133372,0.456993806777,-0.00286691752839,0.166791753946,-0.0116502679288,0.922453979377,0.384833437016,0.0290887027182
-0.107210986316,-0.028574610129,0.0937912389636,-2.56511807442,0.0885483175516,2.57776379585,-0.877863585949,0.051077503711,0.000690963352099,-0.084940969944,8.60255095176e-05,0.033011958003,-0.000219429275603,-0.215658932924,-0.000404611782869,0.456782295467,-0.00281850678614,0.167164850565,-0.0119574280727,0.922443937034,0.384891047619,0.0285146293714
-0.107213877141,-0.0303077530116,0.0937926992774,-2.56420397758,0.0885489881039,2.57326817513,-0.877864122391,0.051077503711,-0.000441157724708,-0.101555325091,0.000121996919916,0.0646178424358,-9.60769375524e-06,-0.287701159716,4.33507084381e-05,0.45654643458,-0.00275078495816,0.167870048058,-0.0124013455994,0.922427166183,0.384976477386,0.0277027301254
-0.107240438461,-0.0396317914128,0.0937780737877,-2.5583357811,0.0885454192758,2.54991793633,-0.877864420414,0.051077503711,-0.00323640438728,-0.254776060581,-0.00236207176931,0.161130905151,6.91919849487e-05,-0.589971959591,0.000152002292452,0.455869530175,-0.00242477458037,0.172137262592,-0.0144005283466,0.922314746446,0.385416027513,0.0241374955405
-0.107253707945,-0.054656829685,0.0937822908163,-2.54799485207,0.0885359793901,2.51456809044,-0.877861738205,0.051077503711,-0.00086377596017,-0.419219434261,0.000339299178449,0.294011712074,0.000229265569942,-0.901453495026,0.000203432078706,0.455529916712,-0.0019113981804,0.179886636116,-0.0169515501771,0.922071147599,0.386146162624,0.0197125463694
-0.107259690762,-0.0684876516461,0.0937865972519,-2.53701806068,0.0885343030095,2.4838488102,-0.877853095531,0.0511366017163,-0.000198608642677,-0.490292400122,0.00018612058193,0.400681853294,-0.000646207481623,-1.06955301762,-0.000708917679731,0.456064120388,-0.00151218468669,0.187154687056,-0.0184251001584,0.921835032486,0.386755527325,0.0173450376829
-0.107292152941,-0.0997507199645,0.0937939360738,-2.51009750366,0.0885298848152,2.42014217377,-0.877810418606,0.0511366017163,-0.0031630275771,-0.647023200989,-0.00390187324956,0.599284410477,-0.000107269683213,-1.23881733418,0.00063093675999,0.45881431971,-0.000636515888249,0.206729374505,-0.0202224131382,0.921219038196,0.388227980746,0.0150190651958
-0.107335813344,-0.110453955829,0.0937868431211,-2.50026464462,0.0885268747807,2.39973640442,-0.877774715424,0.0511366017163,-0.0005179613363,-0.676708221436,0.00024760857923,0.625523746014,-0.000293105200399,-1.29576611519,-0.000799434899818,0.460147098827,-0.000360819065351,0.214280360355,-0.0203577597728,0.921001021099,0.388732466393,0.0151575065753
-0.107349075377,-0.122440703213,0.093791231513,-2.48875498772,0.0885286256671,2.37781643867,-0.877663552761,0.0511366017163,9.98443829303e-06,-0.713617742062,-6.47508350085e-05,0.696046411991,-0.000153393237269,-1.2902970314,0.0107811456546,0.46172454786,-7.69330057762e-05,0.222130468611,-0.0201730090618,0.920784222092,0.389224935508,0.0159190235767
-0.10742714256,-0.15777297318,0.0937874540687,-2.452013731,0.0885061621666,2.31760025024,-0.877301216125,0.0511366017163,-0.00520266452804,-0.777188241482,-9.73553396761e-05,0.81735342741,0.000282377091935,-1.27328908443,0.0020017081406,0.46761566736,0.000762248965587,0.248647405934,-0.0179820989072,0.920062009025,0.390774529781,0.0213965002591
-0.107474096119,-0.172874614596,0.0937955453992,-2.43539190292,0.088493399322,2.2935898304,-0.877214372158,0.0511366017163,0.00135236023925,-0.808298766613,0.000993567286059,0.89453715086,-0.00118323299102,-1.2209032774,0.0076869931072,0.470126801234,0.00109571168168,0.2599213462,-0.016546282314,0.919729058268,0.391430181467,0.0246392499331
-0.107491724193,-0.186201423407,0.0937943831086,-2.42019343376,0.088456839323,2.27328085899,-0.877075970173,0.0511366017163,-0.00086860160809,-0.779546022415,0.000222885370022,0.904132843018,-0.000511458958499,-1.21555185318,0.0101446975023,0.472795484514,0.00144652515409,0.271845569158,-0.0147193041785,0.919364899469,0.392087285779,0.0286196387472
-0.107611849904,-0.236814215779,0.0937748476863,-2.36078834534,0.0871399119496,2.20277404785,-0.876791119576,0.0511366017163,-0.00293514598161,-0.824885129929,-0.00105007446837,0.94662886858,-0.0479946583509,-1.0298333168,0.000894463213626,0.481324028283,0.00256114601818,0.315547040464,-0.00596255832335,0.917657097634,0.394676434556,0.045830238348
-0.107641719282,-0.252952426672,0.0937732085586,-2.34209680557,0.0860455334187,2.1827442646,-0.876742899418,0.0511372610927,-0.00098543567583,-0.769640624523,-0.00127533299383,0.876277387142,-0.0599598772824,-0.969960927963,0.000487224635435,0.48374693308,0.00288491013443,0.331514160822,-0.00194050149172,0.916842250784,0.395732238663,0.052844267382
-0.107646271586,-0.258362829685,0.0937689840794,-2.33590340614,0.0856443271041,2.17608189583,-0.876726388931,0.0511372610927,-0.00277390656993,-0.756312966347,-0.000455354398582,0.883500337601,-0.0443039387465,-0.90827357769,0.000453308253782,0.485419658301,0.00317044721675,0.344883790588,0.00152366236865,0.916121608211,0.396552970871,0.0588610091343
-0.107696503401,-0.315907657146,0.0937389805913,-2.2742869854,0.0809828713536,2.11269068718,-0.876626670361,0.0511372610927,-0.00384825165384,-0.692191183567,-0.000892291369382,0.671070814133,-0.0989308878779,-0.68133276701,0.00118464254774,0.487960873533,0.0040158279008,0.386810049563,0.0136158406354,0.913444030604,0.399096799244,0.0784624518529
-0.107724130154,-0.326607525349,0.0937382355332,-2.264544487,0.0792079493403,2.10220503807,-0.87662088871,0.0511372610927,-0.00115581857972,-0.664528012276,0.000711040920578,0.580947220325,-0.118491798639,-0.646076261997,-6.47164561087e-05,0.487818065482,0.00407260045488,0.39566848096,0.016659097411,0.912752925147,0.3997517613,0.0824809137154
-0.108151875436,-0.35865008831,0.0937047600746,-2.23935246468,0.0721433535218,2.07283830643,-0.876604497433,0.0511372610927,-0.0153376199305,-0.547693550587,-0.00362153491005,0.361480027437,-0.180739983916,-0.493806660175,4.10795728385e-05,0.485821890135,0.00376523947274,0.420416040322,0.0262297202713,0.910675305652,0.401615591611,0.0932062535722
-0.108509711921,-0.367134749889,0.0936760678887,-2.2340695858,0.0690699592233,2.06534814835,-0.876602053642,0.0511385723948,-0.0283989645541,-0.507223010063,-0.00220865174197,0.309715300798,-0.199017524719,-0.433819264174,-0.00017271861725,0.484799630976,0.00335969974384,0.426273095038,0.029072843958,0.910141633354,0.402141124001,0.0952863738719
-0.108994483948,-0.374372065067,0.0936571210623,-2.22984099388,0.0659541636705,2.05920267105,-0.87660241127,0.0511385723948,-0.0401378832757,-0.460761547089,-0.0016249952605,0.255153119564,-0.221607640386,-0.387040585279,-0.000104932216345,0.483850403852,0.00284728737692,0.431147454072,0.0317201717602,0.909691434188,0.402565768578,0.09693362119
-0.10983428359,-0.38282135129,0.0935041233897,-2.22568535805,0.0617879405618,2.05182123184,-0.876604139805,0.0511385723948,-0.0466493330896,-0.393475443125,-0.0103561477736,0.168895035982,-0.205293521285,-0.350566238165,0.000109276239527,0.482460133352,0.00196262427828,0.436395267447,0.0348351617004,0.909264064768,0.402942048301,0.0983009533091
-0.111740224063,-0.393176794052,0.0928739011288,-2.22184514999,0.0552320927382,2.04140758514,-0.876605033875,0.0511385723948,-0.0713325068355,-0.275760889053,-0.027655698359,0.0878699943423,-0.220569208264,-0.320139855146,2.10939360841e-05,0.480124733678,1.08255726815e-05,0.441979231511,0.0387078626153,0.909045023437,0.403032010326,0.0985091116017
-0.113165944815,-0.39750239253,0.0922516286373,-2.22078537941,0.0511096119881,2.03589344025,-0.876606881618,0.0511385723948,-0.0867257490754,-0.20292493701,-0.0444113612175,0.0346563197672,-0.236105248332,-0.294387042522,-2.5498748073e-05,0.478770554637,-0.00149362110654,0.4438706885,0.0405294864744,0.909144922556,0.402859282487,0.0975564898351
-0.116692908108,-0.401541918516,0.0901125594974,-2.22059869766,0.0434617325664,2.02667999268,-0.876617789268,0.0511385723948,-0.116869166493,-0.0501666069031,-0.0859336927533,-0.0155424075201,-0.221978977323,-0.256707310677,0.000366747000953,0.47647940634,-0.00526818240777,0.444705687678,0.0426742275532,0.909955540604,0.401703167832,0.0937784040146
-0.119407385588,-0.401712208986,0.0879659205675,-2.22096967697,0.0387244410813,2.02100276947,-0.87663346529,0.0511385723948,-0.138939067721,0.0241124890745,-0.118671499193,-0.0217288639396,-0.227847367525,-0.262364625931,-0.0010958337225,0.475189049425,-0.00828860393453,0.443889565858,0.0432288620409,0.910855139128,0.400404526356,0.0902795434431
-0.124302975833,-0.399299860001,0.083915092051,-2.22214055061,0.0324565544724,2.01366019249,-0.876675307751,0.0511385723948,-0.193221524358,0.136749982834,-0.150130987167,-0.0533908121288,-0.210367426276,-0.230209380388,-0.00397926662117,0.473584048957,-0.0135170673274,0.441267857411,0.0430633215844,0.91266239041,0.397590055579,0.0843508082384
-0.127810880542,-0.39658164978,0.0811830684543,-2.22317075729,0.0286961607635,2.00984454155,-0.876852273941,0.0511385723948,-0.217938438058,0.174395307899,-0.168565317988,-0.0669879689813,-0.235443845391,-0.227354004979,-0.0196266099811,0.472750698767,-0.0170836362002,0.439015749096,0.0426711047036,0.913913826058,0.395577191035,0.0803702742099
-0.131629571319,-0.393228918314,0.0777985826135,-2.22436237335,0.0246646776795,2.00614356995,-0.877210080624,0.0511385723948,-0.235105678439,0.231565073133,-0.227309077978,-0.0685462206602,-0.232784450054,-0.211335673928,-0.0210427325219,0.471861101822,-0.0214068679321,0.4362472494,0.0420911316962,0.91539352089,0.393109016134,0.0758178056928
-0.136167541146,-0.388399988413,0.0733962506056,-2.22560286522,0.0205704346299,2.00251269341,-0.877586841583,0.0511385723948,-0.265995264053,0.309114187956,-0.264608711004,-0.0632865428925,-0.226041018963,-0.200285494328,-0.0197026859969,0.471118420276,-0.0260588650273,0.43312498993,0.0411252091097,0.917049123045,0.390203283112,0.0712110990543
-0.14506238699,-0.378274708986,0.0640072971582,-2.22743606567,0.0132868224755,1.99693214893,-0.878834247589,0.0511385723948,-0.321201771498,0.35630261898,-0.350757300854,-0.0503660105169,-0.252001255751,-0.172498822212,-0.0735327452421,0.469857066359,-0.0359023188352,0.42688419418,0.0389921717559,0.920408947715,0.383948077899,0.062536810494
-0.150820538402,-0.371675938368,0.057693336159,-2.22812843323,0.00889011379331,1.99408185482,-0.880643725395,0.0511398874223,-0.353794187307,0.419414103031,-0.385408610106,-0.0328530110419,-0.264168381691,-0.152068853378,-0.137906491756,0.469162668999,-0.0423212436655,0.423171033019,0.0377074188538,0.922352892406,0.380177161843,0.0575205852659
-0.162493169308,-0.358068943024,0.0447466634214,-2.22862935066,-0.000135610534926,1.98924350739,-0.886789321899,0.0511398874223,-0.410359740257,0.462026685476,-0.463880091906,0.00579015351832,-0.315973848104,-0.144024059176,-0.251273483038,0.46783017765,-0.0553965795073,0.416094603953,0.035453447017,0.925674101406,0.373587480313,0.0479885957049
-0.172870650887,-0.346491068602,0.0328349024057,-2.22833752632,-0.00804925896227,1.98641848564,-0.893903493881,0.0511398874223,-0.466476798058,0.504051089287,-0.540202319622,0.0236294995993,-0.357603907585,-0.0951033458114,-0.34189465642,0.466690025018,-0.0671789357575,0.410567460762,0.0339326106274,0.928215504116,0.368249317113,0.0407062155456
-0.186797305942,-0.331177324057,0.0163793917745,-2.22683024406,-0.0192576851696,1.98359000683,-0.905698359013,0.0511398874223,-0.498783439398,0.554091095924,-0.603622496128,0.0889124274254,-0.418595254421,-0.102579779923,-0.477021872997,0.465027513548,-0.0832987677557,0.403876826231,0.0325193479435,0.931079606296,0.361975243616,0.0317361220519
-0.194029912353,-0.323219835758,0.00759532907978,-2.22518897057,-0.025118958205,1.982178092,-0.912797272205,0.0511398874223,-0.528168737888,0.583379268646,-0.645665228367,0.132297307253,-0.42602661252,-0.0990255400538,-0.53097063303,0.46412574286,-0.0917997003268,0.400809142759,0.0319493799884,0.932367099301,0.359052222798,0.0274286391923
-0.204477593303,-0.311585187912,-0.00540102645755,-2.22169566154,-0.0335366874933,1.98034691811,-0.923992216587,0.0511398874223,-0.556227982044,0.636592924595,-0.704360842705,0.219565868378,-0.452427506447,-0.104967705905,-0.632962226868,0.462836812809,-0.104259098744,0.396853769404,0.0313189066841,0.934052618459,0.355098096127,0.0216834924853
-0.216029375792,-0.29858276248,-0.019802486524,-2.21634197235,-0.0427499189973,1.97825396061,-0.938028335571,0.0511398874223,-0.61234921217,0.68243265152,-0.755360305309,0.310431420803,-0.469522297382,-0.106383405626,-0.753384232521,0.461379679202,-0.118107219791,0.393089321229,0.0308569240054,0.935571494118,0.351431954533,0.0157927405448
-0.246261820197,-0.263097494841,-0.0586535818875,-2.19410228729,-0.0666714906693,1.9727768898,-0.979581236839,0.0511398874223,-0.646676599979,0.782855451107,-0.871300697327,0.621490478516,-0.490976005793,-0.119335569441,-0.973891794682,0.457577264005,-0.155518014602,0.386268105361,0.0310989080349,0.938712082248,0.343286031201,0.0026804904086
-0.256816208363,-0.250019192696,-0.0728228613734,-2.18357014656,-0.0742753967643,1.97072553635,-0.995830595493,0.0511398874223,-0.674579918385,0.824945688248,-0.900041103363,0.712430953979,-0.447462469339,-0.123286508024,-1.0444611311,0.456184950916,-0.169031597857,0.384767971665,0.0313823001748,0.939628602888,0.340752014097,-0.00114212399071
-0.268900692463,-0.234274342656,-0.0891631320119,-2.1692211628,-0.0817535147071,1.9687333107,-1.01525747776,0.0511398874223,-0.671559989452,0.900287985802,-0.918520390987,0.846088647842,-0.386044710875,-0.103142052889,-1.10851347446,0.454844358336,-0.184683130227,0.383732562135,0.0318655226802,0.940634544572,0.337890213286,-0.00463092585677
-0.282486438751,-0.215891614556,-0.10808070004,-2.15109753609,-0.0890447497368,1.96681809425,-1.0375906229,0.0511398874223,-0.667075753212,0.916116893291,-0.957559168339,0.986678183079,-0.334669470787,-0.0860619395971,-1.11230695248,0.453257290511,-0.202701101391,0.383111336439,0.0325763016156,0.941846974191,0.334367355108,-0.00784431676149
-0.311400771141,-0.172707155347,-0.151141881943,-2.10257458687,-0.0998117402196,1.96348285675,-1.08620893955,0.0511398874223,-0.65136474371,0.998298883438,-0.975921392441,1.21122217178,-0.142667099833,-0.0703368484974,-1.0916441679,0.449908342199,-0.243334170686,0.38420382369,0.0351613666591,0.945032122138,0.324864352404,-0.0118793370234
-0.322290569544,-0.155658960342,-0.167738005519,-2.08164739609,-0.101965494454,1.96227312088,-1.10456752777,0.0511392317712,-0.632235467434,0.990650057793,-0.981223881245,1.26825487614,-0.0918895974755,-0.0711212828755,-1.0455095768,0.448040628679,-0.262737787974,0.385658529359,0.0368180699901,0.946737133735,0.319643015105,-0.0127110940349
-0.335548877716,-0.134838461876,-0.188145130873,-2.05497312546,-0.104007013142,1.96083438396,-1.12595713139,0.0511392317712,-0.615886747837,0.99238628149,-0.9438123703,1.26721560955,-0.0847789868712,-0.0836136192083,-0.979105532169,0.446155682024,-0.27848565508,0.387231097,0.038603255552,0.948263421477,0.314853603321,-0.0131711926045
-0.374227494001,-0.0740880146623,-0.246594339609,-1.97122049332,-0.107735835016,1.95160925388,-1.18532025814,0.0511392317712,-0.532954275608,0.785733699799,-0.764266192913,1.16630935669,-0.0697275698185,-0.230346441269,-0.785627424717,0.435709146357,-0.335088009988,0.394770163953,0.0462948499204,0.953871738977,0.296175552474,-0.016295221946
-0.383641064167,-0.0604546293616,-0.260106474161,-1.95108890533,-0.109125606716,1.94713258743,-1.19875442982,0.0511392317712,-0.505269289017,0.721461057663,-0.724415063858,1.06389939785,-0.0879524350166,-0.279804468155,-0.713704764843,0.431799908561,-0.348273795195,0.396852586538,0.0480761107513,0.955190423725,0.291500788512,-0.0180895546194
-0.390924572945,-0.0503667369485,-0.270363539457,-1.93556034565,-0.110433869064,1.94260597229,-1.20917081833,0.0511392317712,-0.467024743557,0.619039952755,-0.630679130554,0.973981201649,-0.0821770206094,-0.321256667376,-0.665563762188,0.427651420778,-0.3600915188,0.398939503682,0.049507927796,0.956324823736,0.287372952591,-0.020213421341
-0.405789911747,-0.0319304317236,-0.289536356926,-1.90596222878,-0.112647764385,1.93074250221,-1.2306292057,0.0511392317712,-0.415517270565,0.472684413195,-0.510456323624,0.808690488338,-0.0653494894505,-0.398104906082,-0.614468693733,0.420077365831,-0.377368493392,0.402106351197,0.0505685562989,0.957921550299,0.281498383212,-0.0242442679018
-0.418469816446,-0.0189611744136,-0.304159551859,-1.88253962994,-0.114808984101,1.9163877964,-1.24971461296,0.0511438250542,-0.346960306168,0.322757661343,-0.370171695948,0.631511151791,-0.0680075958371,-0.4525385499,-0.561444580555,0.412284709213,-0.390948680838,0.405119022353,0.0501575936402,0.959019255237,0.27738303896,-0.0287216516601
-0.424920529127,-0.0134975686669,-0.310941070318,-1.87119758129,-0.116004034877,1.90691864491,-1.26029741764,0.0511438250542,-0.292616516352,0.218302845955,-0.297882199287,0.508647322655,-0.0609480515122,-0.487521708012,-0.507622003555,0.407720533649,-0.397344462305,0.406833277251,0.0491882209587,0.959415825192,0.275881881993,-0.031479837497
-0.430387049913,-0.00979941338301,-0.316772907972,-1.86104130745,-0.117326803505,1.89648675919,-1.27083873749,0.0511438250542,-0.214258685708,0.132145762444,-0.236850708723,0.413134783506,-0.0616464614868,-0.468331754208,-0.447158873081,0.403326089234,-0.402522084793,0.408832164327,0.0479231019212,0.959567666147,0.275258166195,-0.0341498465821
-0.433735013008,-0.00802029855549,-0.320539414883,-1.85436677933,-0.118270814419,1.88797497749,-1.27872335911,0.0511438250542,-0.162993505597,0.0667215287685,-0.176959142089,0.343506157398,-0.0453211218119,-0.473377734423,-0.427836149931,0.400035750757,-0.405659550471,0.410429974698,0.046519508497,0.959509345267,0.275434349408,-0.0362445931321
-0.438293367624,-0.00806573033333,-0.324568450451,-1.84216117859,-0.119218632579,1.86681306362,-1.29838633537,0.0511438250542,-0.0369881950319,-0.0454631224275,-0.00413599517196,0.206428661942,-0.0167954880744,-0.411296069622,-0.393138259649,0.395000761011,-0.408192478419,0.41450342574,0.0424831525629,0.958157486528,0.280257404809,-0.0398145639199
-0.438271194696,-0.00936034321785,-0.324340164661,-1.83831393719,-0.119644038379,1.8589977026,-1.30582022667,0.0511471107602,0.0230527166277,-0.0775190293789,0.0303182695061,0.178362220526,-0.0209624618292,-0.367520481348,-0.35474216938,0.394394426207,-0.407683338101,0.416167457424,0.0413653513434,0.957268059036,0.283328363202,-0.0406424550711
-0.437611371279,-0.0106897084042,-0.323670625687,-1.83574128151,-0.119892507792,1.85348749161,-1.31123793125,0.0511471107602,0.0637461096048,-0.0912695080042,0.0623876005411,0.14375166595,-0.0169072896242,-0.333186984062,-0.322833895683,0.394308176264,-0.406808057936,0.417617014197,0.040558355022,0.956386762253,0.286333581846,-0.0411395238492
-0.43598946929,-0.0127131585032,-0.322013676167,-1.83338260651,-0.120146423578,1.84761846066,-1.31712830067,0.0511471107602,0.115587599576,-0.110330872238,0.112331800163,0.109676912427,-0.00919671822339,-0.280927121639,-0.295612633228,0.394959725833,-0.404822979686,0.419471654228,0.0397015500969,0.955011815368,0.290950481332,-0.0415215188874
-0.428929835558,-0.0181614011526,-0.316043525934,-1.83012413979,-0.120254598558,1.83718335629,-1.32999670506,0.0511471107602,0.195965155959,-0.135541558266,0.163108706474,0.0480255410075,0.000135022870381,-0.203549191356,-0.273646205664,0.39841677357,-0.398791506704,0.422818485288,0.0386258407775,0.951519643723,0.302323003813,-0.0414633945487
-0.424549162388,-0.020659102127,-0.312536925077,-1.82920312881,-0.120253667235,1.83335888386,-1.33513855934,0.0511471107602,0.234787777066,-0.127185612917,0.190978258848,0.0349849276245,0.000333992327796,-0.182645842433,-0.24111571908,0.400973149909,-0.394981185346,0.424313694486,0.0383043509692,0.949515004537,0.30862768851,-0.0412672076906
-0.419948548079,-0.0231107622385,-0.308692544699,-1.82861435413,-0.120251715183,1.83022356033,-1.33930981159,0.0511471107602,0.249373152852,-0.130246430635,0.212741345167,0.0224920306355,-0.000206289550988,-0.148046061397,-0.206755235791,0.403519967273,-0.39134923258,0.425553102357,0.0381804850248,0.947718895135,0.314150842625,-0.040992610728
-0.407161563635,-0.0289603825659,-0.297281712294,-1.82816398144,-0.120243854821,1.8242058754,-1.34800028801,0.0511471107602,0.268018037081,-0.111465424299,0.26978763938,0.000893723685294,-0.00024323661637,-0.0935574322939,-0.160557076335,0.411394564944,-0.380527840923,0.428362773551,0.0382164495915,0.942571151756,0.329378543594,-0.0401111152335
-0.402947485447,-0.0305459499359,-0.293242037296,-1.82815682888,-0.120241038501,1.82286548615,-1.35034966469,0.0511471107602,0.28648635745,-0.0993430018425,0.26441937685,0.00236662779935,0.000296698650345,-0.0910374745727,-0.148163229227,0.414150349115,-0.376881180862,0.429102831766,0.0383500790666,0.940845638061,0.334296278773,-0.0398089746629
-0.391065508127,-0.0337265133858,-0.282744079828,-1.8280184269,-0.120233796537,1.82000648975,-1.35604357719,0.0511471107602,0.297830611467,-0.068550541997,0.263689577579,0.00102594250347,5.95435594732e-05,-0.064670085907,-0.127789780498,0.421717437077,-0.367042693549,0.430650322161,0.0387327481526,0.936131014934,0.347310874499,-0.0391618850465
-0.382854104042,-0.03514130041,-0.275367319584,-1.82794320583,-0.120222754776,1.81839716434,-1.35941016674,0.0511477664113,0.283116698265,-0.0405256934464,0.270432680845,0.00308327144012,0.000125035337987,-0.0551357865334,-0.119841337204,0.426989159077,-0.360167695388,0.431332827026,0.0388982300871,0.932832342978,0.356085954693,-0.0389042432888
-0.378167331219,-0.0356834642589,-0.270762085915,-1.82788014412,-0.120221152902,1.81772625446,-1.36156308651,0.0511477664113,0.268157452345,-0.0273390971124,0.267923206091,0.000554147816729,0.000446493999334,-0.0365026704967,-0.134783774614,0.43016143269,-0.356080334336,0.431617542429,0.0390264526985,0.930792239097,0.361383774847,-0.0387880211919
-0.373900026083,-0.0359820686281,-0.266647577286,-1.82783305645,-0.120212592185,1.81721198559,-1.36354422569,0.0511477664113,0.271721571684,-0.0126610705629,0.245365649462,0.00161734700669,-0.000315366196446,-0.0326674468815,-0.115746833384,0.43267350155,-0.352838559834,0.431763663484,0.0391036730466,0.929145838449,0.365593765461,-0.0387312791911
-0.364822536707,-0.0360826030374,-0.258722007275,-1.82779967785,-0.120207093656,1.81596422195,-1.36735498905,0.0511477664113,0.24726550281,0.00421056617051,0.2043004632,-0.0031445606146,0.00277641764842,-0.0355532802641,-0.0950546637177,0.438725838784,-0.344804968695,0.431778983321,0.0389970038171,0.925069446089,0.375786147991,-0.0388654636771
-0.361441612244,-0.0360027812421,-0.255911320448,-1.8278516531,-0.120202071965,1.81547605991,-1.36859428883,0.0511477664113,0.239629104733,0.00663908617571,0.201434612274,-0.00324147893116,-0.000155811823788,-0.0343008562922,-0.0800466611981,0.440763210296,-0.342013634111,0.431682788864,0.0388774241948,0.923671179448,0.379210549957,-0.0389802081781
-0.35715508461,-0.0357894152403,-0.252267897129,-1.82782900333,-0.120200641453,1.81475901604,-1.36996233463,0.0511477664113,0.209655508399,0.0131761096418,0.191487908363,0.00265162577853,0.000722497061361,-0.0413144938648,-0.0685010552406,0.443355122883,-0.33842697421,0.431535312983,0.0386929718913,0.921904082647,0.383485996641,-0.0391689467232
-0.353933990002,-0.0354903452098,-0.249277114868,-1.82781493664,-0.120197877288,1.81422424316,-1.37124204636,0.0511477664113,0.190763428807,0.0224721990526,0.182070553303,-0.00223180348985,0.000182559640962,-0.0289968550205,-0.0881900638342,0.445381940403,-0.335610089544,0.43135051228,0.0385109542956,0.920463701497,0.386928854233,-0.0393642232298
-0.350612848997,-0.035054128617,-0.246081233025,-1.82787311077,-0.120193958282,1.81363379955,-1.37300276756,0.0511477664113,0.15876942873,0.0196734871715,0.156545266509,-0.00139868899714,0.000516178261023,-0.0341491103172,-0.0932962521911,0.44748176044,-0.332633270728,0.431053023818,0.0382281597071,0.918855427273,0.390731537487,-0.0396506856443
-0.344072520733,-0.0341359190643,-0.240315914154,-1.82788896561,-0.120189897716,1.81202709675,-1.37639546394,0.0511477664113,0.11487814039,0.0233376435935,0.0994458496571,-0.00122191873379,-0.000206054159207,-0.0235588494688,-0.0404351390898,0.451323587661,-0.326940992232,0.430438949994,0.0374965440312,0.915768467422,0.397912918604,-0.0403414445815
-0.342100828886,-0.0337952412665,-0.238708004355,-1.82789993286,-0.120186522603,1.81161999702,-1.37724387646,0.0511477664113,0.0870839133859,0.0177898146212,0.0712030008435,-0.00114915252198,4.87520883325e-05,-0.0175102390349,-0.0476802997291,0.452444596591,-0.325284791353,0.4302226965,0.037282517567,0.914885779363,0.399937121455,-0.0405502548118
-0.340737611055,-0.0335189402103,-0.237590149045,-1.82790195942,-0.120188310742,1.81125998497,-1.3781286478,0.0511477664113,0.0649229735136,0.0139330429956,0.0508371219039,-4.68817088404e-05,-5.46042392671e-05,-0.0169586744159,-0.0475253611803,0.453207397168,-0.324129080042,0.430046968375,0.0370860800313,0.914212085597,0.401473948159,-0.0407376219923
-0.33919724822,-0.0331057086587,-0.23649585247,-1.82790744305,-0.120186842978,1.81069254875,-1.37920928001,0.0511477664113,0.037154622376,0.0156621281058,0.0156598445028,-0.00142328208312,4.56737616332e-05,-0.0193282142282,-0.0270960405469,0.45398932389,-0.322883611084,0.429777222556,0.0367543670949,0.913466658628,0.403167431205,-0.0410341585801
-0.338741719723,-0.0329405926168,-0.236355274916,-1.82792651653,-0.120186984539,1.81024456024,-1.37965977192,0.0511477664113,0.0113206394017,0.00404747761786,0.00352516840212,0.000557440740522,-3.11718067678e-05,-0.0294120982289,-0.0229532271624,0.454107776726,-0.322568464057,0.42963979862,0.0365109725919,0.913259389485,0.403639259631,-0.0412260131781
-0.338708668947,-0.0329003408551,-0.236373007298,-1.82791244984,-0.120188102126,1.80985212326,-1.379997015,0.0511477664113,-0.00382461166009,0.00143666367512,-0.00272193434648,0.000669292290695,-7.0816866355e-05,-0.031215056777,-0.0278136730194,0.454043844916,-0.322523548038,0.429589574076,0.0363356225775,0.91319322036,0.403791595748,-0.0413547059454
-0.338935822248,-0.0328411534429,-0.236504808068,-1.82792103291,-0.120189853013,1.8093392849,-1.38044917583,0.0511477664113,-0.0209982208908,0.00477746454999,-0.0124198785052,-0.00161048665177,-8.25285460451e-05,-0.0222379472107,-0.0183451659977,0.453833552375,-0.322634071829,0.429506880933,0.0360835728319,0.913180591812,0.403823891571,-0.0415384976293
-0.340627193451,-0.0328608900309,-0.237826108932,-1.8279055357,-0.120194151998,1.80830490589,-1.38082718849,0.0511477664113,-0.0496520921588,-0.000941426202189,-0.0409549959004,-0.000893732882105,-0.000120376782434,-0.00919961929321,9.610842244e-05,0.452661545719,-0.323896059786,0.429425300759,0.0355870155069,0.913726875989,0.402596279917,-0.0418687890964
-0.341643512249,-0.032862637192,-0.238567143679,-1.82792186737,-0.120194114745,1.80813491344,-1.380854249,0.0511477664113,-0.0584836266935,0.000193404586753,-0.0424944721162,-0.00462510762736,7.93676590547e-05,-0.0116924671456,-0.00242353510112,0.452055419889,-0.324672931388,0.429399307731,0.0354647195028,0.914077501597,0.401802514415,-0.0419441752153
-0.342829674482,-0.0328626520932,-0.239356964827,-1.82791769505,-0.120196223259,1.80794417858,-1.38087797165,0.0511477664113,-0.0647713914514,0.000537148560397,-0.0478292666376,0.00072825292591,-0.000330435606884,-0.0126425810158,6.52644448564e-05,0.451376502335,-0.325548256591,0.42938023742,0.0353372464552,0.914472256046,0.400906121565,-0.0420244370317
-0.346898257732,-0.0328586623073,-0.243121370673,-1.82791745663,-0.120199322701,1.80703830719,-1.38094890118,0.0511477664113,-0.0664179548621,-0.00112602999434,-0.0632436126471,0.00042721623322,-0.000116732931929,-0.0173046495765,-0.00158632709645,0.448637512493,-0.328986906266,0.429277777606,0.0347521749045,0.916035482803,0.397335255629,-0.0423789440667
-0.349087923765,-0.0328896716237,-0.245260953903,-1.82792413235,-0.120205245912,1.80649590492,-1.38098585606,0.0511477664113,-0.0614013075829,-0.00298714404926,-0.0585659630597,9.29414236452e-05,-0.000120496428281,-0.0173917524517,-6.97996511008e-05,0.447099822016,-0.330871907032,0.429231596155,0.0344195347178,0.916894520298,0.395356852649,-0.0425757327835
-0.351644337177,-0.0328943431377,-0.247907429934,-1.82793045044,-0.120207078755,1.80606210232,-1.38101494312,0.0511477664113,-0.0507163517177,-0.000455759145552,-0.0557946264744,-0.000590344076045,2.95634818031e-05,-0.0109280589968,-0.00189983972814,0.445286245178,-0.333152469079,0.429178475129,0.034096488383,0.917921374257,0.392975258759,-0.0427577577319
-0.353423863649,-0.0328826829791,-0.249814197421,-1.82792162895,-0.120205625892,1.8058257103,-1.38103485107,0.0511477664113,-0.0510648004711,-0.000692062661983,-0.0514444001019,-0.000142891614814,-0.000111559740617,-0.0119626615196,-0.00196377420798,0.44383734467,-0.334993995531,0.429140306077,0.0338708295715,0.918743470248,0.391055633863,-0.0428799916714
-0.355060070753,-0.0328786857426,-0.251469433308,-1.82792818546,-0.120205126703,1.80567252636,-1.38105106354,0.0511477664113,-0.0413532070816,-0.000252101395745,-0.0427726171911,0.000421037431806,0.00123899884056,-5.19483401149e-05,-0.000217225853703,0.442876279959,-0.336218260199,0.429117618824,0.0337374359247,0.919286975054,0.389780177356,-0.0429494579225
-0.355846792459,-0.0328859984875,-0.252141475677,-1.82792377472,-0.120206266642,1.80559945107,-1.3810595274,0.0511477664113,-0.0391106307507,-0.000668569118716,-0.0331113189459,6.02416657784e-05,-0.000272122153547,-0.00538121070713,4.72212304885e-05,0.442371018151,-0.336858138383,0.429113574453,0.0336722595585,0.919570807027,0.389111967958,-0.0429835535302
-0.356531769037,-0.0328898541629,-0.252624601126,-1.8279312849,-0.120195403695,1.80554819107,-1.38106250763,0.0511484220624,-0.037810947746,-0.000466462108307,-0.0304668713361,-0.000363774626749,0.00247040833347,-0.00267096795142,-0.000720090058167,0.441966609484,-0.33736737995,0.429104625434,0.0336153218656,0.919799020295,0.388574401949,-0.0430082112241
-0.357230812311,-0.0329018905759,-0.253155618906,-1.82793319225,-0.120138220489,1.80548417568,-1.38106846809,0.0511484220624,-0.0360727533698,-0.000679977296386,-0.025497360155,0.000907056441065,0.00517938612029,-0.00366938882507,-0.00024903594749,0.441543397196,-0.337895252414,0.429100367214,0.0335440081697,0.9200419053,0.388004542843,-0.0430135609221
-0.358173429966,-0.0329123921692,-0.253772825003,-1.82794237137,-0.119560576975,1.8054202795,-1.38107764721,0.0511484220624,-0.0272810850292,-5.73322540731e-05,-0.0204469840974,-0.00073471700307,0.0416009649634,-0.00121509784367,-0.000706425053068,0.441061714302,-0.338484330941,0.429080471115,0.03332336147,0.920383333062,0.387235161154,-0.0428135895451
