imanlab/tactile_prediction_flat_dataset/test/data_sample_2021-11-25-13-24-35/robot_state.csv
position_panda_joint1,position_panda_joint2,position_panda_joint3,position_panda_joint4,position_panda_joint5,position_panda_joint6,position_panda_joint7,position_panda_finger,velocity_panda_joint1,velocity_panda_joint2,velocity_panda_joint3,velocity_panda_joint4,velocity_panda_joint5,velocity_panda_joint6,velocity_panda_joint7,ee_state_position_x,ee_state_position_y,ee_state_position_z,ee_state_orientation_x,ee_state_orientation_y,ee_state_orientation_z,ee_state_orientation_w
-0.0265464968979,-0.0175281334668,0.0378096438944,-2.51449275017,-0.00326186139137,2.53624510765,-0.717337906361,0.0638588666916,-7.96144813648e-05,0.000769456324633,-0.00271298596635,-0.000531009281985,-0.000122421042761,-1.51137928697e-05,-6.82347672409e-05,0.470142837939,0.00501938054795,0.177650791709,0.00799405153578,0.93371899661,0.35746574273,0.0179770122301
-0.0265462789685,-0.0175267327577,0.0377749279141,-2.51449131966,-0.00326054194011,2.53624486923,-0.717336773872,0.0638588666916,6.75416376907e-05,0.000177894384251,-0.00150206661783,0.000116183313366,1.23173304019e-05,-5.073554712e-05,4.00966600864e-05,0.470143419704,0.00500334044658,0.17765068354,0.0079936476664,0.933725559896,0.357448606226,0.0179770405223
-0.0265453495085,-0.0175250712782,0.037732873112,-2.51449489594,-0.00326098501682,2.53624415398,-0.717337727547,0.0638588666916,-0.000138875751873,0.000685726525262,0.000324992841342,0.000474105705507,-6.66669002385e-05,8.27086478239e-05,-0.000202180352062,0.470141525787,0.00498408468881,0.177648440551,0.00799274593961,0.933732730824,0.357430037403,0.0179741883984
-0.0265455618501,-0.0175266545266,0.0377077423036,-2.51449298859,-0.0032611656934,2.53624486923,-0.717338860035,0.0638588666916,-0.000187329584151,3.42481939697e-06,-0.00140694878064,0.000110979126475,5.89504634263e-05,0.000154934372404,-0.000238746055402,0.470142955413,0.00497223691311,0.177650011183,0.00799358653632,0.933736993878,0.357418785183,0.0179761097341
-0.0265461206436,-0.0175283886492,0.0376736298203,-2.5144906044,-0.00326015939936,2.53624486923,-0.717336118221,0.0638588666916,0.000323353713611,-0.000168246770045,-0.000860822678078,3.02369462588e-05,7.18575392966e-05,7.26961734472e-05,-9.8783748399e-05,0.470144524032,0.00495532317069,0.177651744542,0.00799409354482,0.933744008956,0.357400348066,0.0179780726186
-0.0265456531197,-0.0175260100514,0.0376294590533,-2.51449322701,-0.00326037104242,2.5362443924,-0.717336952686,0.0638595223427,-0.000247830088483,0.000567845709156,-0.0022453609854,4.74735352327e-05,1.95192642423e-05,-1.69556660694e-05,-0.000411367189372,0.470143033227,0.00493564972748,0.177649592407,0.00799317521997,0.933751471211,0.35738100084,0.0179755134737
-0.026544669643,-0.017526442185,0.0375417359173,-2.51449251175,-0.00326306628995,2.53624415398,-0.717337429523,0.0638595223427,-0.000463563512312,0.000121587829199,-0.00291589251719,-0.000165252859006,-5.35322215001e-05,-0.000125776059576,-0.000279790721834,0.47014382165,0.00489497526505,0.177650080787,0.00799415400116,0.933766488342,0.357341735503,0.0179756085949
-0.0265451464802,-0.0175280533731,0.0375171452761,-2.51448965073,-0.00326159689575,2.53624486923,-0.717337906361,0.0638595223427,3.69087683794e-05,0.00040925477515,-0.000457800226286,0.000326123816194,-2.62771372945e-05,-0.000173030421138,-0.000157877075253,0.470145701611,0.00488334662699,0.177652039132,0.00799470863494,0.933771049007,0.357329677126,0.0179781589989
-0.0265475828201,-0.0175272841007,0.0374718345702,-2.51449036598,-0.00326160946861,2.5362443924,-0.717336952686,0.0638595223427,0.00159918912686,0.000210352838621,-0.00196223217063,0.000413814297644,7.48008869778e-06,-0.000247816642513,-2.22421531362e-05,0.470145377231,0.00486102228352,0.177651364189,0.00799441255946,0.933779767709,0.357306947129,0.0179772078995
-0.0265483856201,-0.017525749281,0.037415549159,-2.51449322701,-0.00326027534902,2.53624486923,-0.717337906361,0.0638595223427,0.000299666746287,0.000340007973136,-0.00245686038397,0.000146572856465,-6.9221467129e-05,-6.04330743954e-05,0.000181744035217,0.47014435666,0.0048326554705,0.177649847366,0.00799350522015,0.933790687983,0.357278500319,0.0179757560639
-0.0265435408801,-0.0175266582519,0.0373404659331,-2.51449322701,-0.0032610821072,2.5362443924,-0.717339098454,0.0638595223427,0.000309099763399,0.000479068257846,-0.000249536358751,2.26052034122e-05,9.90550233837e-06,1.71219598997e-05,0.00018111425743,0.470144551767,0.00480154202954,0.177649984909,0.00799375164511,0.933802243139,0.357248302747,0.0179755531877
-0.0265469904989,-0.0175243765116,0.0373061820865,-2.51449322701,-0.00326211098582,2.53624463081,-0.717338085175,0.0638595223427,-1.73779662873e-05,-0.000187574143638,-0.00306488689966,0.000153628236149,3.23113295053e-06,-4.61575109512e-05,0.00016497123579,0.470144432783,0.00478385401988,0.17764894636,0.00799369178469,0.933809034464,0.357230606181,0.0179744746106
-0.0265457816422,-0.0175294987857,0.037279561162,-2.51449131966,-0.00326187512837,2.53624415398,-0.717337310314,0.0638595223427,0.00022015463037,-0.000189566795598,-0.00239600776695,0.000115406313853,-1.95048123715e-05,-0.000159087430802,0.00015688953863,0.470146150347,0.00477198091893,0.177652065066,0.00799485987387,0.933813687678,0.35721826264,0.0179775260374
-0.0265464894474,-0.0175262335688,0.0372072346509,-2.51449513435,-0.00326205347665,2.53624415398,-0.717338442802,0.0638595223427,-0.000203089264687,-0.000416165887145,-0.00198134593666,0.000439937168267,3.78716176783e-05,9.57786251092e-05,-0.000297073682304,0.470144192576,0.00473783015771,0.177649052761,0.00799370401909,0.933826570528,0.357184778857,0.0179741567264
-0.026550129056,-0.0175255965441,0.0371822118759,-2.51449346542,-0.00326199852861,2.53624558449,-0.717339217663,0.0638595223427,-1.08072044895e-05,-0.000607173482422,-0.00182656222023,0.000595362624153,3.2554155041e-05,7.07657382009e-05,2.74153862847e-05,0.470145328007,0.00472444335935,0.177649555324,0.00799416554848,0.933831537099,0.3571717267,0.0179752877084
-0.0265482310206,-0.0175284426659,0.0371546521783,-2.51449012756,-0.00326185533777,2.53624486923,-0.71733725071,0.0638595223427,0.000250439363299,-0.000209597637877,-0.000934097799473,-3.08100097755e-05,1.53252894961e-05,-9.85053920886e-05,-0.000134314526804,0.470147316778,0.00471246675326,0.177652144338,0.00799511559992,0.933836443542,0.357158748536,0.0179778438018
-0.0265460014343,-0.0175275914371,0.0371320918202,-2.51449108124,-0.00326016265899,2.53624415398,-0.717336773872,0.0638595223427,0.000265871960437,0.000536553852726,-0.00123937695753,0.000217665859964,9.79047763394e-05,-2.18129298446e-05,-0.000156473965035,0.470146675896,0.00470305606483,0.177651306902,0.00799419547378,0.933840429041,0.357148399122,0.0179768355605
-0.026544727385,-0.0175277888775,0.0371113494039,-2.51449036598,-0.00326133659109,2.53624463081,-0.717339634895,0.0638595223427,0.000420592754381,-0.000206430515391,-0.000845381699037,5.26623152837e-05,3.9408208977e-05,-3.49585243384e-05,-0.000139385971124,0.470147241124,0.00469390409954,0.177651733355,0.00799479440332,0.933843212245,0.357141082608,0.0179773469804
-0.0265467092395,-0.0175266414881,0.0370988845825,-2.51449227333,-0.00326169794425,2.53624415398,-0.71733880043,0.0638595223427,0.000143220881,0.000615601835307,-0.00191622111015,1.70296316355e-05,6.10261304246e-05,-5.92819415033e-05,2.98878308058e-06,0.470145961271,0.00468681640736,0.177650136991,0.00799422647527,0.933845989333,0.357133934367,0.017975348652
-0.026548769325,-0.0175268687308,0.0370840989053,-2.51449394226,-0.00326179061085,2.53624391556,-0.717338085175,0.0638595223427,0.000128905143356,-3.86510473618e-05,-0.000736457528546,0.000228446049732,-2.24895884458e-05,-4.8472204071e-05,0.000312943389872,0.470145464584,0.0046789332964,0.177649897901,0.00799404343757,0.933849213739,0.357125533224,0.017974828865
-0.0265481527895,-0.017529854551,0.0370638594031,-2.51449108124,-0.00326145859435,2.53624486923,-0.717337906361,0.0638595223427,0.000242362220888,-0.000329481437802,0.000296993093798,6.58142089378e-05,1.37353381433e-05,5.84015288041e-06,-0.000229942059377,0.470147517008,0.00467008114842,0.17765245999,0.0079951966025,0.933852582151,0.357116538178,0.0179780278758
-0.0265453346074,-0.0175277218223,0.0370514690876,-2.51449227333,-0.00326206977479,2.53624558449,-0.717337846756,0.0638595223427,0.000190592647414,0.000216119544348,0.000612773990724,0.000367787433788,6.40965008643e-05,-7.40110845072e-05,0.000120354372484,0.470146822308,0.00466558829111,0.177651062009,0.00799485866742,0.933854237181,0.357112281632,0.0179767607736
-0.0265466049314,-0.0175245087594,0.0370370447636,-2.51449251175,-0.00326026044786,2.53624391556,-0.717338740826,0.0638595223427,-0.00012133277778,-0.000404882710427,-0.000158232418471,9.769663302e-05,0.000197516244953,-6.8967579864e-05,0.000187154349987,0.470145924179,0.00465835122924,0.177649301566,0.00799345200947,0.933857190173,0.35710470235,0.0179745467784
-0.0265468228608,-0.0175255779177,0.0370273962617,-2.51449370384,-0.003261762904,2.53624463081,-0.717339932919,0.0638595223427,3.26206281898e-05,0.000478952482808,0.000665335159283,0.000326836045133,0.00014987931354,-5.749311822e-05,-0.00010056746396,0.470145728381,0.00465365258953,0.177649407312,0.00799400594457,0.933858515599,0.357101218475,0.0179746532979
-0.0265485327691,-0.0175282657146,0.0370050370693,-2.51448988914,-0.00326072936878,2.53624463081,-0.717338204384,0.0638595223427,-0.000383597245673,-0.00075110088801,9.79354808806e-05,0.000736461544875,9.75729708443e-05,0.000124644328025,-0.000129377702251,0.470148061823,0.00464246181004,0.177652176768,0.0079949175034,0.9338632136,0.35708875496,0.0179777736747
-0.0265460163355,-0.0175268799067,0.0369922295213,-2.51449179649,-0.00326369237155,2.53624486923,-0.717340171337,0.0638595223427,0.000275249447441,0.00104932521936,-0.000949029577896,-0.000395246926928,-9.81204429991e-05,-0.000217339373194,-0.000445277255494,0.470147047013,0.00463750096283,0.177650802891,0.00799518239791,0.933864297824,0.357086000587,0.0179760445648
-0.0265477690846,-0.0175255928189,0.0369823276997,-2.51449155807,-0.00326149724424,2.53624463081,-0.717339515686,0.0638601779938,-0.000181627532584,-0.000130127518787,-0.000203331321245,0.000470881408546,-4.26500846515e-05,-0.000472821760923,0.00013451979612,0.470146863083,0.00463198586321,0.177650214806,0.00799440479795,0.933866849671,0.357079368783,0.0179755571144
-0.0265462957323,-0.0175259076059,0.0369724668562,-2.51449418068,-0.00326089956798,2.53624415398,-0.717340350151,0.0638601779938,0.000186172270332,0.000158814684255,-0.0017484963173,-0.00155807996634,3.8123849663e-05,6.01379033469e-05,-0.00159858434927,0.470145707301,0.00462826886649,0.177649345052,0.0079937147953,0.933868287563,0.357075681415,0.0179744105522
-0.026550238952,-0.0175278820097,0.0369430631399,-2.51449227333,-0.00326188700274,2.53624463081,-0.717339992523,0.0638601779938,-1.54697283961e-06,-0.00020242818573,-0.000619220314547,-0.000239358458202,-2.08866294997e-05,-5.56851045985e-05,0.000391245237552,0.470147175097,0.00461262465753,0.177651077716,0.00799483440345,0.933874123053,0.357060298811,0.0179763070292
-0.026548974216,-0.0175288487226,0.0369317829609,-2.51449203491,-0.00326261017472,2.53624534607,-0.717337906361,0.0638601779938,4.92694925924e-05,2.20228903345e-05,6.58569888401e-06,0.000269306387054,3.19146201946e-05,3.04162713292e-05,-0.000126425482449,0.470147639433,0.00460790907774,0.177651698205,0.00799536199071,0.933876161324,0.357054914324,0.0179771337746
-0.0265466663986,-0.0175265278667,0.0369199551642,-2.51449322701,-0.00326147140004,2.53624486923,-0.717339336872,0.0638588666916,-0.000242000765866,-0.000286458089249,-0.000103583028249,-0.000178889269591,3.58318975486e-05,-2.6239978979e-05,-5.24494225829e-06,0.470146656724,0.00460352780839,0.177650096337,0.00799431993266,0.933877807646,0.357050719463,0.0179753901773
-0.0265457201749,-0.0175264514983,0.0369129106402,-2.51449275017,-0.00326174078509,2.53624463081,-0.717337965965,0.0638588666916,7.74097788963e-05,0.000666070031002,-0.00048795825569,-0.000190424907487,-3.78122131224e-05,0.0039802971296,0.00011390754662,0.470146847681,0.00460066836365,0.177650227086,0.00799440641498,0.933879100865,0.357047332345,0.0179754438994
-0.0265490468591,-0.017527077347,0.0369043275714,-2.51449322701,-0.00326212635264,2.53624534607,-0.717338085175,0.0638588666916,-0.00044598247041,-0.000317568803439,-5.88594630244e-05,2.64273348876e-05,4.9929090892e-05,3.01947929984e-05,0.00145215378143,0.470146929132,0.0045950700034,0.17765040531,0.00799471077988,0.933881142012,0.357041969482,0.0179757866862
-0.0265459902585,-0.0175279621035,0.03689770028,-2.51449155807,-0.00326161156408,2.53624582291,-0.717337906361,0.0638588666916,0.000321675819578,-0.00261569418944,-4.93728439324e-05,-0.000151143336552,-4.24751524406e-05,0.000105609098682,-0.000226443968131,0.470147974683,0.00459344305906,0.177651525214,0.00799508726024,0.933881858702,0.357040012169,0.0179772623745
-0.0265462789685,-0.0175278466195,0.0368901602924,-2.51449322701,-0.00326147302985,2.53624463081,-0.717339277267,0.0638588666916,-0.000408910564147,0.000290219119051,-0.000162336742505,8.09161065263e-05,1.66472418641e-05,-0.000225198891712,-0.000129654959892,0.470147252569,0.00459017455549,0.177651239815,0.00799475299697,0.933883020609,0.357037008362,0.0179767095893
-0.026546401903,-0.017527597025,0.03686382249,-2.51449322701,-0.00326195009984,2.53624486923,-0.717339932919,0.0638588666916,-1.48524577526e-05,0.000233962273342,-0.000380642275559,0.000203107934794,6.61963422317e-05,-0.000153597298777,-0.00012899680587,0.470147083561,0.00457738896744,0.177650615547,0.00799470819997,0.933887597724,0.357025082929,0.0179757977133
-0.026549635455,-0.0175274033099,0.0368578545749,-2.51449394226,-0.00326067185961,2.5362443924,-0.717340886593,0.0638588666916,0.000269691401627,0.000168786849827,0.000162148848176,0.000451101514045,5.36804727744e-05,6.21444778517e-05,0.000131912573124,0.470146654337,0.00457314208032,0.17765019886,0.00799415696315,0.93388926853,0.357020751997,0.0179752581891
-0.0265453066677,-0.0175265297294,0.0368521995842,-2.51449346542,-0.00326170190237,2.53624415398,-0.717340052128,0.0638588666916,-5.7062941778e-05,0.000545047747437,0.000418266223278,8.54942991282e-05,4.36482787336e-06,-8.26911054901e-05,-0.000105150422314,0.470146699903,0.00457248586849,0.177649954716,0.00799427321405,0.933889510809,0.357020134752,0.0179748787004
-0.0265461783856,-0.0175279732794,0.0368525460362,-2.51449513435,-0.00326198316179,2.53624486923,-0.717339396477,0.0638588666916,-0.000135663955007,-0.000258617306827,9.10832113732e-06,0.000112234098196,-6.79887452861e-05,-0.000113618232717,0.00014856850612,0.470146291746,0.00457221091671,0.177650045709,0.00799446098771,0.933889676055,0.357019688677,0.0179750698011
-0.0265491455793,-0.0175286456943,0.0368445850909,-2.51449394226,-0.00326116080396,2.53624415398,-0.717340528965,0.0638588666916,-6.25442698947e-05,5.87690863085e-07,-0.000659735873342,-9.90162297967e-05,1.41416094266e-05,0.000154675683007,0.000350666610757,0.470146855612,0.00456713946957,0.177650763624,0.00799449128059,0.933891534135,0.357014797613,0.0179756655059
-0.0265485905111,-0.0175271034241,0.0368415042758,-2.51449608803,-0.00326157035306,2.53624558449,-0.717340528965,0.0638588666916,-0.000120407770737,0.000210363505175,-0.000180263697985,0.000188410383998,1.40187867146e-05,-0.000142749107908,2.16193311644e-05,0.470146041995,0.00456553480054,0.177649588457,0.00799417111763,0.933892189292,0.357013144286,0.0179746071146
-0.0265468023717,-0.0175265427679,0.0368365384638,-2.51449322701,-0.00326138664968,2.53624510765,-0.717341482639,0.0638588666916,0.000256593455561,-0.000128662839415,0.000145050755236,0.000101008648926,-0.000100708355603,-9.26508146222e-05,-0.000207444230909,0.470147099302,0.00456448392506,0.177650151284,0.00799443528126,0.933892353199,0.357012666974,0.0179754540319
-0.0265457611531,-0.017527397722,0.0368335023522,-2.51449465752,-0.00326185068116,2.53624534607,-0.717340111732,0.0638588666916,-0.000321817060467,0.000161547301104,-0.00269521190785,0.000389697263017,2.54052383752e-06,-3.69600493286e-05,-0.000268275674898,0.470146616821,0.00456352014692,0.177650014477,0.00799449943626,0.933892889731,0.357011272269,0.0179752509631
-0.0265464801341,-0.0175261758268,0.0368286222219,-2.5144944191,-0.0032622050494,2.53624653816,-0.717342495918,0.0638588666916,-0.000495502608828,-0.000343923515175,0.000177238951437,-0.000463995762402,-0.000186703662621,-2.66311308224e-05,0.000144774123328,0.470146822628,0.00456089272641,0.177649650683,0.00799464270434,0.933893410109,0.35700990505,0.0179753059787
-0.0265462361276,-0.0175261162221,0.0368269681931,-2.51449394226,-0.00326151866466,2.536247015,-0.717341244221,0.0638588666916,0.000123553720186,7.66420416767e-05,-0.000237409505644,-0.000687840685714,-3.04134100588e-05,3.27139605361e-05,-3.08837770717e-05,0.470147147558,0.00456027442196,0.177649856606,0.00799459606826,0.93389397666,0.357008399179,0.0179758002128
-0.0265487637371,-0.0175282508135,0.0368259996176,-2.51449561119,-0.00326100597158,2.53624582291,-0.717340707779,0.0638588666916,-0.000359186407877,-0.000989200081676,-0.000571179145481,-0.000103225946077,-4.89910562465e-05,0.000109314096335,-6.65218321956e-05,0.470146449056,0.00455863926044,0.177650088464,0.00799438604377,0.93389477787,0.357006323707,0.0179754882199
-0.0265490021557,-0.0175270736217,0.0368089601398,-2.5144944191,-0.00326186860912,2.53624725342,-0.717340111732,0.0621101595461,2.10274265555e-05,-0.0005853640032,-0.00294433860108,0.000609226874076,5.17769103681e-06,-2.49357581197e-05,-0.000265221286099,0.470147218331,0.00455053391039,0.177650147388,0.00799486377822,0.933897830298,0.356998298389,0.0179760771558
-0.0265480373055,-0.0175265762955,0.0368075296283,-2.51449513435,-0.00326196174137,2.53624510765,-0.71734136343,0.0621101595461,-0.00039433821803,0.00022812410316,-0.000336209777743,-0.000193248386495,-3.50611371687e-05,-3.50911941496e-05,2.24555915338e-05,0.470146343164,0.00455030603047,0.177649425777,0.00799430399139,0.933897707703,0.356998711357,0.0179744937361
-0.0265474785119,-0.0175277367234,0.0367983207107,-2.51449608803,-0.00326178898104,2.53624606133,-0.717342555523,0.0621101595461,5.44322065252e-05,-5.16725121997e-05,-0.000372374837752,1.05589458599e-06,-2.60056876868e-05,-7.29909224901e-05,-0.00234917690977,0.470146317819,0.00454626719574,0.177649690797,0.00799449071811,0.933899053505,0.356995159108,0.01797503933
-0.0265513788909,-0.0175300836563,0.0367926619947,-2.51449465752,-0.00326217664406,2.53624653816,-0.717342436314,0.0621101595461,-0.000450098305009,0.000223637311137,0.000377344840672,-0.000160363721079,-5.09994315507e-05,0.000227569122217,-0.000300481333397,0.470147505306,0.00454176762017,0.177651403798,0.00799541467802,0.933900686223,0.35699077049,0.0179769598991
-0.026549141854,-0.0175277218223,0.0367867089808,-2.51449656487,-0.00325980666094,2.53624582291,-0.717342317104,0.0604941025376,0.000181503797648,0.000504936790094,-0.00107869994827,8.20695058792e-05,0.000128298721393,0.000132705346914,-0.000286226335447,0.470146098561,0.00454015891215,0.177649476476,0.00799384310816,0.933901760444,0.356988099958,0.0179748848464
-0.0265456549823,-0.0175256989896,0.0367838703096,-2.51449465752,-0.00325942784548,2.53624725342,-0.717342376709,0.0604941025376,0.000106670544483,0.000296229787637,0.00180973787792,-0.000276451231912,9.86804843706e-06,-0.000126108963741,-0.000473185675219,0.470146991141,0.00454051375261,0.177649414905,0.00799390288903,0.93390167685,0.356988283022,0.017975565763
-0.0265459902585,-0.0175254959613,0.0367814227939,-2.51449418068,-0.0032586210873,2.53624653816,-0.717341959476,0.0604941025376,0.000122382305562,-0.00024147843942,0.000124999685795,7.01328171999e-05,-1.93466003111e-05,8.73813121416e-07,-2.82943256025e-05,0.470147043254,0.00453925553242,0.177649438588,0.007993603689,0.93390236946,0.356986484121,0.017975440424
-0.0265497695655,-0.0175266228616,0.0367766097188,-2.5144944191,-0.00326077267528,2.53624606133,-0.717342972755,0.0604941025376,5.6690609199e-05,3.92488800571e-05,0.000162491429364,7.89742989582e-05,3.54789408448e-05,-4.75574961456e-05,-0.0007440589834,0.470147043635,0.00453510956963,0.177649830024,0.00799433281488,0.933903406603,0.356983757326,0.0179753850878
-0.0265490375459,-0.0175275690854,0.0367730744183,-2.51449322701,-0.00325966533273,2.53624582291,-0.71734213829,0.0604941025376,-0.000239778644755,0.000393906113459,-9.496207349e-05,0.000178034591954,4.14923670178e-05,-7.77502864366e-05,-0.00046041875612,0.470147714981,0.00453386079569,0.177650721258,0.00799436454368,0.933904199586,0.356981631714,0.0179763854897
-0.026546753943,-0.0175273772329,0.0367717891932,-2.51449418068,-0.0032593079377,2.53624606133,-0.717341423035,0.0604941025376,0.000130396874738,9.82687415672e-05,-8.96761557669e-05,9.10245125851e-06,7.53333661123e-05,-1.30448388518e-05,1.21191296785e-05,0.470147504258,0.00453407389556,0.177650549878,0.00799422181529,0.93390435309,0.356981224256,0.0179765655995
-0.0265490785241,-0.0175276584923,0.0367707870901,-2.51449584961,-0.00325837498531,2.53624725342,-0.717341721058,0.0604941025376,-0.000438085553469,0.000681721663568,-8.24094677228e-05,-0.000645707070362,-6.67792937747e-06,-0.000231730620726,0.000126935672597,0.470146517115,0.00453248092179,0.177649362738,0.00799360745899,0.933905015703,0.356979564282,0.0179753791655
-0.0265483912081,-0.0175247620791,0.0367663986981,-2.51449656487,-0.00325933541171,2.53624653816,-0.717342615128,0.0604941025376,-0.000102326062915,-0.000431372085586,0.00015302655811,0.000254631740972,0.000115583272418,8.56229598867e-05,9.49801778916e-06,0.470145846008,0.00453108453284,0.177648165305,0.00799323519382,0.933905304622,0.356978886542,0.0179739933922
-0.0265491828322,-0.0175263918936,0.0367618091404,-2.51449513435,-0.00325790396892,2.53624796867,-0.717343151569,0.0604941025376,0.000385479826946,0.000256221013842,0.00417292164639,-4.77077555843e-05,0.000108674430521,-5.65476293559e-05,-0.00042696215678,0.470147143963,0.00452862128599,0.177649628387,0.00799371578264,0.933906319256,0.356976114217,0.0179761209841
-0.0265491567552,-0.0175276473165,0.0367577448487,-2.51449513435,-0.00325918663293,2.53624677658,-0.717344164848,0.0604941025376,0.000198412468308,-0.000146333695739,-0.000197246059543,-0.000102748752397,-4.00870485464e-05,0.000108040243504,-8.64222674863e-05,0.470147101633,0.00452665829693,0.177650104576,0.00799411418456,0.933906672975,0.356975185747,0.0179760050161
-0.0265468042344,-0.0175255630165,0.0367568582296,-2.5144970417,-0.00326041481458,2.53624796867,-0.717340886593,0.0604941025376,-0.000510574900545,-4.14648820879e-05,0.000198688736418,-0.000524146598764,-4.80032758787e-05,0.000162423602887,-8.70497824508e-05,0.470147723878,0.0045265278563,0.17765011986,0.00799419433736,0.93390705104,0.356974183015,0.0179762404281
-0.0265452750027,-0.0175294522196,0.0367461256683,-2.51449370384,-0.00325863622129,2.53624916077,-0.717344284058,0.0542623363435,7.13118133717e-05,0.00012902112212,-0.000542439811397,5.82544453209e-05,0.000141430035001,-0.000106535168015,2.29826073337e-05,0.470148607076,0.00452308877898,0.177651748664,0.00799494376108,0.933908061262,0.356971399865,0.0179786915039
-0.0265521910042,-0.0175273027271,0.036732044071,-2.51449728012,-0.00325882039033,2.536247015,-0.717347860336,0.0542623363435,0.000502351264004,-0.00057401083177,-8.84895562194e-05,0.000690148561262,9.68919557636e-05,-0.000219680776354,4.70508093713e-05,0.470146216594,0.00451323082565,0.17764912954,0.00799369962344,0.933911216621,0.356963361232,0.0179749453296
-0.026550764218,-0.0175272449851,0.0367307625711,-2.51449632645,-0.00325976638123,2.53624868393,-0.717345356941,0.0542623363435,0.000468796555651,0.00101981882472,-0.000390890432755,0.000469859922305,5.41291374248e-05,-3.64822881238e-05,-0.000256896601059,0.47014701793,0.00451326335966,0.177649639018,0.00799436750941,0.933911476463,0.35696260994,0.0179760676768
-0.0265495907515,-0.0175270698965,0.0367318503559,-2.51449751854,-0.00325940968469,2.53624749184,-0.71734470129,0.0542623363435,-0.000150425548782,0.000307722279103,-0.000379863544367,-3.5968998418e-05,1.58989132615e-05,-1.40017182275e-05,-0.000295776553685,0.470146159965,0.0045143331838,0.177648972558,0.00799380612911,0.933911265214,0.356963233349,0.0179749128453
-0.0265491809696,-0.0175278447568,0.0367279835045,-2.51449751854,-0.00325777148828,2.53624796867,-0.717343568802,0.0542623363435,-0.000297854276141,-0.000243559363298,-0.000293454766506,-0.000683004152961,7.86971795605e-05,-4.20508440584e-05,0.000240292138187,0.470146397774,0.00451280249796,0.177649383592,0.00799357629193,0.933912310716,0.356960465325,0.0179756644178
-0.0265505723655,-0.0175281148404,0.0367246568203,-2.51449799538,-0.00326005625539,2.53624534607,-0.717345654964,0.0542623363435,0.000143603683682,0.000104763661511,-0.00302990176715,-5.3715143622e-06,-2.83761819446e-05,1.42776898429e-05,0.00255747465417,0.470145672562,0.00451046281639,0.177649071141,0.0079937537838,0.933912475549,0.356960109515,0.0179740873295
-0.026551740244,-0.0175260659307,0.0367214158177,-2.5144982338,-0.00326143228449,2.536247015,-0.71734392643,0.0542623363435,0.000389429653296,-9.77835807134e-05,9.4470779004e-05,-0.000172783635207,2.87488492177e-05,2.22044636757e-05,-9.30764799705e-05,0.470145685608,0.0045083967997,0.177648238461,0.00799396624986,0.933913416741,0.356957654252,0.0179738501997
-0.0265510380268,-0.0175257772207,0.0367167666554,-2.51449608803,-0.00325983180664,2.53624796867,-0.717344164848,0.0499500073493,0.000148199906107,-0.00018017659022,-0.000123944904772,0.000293995050015,-2.23837760132e-05,-0.000140723932418,0.000101527381048,0.470146814064,0.00450659528907,0.177648978255,0.00799402762911,0.93391424503,0.356955420174,0.0179751535504
-0.0265501663089,-0.0175274591893,0.0367164202034,-2.51449608803,-0.00325878034346,2.53624725342,-0.717345237732,0.0499500073493,-0.00016854928981,2.43484646489e-05,-8.13748920336e-05,0.000158997077961,1.7547270545e-05,-0.000125373961055,-0.000105228260509,0.470146918188,0.00450688906915,0.177649699466,0.0079939388061,0.933914103826,0.356955764046,0.0179757007339
-0.0265487954021,-0.0175270941108,0.0367176607251,-2.51449751854,-0.0032594348304,2.536247015,-0.717344760895,0.0499500073493,-7.90819467511e-05,-0.000164244440384,0.000353916577296,0.000308362417854,-2.66003662546e-05,0.000156505819177,-8.81886517163e-05,0.470146122493,0.00450807271391,0.177648942136,0.00799374139393,0.933913646347,0.356957016207,0.017974691436
-0.0265526939183,-0.0175289232284,0.0367117524147,-2.51449728012,-0.00325892749242,2.53624749184,-0.717344999313,0.0499500073493,-0.000149646642967,0.000509783567395,0.000782895251177,-0.000508451543283,-3.79250923288e-05,-1.50240812218e-05,-0.000634483294562,0.470146666214,0.00450350018061,0.177649943035,0.00799411728991,0.933915404669,0.356952346401,0.0179759031559
-0.0265526585281,-0.0175267923623,0.0367088541389,-2.51449847221,-0.00325945718214,2.53624653816,-0.717344999313,0.0499500073493,0.000133937472128,-0.000976755982265,-0.000626099179499,-0.000367035041563,-0.000129816879053,1.99572832571e-06,0.00369989266619,0.470145579844,0.00450213453211,0.177648381955,0.00799348671335,0.933915878008,0.356951225141,0.017973856841
-0.026550995186,-0.017528116703,0.0367035195231,-2.51449871063,-0.00325956568122,2.53624677658,-0.717344224453,0.0486885495484,0.00219929567538,-6.56306874589e-05,6.41927617835e-05,-0.000227027499932,-5.75557241973e-05,-0.000138487783261,5.04359595652e-05,0.470145741129,0.00450041178288,0.177648935077,0.00799375170725,0.933916643874,0.356949184834,0.0179744641299
-0.026551252231,-0.0175279900432,0.0366987138987,-2.51449775696,-0.0032589873299,2.53624749184,-0.717346072197,0.0486885495484,0.000148345687194,-0.000198805661057,4.21007571276e-05,4.13332782045e-05,1.71363844856e-05,3.44147301803e-05,3.08096277877e-05,0.470146349052,0.00449808271802,0.177649320957,0.00799388107106,0.933917287552,0.356947458985,0.0179752353602
-0.0265500266105,-0.0175269953907,0.0366999767721,-2.51449942589,-0.00325864204206,2.53624892235,-0.717345952988,0.0486885495484,-0.000161991061759,-0.000428138620919,0.000157869799295,6.16613178863e-05,-0.000103007383586,2.64663267444e-05,-0.00421759765595,0.470145702203,0.00449926715182,0.177648335022,0.00799354014044,0.933916925471,0.35694844063,0.0179747058948
-0.0265475660563,-0.017526993528,0.0366979278624,-2.51450181007,-0.00325945345685,2.53624677658,-0.71734637022,0.0486885495484,0.000109185013571,-0.000615830300376,-0.00029992806958,0.000220275644097,1.82139210665e-05,1.44059440572e-05,-0.00545472092927,0.470144111586,0.00449940554975,0.177647190248,0.00799296158947,0.933916701658,0.356949149982,0.0179725051726
-0.0265511143953,-0.0175265427679,0.03668705374,-2.51449966431,-0.00325941061601,2.53624749184,-0.717345297337,0.0486885495484,0.000196182299987,0.000540557608474,0.000308042624965,-0.00029117174563,-0.000106244478957,1.73190783244e-05,-0.000839002372231,0.470145275565,0.00449267235366,0.177647894469,0.0079933918617,0.933919451722,0.356941888613,0.0179736256813
-0.0265476815403,-0.01752618514,0.0366891138256,-2.51449894905,-0.00325933750719,2.53624868393,-0.717345893383,0.0486885495484,-0.000228285513003,8.13412916614e-05,-0.00014603130694,-0.000215425912756,-9.02550964383e-05,-7.69941179897e-05,1.40670708788e-05,0.470145789987,0.00449526155147,0.177648122129,0.00799360611695,0.933918361105,0.356944699604,0.0179743751425
-0.0265483669937,-0.0175284743309,0.0366852357984,-2.51449966431,-0.0032595936209,2.53624773026,-0.717346668243,0.0487010255456,-0.000245856819674,0.000143308992847,2.76188602584e-05,0.000277070357697,-4.34134490206e-05,7.79255278758e-05,-0.00699930265546,0.470145622952,0.0044930975997,0.177648825613,0.00799384099345,0.933918994888,0.356943023977,0.0179746157933
-0.0265511553735,-0.0175285600126,0.0366822369397,-2.51449751854,-0.0032589295879,2.53624796867,-0.717346012592,0.0487010255456,3.02153257508e-05,0.000562741479371,0.00389788905159,-0.000498347100802,4.38466267951e-05,0.000104434591776,-5.56761624466e-05,0.470146727719,0.00449043100601,0.177649733436,0.00799411086836,0.933920218764,0.356939754578,0.0179758299487
-0.026549141854,-0.0175265260041,0.036681689322,-2.51449871063,-0.00325871817768,2.53624725342,-0.717346668243,0.0487010255456,-0.000518293178175,0.000438133254647,0.000601969542913,-0.000193115454749,-2.9620650821e-05,1.76471930899e-05,-0.000137292256113,0.470145687599,0.00449113301104,0.177648240077,0.00799332257538,0.933919906844,0.356940679391,0.0179740222464
-0.0265483576804,-0.0175285954028,0.0366823002696,-2.51450109482,-0.00325905811042,2.53624844551,-0.717345952988,0.0487010255456,-0.000703076308127,0.000221948692342,0.00416908739135,0.0001199417311,-7.03409896232e-05,-6.37058619759e-05,0.00438604690135,0.470145132555,0.00449175246798,0.177648389845,0.00799358810343,0.933919727744,0.356941123428,0.0179743920933
-0.0265508685261,-0.0175256226212,0.0366768203676,-2.51449918747,-0.0032591545023,2.53624629974,-0.717346549034,0.0487010255456,0.000585421337746,0.000486935168738,-0.000125650549307,-0.000229666286032,1.78153059096e-05,-4.09389867855e-05,0.00025208981242,0.470145146764,0.00448802138008,0.177647537566,0.00799304136079,0.933921063606,0.356937716573,0.0179728799891
-0.0265521425754,-0.0175270624459,0.0366707146168,-2.51450109482,-0.00325978687033,2.53624677658,-0.717346608639,0.0487010255456,0.000174984525074,0.000650728179608,0.000236576248426,0.000157052927534,-4.5644196689e-06,-7.20281313988e-05,-0.000144877689308,0.470144605375,0.0044845217038,0.177647512017,0.00799325788587,0.933922278213,0.356934537665,0.0179728014858
-0.0265493597835,-0.01752762869,0.0366708822548,-2.51450061798,-0.00325983273797,2.53624653816,-0.717345178127,0.0487010255456,-4.83227850054e-05,0.00094875250943,0.000113806891022,0.000182526564458,7.5386975368e-05,-7.83140931162e-05,0.000245759816607,0.470145007896,0.00448598500042,0.177648145178,0.00799360000475,0.933921891102,0.356935505783,0.0179735382547
-0.0265491548926,-0.0175281260163,0.0366680584848,-2.5144982338,-0.00326022901572,2.53624653816,-0.717345356941,0.0487010255456,-8.78062928678e-05,-4.59890543425e-05,-0.000264770002104,6.51832624499e-06,-9.29248053581e-05,-0.000114234659122,-0.000269119860604,0.470146070664,0.0044846712001,0.177649114577,0.00799400231356,0.933922345024,0.35693426103,0.0179744925004
-0.0265500620008,-0.0175262000412,0.0366655215621,-2.5145008564,-0.00325887952931,2.53624629974,-0.717345118523,0.0487010255456,3.88764819945e-05,-0.000168690268765,-0.000258783285972,6.29000205663e-05,3.58818761015e-05,7.57038142183e-05,0.000219963112613,0.470144495186,0.00448312364043,0.17764715595,0.00799277606538,0.933923241643,0.356932048141,0.017972393955
-0.0265491493046,-0.0175294112414,0.0366616435349,-2.51450014114,-0.00325816380791,2.53624725342,-0.717346191406,0.0487010255456,-0.000310149829602,0.000220928239287,0.00198731059209,-0.000140370568261,-9.7989483038e-05,0.000128991290694,0.000122291239677,0.470145597727,0.00448168637204,0.177649064531,0.0079936170557,0.933923571465,0.356931053729,0.017974629863
-0.0265500787646,-0.0175264906138,0.0366582535207,-2.51450037956,-0.00326016289182,2.53624773026,-0.717346072197,0.0487010255456,-0.00019770207291,-0.00024387378653,0.000480220594909,-0.000118592724903,3.4603599488e-06,4.19722491642e-05,-9.4234412245e-05,0.470145129935,0.00447970753694,0.177647573887,0.00799342379433,0.933924192666,0.35692950516,0.0179731900299
-0.0265522561967,-0.0175278298557,0.0366547442973,-2.51449990273,-0.00325823668391,2.53624749184,-0.717346489429,0.0481316968799,-0.00230961665511,-0.000360455160262,-2.50148491432e-06,-0.000129746127641,-9.4747498224e-05,5.22295958945e-05,4.8004079872e-05,0.470145514298,0.00447709051143,0.177648414918,0.00799332355317,0.933925370966,0.356926373586,0.0179741973244
-0.0265504419804,-0.0175280682743,0.0366547442973,-2.51450061798,-0.00325989583507,2.53624868393,-0.717346608639,0.0481316968799,-0.0018081915332,-0.00028432084946,-0.000193022075109,-0.000360069883754,3.09684219246e-06,0.000180937888217,1.98709185497e-05,0.470145384031,0.00447778733461,0.177648235256,0.00799388218202,0.933924785327,0.356927887736,0.0179743105797
-0.0265492536128,-0.0175253804773,0.0366527251899,-2.51450109482,-0.00326061341912,2.53624606133,-0.717345893383,0.0481316968799,0.000106245439383,0.000664529681671,-4.75261622341e-05,-8.05955860415e-05,-5.09963138029e-05,-2.0783591026e-05,0.000223022390855,0.470144259635,0.00447743417311,0.177646658146,0.00799302395441,0.933925003538,0.356927472103,0.0179716075434
-0.026548018679,-0.0175271965563,0.0366504900157,-2.5144982338,-0.00325917825103,2.53624773026,-0.717347204685,0.0481316968799,-7.54896027502e-05,-0.00159930845257,0.000139439245686,0.00022564259416,2.5158167773e-05,-1.21397551993e-05,-3.18563470501e-05,0.470146257238,0.00447705702765,0.177648798009,0.00799376427061,0.933925098243,0.356927051263,0.0179747146549
-0.0265506785363,-0.0175269898027,0.0366478487849,-2.51450061798,-0.00325965392403,2.53624796867,-0.717347502708,0.0481316968799,-0.000220618181629,-0.000445542333182,3.66095191566e-05,-0.000484518881422,-9.47069565882e-05,-4.35831098002e-05,0.00019854978018,0.47014517365,0.00447453685309,0.177647787231,0.00799351117832,0.933925943426,0.35692490401,0.0179735516192
-0.0265495553613,-0.0175274852663,0.0366442613304,-2.51450133324,-0.00326023297384,2.53624629974,-0.717346489429,0.0481316968799,-0.00130863615777,0.000572527234908,-0.00184765842278,-0.000432264758274,8.86706948222e-06,0.000105423823697,9.65106664808e-05,0.470144564727,0.00447334743225,0.17764757883,0.00799333642846,0.933926497818,0.356923504735,0.0179726096787
-0.0265517570078,-0.0175280924886,0.036638006568,-2.51450061798,-0.00325976125896,2.53624749184,-0.717347145081,0.0481316968799,0.000433127366705,2.5691004339e-05,-0.000414555019233,-6.78843753121e-06,-0.000105026978417,-1.27970779431e-05,5.24569077243e-05,0.470145283857,0.00446934643801,0.17764823611,0.00799365628321,0.933927983246,0.356919550947,0.0179737977574
-0.0265511982143,-0.0175280030817,0.0366363599896,-2.51450228691,-0.00325895985588,2.53624725342,-0.717346012592,0.0481316968799,-0.000190166436369,-0.00033009526669,6.5116029873e-05,-0.000158308830578,5.34492464794e-05,8.79332583281e-05,2.23814313358e-05,0.470144442094,0.00446894480763,0.177647541363,0.00799310219944,0.933928466181,0.356918341439,0.0179729687174
-0.0265483036637,-0.0175258517265,0.0366343036294,-2.51450133324,-0.00325782317668,2.53624796867,-0.717347443104,0.0481316968799,-2.86319154839e-05,0.000350613001501,0.000625371409114,-0.000329502508976,-3.44942272932e-05,0.00012301231618,0.000153576285811,0.4701447085,0.00446941981045,0.177646975021,0.00799265758491,0.933928230512,0.356918972668,0.0179728771033
-0.0265516154468,-0.0175273213536,0.0366281121969,-2.51449966431,-0.00325799919665,2.53624844551,-0.717348873615,0.0481316968799,0.000116630799312,2.66342267423e-05,8.45456743264e-05,-0.000135672773467,7.98077016952e-05,-3.44756517734e-05,0.000281061278656,0.470145871373,0.00446496375049,0.177648369678,0.00799340660068,0.933929612891,0.356915255886,0.0179745213434
-0.0265525765717,-0.0175261311233,0.0366265997291,-2.51450181007,-0.0032577146776,2.53624844551,-0.717346429825,0.0465681739151,-8.84725704964e-06,0.000830109405797,0.000260233180597,0.000267296214588,6.35966862319e-05,-5.41699737369e-05,0.000153229004354,0.470144679558,0.00446377538224,0.177646840114,0.0079926726833,0.933930580186,0.356912828331,0.0179727915224
-0.0265507753938,-0.0175272729248,0.0366255156696,-2.51450037956,-0.0032605745364,2.53624868393,-0.717347621918,0.0465681739151,6.02437785346e-06,3.72946487914e-05,-0.000433404755313,-0.000484739372041,0.000116301947855,1.43079532791e-05,-0.000166013793205,0.470145586813,0.00446400796065,0.17764808981,0.00799400435951,0.933929780823,0.356914828273,0.0179740209679
-0.0265506599098,-0.0175248757005,0.0366226471961,-2.51450157166,-0.00325875682756,2.53624773026,-0.717348456383,0.0465681739151,0.000383219419746,-0.000215613777982,0.000466328201583,-0.00303791626357,8.72736636666e-05,-8.85804838617e-05,-2.52145146078e-05,0.470144456909,0.00446281772209,0.177646403251,0.00799268562119,0.933930428608,0.356913260164,0.0179720867121
-0.0265494212508,-0.0175257306546,0.0366218052804,-2.51450300217,-0.00325787020847,2.53624796867,-0.717348456383,0.0465681739151,0.00344535638578,0.000164288852829,0.000994092551991,2.66745992121e-05,8.93312026164e-05,-3.24961147271e-05,0.000348399567883,0.470143962493,0.00446304294586,0.177646265609,0.00799238766912,0.933930489435,0.356913111161,0.0179720174279
-0.0265488363802,-0.0175279323012,0.0366201587021,-2.5145008564,-0.00325935566798,2.53624939919,-0.717350184917,0.0465681739151,-0.000159587507369,-0.000479367212392,0.00210296874866,-0.000141179174534,-4.1695060645e-05,-6.5151572926e-05,0.000142502060044,0.470145632668,0.00446247670516,0.177648282593,0.00799384662082,0.933930102061,0.356913964316,0.0179745553872
-0.0265479683876,-0.0175278447568,0.036619592458,-2.51450252533,-0.00325936079025,2.53624868393,-0.717348098755,0.0446993000805,-0.000636515382212,-0.00047364376951,6.71995076118e-05,-4.47154852736e-05,-4.79133232147e-05,-4.4017629989e-05,9.0497538622e-05,0.470144674794,0.00446260975208,0.17764751634,0.00799339193166,0.933930442421,0.356913141668,0.0179734079634
-0.0265510808676,-0.0175256431103,0.0366185829043,-2.51450204849,-0.00325928488746,2.53624987602,-0.71734970808,0.0446993000805,0.000135542664793,0.000303562323097,-0.000446773599833,0.00177612400148,-2.19594785449e-05,2.72365559795e-05,2.34232702496e-05,0.470144833433,0.00446069360691,0.177646784731,0.0079932828678,0.933930906369,0.356911942505,0.017973161673
-0.0265520550311,-0.0175276659429,0.036612983793,-2.51449990273,-0.0032590769697,2.53624844551,-0.71734982729,0.0446993000805,-0.000349246460246,-0.000112735935545,-0.00187792838551,-4.46001904493e-05,7.85721204011e-05,-4.57180285593e-05,-0.000386756466469,0.470145893154,0.00445746925634,0.177648599782,0.00799376261937,0.933932064554,0.356908832863,0.017974517159
-0.0265484955162,-0.0175257977098,0.0366151258349,-2.51450133324,-0.00325864041224,2.53624820709,-0.717346727848,0.0446993000805,-0.002731109038,0.00083284691209,-0.000158995273523,3.81336649298e-05,-0.000104075559648,7.80703921919e-05,0.000128298735945,0.470144839854,0.00446032508086,0.17764697846,0.00799292495871,0.933931695216,0.356909900993,0.0179728706878
-0.0265480969101,-0.0175282787532,0.0366136841476,-2.51450228691,-0.00325994007289,2.53624820709,-0.717349171638,0.0446993000805,-4.98088775203e-06,2.00898921321e-05,0.000182191419299,-0.000340447120834,-2.8477055821e-05,8.3622369857e-05,-0.000195636064745,0.470144675445,0.00445976841643,0.177647701372,0.00799351739824,0.933931265619,0.356910986986,0.0179733645387
-0.0265529118478,-0.0175261460245,0.0366105437279,-2.51450157166,-0.00325922318734,2.53624749184,-0.717348814011,0.0446993000805,0.000224507501116,0.000272877048701,3.80826313631e-05,0.00319641525857,0.000141751079354,-0.000123587960843,-0.000128836371005,0.470144668035,0.00445607210143,0.177646980769,0.00799304900845,0.933932850075,0.356906895121,0.0179724961815
-0.0265485290438,-0.0175275206566,0.0366050750017,-2.51450395584,-0.00325838290155,2.53624558449,-0.717347383499,0.0446993000805,5.58416249987e-05,-0.000185716664419,-1.31460328703e-05,-0.000699543801602,0.000137755414471,-0.000265969138127,0.000177091103978,0.470143348366,0.00445559747198,0.177646506562,0.00799229005268,0.933933448304,0.356905410774,0.0179712237807
-0.0265531204641,-0.0175285283476,0.0366047285497,-2.51450181007,-0.00325829721987,2.53624892235,-0.717350482941,0.0446993000805,-0.000609619019087,0.000242061563767,-0.000263594964053,-0.000294872588711,-0.000113171787234,4.64322656626e-05,0.000358694233,0.470145260008,0.00445329791638,0.177648146063,0.00799347683462,0.933933728849,0.356904498237,0.017974239045
-0.0265489798039,-0.0175271239132,0.0365994609892,-2.51450848579,-0.00326025555842,2.53624749184,-0.717349886894,0.0446993000805,0.000294695841148,8.34007296362e-05,-0.000633052608464,-0.000235719388002,4.83214389533e-05,-0.000174435874214,0.000212438084418,0.470141584747,0.0044526486495,0.177644724952,0.00799230166877,0.933933839062,0.356904469424,0.0179696065705
-0.0265540294349,-0.0175290536135,0.0365987159312,-2.51450824738,-0.00325803481974,2.53624582291,-0.717350542545,0.0446993000805,-0.000191170212929,-0.000206548604183,3.23104177369e-05,0.000847916933708,-4.40908952442e-05,4.13383095292e-05,-0.000200448863325,0.470141662099,0.00445003071768,0.17764556421,0.00799186593859,0.933935074362,0.356901225413,0.0179700289308
-0.0265500489622,-0.017527775839,0.0365999266505,-2.51450657845,-0.00325806695037,2.53624653816,-0.717351078987,0.0446993000805,-2.24791824621e-06,4.76710520161e-05,8.53062010719e-05,0.000156543945195,0.000202398819965,-4.80340750073e-05,0.000380710465834,0.470142383469,0.00445248199435,0.177645688764,0.00799201231649,0.933934037322,0.356903908711,0.0179705676928
-0.0265483316034,-0.01752733998,0.0365973748267,-2.51450681686,-0.00325915287249,2.536247015,-0.717349767685,0.0446993000805,0.000272658537142,-0.000175681998371,-0.00256030797027,0.000679497607052,2.76479513559e-05,0.000222093221964,-0.000404540449381,0.470142357984,0.00445218464783,0.177645470262,0.0079922801595,0.933934096072,0.356903761349,0.0179703220183
-0.0265503674746,-0.0175265166909,0.0366003252566,-2.51450610161,-0.00325957685709,2.53624749184,-0.717349410057,0.040206387639,0.000299645296764,-8.39010172058e-05,8.51356526255e-05,0.000342197046848,5.61746617223e-07,-9.23889238038e-05,0.000355907861376,0.470142855662,0.00445248042154,0.17764571316,0.00799254835188,0.933934086074,0.356903749108,0.0179709654065
-0.0265505742282,-0.0175259336829,0.0365971215069,-2.51450610161,-0.00325889000669,2.53624629974,-0.717351257801,0.040206387639,-0.000986113795079,-0.00030561874155,-0.000240870853304,-0.00107346067671,-1.12414645628e-05,-3.96256727981e-05,-4.31405569543e-05,0.47014228702,0.00445089032964,0.177644988639,0.00799193722281,0.933934495079,0.356902754221,0.0179697400022
-0.0265508759767,-0.0175263248384,0.0365978740156,-2.51450824738,-0.00325953867286,2.53624653816,-0.717350244522,0.040206387639,-0.000188055448234,-3.68283726857e-05,0.000313003023621,-6.23902014922e-05,8.75152618391e-05,-0.000158265960636,0.000142252611113,0.470141383122,0.00445105462219,0.177644351568,0.00799185107967,0.933934514957,0.356902743187,0.0179689643297
-0.0265526250005,-0.0175373293459,0.0365937277675,-2.51449561119,-0.00325853493996,2.53624773026,-0.717350542545,0.040206387639,-0.000150082705659,-0.000510856683832,-8.04269875516e-05,0.000669954810292,0.000122283352539,-5.14465173183e-05,0.000125895545352,0.470149348058,0.00444836833559,0.177654607065,0.00799609839753,0.933935433843,0.356899656381,0.0179806224581
-0.0265536811203,-0.0175474397838,0.0365898758173,-2.51449108124,-0.00325756520033,2.53624606133,-0.71735060215,0.040206387639,0.00048241042532,0.000481421244331,0.000680283061229,0.000181329960469,0.000133669789648,-4.99475136166e-05,0.00024008800392,0.470152721504,0.00444609821375,0.177660978821,0.0079982738369,0.933936322571,0.356896974458,0.0179867258614
-0.0265512019396,-0.0175446216017,0.0365909039974,-2.51449370384,-0.00325774098746,2.53624725342,-0.717349112034,0.040206387639,4.44924698968e-05,-0.000430555199273,0.000171166961081,0.000405532016885,-3.39989965141e-05,7.1356233093e-05,-0.0001418703323,0.470151285313,0.0044477372114,0.177658738165,0.0079974977757,0.933935975252,0.356898000172,0.0179847523948
-0.0265513267368,-0.0175435375422,0.0365903526545,-2.51449513435,-0.00325954845175,2.536247015,-0.717349767685,0.040206387639,-0.000253050675383,0.000800251727924,-0.000425654667197,0.000327054585796,0.000122299665236,0.000167028323631,-0.000433839915786,0.470150393646,0.00444732303399,0.177657643684,0.00799750472709,0.933935741754,0.356898685117,0.0179832822347
-0.0265510007739,-0.0175448376685,0.0365867912769,-2.51450037956,-0.00325751886703,2.53624582291,-0.717350244522,0.040206387639,-0.000154019973706,-0.000446205522167,-0.00160807580687,9.14205375011e-05,-6.50575893815e-05,0.000141386772157,0.00028485635994,0.470147872632,0.00444588281705,0.177656077741,0.00799608337965,0.933936575564,0.356896646598,0.0179810680198
-0.026554055512,-0.0175434201956,0.0365801900625,-2.5145008564,-0.00325905485079,2.53624558449,-0.717352628708,0.0384149998426,2.59041789832e-05,-0.000680028693751,-0.00162547756918,0.000236029853113,-4.41570555267e-05,0.000115723618364,-0.00145699037239,0.470147420153,0.00444128405083,0.177655203373,0.0079961651466,0.933937670045,0.356893839741,0.0179798958052
-0.0265503376722,-0.0175430867821,0.0365795306861,-2.51450037956,-0.00325903133489,2.53624534607,-0.717350304127,0.0384149998426,0.000207063261769,0.000305271911202,-0.000286458787741,0.000112456211355,5.49266987946e-05,-7.38992384868e-05,0.000128571657115,0.470147528887,0.00444272809869,0.177655211394,0.00799608306745,0.933937543475,0.356894173617,0.0179798795071
-0.0265508089215,-0.0175439845771,0.0365809723735,-2.51449894905,-0.00325981341302,2.53624582291,-0.717351138592,0.0384149998426,0.000428242638009,0.000162249969435,8.25188762974e-05,-4.90383790748e-05,-4.04375459766e-05,0.000144847770571,0.000151976651978,0.470148443322,0.00444314430341,0.177656241451,0.00799681022109,0.933937082254,0.356895302527,0.017981104982
-0.0265485104173,-0.017541417852,0.0365797244012,-2.51450037956,-0.00325923459604,2.53624534607,-0.71734970808,0.0384149998426,-0.000483052863274,-0.000261095643509,-0.000249747390626,-2.64610480372e-05,5.77655155212e-05,1.18036814456e-05,6.08739537711e-05,0.470147260859,0.00444367397191,0.177654427194,0.00799579848394,0.933937274878,0.356894922263,0.0179790975421
-0.0265517625958,-0.0175423212349,0.0365775935352,-2.51449847221,-0.00325908488594,2.53624486923,-0.717350900173,0.0384149998426,0.000420949392719,-9.23512834561e-06,-0.00030462059658,-0.00042456961819,0.000125717298943,-6.90052838763e-05,2.50959110417e-05,0.470147579784,0.00444071580985,0.17765496317,0.00799574962305,0.93393840913,0.35689193602,0.0179794780229
-0.0265531688929,-0.0175424404442,0.0365699678659,-2.5145008564,-0.00325957569294,2.53624510765,-0.717350184917,0.0384149998426,-0.0002305485541,0.000469108985271,-0.000154346911586,1.33789590109e-05,1.35583586598e-05,8.19851265987e-05,0.000308115093503,0.470147207835,0.00443689894892,0.177654700099,0.0079960179637,0.933939710239,0.356888540517,0.0179791731863
-0.0265532378107,-0.0175423137844,0.0365710966289,-2.51450228691,-0.00325829768553,2.53624415398,-0.717350542545,0.0384149998426,9.11646566237e-06,0.000210750193219,0.00012156728917,0.000407187733799,0.000102604200947,-6.06140092714e-05,-4.51828927908e-05,0.470146300933,0.00443745141734,0.177653985515,0.0079952328906,0.933939665761,0.356888727285,0.0179781253638
-0.0265510454774,-0.0175411049277,0.0365711301565,-2.51450419426,-0.00325932819396,2.53624582291,-0.717350244522,0.0384149998426,0.000229823723203,0.000484929216327,-0.00226886756718,-0.000347382680047,-0.000141451499076,4.54362743767e-05,0.000223101800657,0.470145561783,0.00443844438463,0.177652828744,0.00799521911131,0.93393918482,0.356890024655,0.0179773612242
-0.0265372302383,-0.0175789892673,0.0365772098303,-2.51447939873,-0.00325678335503,2.53624391556,-0.717351794243,0.0383046790957,0.000256953120697,-0.000591842399444,-0.000151575848577,0.00101894303225,-3.28718269884e-05,7.52282285248e-05,0.00013431077241,0.470162664156,0.00444787592982,0.177680193613,0.00800561186043,0.933935175427,0.35689884469,0.018005905221
-0.0265390537679,-0.0176144652069,0.0365772545338,-2.51447081566,-0.00325623247772,2.53624534607,-0.717351615429,0.0383046790957,7.86128748587e-06,0.000263552647084,0.000358426914318,-0.000243717760895,-1.19493861348e-05,-0.000167363439687,0.000228146862355,0.470172544667,0.0044469691743,0.177700376573,0.00801398155644,0.933935190025,0.356897551691,0.0180270412412
-0.0265392251313,-0.017623513937,0.0365773960948,-2.51447701454,-0.00325868395157,2.5362443924,-0.717351913452,0.0357154421508,0.000495493237395,4.80359740322e-05,0.0035571323242,0.000140126750921,-2.75719639831e-06,0.000124904399854,-0.000119783588161,0.470170815737,0.0044467555719,0.177702098848,0.00801514308726,0.933934769311,0.356898597366,0.0180276187443
-0.0265277270228,-0.0176236275584,0.0365828238428,-2.51447343826,-0.00325662479736,2.53624606133,-0.717351078987,0.0357154421508,0.000282920169411,0.000623427098617,0.000375800358597,-0.000223413007916,-3.30887269229e-05,-2.34156414081e-05,-0.000131135806441,0.470172726241,0.0044552929711,0.177703489405,0.00801533347063,0.933931962175,0.356905810559,0.018030156199
-0.0265224706382,-0.0176217947155,0.0365841500461,-2.51447677612,-0.00325667532161,2.53624510765,-0.717351853848,0.0357154421508,-0.000410415697843,-0.000546477327589,0.000224522518693,-0.000165413497598,1.25240339912e-05,4.3203788664e-05,-0.000157425267389,0.47017070908,0.00445790494842,0.177701451542,0.00801427129581,0.933930882754,0.356908790758,0.018027547229
-0.0265255495906,-0.0176256410778,0.0365836434066,-2.51447606087,-0.00325745088048,2.53624343872,-0.717350840569,0.0357154421508,-0.000329091155436,-0.000660783844069,-0.000122642173665,0.000237371496041,2.59683474724e-05,-0.000141377036925,9.76282826741e-05,0.470171301418,0.00445616277389,0.177703379305,0.00801507333998,0.933931565099,0.356906924489,0.0180287894333
-0.0265269707888,-0.017624842003,0.0365785136819,-2.5144803524,-0.00325656146742,2.53624558449,-0.717349886894,0.0357154421508,-0.000173417618498,-0.000377437681891,0.000235480838455,-0.000132121931529,3.42860548699e-05,0.000102775775304,0.000117539137136,0.470169615948,0.00445310458724,0.177701583839,0.00801428161507,0.933933053024,0.356903115036,0.0180274768638
-0.0265290047973,-0.017622385174,0.0365808419883,-2.51448225975,-0.0032555940561,2.53624486923,-0.717354059219,0.0357154421508,-8.67296112119e-05,-4.43456565336e-06,-0.000300971034449,-5.69383264519e-05,0.00287336832844,-0.000102293517557,-9.82200508588e-05,0.470168200794,0.00445331264578,0.177699550277,0.00801317500054,0.93393244928,0.356904834214,0.0180252103641
-0.0265269763768,-0.0176169984043,0.0365823991597,-2.51448512077,-0.00325658172369,2.53624510765,-0.717351675034,0.0357154421508,-0.000338451558491,-0.000125287187984,-0.00346678635105,7.03679979779e-05,8.74730103533e-05,2.4321159799e-05,-0.000210888625588,0.470166048077,0.00445495107604,0.177695916672,0.00801192127419,0.933932164373,0.356905799776,0.0180214105758
-0.0265282634646,-0.017620228231,0.036582749337,-2.51447701454,-0.00325607764535,2.53624367714,-0.717351317406,0.0357154421508,0.000175356326508,-0.000138357150718,-9.5043265901e-05,0.000927315850276,-3.79941047868e-06,0.000110369117465,-0.000162999131135,0.470170076904,0.00445455892684,0.177700483927,0.00801356884387,0.933932378897,0.356904965667,0.0180260791344
-0.0265217497945,-0.0176462344825,0.0365848019719,-2.51447105408,-0.00325638591312,2.53624343872,-0.717353284359,0.0357154421508,-0.000402403762564,-0.00023712895927,2.03809504455e-05,-0.00104073714465,-0.00385939329863,1.46961519931e-05,-0.000163467761013,0.470176458102,0.00445828308646,0.17771509395,0.00801955668608,0.933930233269,0.356909704733,0.0180407441241
-0.0265209116042,-0.0176677666605,0.0365847051144,-2.5144841671,-0.00325608742423,2.5362443924,-0.717351257801,0.0357154421508,-7.99433255452e-05,-0.00160848617088,-0.000177626745426,-0.000153881759616,-5.55934748263e-05,9.48022602643e-07,-3.40364636031e-06,0.470174188156,0.00445869964459,0.177720077231,0.00802145283477,0.933930351751,0.356909134008,0.0180450580384
-0.0265250392258,-0.0176739543676,0.036583378911,-2.51447749138,-0.00325642619282,2.53624415398,-0.717352926731,0.0355138480663,9.31095055421e-05,0.000429397157859,-0.0015213167062,0.000689237029292,-0.000102525060356,0.000112542780698,-0.00053321197629,0.470178277251,0.00445612865396,0.177725587704,0.00802389844188,0.933930863116,0.356907446734,0.018050876013
-0.0265285074711,-0.017673349008,0.0365810282528,-2.51447558403,-0.00325572211295,2.53624486923,-0.717351734638,0.0355138480663,0.000229003009736,0.000528961711098,8.1001977378e-05,8.74556790222e-05,0.00253784190863,0.00184842280578,2.57675947068e-05,0.470179264456,0.00445345030824,0.177726123071,0.00802406708305,0.933932197909,0.356903899007,0.0180518867393
-0.0265368074179,-0.0176754202694,0.036573112011,-2.51447463036,-0.00325510487892,2.5362443924,-0.717352986336,0.0355138480663,-0.000211622464121,-0.000156872018124,0.00037186924601,-0.000768465513829,0.00014474929776,-0.00017760071205,-0.00014530379849,0.47018000635,0.00444587515488,0.177727427662,0.00802446930166,0.933934935095,0.356896666643,0.0180530863371
-0.026532875374,-0.0177873037755,0.0365743488073,-2.51448202133,-0.0032558683306,2.53623199463,-0.717354357243,0.0355138480663,-0.000495031476021,-0.00300654582679,-0.000449554616353,-0.000836656545289,-0.00396489631385,-0.00286031793803,0.000308795191813,0.470188305032,0.0044521259948,0.177766534605,0.00803915389457,0.933931499974,0.356903573225,0.0180876882212
-0.026527043432,-0.0180943589658,0.0365783534944,-2.51450848579,-0.00325560709462,2.53610157967,-0.717355132103,0.0355138480663,0.000859257415868,-0.0107708694413,-3.19608443533e-05,-0.00014454574557,0.00274729705416,-0.00643625017256,0.000143444529385,0.470198179516,0.00445057058628,0.177897175759,0.00807393833422,0.933929626166,0.356903827366,0.0181637712516
-0.0265209041536,-0.0183090921491,0.0365798920393,-2.51447916031,-0.00325673748739,2.53585100174,-0.717354297638,0.0355138480663,-0.000120761083963,-0.0124204764143,0.00039054066292,0.00156264973339,3.81212885259e-05,-0.0206541605294,-0.000112837013148,0.470191332436,0.00445263482606,0.177985410206,0.00807701866306,0.933928379883,0.356907257427,0.0181590831287
-0.0265460051596,-0.0196835678071,0.0365619547665,-2.5116353035,-0.00325979595073,2.52948188782,-0.71735560894,0.0352616868913,0.000291424337775,-0.0391650535166,0.000138026589411,0.0963010340929,-3.96633367927e-05,-0.216379642487,0.000398813514039,0.470373758036,0.00442193304111,0.17913750544,0.00773567333143,0.933956685508,0.356891219792,0.0171384326356
-0.0265412610024,-0.0204171314836,0.0365620404482,-2.51007533073,-0.0032600632403,2.52584123611,-0.717353761196,0.0352616868913,-0.00013805492199,-0.0589235275984,-0.000472873070976,0.122248671949,-4.57781970908e-05,-0.287932157516,-0.000403973215725,0.470436388824,0.00441816882512,0.179747902457,0.00751859919686,0.93396880934,0.356894199211,0.0165004273113
-0.0265445746481,-0.0217831823975,0.0365592464805,-2.50716090202,-0.00326073658653,2.51904940605,-0.717353999615,0.0352616868913,0.000228697535931,-0.0846943333745,-0.000157673624926,0.187911093235,0.000159702205565,-0.445061683655,9.52954505919e-05,0.47055013211,0.00440408905066,0.180891319675,0.00711404760503,0.933992331654,0.356893946813,0.0153109487358
-0.0265279375017,-0.0253109950572,0.0365697294474,-2.49958109856,-0.00326438620687,2.50097894669,-0.717350184917,0.0352616868913,0.000408941996284,-0.150327757001,-0.00024587061489,0.270894050598,5.06573269377e-06,-0.684751868248,4.0799245653e-06,0.47072478087,0.00438757408335,0.183727482044,0.00603021154857,0.934040591396,0.356909514651,0.0121411782696
-0.0265280455351,-0.0281042959541,0.0365687310696,-2.49427247047,-0.00326489889994,2.48822999001,-0.717350184917,0.0352616868913,-0.000413066736655,-0.172074601054,-0.00102351920214,0.350789219141,-0.000105127110146,-0.7987190485,-5.43111455045e-05,0.470865408726,0.0043618433777,0.186220261758,0.00519871304353,0.934075221091,0.356907186769,0.00968062207401
-0.0265436638147,-0.0311145391315,0.0365586169064,-2.48796534538,-0.00326913571917,2.47416520119,-0.717344999313,0.0352616868913,-0.000646503642201,-0.197251424193,-0.00102701620199,0.413204848766,-2.27924701903e-05,-0.922055065632,0.000322200357914,0.471158179054,0.00432916437568,0.188700184161,0.00448732666555,0.934105108645,0.356889843945,0.00755968759065
-0.0265497062355,-0.0350924730301,0.0365446768701,-2.48008441925,-0.00327048031613,2.45692276955,-0.717342853546,0.0352616868913,0.000334203476086,-0.256705701351,-0.000201262693736,0.473092198372,-5.73517863813e-05,-1.03921627998,0.000495295331348,0.471605995415,0.00429264683365,0.192149607085,0.00364027667422,0.934133713666,0.3568696359,0.00500160328057
-0.0265537779778,-0.0499943271279,0.0363969877362,-2.45231199265,-0.00327494228259,2.39965558052,-0.717322230339,0.0352616868913,0.000665660598315,-0.353820621967,-0.00725893955678,0.64681071043,-0.000731765874662,-1.27981770039,-0.000113866313768,0.47368516713,0.00413678574637,0.205304837076,0.00142214103084,0.934204035837,0.356730912168,-0.00196288809935
-0.0265487879515,-0.0554087460041,0.0363241657615,-2.44303917885,-0.00327418651432,2.38145208359,-0.717316031456,0.0352616868913,-0.000465590303065,-0.413835972548,-0.00269169639796,0.696752369404,-0.000182579795364,-1.32634758949,0.0011633920949,0.474498600021,0.00407961911488,0.210072966628,0.000920965239518,0.934222493014,0.356670903468,-0.00365399438099
-0.0265584010631,-0.0638164281845,0.0362164191902,-2.42818379402,-0.00327973440289,2.35455584526,-0.717305362225,0.0352616868913,0.000332821480697,-0.424600362778,-0.00915096420795,0.766099512577,8.72370655998e-05,-1.36328709126,-5.94558196099e-06,0.476117907048,0.00399256598871,0.21786517946,0.000459511490065,0.934251716639,0.356572724142,-0.00542318087122
-0.0265543106943,-0.0731896162033,0.0360505245626,-2.41146802902,-0.00327488849871,2.32550311089,-0.717288553715,0.0363819599152,8.95694611245e-05,-0.486601501703,-0.00726417917758,0.848215579987,-0.000746292993426,-1.37768280506,-0.000753661443014,0.477978615357,0.00388809801665,0.226810500178,0.000125538707743,0.9342924054,0.356441173667,-0.00688293921528
-0.0265682786703,-0.0875751823187,0.0357366465032,-2.38705301285,-0.00327144144103,2.28606081009,-0.717267751694,0.0363819599152,0.000447904894827,-0.529165685177,-0.0111477589235,0.890412330627,-0.00243048695847,-1.36072397232,-0.000539608940016,0.481000696132,0.0037036688666,0.240667938957,0.000280448672058,0.934376988428,0.356211256086,-0.00728735671498
-0.0265675112605,-0.0963707864285,0.035476051271,-2.37202548981,-0.0032758100424,2.26375889778,-0.717258095741,0.0363819599152,-0.00117464410141,-0.535040140152,-0.0218410827219,0.885959386826,-0.00068622874096,-1.34400713444,0.00020459080406,0.483030361297,0.00357080259298,0.249450761082,0.000702082326888,0.934443512078,0.35604887527,-0.00663535385423
-0.026592599228,-0.107595831156,0.034997176379,-2.35362553596,-0.00327710900456,2.23731946945,-0.717243015766,0.0363819599152,-0.00279795541428,-0.575226128101,-0.0266636926681,0.943499267101,0.00232603237964,-1.2850779295,0.00296903518029,0.485466587284,0.00332424018937,0.260610451267,0.00144166321714,0.934561537483,0.35576040218,-0.00521442138586
-0.0266341976821,-0.116777591407,0.0345568731427,-2.33882880211,-0.00327284564264,2.21722006798,-0.717228710651,0.0363819599152,-0.00330179883167,-0.581618845463,-0.0302944108844,0.918788254261,0.00319730956107,-1.2384070158,0.00104087544605,0.48746238245,0.00309452590577,0.269845641436,0.00225825331137,0.934670784124,0.355490523743,-0.00345149405944
-0.0274207256734,-0.145774826407,0.0328281335533,-2.29497718811,-0.00327643728815,2.16317629814,-0.716983616352,0.0363819599152,-0.0293179824948,-0.617752969265,-0.0361869260669,0.868826746941,-0.00231843721122,-1.01053333282,-1.22985902635e-05,0.493407772808,0.00189998463239,0.298999368423,0.00593481537906,0.935181332666,0.354081305728,0.00520400033488
-0.0280102323741,-0.155603811145,0.0321157500148,-2.28145241737,-0.00327409268357,2.14758110046,-0.716981232166,0.0369059816003,-0.0430326089263,-0.622143447399,-0.046459428966,0.829656660557,-2.22431081056e-05,-0.916696250439,8.75141922734e-05,0.495093706599,0.00127554492252,0.3086469913,0.00740530382243,0.935392415808,0.353424513332,0.00879221164555
-0.0288778990507,-0.166418075562,0.0312101710588,-2.26702427864,-0.00328828883357,2.13225340843,-0.716984152794,0.0369059816003,-0.0586461573839,-0.609287023544,-0.0588044300675,0.774353027344,-0.00274317408912,-0.839575052261,-0.000454376655398,0.496947197794,0.000418465612475,0.319285989774,0.00926020233821,0.935654089084,0.352542864958,0.0133866457907
-0.031111529097,-0.185798466206,0.0290725380182,-2.2440032959,-0.00332085415721,2.10862588882,-0.716986775398,0.0369059816003,-0.0908399000764,-0.598810791969,-0.0776365697384,0.67848533392,-0.00453208805993,-0.661990880966,0.00022033273126,0.499549542322,-0.00171896450426,0.337531167478,0.0127267480872,0.936257658328,0.350387133724,0.0221016585921
-0.0328875854611,-0.196377620101,0.0275257378817,-2.23273801804,-0.00339394574985,2.097615242,-0.716987371445,0.0369059816003,-0.106476545334,-0.594658076763,-0.0956096202135,0.606443881989,-0.00115769309923,-0.560427606106,1.33663297675e-05,0.50065549586,-0.00336573078464,0.34711978819,0.0147214191243,0.936698809079,0.348772870401,0.0271312632864
-0.0347275994718,-0.206411510706,0.0255313459784,-2.22315216064,-0.00362932682037,2.08901762962,-0.716993272305,0.0369059816003,-0.11701028049,-0.580459058285,-0.136434689164,0.517564833164,-0.028079399839,-0.466001957655,-0.000441466632765,0.501573458763,-0.00529691021013,0.355906365781,0.0167756246948,0.937178437956,0.346952242049,0.0322381027751
-0.0402516126633,-0.226860627532,0.0192486736923,-2.20635724068,-0.00653801020235,2.0740685463,-0.717014670372,0.0369059816003,-0.182409092784,-0.503200292587,-0.199048370123,0.37823009491,-0.107642769814,-0.317416250706,-0.000186528908671,0.502628045045,-0.0116107269981,0.372831047325,0.0218051106089,0.938550085322,0.341856263914,0.0422204808485
-0.0462468676269,-0.239908114076,0.0131798088551,-2.19729781151,-0.0103058665991,2.0666282177,-0.71706277132,0.0369059816003,-0.248149171472,-0.428920984268,-0.228856578469,0.267592042685,-0.170372873545,-0.222326159477,-0.00421809405088,0.502844222806,-0.018221264951,0.383083819688,0.0257930942695,0.939958560361,0.336838889535,0.048499312113
-0.0505556873977,-0.24645934999,0.00888515170664,-2.19324970245,-0.0135880028829,2.06338572502,-0.717323482037,0.0369059816003,-0.270862817764,-0.357842773199,-0.284660845995,0.222938999534,-0.216030552983,-0.166676655412,-0.0313859656453,0.502787332052,-0.0211377656712,0.386277109642,0.027360999034,0.940549041818,0.334782896961,0.0503913410929
-0.0556050203741,-0.252249360085,0.00335180712864,-2.18992424011,-0.0174441859126,2.06081366539,-0.718083679676,0.0370405949652,-0.308597922325,-0.303078114986,-0.344482749701,0.164548307657,-0.237853556871,-0.118139483035,-0.055211648345,0.502475035182,-0.0289353359167,0.392348087749,0.0308583400081,0.942088711003,0.329565889893,0.0538790066616
-0.0618816353381,-0.257222086191,-0.00363236363046,-2.18718767166,-0.0222132597119,2.05897879601,-0.719513237476,0.0370405949652,-0.35047107935,-0.223978161812,-0.397090673447,0.127004951239,-0.26019513607,-0.073429018259,-0.0926507562399,0.502074345159,-0.0359059433688,0.39585962775,0.0334432648148,0.943431350037,0.325127207725,0.0557775428843
-0.0806863605976,-0.262508749962,-0.0257711745799,-2.18332004547,-0.0359676741064,2.0578789711,-0.7277597785,0.0370405949652,-0.460484951735,-0.00476288562641,-0.559907972813,0.0558313019574,-0.315408498049,0.000180401038961,-0.271977871656,0.500385696803,-0.0589882773742,0.400493954793,0.0396781133821,0.94749364202,0.3120876244,0.0572953753275
-0.0894432589412,-0.261892199516,-0.0365190766752,-2.18248867989,-0.0417110174894,2.05789422989,-0.733245790005,0.0370405949652,-0.516785144806,0.073612742126,-0.633487761021,0.0295232888311,-0.316113859415,0.00822210125625,-0.358929306269,0.499308044723,-0.0696438608018,0.400570706831,0.0415473802442,0.949252144365,0.306622797088,0.0563617033749
-0.100311048329,-0.259435296059,-0.0499480776489,-2.1818857193,-0.0482838638127,2.05808568001,-0.741083264351,0.0370405949652,-0.557576417923,0.183563992381,-0.705747187138,0.0361445359886,-0.336342632771,0.0163777824491,-0.427310407162,0.497705269296,-0.0827993227541,0.39959301026,0.0432453317678,0.951343092971,0.300206939524,0.0543318864795
-0.140140742064,-0.237964123487,-0.10215036571,-2.17746353149,-0.0680594965816,2.06140995026,-0.778187155724,0.0370570123196,-0.690595567226,0.518480598927,-0.953538954258,0.136951312423,-0.252631306648,0.0799908787012,-0.733814418316,0.490525560024,-0.131800062189,0.390885377422,0.0459801809987,0.95832950111,0.278552911857,0.0435736760473
-0.152855142951,-0.227867126465,-0.119944043458,-2.17451763153,-0.0723843201995,2.06278085709,-0.791874706745,0.0370570123196,-0.71126717329,0.598376631737,-1.00525128841,0.190234303474,-0.221483558416,0.0761128813028,-0.779887259007,0.487744729573,-0.147732517927,0.387174331731,0.0457310135645,0.960504593518,0.271591196198,0.0397218084712
-0.175763562322,-0.206645444036,-0.152686372399,-2.16690135002,-0.0783597305417,2.06573104858,-0.817504525185,0.0370570123196,-0.753517508507,0.755078554153,-1.09551608562,0.299925476313,-0.163248240948,0.103915549815,-0.859701693058,0.482172200896,-0.176625114345,0.380044328331,0.0446525887953,0.964350579065,0.25875922468,0.0328294122112
-0.189773187041,-0.191508367658,-0.173676028848,-2.16056680679,-0.0809025615454,2.06807422638,-0.834301173687,0.0370570123196,-0.747156023979,0.843403995037,-1.1234023571,0.359269559383,-0.115905873477,0.128688395023,-0.899944007397,0.478376142832,-0.194740660231,0.375397830821,0.0437236989553,0.966646872521,0.250715146948,0.0287049956997
-0.201856940985,-0.177699357271,-0.192022427917,-2.15432596207,-0.0826481357217,2.07005953789,-0.848856568336,0.0370570123196,-0.748184800148,0.888638854027,-1.1557366848,0.424997061491,-0.102144517004,0.121477074921,-0.913049995899,0.474717675488,-0.210463243692,0.371345159393,0.0428607615017,0.968611594056,0.243562153973,0.0251398454361
-0.213382825255,-0.163721486926,-0.209681481123,-2.14732098579,-0.0841497331858,2.07191228867,-0.863079190254,0.0370570123196,-0.748576164246,0.916683077812,-1.14321660995,0.470466732979,-0.0884520113468,0.10542371124,-0.911789000034,0.470667549891,-0.226799390073,0.367250946396,0.0421179022158,0.970552260409,0.236207458436,0.0214575954106
-0.230071082711,-0.142781227827,-0.235379874706,-2.13637256622,-0.0858199596405,2.0740711689,-0.883332014084,0.0370570123196,-0.728283822536,0.941515266895,-1.12457764149,0.498153269291,-0.0518273487687,0.087042093277,-0.882790029049,0.464788875554,-0.24749886794,0.361998339086,0.041066578237,0.973003655078,0.226500790181,0.0165775479945
-0.261355102062,-0.101919807494,-0.283829778433,-2.11377573013,-0.0874637514353,2.07624220848,-0.920881211758,0.0370813086629,-0.673773765564,0.849040091038,-1.00042974949,0.475659519434,-0.0323218554258,0.00685988925397,-0.794212639332,0.450053155739,-0.289281118201,0.351234242786,0.0385919696295,0.977786175378,0.205938731239,0.00583898881782
-0.275557309389,-0.084370881319,-0.304477572441,-2.10411190987,-0.0880563557148,2.07628893852,-0.937243103981,0.0370813086629,-0.658513367176,0.798163235188,-0.940893352032,0.433471173048,-0.0185604915023,-0.00879439618438,-0.740979135036,0.442838849894,-0.305592766267,0.346921302127,0.0374642890984,0.979559011764,0.197634331131,0.00111371790143
-0.285827279091,-0.0723792463541,-0.318771660328,-2.097448349,-0.0883273929358,2.07621598244,-0.948635697365,0.0370813086629,-0.616229057312,0.705859065056,-0.831531405449,0.391070485115,-0.00841220561415,-0.0160493440926,-0.687381327152,0.436965490441,-0.317670953546,0.343812663917,0.0366277149709,0.980847490892,0.191287566699,-0.00238256792197
-0.305098861456,-0.0521471351385,-0.343824326992,-2.08663964272,-0.0892469584942,2.07469964027,-0.969390511513,0.0370813086629,-0.547268927097,0.517715156078,-0.686142742634,0.264988213778,-0.0436269342899,-0.0751852542162,-0.590467095375,0.424901394266,-0.338815613753,0.338268069611,0.0347391500963,0.98300842487,0.180005127567,-0.00926184820113
-0.312913417816,-0.0450637638569,-0.353184044361,-2.08324766159,-0.0900435373187,2.07332038879,-0.977980911732,0.0370813086629,-0.499466061592,0.449145197868,-0.586970508099,0.204747930169,-0.0566088855267,-0.0964556261897,-0.56377363205,0.42024570218,-0.345708637882,0.336358296584,0.03388048184,0.983651169585,0.176465954797,-0.0119271127293
-0.320940345526,-0.0387934409082,-0.362192064524,-2.0804913044,-0.0911306738853,2.07139229774,-0.98726773262,0.0370813086629,-0.443003207445,0.313941776752,-0.488601624966,0.131358489394,-0.064370892942,-0.138647764921,-0.534068346024,0.413834471329,-0.354232807864,0.333972323988,0.0325808810713,0.984356607634,0.172449781563,-0.0155443794311
-0.341018021107,-0.0317240022123,-0.383432745934,-2.07762074471,-0.0929805263877,2.05437922478,-1.01939570904,0.0371857210994,-0.139277309179,-0.041639469564,-0.124000892043,0.00281276251189,-0.0351441130042,-0.338772922754,-0.413318008184,0.396405190665,-0.369603028784,0.330094632866,0.0251628232556,0.98512834476,0.168127546016,-0.0249420256424
-0.342525392771,-0.0327245146036,-0.384685516357,-2.07761311531,-0.0934226363897,2.0498957634,-1.02459001541,0.0371857210994,-0.0876376703382,-0.110303111374,-0.0726593658328,0.000175422712346,-0.0378510430455,-0.361699193716,-0.386564314365,0.394567863484,-0.370152394666,0.330194481838,0.0237308584308,0.984924345702,0.169332877372,-0.0262155667415
-0.34339594841,-0.0357045866549,-0.385263651609,-2.07756781578,-0.0941046029329,2.04249954224,-1.03207540512,0.0371857210994,-0.00151869270485,-0.166261941195,-0.000224955001613,0.00545967137441,-0.0341334491968,-0.370797425508,-0.354292452335,0.392698890957,-0.369826639395,0.331046566937,0.021754411022,0.984419024526,0.172282060107,-0.0276554011675
-0.342576920986,-0.0388213135302,-0.384660094976,-2.07744216919,-0.0945052728057,2.03634381294,-1.03780519962,0.0371857210994,0.0984444618225,-0.211524114013,0.0727902725339,0.00274073984474,-0.0189670324326,-0.347208291292,-0.3204036057,0.392148138067,-0.368303021434,0.332273499202,0.020157214358,0.983734187163,0.176203083716,-0.0285168143611
-0.334480583668,-0.0518133230507,-0.376654416323,-2.07632446289,-0.0948058739305,2.01926779747,-1.05316758156,0.0371857210994,0.240402668715,-0.295996487141,0.254951894283,0.0477992966771,-0.000101597310277,-0.322058916092,-0.284982770681,0.395361584755,-0.359957232235,0.33779418864,0.017750456405,0.981001250533,0.191118613916,-0.0281982776133
-0.330716907978,-0.056148186326,-0.372577577829,-2.07546639442,-0.0948143526912,2.0147600174,-1.05711972713,0.0371857210994,0.282816201448,-0.300472646952,0.305348932743,0.0681540668011,-0.000159739647643,-0.295453995466,-0.264358460903,0.397175676786,-0.357028395621,0.339618429066,0.0176381413231,0.980096163972,0.195793542618,-0.0276639423052
-0.324163645506,-0.062130164355,-0.365969389677,-2.073741436,-0.0948219001293,2.00903367996,-1.06239509583,0.0371857210994,0.345462948084,-0.291165709496,0.327251136303,0.101106539369,0.00056317151757,-0.26740270853,-0.236521065235,0.401409576116,-0.351002438094,0.343181072424,0.0179359491862,0.978204087339,0.205180950156,-0.0263788291778
-0.306073397398,-0.0756337493658,-0.348680585623,-2.0681245327,-0.0948156118393,1.99890303612,-1.07228684425,0.0371916294098,0.423923134804,-0.28372374177,0.408162981272,0.137132406235,-0.000181686511496,-0.168068051338,-0.191717132926,0.412855739875,-0.336386511969,0.351846645366,0.0205599129216,0.973480758623,0.226759200908,-0.0221983573567
-0.297341167927,-0.0814561992884,-0.339646548033,-2.0652525425,-0.0948155596852,1.99603259563,-1.07594811916,0.0371916294098,0.438091158867,-0.290247678757,0.451415747404,0.151577219367,-0.000358538847649,-0.133224979043,-0.171572193503,0.418789117025,-0.329161542463,0.355976429938,0.022533721103,0.971057201838,0.236958541419,-0.0197684474484
-0.290664821863,-0.0855985730886,-0.332799345255,-2.0629556179,-0.0947960913181,1.99436461926,-1.07856810093,0.0371916294098,0.459221094847,-0.258358001709,0.461678743362,0.157387644053,6.19825641479e-06,-0.0961969420314,-0.173208132386,0.423330135111,-0.323661542303,0.359087337903,0.0241958632326,0.969151965594,0.244624783262,-0.0178253441794
-0.281633764505,-0.0906331166625,-0.32340952754,-2.05973362923,-0.0948058962822,1.99279952049,-1.0820940733,0.0371916294098,0.445532143116,-0.26040276885,0.48275911808,0.159545466304,0.00136589864269,-0.0664188414812,-0.166344136,0.429847473795,-0.31578213724,0.363356633583,0.0267407215749,0.966308096142,0.255553018646,-0.0150416586183
-0.26812684536,-0.0977216735482,-0.308687418699,-2.05496382713,-0.0947923138738,1.99129343033,-1.08663845062,0.0371916294098,0.450559705496,-0.21087525785,0.480487763882,0.159967720509,0.00115229864605,-0.0265727173537,-0.145622357726,0.438891386175,-0.304477948547,0.369105997715,0.030432905107,0.962165228233,0.270533634727,-0.0111114372929
-0.25967463851,-0.101498730481,-0.299567520618,-2.05190825462,-0.0947908386588,1.9909222126,-1.08937704563,0.0371916294098,0.427207171917,-0.193039894104,0.47040322423,0.163647353649,-0.000461107294541,-0.0152646610513,-0.150154709816,0.444673333461,-0.297128116627,0.372609351342,0.0328762954094,0.959366545721,0.28010856488,-0.00861230072696
-0.252037703991,-0.104920148849,-0.291185200214,-2.04905176163,-0.0947638601065,1.99066746235,-1.09194791317,0.0371975414455,0.428939521313,-0.185784354806,0.465554594994,0.150610238314,0.000175602457603,-0.0124824298546,-0.138253673911,0.449854436797,-0.290337866457,0.375848754226,0.0351414415859,0.956712371304,0.28883762634,-0.00627239803724
-0.245845496655,-0.107443638146,-0.284286171198,-2.04680967331,-0.094776108861,1.99056005478,-1.09396421909,0.0371975414455,0.403357088566,-0.150030970573,0.449098408222,0.149073690176,0.000292562093819,-0.00167504895944,-0.125243976712,0.454005828626,-0.284717798838,0.378332744142,0.0369312082042,0.954486760434,0.295924128216,-0.00447437673021
-0.22748413682,-0.113814264536,-0.264613837004,-2.04090046883,-0.0947565212846,1.99041306973,-1.099583745,0.0371975414455,0.346423894167,-0.111170008779,0.370701342821,0.0956343784928,-0.000561530585401,-0.00251874700189,-0.118077300489,0.465552315118,-0.267957138574,0.384809412093,0.0416507056752,0.947738236862,0.316318475367,0.000273744193994
-0.222015410662,-0.115348115563,-0.258564859629,-2.03941369057,-0.0947565585375,1.99040532112,-1.10135185719,0.0371975414455,0.314141392708,-0.0882719233632,0.353266686201,0.0853357687593,-0.00131648522802,7.141475362e-05,-0.0965593904257,0.468499579171,-0.263339780934,0.386260042127,0.0427443987345,0.945835176066,0.321818207125,0.00133317061169
-0.217458277941,-0.116486869752,-0.253614127636,-2.03831171989,-0.0947467908263,1.99038803577,-1.10276651382,0.0371975414455,0.281790673733,-0.0680083855987,0.303695857525,0.0613429620862,-0.000176520377863,-0.00078331871191,-0.0902401208878,0.471722296659,-0.258089369142,0.387725317574,0.043858881241,0.94367107446,0.327956580202,0.00240477719353
-0.211610227823,-0.117844805121,-0.247594818473,-2.0373711586,-0.0947466343641,1.99038016796,-1.10502994061,0.0371975414455,0.231184542179,-0.0453006885946,0.243701174855,0.0302854459733,-0.000537947751582,-0.000244039794779,-0.101955443621,0.474465757852,-0.253318303632,0.388825777089,0.044704800551,0.941633685407,0.333642275043,0.00321174491992
-0.203376576304,-0.119021847844,-0.238748013973,-2.03713488579,-0.0947432741523,1.99011051655,-1.10859334469,0.0371975414455,0.134496763349,-0.00557349389419,0.151792868972,-0.00258240988478,-5.77415376029e-05,-0.0182528607547,-0.0685482025146,0.478899607516,-0.244690765201,0.389763365665,0.045494110233,0.937924209512,0.343822772698,0.00378996115119
-0.200079366565,-0.118720889091,-0.234612360597,-2.03740739822,-0.0947427004576,1.98917734623,-1.11086142063,0.0372014790773,0.0503053180873,0.0131762931123,0.0710819363594,-0.0167712252587,-3.98476986447e-05,-0.021278206259,-0.0596487447619,0.480471011912,-0.241008717137,0.389447318001,0.0451973283181,0.936263153867,0.348364997938,0.00321498381178
-0.201832816005,-0.116112485528,-0.235361561179,-2.03952074051,-0.0947513356805,1.9871172905,-1.1150611639,0.0372014790773,-0.0804530978203,0.0409635081887,-0.0626267790794,-0.0288375802338,-0.00064367079176,-0.0388643182814,-0.0521262250841,0.479144597596,-0.241753356891,0.386876022607,0.0430595270868,0.936016502429,0.349311747763,0.000535600918802
-0.203533560038,-0.115366183221,-0.236855626106,-2.04007673264,-0.0947512462735,1.98636651039,-1.11610662937,0.0372014790773,-0.0977178737521,0.0382859073579,-0.0944080576301,-0.0315777659416,5.41633708053e-05,-0.0381273888052,-0.0559834763408,0.478021065852,-0.243313857794,0.386036298377,0.0422555221966,0.936455443152,0.34823200537,-0.000379416443514
-0.208955794573,-0.113338507712,-0.242840588093,-2.04151988029,-0.0947581231594,1.98460221291,-1.11804485321,0.0372054204345,-0.121781200171,0.0390994846821,-0.146480500698,-0.0249492097646,-0.000155911868205,-0.0385888703167,-0.043775036931,0.474686964153,-0.248377715881,0.384052208149,0.0403368357559,0.938120867671,0.343942271499,-0.0024271141485
-0.210744023323,-0.112762637436,-0.244890496135,-2.04189348221,-0.0947591885924,1.98413705826,-1.11867678165,0.0372054204345,-0.138394296169,0.038432277739,-0.146086528897,-0.0290295984596,4.00204335165e-05,-0.0334378182888,-0.0452645048499,0.473414584131,-0.250378472841,0.383414763742,0.0397061945328,0.93876655057,0.342244533536,-0.0030758083265
-0.213978335261,-0.111957609653,-0.248162552714,-2.04255890846,-0.0947630107403,1.98343575001,-1.11952745914,0.0372054204345,-0.148001387715,0.0335733555257,-0.145795240998,-0.0300728939474,7.61786213843e-05,-0.0239109732211,-0.0262978710234,0.471684178323,-0.25306864915,0.382631680515,0.0389204941626,0.939667766605,0.33984517238,-0.0038654928027
-0.220384389162,-0.110651262105,-0.254785656929,-2.04376220703,-0.094769269228,1.98234140873,-1.12016224861,0.0372054204345,-0.156153902411,0.0283631198108,-0.16140806675,-0.0262280870229,0.000168133716215,-0.024088634178,-0.0114807905629,0.467910452061,-0.258964901541,0.381158172079,0.0374142356875,0.941785128631,0.334085292319,-0.00528806206151
-0.225203707814,-0.109861522913,-0.260086625814,-2.04451608658,-0.0947729945183,1.98182213306,-1.12058353424,0.0372054204345,-0.154195651412,0.0257637985051,-0.161705002189,-0.0196715760976,0.000230692661717,-0.0190013963729,-0.0162321571261,0.465023903815,-0.263556923341,0.380248026808,0.0364714165938,0.943409585667,0.329561730077,-0.00610370380493
-0.227194696665,-0.109594598413,-0.262201339006,-2.04476451874,-0.0947732180357,1.98160541058,-1.12077581882,0.0372054204345,-0.149379312992,0.0149141708389,-0.153682842851,-0.0197497606277,0.00244381441735,-0.0164845008403,-0.0122188208625,0.463849754125,-0.265417167319,0.379934188639,0.0361217861933,0.94405858713,0.327731168613,-0.00639385925411
-0.230030849576,-0.109267778695,-0.265023231506,-2.04506349564,-0.0947739258409,1.98128330708,-1.12109076977,0.0372054204345,-0.142710596323,0.0139048099518,-0.143682360649,-0.0159974787384,0.000427976046922,-0.0158098172396,-0.0216821543872,0.462223042854,-0.267975472447,0.379543076066,0.0356614897773,0.944938897394,0.325227423778,-0.00677206392683
-0.232015430927,-0.109076730907,-0.267025142908,-2.04520845413,-0.0947814136744,1.98101890087,-1.12136101723,0.037207391113,-0.137234196067,0.0112168267369,-0.133226811886,-0.00925404578447,0.000175092340214,-0.0212923958898,-0.027179678902,0.461074254062,-0.269778569706,0.379315634888,0.0353590433756,0.945547117974,0.323482890893,-0.00701460828512
-0.234495848417,-0.108873084188,-0.269497841597,-2.04531598091,-0.0947803109884,1.98063504696,-1.12172627449,0.037207391113,-0.123366571963,0.00847583729774,-0.128615677357,-0.00292677804828,-0.000112122921564,-0.0220630280674,-0.0209917202592,0.459642627256,-0.27201542975,0.379080210552,0.0349955633769,0.946294902734,0.321322393991,-0.00729290148387
-0.238344788551,-0.108688317239,-0.273608803749,-2.045378685,-0.0947822108865,1.98002934456,-1.12234938145,0.037207391113,-0.100082218647,-0.000409571744967,-0.11705442518,0.000198583235033,9.54365605139e-05,-0.0219988673925,-0.0178925618529,0.457340567387,-0.275610630689,0.378826389946,0.0344867881495,0.947479806651,0.317859082497,-0.0076341859305
-0.239703893661,-0.108703941107,-0.275189071894,-2.04537916183,-0.0947831869125,1.97982394695,-1.12259197235,0.037207391113,-0.0927493423223,-0.00254290550947,-0.109438978136,0.000879869912751,-6.94283298799e-05,-0.0139155713841,-0.0160652771592,0.456430321519,-0.277028975215,0.378785040084,0.0343232500301,0.947941527237,0.316495326579,-0.00771254751176
-0.241459473968,-0.108739778399,-0.277081757784,-2.04536628723,-0.0947819650173,1.97963535786,-1.12284660339,0.037207391113,-0.0903050601482,-0.00219729053788,-0.0878486633301,0.000712513225153,7.53533677198e-05,-0.00855245813727,-0.0118061937392,0.455440996446,-0.278588656887,0.378760122968,0.0341771962566,0.9484521827,0.314976287866,-0.00776621906853
-0.243043556809,-0.108785040677,-0.278702765703,-2.04535365105,-0.0947835743427,1.97951722145,-1.12309396267,0.037207391113,-0.073692470789,-0.00299156014808,-0.0785143002868,0.000516823725775,-3.30944894813e-05,-0.0103022158146,-0.017701106146,0.454568307232,-0.279970850643,0.378749654709,0.0340689589165,0.948897708304,0.313642586839,-0.0077956798127
-0.244965210557,-0.108858458698,-0.280880451202,-2.04535627365,-0.094782166183,1.97941493988,-1.12347865105,0.0372093617916,-0.0519227012992,-0.000430990738096,-0.0522669441998,-0.00043351642671,-9.53370908974e-05,-0.00559628661722,-0.00779810268432,0.453350209815,-0.281895005437,0.378737075252,0.0339280429245,0.949504371955,0.311816092723,-0.00781406099172
-0.245710670948,-0.108854115009,-0.281738102436,-2.04535984993,-0.0947836786509,1.97938084602,-1.12369120121,0.0372093617916,-0.0415751151741,0.00411033863202,-0.0510860383511,-0.000538732216228,-4.86794415337e-05,-0.00331786018796,-0.011114642024,0.452890792834,-0.282619675046,0.378714615797,0.0338672564879,0.949722130416,0.311158307777,-0.00783524903256
-0.246251389384,-0.108858674765,-0.282405436039,-2.045358181,-0.0947825461626,1.97933018208,-1.12391316891,0.0372093617916,-0.0298857390881,-1.03740603663e-05,-0.0293256212026,-0.000180425791768,-2.05171309062e-05,-0.00689856428653,-0.0153346285224,0.452563000896,-0.283127808731,0.378701962284,0.0338179215121,0.949867209635,0.31072007853,-0.00785268953914
-0.246748998761,-0.108851343393,-0.282886117697,-2.04535698891,-0.0947818234563,1.97925877571,-1.12419378757,0.0372093617916,-0.0181774348021,0.00124050688464,-0.0187835209072,-0.000803944829386,7.22805780242e-05,-0.00360786984675,-0.0222265031189,0.452249783555,-0.283599955479,0.378682358021,0.0337596482726,0.949986647123,0.310360142374,-0.00788911602974
-0.247030898929,-0.108835659921,-0.283117860556,-2.0453646183,-0.0947818756104,1.97917461395,-1.12471711636,0.0372093617916,0.00278492993675,0.000161026488058,0.00107858073898,0.00066809420241,1.35875516207e-05,-0.00391694204882,-0.023780586198,0.452086897194,-0.28382353851,0.378658470265,0.033707477136,0.949986507658,0.310364991185,-0.00793808474426
-0.246978163719,-0.108831368387,-0.283076763153,-2.04536390305,-0.0947801247239,1.97914099693,-1.12496674061,0.0372093617916,0.00726185459644,-0.000169140330399,0.00633669039235,-0.00026986040757,0.000140616160934,-0.000588493596297,-0.0221198927611,0.452102432232,-0.283788405966,0.37865485723,0.033697170733,0.949943895659,0.310496158471,-0.00795179532301
-0.246765106916,-0.108829081059,-0.282905012369,-2.04536604881,-0.094780318439,1.97909426689,-1.12541937828,0.0372093617916,0.0109761580825,0.000337371748174,0.0111264828593,0.000465990888188,-1.49708139361e-05,-0.000378907687264,-0.023475041613,0.452207217608,-0.283598480954,0.378650509567,0.0336845210856,0.949804079956,0.310924277466,-0.00797847792123
-0.24653069675,-0.108827382326,-0.282702922821,-2.04535841942,-0.0947788879275,1.97908389568,-1.1256955862,0.0372093617916,0.0180825963616,-5.46380324522e-05,0.012657227926,0.00149244128261,3.79259327019e-05,0.000132709436002,-0.0107877273113,0.452330830023,-0.283400596918,0.378655941859,0.033692624208,0.94969326725,0.311261590333,-0.0079829372348
-0.24610003829,-0.108820959926,-0.28242379427,-2.04537439346,-0.0947783514857,1.97906541824,-1.12599372864,0.0372093617916,0.0183922983706,-0.000330330221914,0.011599236168,-0.000528560485691,-4.78089896205e-06,-0.00185941474047,-0.00898410379887,0.452524805541,-0.28307464676,0.37864814894,0.0336925459192,0.949536308341,0.311739696071,-0.00799831688976
-0.245505049825,-0.108826510608,-0.282045036554,-2.04536485672,-0.0947788655758,1.97903597355,-1.12632453442,0.0372093617916,0.0258848406374,-0.000625558255706,0.017203418538,0.000335884804372,-0.00116572075058,0.000220637200982,-0.0129787093028,0.452796310962,-0.282631669488,0.378659517538,0.0337070474031,0.949332760126,0.312357314556,-0.00800332679187
-0.245015650988,-0.108828410506,-0.281821638346,-2.045368433,-0.0947790145874,1.97902822495,-1.12652790546,0.0372106730938,0.0236979480833,-0.000439562543761,0.0126127321273,-0.000556535844225,-3.65133419109e-05,-0.000178366768523,-0.0127822915092,0.453016861873,-0.282270901161,0.378661938726,0.0337163286835,0.949173886872,0.312838718948,-0.00800482831421
-0.24452996254,-0.108832538128,-0.281607866287,-2.04537200928,-0.0947789922357,1.97900831699,-1.12669658661,0.0372106730938,0.0300038065761,0.000375337986043,0.015829693526,0.000643589533865,-0.000165132601978,0.00018761055253,-0.00607753358781,0.453187534098,-0.281987190999,0.378664248002,0.0337202498038,0.949053658611,0.313202762953,-0.00800792096282
