imanlab/tactile_prediction_flat_dataset/test/data_sample_2021-11-25-13-42-05/robot_state.csv
position_panda_joint1,position_panda_joint2,position_panda_joint3,position_panda_joint4,position_panda_joint5,position_panda_joint6,position_panda_joint7,position_panda_finger,velocity_panda_joint1,velocity_panda_joint2,velocity_panda_joint3,velocity_panda_joint4,velocity_panda_joint5,velocity_panda_joint6,velocity_panda_joint7,ee_state_position_x,ee_state_position_y,ee_state_position_z,ee_state_orientation_x,ee_state_orientation_y,ee_state_orientation_z,ee_state_orientation_w
0.233494609594,0.00473218411207,-0.249355435371,-2.52443408966,-0.0161601956934,2.5549557209,-0.803667068481,0.0386284179986,-0.000288685521809,0.00314504373819,0.00199064938352,0.000452227337519,-0.000138600138598,-0.000114917005703,-0.00027521973243,0.465818384274,-0.00835841395957,0.165236249205,0.00988214646648,0.920744152395,0.389917561505,0.00984093101596
0.233492687345,0.00473186001182,-0.249353483319,-2.52443861961,-0.0161595977843,2.55495476723,-0.803666472435,0.0386284179986,0.000325069937389,-5.78439212404e-05,-0.000288258830551,6.77546122461e-05,-5.8119676396e-05,-0.00552213191986,-0.000271962897386,0.465816041057,-0.00835832502118,0.16523457461,0.00988090800926,0.920744389028,0.389917091617,0.00983865222164
0.233492031693,0.00473110191524,-0.249355107546,-2.52442908287,-0.0161601174623,2.55495524406,-0.803666055202,0.0386284179986,0.000516078493092,-7.55341970944e-05,0.000477146764752,-0.000368794833776,2.01095463126e-05,2.09182635444e-05,0.000141605589306,0.465820858656,-0.00835945242259,0.165238604996,0.00988314053987,0.920744774534,0.389916001412,0.00984353731427
0.233495518565,0.00473166629672,-0.249351844192,-2.52443146706,-0.0161604508758,2.55495524406,-0.803665041924,0.0386284179986,4.24476638727e-05,-0.00393659295514,0.000294148660032,-0.000517177279107,3.15223915095e-05,7.26296202629e-05,-0.000372525159037,0.465819669976,-0.00835632620802,0.165237438069,0.00988265188909,0.92074361657,0.389918782682,0.00984217104292
0.233496487141,0.00473681883886,-0.249350249767,-2.5244333744,-0.0161593072116,2.55495548248,-0.803665995598,0.0386284179986,-0.000902827014215,0.000804232084192,-0.000166280049598,0.00036740701762,5.31888108526e-05,0.000127143037389,8.59237115947e-05,0.465817980065,-0.00835526240883,0.165234405386,0.00988157702804,0.920743143706,0.389920006411,0.00983900588798
0.233494862914,0.00473327003419,-0.249351546168,-2.52442741394,-0.0161602478474,2.55495548248,-0.803666353226,0.0386284179986,-0.000122000899864,-0.00352622638457,-1.01213254311e-05,0.000137192881084,7.05049023964e-05,1.40125566759e-05,0.000591170508415,0.465821415851,-0.00835657424252,0.165238284517,0.00988333994789,0.920743446601,0.389919136641,0.0098433580104
0.233496561646,0.00473252264783,-0.249349892139,-2.52443194389,-0.0161596387625,2.55495524406,-0.803664267063,0.0386290736496,-2.13008879655e-05,-0.000145779791637,0.000156708774739,-3.69027293345e-05,-0.00012237134797,0.000136526563438,0.00049794302322,0.465819324512,-0.00835492038572,0.165236868041,0.00988225107808,0.920743321186,0.389919503713,0.00984164174748
0.233496412635,0.00473232893273,-0.249349057674,-2.52443742752,-0.0161593537778,2.5549557209,-0.803664982319,0.0386290736496,0.000459655479062,0.00226182560436,-0.000212796672713,1.01090536191e-05,4.36765039922e-05,-5.27356314706e-05,0.00020381246577,0.465816814646,-0.00835453950478,0.165234905063,0.00988117624505,0.920743119007,0.389920062886,0.00983948155314
0.233492150903,0.00473183533177,-0.249352276325,-2.5244333744,-0.0161604080349,2.55495643616,-0.803665876389,0.0386290736496,-6.27209446975e-05,0.000323051091982,0.000257537991274,-1.68948135979e-05,0.000118993331853,-6.03031512583e-05,-6.73092145007e-05,0.465818947112,-0.00835808681073,0.16523674512,0.00988249862584,0.920744203901,0.389917410396,0.00984174559818
0.233493760228,0.00473422277719,-0.249349996448,-2.52442979813,-0.016159741208,2.55495548248,-0.803666472435,0.0386290736496,0.000315722281812,0.000238148495555,0.000137426162837,0.000159096467542,2.75721813523e-05,8.85778281372e-05,0.000204070325708,0.465820111525,-0.00835636030219,0.165236942861,0.00988264229632,0.920743434415,0.389919220975,0.00984185751595
0.233493179083,0.00473336875439,-0.249349728227,-2.52442955971,-0.0161593668163,2.55495548248,-0.803667128086,0.0386284179986,-0.000367799279047,0.000170286773937,-0.0004108439025,-0.000211427541217,-0.00245446618646,-7.89313344285e-05,-0.000139497366035,0.465820363528,-0.00835645648473,0.165237418963,0.00988266881813,0.920743424011,0.389919230545,0.00984242505463
0.233492732048,0.00473253289238,-0.249350577593,-2.52443194389,-0.0161609500647,2.55495548248,-0.803665518761,0.0386284179986,0.000117521733046,-0.00245936773717,-0.00396100059152,0.000210678466829,1.37395527418e-05,-4.12597946706e-05,0.000205342948902,0.465819336727,-0.00835708727474,0.165236886774,0.00988266615675,0.920743742936,0.389918499099,0.00984156982882
0.233493566513,0.00473154475912,-0.249348461628,-2.52443242073,-0.0161603596061,2.55495548248,-0.803665995598,0.0386284179986,-3.17957310472e-05,0.000214723564568,-7.83820942161e-05,-4.08170781157e-05,-0.00149646727368,-9.7547279438e-05,0.000163118122146,0.465819259901,-0.00835578965953,0.165237067848,0.00988244565341,0.920743223077,0.3899197255,0.00984183795008
0.233493164182,0.00473316898569,-0.24935027957,-2.52443194389,-0.0161595772952,2.55495476723,-0.803665161133,0.0386284179986,-0.000287379400106,9.32409093366e-05,0.000511657097377,-7.24807177903e-05,0.00482781836763,7.66478115111e-05,-0.000166490921401,0.465818912438,-0.00835594845217,0.165236246826,0.00988193721713,0.920743579893,0.389918921758,0.00984080989197
0.233494102955,0.00473300740123,-0.249349817634,-2.52443122864,-0.0161595530808,2.55495548248,-0.803665101528,0.0386284179986,0.000274370744592,0.000527700874954,0.000328748254105,6.31512957625e-05,2.08253513847e-05,8.90008232091e-05,0.000292886572424,0.465819622829,-0.0083560507015,0.165236944725,0.00988239567215,0.920743633593,0.389918757505,0.00984183322962
0.233498722315,0.0047331363894,-0.249346151948,-2.52443218231,-0.0161601062864,2.5549557209,-0.803664922714,0.0386284179986,-3.4957913158e-05,0.000391242268961,0.000318697508192,-6.69106448186e-05,6.67666099616e-05,5.10440731887e-05,9.77976815193e-05,0.465819260963,-0.00835221310329,0.165236542858,0.00988233174192,0.920741967316,0.389922704129,0.00984142416983
0.233497068286,0.00473302649334,-0.249345868826,-2.52443289757,-0.0161594245583,2.55495524406,-0.803665578365,0.0386284179986,-0.000354345771484,0.000651878130157,0.000295880134217,4.46363337687e-05,-3.0748287827e-05,5.83207802265e-05,-2.76960636256e-05,0.465818879719,-0.00835283315497,0.165236216296,0.0098819679165,0.920742242329,0.389922076153,0.00984094056906
0.233492329717,0.00473202299327,-0.249349072576,-2.52443194389,-0.0161595549434,2.5549557209,-0.803665220737,0.0386284179986,6.3061263063e-05,-0.000700173492078,0.00336422142573,-0.000303213309962,0.000129080232,0.000182985459105,1.79960061359e-05,0.465819480716,-0.00835648569474,0.165237137662,0.00988238402649,0.920743809014,0.389918336945,0.00984209555443
0.233487814665,0.00473233638331,-0.249350905418,-2.52443194389,-0.0161599814892,2.55495500565,-0.803665161133,0.0386284179986,-0.000289530638838,8.14776794869e-05,-0.00333589175716,-0.000137830793392,-8.56299811858e-05,0.000462722935481,0.000288881274173,0.465819221833,-0.00835947697845,0.165236930497,0.00988236325583,0.920744995055,0.389915550987,0.00984153226938
0.233493283391,0.00473512150347,-0.249349400401,-2.52443265915,-0.0161595735699,2.55495524406,-0.803664267063,0.0386284179986,0.000509919715114,0.000185251541552,-0.000271157041425,-0.000268817646429,9.94136280497e-05,6.78883661749e-05,-0.000630462076515,0.46581853128,-0.00835631061388,0.16523542183,0.00988188604294,0.920743888246,0.389918214669,0.00984002727645
0.233495697379,0.00473214266822,-0.249343499541,-2.52442932129,-0.016160029918,2.55495524406,-0.803665220737,0.0386290736496,9.9380260508e-05,-0.00306018698029,-0.000411614513723,0.000102552403405,-5.00541245856e-05,-9.04416156118e-05,-5.6725457398e-05,0.465820699065,-0.00835236319738,0.165238037887,0.00988287678683,0.920741979067,0.389922622556,0.00984300925204
0.233492106199,0.00473288400099,-0.249347865582,-2.52442908287,-0.0161597467959,2.55495548248,-0.803665399551,0.0386290736496,-0.00287238741294,0.000468883517897,-0.00039077346446,-0.000215169027797,-0.00499607762322,0.000384940212825,-0.000165806777659,0.465820679322,-0.00835609000984,0.165237819001,0.00988288710592,0.92074354116,0.389918937592,0.00984285241919
0.233491286635,0.00473284255713,-0.249347344041,-2.52443146706,-0.0161595772952,2.5549557209,-0.80366563797,0.0386290736496,0.000690416898578,-0.000646399625111,-0.000140331438161,-2.12918184843e-05,-0.000144120655023,7.75368562245e-07,-0.000289709802018,0.465819582831,-0.00835620139647,0.165236949026,0.00988241273848,0.920743590954,0.389918855845,0.00984190902967
0.233494192362,0.00473366584629,-0.249345228076,-2.52443599701,-0.0161598548293,2.55495619774,-0.803665816784,0.0386290736496,0.000257834850345,-0.000511951104272,-0.000140035059303,2.72252855211e-05,4.90186212119e-05,-0.000122933517559,-0.000208172743442,0.465817403841,-0.00835387295674,0.165234890958,0.00988156474004,0.920742555431,0.38992137973,0.0098396447124
0.233493879437,0.00473171379417,-0.249344155192,-2.52443361282,-0.0161595493555,2.55495524406,-0.803666293621,0.0386290736496,2.87825951091e-05,0.0021657331381,-0.000352695729816,-0.00055716058705,0.00396073888987,5.70483352931e-05,0.000506799609866,0.46581867436,-0.00835344530516,0.165236592402,0.00988193926267,0.920742350994,0.389921811343,0.00984129483034
0.233494400978,0.00473095523193,-0.249343946576,-2.52443170547,-0.0161596070975,2.5549557209,-0.803666591644,0.0386290736496,0.000107622763608,-0.000117036383017,0.000376907817554,-0.000311666808557,-6.00717758061e-05,-8.38190171635e-05,0.000117658695672,0.465819829403,-0.00835309191137,0.165237707763,0.00988249388727,0.920742125116,0.389922293785,0.00984275588946
0.233493462205,0.00473037315533,-0.249344557524,-2.52442979813,-0.0161596965045,2.55495524406,-0.803664982319,0.0386290736496,0.000448631762993,0.000740407092962,-0.000159473900567,-0.000432325789006,-6.59467186779e-05,0.00011089185864,-0.000305891764583,0.465820314776,-0.00835350559997,0.165237917679,0.0098827838328,0.920742496516,0.389921398789,0.00984317741396
0.233492404222,0.00473315315321,-0.249346494675,-2.52443289757,-0.0161594301462,2.55495500565,-0.803665399551,0.0386290736496,-0.00115081609692,-0.000197671295609,-0.000161627220223,-0.000288141134661,8.12232174212e-05,-0.00018575694412,8.78825667314e-05,0.465818702066,-0.00835527947175,0.165236194987,0.00988190646,0.920743291463,0.38991960386,0.00984080071464
0.233493059874,0.00473449192941,-0.249344676733,-2.52443122864,-0.0161601360887,2.55495476723,-0.803664624691,0.0386290736496,6.73242975608e-05,0.00011928089225,0.000270497461315,0.000163970471476,3.49450674548e-05,6.07453621342e-05,-0.000122302997625,0.465819258794,-0.00835422377998,0.165236205342,0.00988224826857,0.920742843576,0.38992065457,0.00984073137797
0.23349276185,0.00473274989054,-0.249343797565,-2.52442955971,-0.0161598436534,2.55495500565,-0.803665339947,0.0386290736496,0.00027021614369,0.000146792866872,0.00121878064238,0.000139707684866,-2.02499741135e-05,-8.90690789674e-05,-0.000234359147726,0.46582040614,-0.00835388269961,0.165237650563,0.00988270033992,0.920742621586,0.389921122783,0.00984249554398
0.23349443078,0.00473368726671,-0.249343246222,-2.52443170547,-0.0161609854549,2.55495643616,-0.803666114807,0.0386290736496,-6.30528375041e-05,-0.000442517601186,-0.000756500754505,-5.81178137509e-05,9.25441327126e-06,9.84508005786e-06,0.000286508118734,0.465819544266,-0.00835292308658,0.165236542217,0.00988275595325,0.920741857007,0.389922949696,0.00984158890038
0.23349519074,0.00473294826224,-0.249343797565,-2.52443552017,-0.0161596424878,2.55495667458,-0.80366653204,0.0386290736496,0.000296086247545,0.000441572279669,-2.36704381678e-05,0.000409470318118,-0.000249742879532,-1.98761263164e-05,-0.000903389125597,0.465817874791,-0.00835270564934,0.165235440642,0.0098817476513,0.920741968522,0.389922740197,0.00984046874141
0.233491793275,0.00473065441474,-0.249344557524,-2.52443361282,-0.0161598920822,2.55495643616,-0.803667068481,0.0386290736496,-0.00155063183047,-0.000379595527193,0.000171048435732,6.94278860465e-05,1.86200213648e-05,-5.85335237702e-06,-0.000455342611531,0.465819084775,-0.00835457962135,0.165237182449,0.00988236678035,0.920742617275,0.389921146089,0.00984231041762
0.233492419124,0.00473188050091,-0.249343469739,-2.52443146706,-0.0161595437676,2.55495619774,-0.803665041924,0.0386290736496,5.22869231645e-05,-0.00404301378876,0.000176166271558,0.000627103203442,8.42387744342e-05,6.4353439484e-06,5.90630297665e-05,0.465819884281,-0.0083538270165,0.165237425654,0.00988254096185,0.920742729764,0.38992086784,0.00984263558869
0.233492955565,0.00473295617849,-0.249345064163,-2.52443361282,-0.0161596983671,2.55495595932,-0.803667247295,0.0386290736496,4.01960314775e-05,-0.000365525280358,-2.04770858545e-05,-0.000262947782176,-0.000132166896947,-7.90680933278e-05,6.43295934424e-05,0.465818534795,-0.00835438060195,0.165236116862,0.00988201263171,0.920742541126,0.389921368315,0.00984098580962
0.233494862914,0.00473354477435,-0.249343648553,-2.52443480492,-0.0161596480757,2.55495667458,-0.803665995598,0.0386290736496,3.61784695997e-05,-0.000179857859621,-6.59416036797e-06,-0.000103817859781,2.76770806522e-05,-3.69666086044e-05,-0.000325535569573,0.465818121616,-0.00835281741196,0.165235444577,0.00988184203221,0.920742105502,0.389922413485,0.0098405029
0.23349454999,0.0047339387238,-0.249345421791,-2.52443408966,-0.0161598343402,2.55495643616,-0.803666830063,0.0386290736496,0.000206428361707,-0.000376017182134,-1.17295294331e-05,0.000310956907924,7.1907430538e-05,0.00021934088727,0.000291571341222,0.465818334245,-0.00835382002446,0.16523551874,0.00988197385268,0.92074231861,0.38992190725,0.00984048996311
0.23349095881,0.00473146745935,-0.249342873693,-2.52443099022,-0.0161598473787,2.55496144295,-0.803668677807,0.0386290736496,0.00167736294679,-0.00160474376753,3.15996317113e-06,2.38493594225e-05,7.29960447643e-05,9.41675752983e-05,0.000102575118945,0.465821311183,-0.00835422896419,0.165238285094,0.0098837996549,0.920742099572,0.389922253918,0.00984541321257
0.233493462205,0.00473212590441,-0.249343857169,-2.52443003654,-0.0161599162966,2.55496311188,-0.803670704365,0.0386290736496,2.41915695369e-05,0.00299100903794,9.22904000618e-05,-0.000181661118404,6.60013465676e-05,-2.10949165194e-05,-0.0030558584258,0.465822039102,-0.00835355676538,0.165238509061,0.00988428766806,0.920741382705,0.389923912391,0.00984628151244
0.233494326472,0.00473532453179,-0.249342620373,-2.52443170547,-0.0161597430706,2.55496454239,-0.803669810295,0.0365093536675,-0.000466847443022,0.00262945727445,-0.000267442374025,-4.55720910395e-05,2.79664686786e-06,-0.000130909887957,0.000228905992117,0.465821037682,-0.00835268032455,0.165236561418,0.00988390228868,0.920741185949,0.389924428361,0.00984463422046
0.23349148035,0.00473431730643,-0.249342381954,-2.52443313599,-0.016159331426,2.55496382713,-0.803670883179,0.0365093536675,0.000225674826652,-0.000225814452278,-0.000196059787413,-0.000183824100532,1.58861655564e-06,4.09556241721e-06,0.00038996047806,0.465820333928,-0.00835382600743,0.165236402243,0.0098834675666,0.920741560794,0.389923565812,0.00984417605046
0.233493179083,0.00473306421191,-0.249342471361,-2.52443385124,-0.0161597952247,2.55496454239,-0.803671479225,0.0365093536675,-3.24607462971e-05,-0.000231706755585,0.000174347558641,0.000363741652109,-7.41266967452e-06,-6.5940002969e-05,-2.38618231378e-05,0.465820662393,-0.00835336801382,0.165237048068,0.00988387245017,0.920741215554,0.389924350818,0.00984496661709
0.233497783542,0.00472911214456,-0.249338850379,-2.52443242073,-0.0161600057036,2.55496406555,-0.803670585155,0.0365093536675,0.000286255846731,0.00372453499585,1.27428065753e-05,0.000375840376364,0.000128752901219,0.000145733807585,0.00527625856921,0.465821662219,-0.00834907739547,0.165239044975,0.00988420808427,0.920739567772,0.389928178006,0.0098471543053
0.233490660787,0.00473326956853,-0.249342679977,-2.52443480492,-0.0161594338715,2.5549633503,-0.803670465946,0.0365093536675,-0.000225805692025,0.000240381981712,-0.00262449076399,-6.89255393809e-05,-1.20345675896e-05,-7.62295094319e-05,0.000174784829142,0.465819585685,-0.00835429922714,0.165236193161,0.00988315431641,0.920741851619,0.389922899157,0.00984369507911
0.23348890245,0.00473427493125,-0.249342396855,-2.52443265915,-0.016159594059,2.55496573448,-0.803669512272,0.0365093536675,3.61021848221e-05,-0.000409725413192,0.000278415594948,-0.000187069250387,-3.39463549608e-05,-9.07470985112e-06,3.87509644497e-05,0.465820962853,-0.00835504740328,0.165236782214,0.00988401555127,0.920742274988,0.389921838185,0.00984525648704
0.233492493629,0.00473345676437,-0.249342292547,-2.52443408966,-0.0161601249129,2.55496525764,-0.803670287132,0.0365093536675,1.27643061205e-05,0.000211461330764,-4.44243596576e-06,-0.000150127554662,-9.56422518357e-05,0.000120929209515,0.00054605625337,0.465820332458,-0.00835330945365,0.165236560595,0.00988382348035,0.920741325108,0.389924099059,0.00984474113488
0.233494058251,0.00473330542445,-0.249339863658,-2.52443218231,-0.0161596145481,2.55496501923,-0.803669095039,0.0365093536675,-0.00031775989919,-0.000372440059436,0.000189463258721,-8.99682927411e-05,-0.000111596353236,-7.46312362025e-05,-0.000312199437758,0.465821260354,-0.00835143084423,0.165237333479,0.00988401181424,0.920740852984,0.389925185867,0.00984566228072
0.233494594693,0.00473276944831,-0.249339908361,-2.52443265915,-0.0161594077945,2.55496788025,-0.80367064476,0.0365093536675,-0.000399298907723,-0.000965934072156,0.000413134344853,0.000191659040865,-2.12561026274e-05,-7.76842625783e-06,0.000147371232742,0.465821741349,-0.0083511664841,0.165237661011,0.00988447285048,0.920740469115,0.389926045772,0.0098470422749
0.233495116234,0.00473300740123,-0.249338835478,-2.52443599701,-0.0161598119885,2.55496621132,-0.80367064476,0.0365093536675,-0.000272984529147,-0.00105028622784,-0.000107619096525,-8.91572926776e-06,6.73232643749e-05,-2.28445496759e-05,0.000133171633934,0.465819740718,-0.00835042817454,0.165236122106,0.00988354497556,0.920740122649,0.389926949226,0.00984459404528
0.233492061496,0.00473318714648,-0.24933975935,-2.5244307518,-0.0161594934762,2.55496764183,-0.803670585155,0.0365093536675,-0.00063597416738,-0.000302524887957,-0.000237400337937,0.000722632161342,-5.34570172022e-05,1.88370286196e-05,2.26543706958e-05,0.465822523447,-0.00835231115153,0.16523817867,0.00988481033892,0.920740924873,0.3899249475,0.00984757772131
0.233492508531,0.00473146140575,-0.249338060617,-2.52443265915,-0.0161597710103,2.55496644974,-0.803670227528,0.0365093536675,-0.000280757376458,0.000649117166176,0.000196436361875,-0.00014814795577,-5.39114153071e-05,-9.16401986615e-05,3.43155770679e-05,0.465821642535,-0.00835124335413,0.165238116493,0.00988438984795,0.920740543255,0.389925874128,0.00984698994078
0.233495250344,0.00473341345787,-0.249337360263,-2.52443552017,-0.0161599162966,2.55496716499,-0.803670287132,0.0365093536675,0.00023092579795,0.000820147281047,-0.000359864294296,9.94846268441e-05,-1.28090232465e-05,-6.1166821979e-05,0.000225933501497,0.465820124684,-0.00834970119427,0.165236209534,0.00988380851771,0.920739854065,0.38992756527,0.00984504901681
0.233496963978,0.00473308376968,-0.249336108565,-2.52443575859,-0.0161595568061,2.55496811867,-0.803670287132,0.0337441302836,5.03529772686e-05,-8.88964204933e-05,-1.46478705574e-05,0.000129059466417,1.32428122015e-05,8.5443854914e-05,-0.000313192547765,0.465820294447,-0.00834828677963,0.165236355668,0.00988386423136,0.920739327711,0.389928792911,0.00984559676824
0.233493134379,0.00473184324801,-0.249338507652,-2.5244333744,-0.0161600112915,2.55496954918,-0.803669333458,0.0337441302836,-0.000227886717767,0.000138610397698,-0.000472619693028,0.00017908832524,9.58413365879e-05,0.000197431741981,0.000702692195773,0.465821907557,-0.00835118030799,0.165237961566,0.00988487918787,0.920740627204,0.389925641063,0.00984787809971
0.233496636152,0.00473375013098,-0.249333307147,-2.52443313599,-0.0161604899913,2.55496931076,-0.803670763969,0.0337441302836,0.0004980226513,-6.93159454386e-05,-0.00120333314408,-0.000263471185463,6.0296155425e-05,-0.00010239387484,-9.60111719905e-05,0.46582163088,-0.00834722308806,0.165237116972,0.00988471972046,0.920738600791,0.389930455464,0.00984687322497
0.233495250344,0.00473458599299,-0.249336883426,-2.52443289757,-0.0161595474929,2.55496954918,-0.803671002388,0.0337441302836,-0.000476956833154,-0.000632377981674,-0.000174337896169,0.000183436175575,0.000133562571136,0.0001665228192,0.000139732626849,0.465821721374,-0.00834952446814,0.165236904908,0.00988461358934,0.920739655457,0.389927969443,0.00984680711697
0.233486518264,0.00473235128447,-0.249339967966,-2.52443194389,-0.0161601807922,2.55497097969,-0.803671956062,0.0337441302836,0.000241985122557,0.000149194092955,-0.000624568783678,-0.000883161032107,6.65273400955e-05,0.000124460842926,-4.11086257373e-05,0.465822758753,-0.00835498118637,0.165238413522,0.0098855067,0.920741647331,0.389923191317,0.00984886703079
0.233490481973,0.00473295012489,-0.249338299036,-2.52443647385,-0.0161599107087,2.55497145653,-0.803671598434,0.0337441302836,0.000452360080089,-0.000129769454361,0.00191509781871,0.000176459856448,-4.85123382532e-06,0.000133314286359,0.000317251804518,0.46582062165,-0.00835233352185,0.16523645669,0.00988453108278,0.920740685336,0.389925540336,0.00984678056995
0.23349365592,0.00472875218838,-0.24933616817,-2.52440905571,-0.0161594897509,2.55498623848,-0.803671240807,0.0337441302836,3.97848998546e-05,-0.00231823557988,-0.000401325611165,0.000268806645181,2.87035727524e-05,-9.42485348787e-05,0.000557985680643,0.465837805047,-0.00834986927778,0.165250206268,0.00989318189205,0.920739527185,0.389927512677,0.00986826072216
0.233486562967,0.00474148057401,-0.249340951443,-2.52444458008,-0.0161560289562,2.55515861511,-0.803672790527,0.0337441302836,0.00439767632633,-0.00635895365849,0.000293818942737,-0.00301443319768,0.00204018852673,0.0197191983461,0.00108659139369,0.465865354218,-0.00835441705368,0.165254119691,0.00992756233768,0.920741181264,0.389920587957,0.00995265788441
0.233477890491,0.0046878233552,-0.249345719814,-2.52432894707,-0.0161567497998,2.55584549904,-0.803671181202,0.0337441302836,0.00134359812364,-0.00519430730492,0.000766514160205,0.00451833289117,-0.00445117149502,0.0169247779995,4.45280602435e-05,0.466069102703,-0.00836018025798,0.16537984573,0.0100807346711,0.920738237683,0.389914048766,0.0103204027998
0.233487457037,0.00468989973888,-0.24933989346,-2.52424669266,-0.016157656908,2.55614042282,-0.803671598434,0.0274335630238,5.11613943672e-05,0.00134616706055,-0.000234547944274,0.00461748521775,-0.000257812964264,0.0132176857442,8.08989570942e-05,0.466168549578,-0.00835392651561,0.165436132885,0.0101521950913,0.920732678543,0.389920904147,0.0104859806081
0.233492344618,0.00469648698345,-0.249337047338,-2.52422904968,-0.0161582734436,2.55635595322,-0.803673624992,0.0274335630238,0.00066606461769,-0.000830018369015,0.000191903978703,0.000762557028793,8.84295659489e-05,0.0151125518605,0.000137536480906,0.466225123909,-0.00834985741558,0.165461653528,0.0101989451229,0.920728538232,0.389926576866,0.010592673853
0.233483120799,0.00471566664055,-0.249340027571,-2.52423477173,-0.0161569882184,2.55646634102,-0.803671479225,0.0274335630238,-0.000794914434664,0.000768552126829,-0.000397398951463,-0.00232780980878,0.00813679117709,0.00742539204657,0.00042988039786,0.466244581128,-0.00835660071982,0.165461585839,0.0102192093092,0.920731072879,0.389918901519,0.0106352769364
0.233474850655,0.00471873674542,-0.249346971512,-2.52423644066,-0.0161569938064,2.5565867424,-0.803672134876,0.0274335630238,-0.000563044857699,0.000288805167656,0.000282834167592,0.00100150390062,7.34885106795e-05,0.00278800330125,5.43975511391e-05,0.466269213757,-0.00836375746952,0.16547088423,0.0102423303571,0.920733042855,0.38991219357,0.0106882856895
0.233485013247,0.00471547525376,-0.249342352152,-2.52424478531,-0.0161580648273,2.55675554276,-0.803670287132,0.0274335630238,0.00112036033534,0.000334849901265,0.000444203556981,-0.00166833365802,-0.00019517869805,0.00202144635841,0.000411985267419,0.46630237738,-0.00835665621008,0.165485039066,0.0102741938355,0.920729130018,0.389918521131,0.0107636721518
0.23349454999,0.00471805175766,-0.24933513999,-2.52425289154,-0.0161574427038,2.55683517456,-0.803673326969,0.0168139506131,0.000754377921112,-0.000170030398294,-0.000402597157517,-0.000202207724215,0.000644706015009,0.00395573023707,-0.00020715224673,0.466315417436,-0.00834881935498,0.165488261742,0.0102877049839,0.920724837278,0.389927422573,0.0107954598822
0.23348750174,0.00472051044926,-0.249336659908,-2.5242421627,-0.0161580555141,2.55688261986,-0.803673028946,0.0168139506131,-0.000926006236114,-0.000282570457784,-0.000123046251247,0.000151572297909,0.000179968876182,0.00113045168109,0.000510917045176,0.466330398059,-0.00835299805016,0.165495719267,0.0102991808628,0.920726061253,0.389923525411,0.0108208601958
0.233479782939,0.00472209323198,-0.24934284389,-2.52425122261,-0.016157431528,2.55693078041,-0.803672790527,0.0168139506131,-0.000284096488031,-0.00176627992187,-0.000585615925957,-0.000394968228647,0.000706356076989,0.00257510272786,8.53013989399e-05,0.466336073019,-0.00835943253828,0.165496073843,0.0103065887961,0.920728618056,0.389916813899,0.0108380828734
0.233486443758,0.00472062034532,-0.249337494373,-2.52425122261,-0.0161577835679,2.55702662468,-0.803672611713,0.0168139506131,0.000529109674972,-0.00340651953593,0.000251535879215,5.98332371737e-05,0.00013189233141,0.00064594700234,0.000170879764482,0.466357157409,-0.00835374745961,0.165505756177,0.010325519126,0.920725531228,0.389922353467,0.0108829108925
0.233486011624,0.00472957640886,-0.249336630106,-2.52425599098,-0.0161572247744,2.55705904961,-0.803671717644,0.0168139506131,-2.13575531234e-05,0.00318058603443,-0.000360067700967,-2.69016363745e-05,-1.58116108651e-05,0.000852160912473,-0.000660563062411,0.466360569052,-0.00835404970213,0.165502634345,0.0103302671026,0.920725565489,0.389921903153,0.0108916371396
0.233487829566,0.00472884392366,-0.249337598681,-2.52426028252,-0.0161582566798,2.55709600449,-0.803672373295,0.0168139506131,0.00106332532596,-3.18911734212e-05,-0.000502138864249,-0.000317939411616,3.13969212584e-05,0.00483553018421,0.000128836822114,0.466366467998,-0.00835339689479,0.165505106255,0.010336722912,0.920724816608,0.389923082851,0.0109065752362
0.233483433723,0.00472781201825,-0.249338597059,-2.52425765991,-0.0161575172096,2.55712771416,-0.803672134876,0.0168139506131,-0.000282621302176,0.000248716329224,-0.000446714722784,-0.000469213729957,5.71565869905e-05,0.000412663270254,0.000219464112888,0.466374721278,-0.00835584403959,0.165509560715,0.0103433969219,0.920725777319,0.389920179759,0.0109229217557
0.23348531127,0.00473188888282,-0.249336138368,-2.52427434921,-0.0161574706435,2.55714678764,-0.803672432899,0.0168139506131,0.000153272310854,0.000154468420078,0.000348313711584,-0.00120390555821,4.51408523077e-05,0.000138100032927,-0.00029149549664,0.466370765502,-0.00835460168512,0.165503841983,0.0103436152553,0.920725167354,0.389921622255,0.0109226372576
0.233491271734,0.00473799416795,-0.249334692955,-2.52427649498,-0.0161580741405,2.55715513229,-0.803672015667,0.0168139506131,0.00334517424926,0.00173675396945,0.000580483989324,0.000259823427768,-0.00134742923547,-1.8151185941e-05,0.000272243283689,0.466369857537,-0.00835140061063,0.165500825815,0.0103440966931,0.920723585331,0.389925363918,0.010921965692
0.233481094241,0.00474817212671,-0.249340549111,-2.52427482605,-0.0161580406129,2.55716943741,-0.803673684597,0.0168139506131,-0.000111725756142,-0.000517384265549,0.000200882961508,2.94089095405e-05,0.0010161617538,-0.000253354461165,0.000147064696648,0.466372105946,-0.00835851974425,0.165497725387,0.010346586144,0.920726096146,0.389919308341,0.010924133618
0.233486026525,0.00475033605471,-0.249338716269,-2.52429103851,-0.0161575581878,2.55717277527,-0.803673088551,0.0168139506131,0.000649810244795,0.00103762454819,-0.000191738407011,-0.000440406787675,0.000613833428361,1.67982034327e-05,8.25554816402e-05,0.466364700235,-0.00835530599024,0.165490859651,0.0103436130802,0.920725049206,0.389922051265,0.0109172822641
0.233485788107,0.00474818795919,-0.249339208007,-2.52429389954,-0.0161577407271,2.55717587471,-0.803672373295,0.0167482830584,-0.000123977006297,0.000519983936101,0.000367315398762,0.000850576790981,1.5696950868e-05,0.000232117701671,-5.51843586436e-05,0.466364333002,-0.00835555037837,0.165491027942,0.0103438693234,0.920725285725,0.389921453621,0.0109184376658
0.233484372497,0.00474333763123,-0.249338045716,-2.52426457405,-0.0161576177925,2.5571949482,-0.803673028946,0.0167482830584,-0.000351895723725,-0.000956946227234,-0.000136340517201,0.00575888482854,3.52879324055e-05,0.00288232206367,-0.000121399411,0.466383415312,-0.00835567732784,0.165506231009,0.0103539139321,0.92072489455,0.38992142165,0.0109430180228
0.233483552933,0.00469028344378,-0.249337747693,-2.52421379089,-0.0161575283855,2.55778765678,-0.803674399853,0.0167482830584,-0.000323698594002,0.00133243273012,-0.000115763068607,0.0013593705371,-1.65401379491e-05,0.00948031898588,-0.000316212826874,0.466544841727,-0.00835398071721,0.165605480353,0.010484814322,0.920719716311,0.389920982933,0.0112649640702
0.233472540975,0.00470654806122,-0.249345943332,-2.52422237396,-0.0161576662213,2.55794358253,-0.803672850132,0.015485513024,0.000300034065731,1.64280882018e-05,-0.000589527597185,0.00398878613487,5.68293216929e-05,0.00150607095566,-5.13373415743e-05,0.466571624203,-0.0083634583342,0.165609554792,0.0105124580823,0.920722660764,0.389911557825,0.0113246163983
0.233489587903,0.00470211030915,-0.249335378408,-2.52422642708,-0.0161576494575,2.55800437927,-0.803672194481,0.015485513024,0.000218467219383,-0.000493210100103,0.000692939560395,-0.000384624727303,-1.03057645902e-05,0.000117301045975,-0.000568614108488,0.466583771438,-0.00835034007745,0.16561573875,0.0105237408015,0.920716944222,0.389923924775,0.0113530644476
0.23349159956,0.0047073517926,-0.249332368374,-2.5242228508,-0.0161576736718,2.55802965164,-0.803673923016,0.015485513024,-0.000365250569303,-0.000227341472055,-0.000260250642896,0.000410987035139,1.15471793833e-05,0.00606468413025,-0.000155044050189,0.466590153961,-0.00834821405472,0.165617120954,0.0105289646039,0.92071543013,0.389927047551,0.0113637535835
0.23347941041,0.00471170851961,-0.249341517687,-2.52422189713,-0.0161577109247,2.55805420876,-0.803671658039,0.015485513024,-0.000721465388779,0.0001682414877,-0.00110773800407,-0.000202429349883,3.31417709276e-06,2.73741934507e-05,-0.000178208312718,0.466595041221,-0.00835834450405,0.165617838613,0.0105337501173,0.92071984862,0.389916208767,0.0113732268387
0.233465746045,0.00471263471991,-0.249348759651,-2.52423739433,-0.0161572676152,2.55806350708,-0.803671121597,0.015485513024,0.000215047431993,0.00027688863338,0.000286877533654,-0.00114153907634,-4.33309069194e-05,0.000631005037576,0.000179296650458,0.466588576948,-0.00836796441297,0.165611778383,0.0105320778446,0.920724114154,0.389906301218,0.0113691206022
0.233491241932,0.00471815746278,-0.249332994223,-2.52424430847,-0.0161578506231,2.55807304382,-0.80367398262,0.015485513024,-0.000599715276621,-0.000702849938534,-0.000571867276449,0.00150862010196,0.000152550070197,0.000414870562963,0.000150879888679,0.466584968325,-0.0083478399413,0.165605999069,0.0105312053191,0.920714831517,0.389928346561,0.0113656047009
0.233471229672,0.00470175826922,-0.249343916774,-2.52420139313,-0.0161573290825,2.55810451508,-0.803672254086,0.015485513024,-0.00141393090598,-0.00206131581217,-1.2707310816e-05,0.00225799204782,9.00420636754e-05,0.000550868280698,-0.000170804545633,0.466617358794,-0.00836300677562,0.165634931842,0.0105485600168,0.920721301083,0.389911285996,0.0114106243999
0.233463719487,0.0046804798767,-0.249351069331,-2.52421164513,-0.0161574985832,2.5581510067,-0.803670763969,0.015485513024,9.82527708402e-05,0.000180884599104,-0.00349641824141,-0.0015300239902,-0.000173009539139,0.00706861261278,0.00025100322091,0.466625808488,-0.00836894509862,0.165645017703,0.0105575091047,0.920724030907,0.389903803851,0.0114377155577
0.233478024602,0.00470140343532,-0.249337315559,-2.52418327332,-0.0161580555141,2.55821824074,-0.803672850132,0.015485513024,-0.000219573223148,0.000528850476258,-0.000191279279534,5.20679604961e-05,-1.57194990607e-05,0.00449385400862,0.000144182384247,0.466650879626,-0.00835685486047,0.1656527582,0.0105746549042,0.920717460716,0.389917865092,0.011471371762
0.233463987708,0.00470449542627,-0.24934656918,-2.52419781685,-0.01615720056,2.55824780464,-0.803672552109,0.015485513024,-0.000729672552552,-0.000576122314669,-0.000420594937168,-0.00135910476092,-1.68979113369e-05,1.21601133287e-05,8.28467673273e-05,0.466649555182,-0.00836769257579,0.165648588762,0.0105771869687,0.920722069188,0.389906755501,0.0114767645054
0.233472421765,0.00470383046195,-0.249339297414,-2.52418088913,-0.0161578431726,2.55828952789,-0.803673028946,0.0149949835613,-0.000899773382116,-0.00368118681945,-0.000539371743798,0.00274701649323,0.000174672473804,0.000988317420706,0.000262008310528,0.466666993449,-0.0083604673767,0.165659304355,0.0105889092374,0.920718379419,0.389914346708,0.0115040304009
0.233459487557,0.00470575643703,-0.24934540689,-2.52414655685,-0.0161573905498,2.55829000473,-0.803672492504,0.0149949835613,-0.000297174294246,0.000121214099636,-0.000208440600545,0.00172801548615,0.000169652324985,-6.74496841384e-05,3.50876507582e-05,0.46668320406,-0.00836966018576,0.165671624498,0.0105957894987,0.920722066455,0.389905012932,0.0115189478883
0.233454555273,0.00470977090299,-0.249346673489,-2.52406263351,-0.0161576941609,2.55828619003,-0.803670227528,0.0149949835613,0.00111564691179,0.00109774165321,0.000606420799159,0.00499030807987,-8.54523532325e-05,-0.000112285728392,-0.00011589506903,0.466722198735,-0.008373331976,0.165701579027,0.0106117836317,0.920723204474,0.389900867427,0.0115535298794
0.233469650149,0.00474918680266,-0.24933603406,-2.5237531662,-0.0161579828709,2.55827498436,-0.803671240807,0.0149949835613,-0.000285243673716,0.000471005594591,5.05353418703e-05,0.0103506855667,-3.03065498883e-05,-0.000118641073641,-6.26482797088e-05,0.466862990311,-0.00836508869223,0.165801192123,0.010668798133,0.920716312505,0.389912101351,0.0116705413849
0.233470648527,0.00475238403305,-0.249335944653,-2.52351021767,-0.01615748927,2.55827522278,-0.803673386574,0.0149949835613,0.000662177626509,0.000946539570577,-0.000179111419129,0.0202431753278,3.1675772334e-05,7.52642663429e-05,-0.000131674838485,0.46697980653,-0.00836643237731,0.165892827484,0.0107175882995,0.920714274399,0.389912278204,0.0117802040526
0.233482986689,0.00478295143694,-0.24932859838,-2.52297639847,-0.016158176586,2.55825567245,-0.803671479225,0.0149949835613,0.000304930726998,0.00131911959033,5.7484703575e-05,0.0341064743698,-0.000810998026282,-5.86628921155e-05,0.00014487975568,0.467228383861,-0.00836229725595,0.166081712252,0.0108191952265,0.92070765119,0.38991840121,0.0120002556231
0.233471959829,0.00481247249991,-0.249332681298,-2.52023077011,-0.0161582566798,2.55816531181,-0.803669989109,0.0148150566965,0.000125134189148,-0.00386778311804,0.000351267342921,0.0923487395048,0.00300049316138,-0.0153703754768,-0.000302011409076,0.468610631154,-0.00839130770893,0.167183621939,0.0113874408741,0.920692416107,0.389896874476,0.0132750920332
0.233483359218,0.00473242392763,-0.249323159456,-2.51858067513,-0.0161589514464,2.55794239044,-0.803673684597,0.0148150566965,0.0033036377281,-0.00539060495794,-0.000347077380866,0.113548964262,-0.000112450543384,-0.0136234648526,-0.000123714155052,0.46928608546,-0.00838935547752,0.167764446773,0.0116510053275,0.920678538543,0.389900408308,0.0138907892098
0.23348288238,0.00458947196603,-0.249302208424,-2.51613092422,-0.0161590762436,2.55748105049,-0.803671002388,0.0148150566965,-0.000254004291492,-0.0101989759132,-0.000652081740554,0.147967487574,-0.000118666532217,-0.0351586453617,0.000233996615862,0.470386323518,-0.00839201394795,0.168730881356,0.0120675882402,0.92066012772,0.389895123361,0.0148692636484
0.233490407467,0.003463977715,-0.249147132039,-2.50722503662,-0.0161597244442,2.55425047874,-0.80367064476,0.0148150566965,-3.49051842932e-05,-0.0408088676631,0.00790978036821,0.23071359098,1.40921783895e-05,-0.115017563105,0.00218336214311,0.474127608279,-0.00833785514657,0.172394079352,0.0133267310418,0.920578435034,0.389914527212,0.0180112282022
0.233485892415,0.00260338839144,-0.249039575458,-2.50307488441,-0.0161605589092,2.55197572708,-0.803672015667,0.0148144001141,9.49498789851e-05,-0.0590717494488,0.00208299653605,0.254989892244,0.00011720778275,-0.158190846443,0.000117148185382,0.475746515558,-0.0082877137576,0.174192791925,0.0137902761199,0.920537575729,0.389933832905,0.019287446512
0.233487278223,0.00105397519656,-0.248935192823,-2.49780726433,-0.0161598417908,2.54827475548,-0.803669095039,0.0148144001141,0.000301569089061,-0.0921172574162,0.00415253126994,0.279640942812,0.000325420085574,-0.217063903809,0.00221388763748,0.477584635485,-0.00822440463596,0.176486089747,0.0142348057835,0.920498031468,0.38993965819,0.0206834963279
0.233491122723,-0.000842873589136,-0.248820453882,-2.49223804474,-0.0161609854549,2.54382038116,-0.803664803505,0.0148144001141,-0.000259171094513,-0.114575095475,0.00737904757261,0.335527360439,-0.00010981378,-0.285151720047,-0.000217207940295,0.479640455059,-0.0081375997633,0.179263554397,0.0146656483561,0.920452530532,0.389948156408,0.022192178599
0.233486279845,-0.00484201591462,-0.248676896095,-2.48178291321,-0.0161612927914,2.53363633156,-0.803646624088,0.0148144001141,0.00118566572201,-0.161369353533,0.00730779580772,0.391132086515,-0.000904175103642,-0.408398300409,0.00140407995787,0.482938338958,-0.00801243641236,0.18429179226,0.0151125557606,0.920406184858,0.389917218876,0.0242616495581
0.23349660635,-0.00802508182824,-0.248557120562,-2.47452712059,-0.0161629728973,2.52552604675,-0.803620040417,0.0148144001141,-0.00096285273321,-0.189714059234,0.00609214091673,0.41583275795,-0.00393271353096,-0.488242059946,0.001481636893,0.485024193152,-0.00789959426975,0.187897863805,0.0152518905408,0.920378396189,0.38990361511,0.0254196433613
0.233496889472,-0.0197795350105,-0.248119771481,-2.45064234734,-0.0161647479981,2.49642467499,-0.802493929863,0.0148144001141,0.00403920654207,-0.274051576853,0.00879809446633,0.530728936195,-0.000160639290698,-0.676094710827,0.034985922277,0.491303415888,-0.0075095612247,0.200303835008,0.0153285535105,0.920501631551,0.389376937175,0.0287642527652
0.233482897282,-0.0241853930056,-0.247923269868,-2.44265341759,-0.0161646194756,2.48573589325,-0.801938474178,0.0148144001141,-0.00178727658931,-0.31494769454,0.0121042737737,0.557878673077,0.000136903967359,-0.736871600151,0.0449399836361,0.49317049271,-0.00735751763288,0.204642060186,0.0152027184677,0.920577359376,0.389134094178,0.0296792719896
0.233499184251,-0.0303865950555,-0.24766677618,-2.43146252632,-0.0161675326526,2.47122359276,-0.80105727911,0.0148144001141,0.000101569879916,-0.324043512344,0.0165637582541,0.614599764347,5.16454701938e-06,-0.801153659821,0.0552693456411,0.496083566014,-0.00712200703299,0.211501485834,0.0151032812731,0.920705311023,0.3887049984,0.0313375980125
0.233489722013,-0.0363998636603,-0.247351169586,-2.4202067852,-0.0161668527871,2.45619869232,-0.799729347229,0.0148130869493,-0.0011110532796,-0.351080834866,0.0209301877767,0.633848249912,0.000430406857049,-0.87388163805,0.098848067224,0.498238872586,-0.00693413767504,0.216962008724,0.0149191682569,0.920891027316,0.388184580843,0.0324016219666
0.233470723033,-0.0558810085058,-0.246238261461,-2.38507390022,-0.0161697100848,2.40987443924,-0.792494058609,0.0148130869493,-0.000157164671691,-0.414511531591,0.0222237017006,0.769785761833,-0.000308027345454,-0.973355174065,0.201461702585,0.505394198969,-0.00626481160431,0.236858429475,0.0144078709039,0.922051275481,0.385042501559,0.0368256746882
0.233486041427,-0.061657205224,-0.245864376426,-2.37422180176,-0.0161776896566,2.39625358582,-0.789511919022,0.0148130869493,0.00261974218301,-0.421320021152,0.0307415127754,0.773357093334,-0.00368511909619,-0.992391765118,0.224656075239,0.507526169452,-0.00606272092048,0.243062014434,0.0143452968241,0.922526927493,0.383750120408,0.0383943391525
0.233475506306,-0.0698000490665,-0.245171666145,-2.35899996758,-0.0161748491228,2.37710022926,-0.78456145525,0.0148130869493,-0.00207971595228,-0.445817559958,0.0374385267496,0.856686353683,-0.000113358801173,-1.01623094082,0.294645607471,0.510350973006,-0.00572762618819,0.251857328546,0.0142271746377,0.923309435248,0.381639791451,0.0405997973835
0.233474820852,-0.0909049063921,-0.243299514055,-2.31619405746,-0.0161786396056,2.32706403732,-0.766686558723,0.0148104596883,-0.000869668554515,-0.419606268406,0.0387317202985,0.875052273273,0.00083489267854,-1.03699946404,0.423301339149,0.517975168025,-0.00495484506766,0.276556831138,0.0143348289941,0.926160575903,0.373824588406,0.0477103459067
0.233503103256,-0.0995183959603,-0.24249535799,-2.29753994942,-0.0161698851734,2.30669045448,-0.757596254349,0.0148104596883,0.00121175439563,-0.418328851461,0.0427134372294,0.949935495853,0.00376412365586,-0.998040914536,0.490039408207,0.521114457277,-0.00466612056824,0.287372230507,0.0145284592441,0.927586669672,0.369798287813,0.0511968762015
0.233515769243,-0.104039885104,-0.242022067308,-2.28712534904,-0.0161770768464,2.29564619064,-0.752020895481,0.0148104596883,-0.00208480260335,-0.408397316933,0.0408769100904,0.9553155303,0.00216583791189,-1.00473117828,0.520855844021,0.522656998855,-0.00452267448073,0.292804892223,0.0146450770044,0.928373204067,0.367562045438,0.0529797897994
0.233490914106,-0.113546021283,-0.240960389376,-2.26493239403,-0.0161753911525,2.27342295647,-0.738687515259,0.0148104596883,0.00231609377079,-0.392506152391,0.0476808771491,0.948792636395,-0.00617486145347,-0.944599747658,0.637577772141,0.526557200652,-0.00419231283994,0.306819137196,0.0150864320243,0.930606167369,0.361066150469,0.0581015963162
0.233508527279,-0.125010505319,-0.239642009139,-2.23684740067,-0.0161686725914,2.24695801735,-0.718830168247,0.0148104596883,0.000246700947173,-0.382876783609,0.0465642884374,0.952298879623,-0.00059651088668,-0.888593971729,0.725341916084,0.530762573446,-0.0038673116471,0.322701948858,0.0156622823707,0.93351463394,0.352354896502,0.0644294011104
0.23350559175,-0.132710009813,-0.238675311208,-2.21748495102,-0.0161710977554,2.23000383377,-0.703468620777,0.0148104596883,-3.0357243304e-05,-0.378875821829,0.0444553382695,0.96710395813,-0.000685995968524,-0.800410568714,0.818608701229,0.533681615795,-0.00364659026675,0.334194655866,0.0161508962345,0.93576114298,0.345349120012,0.0694565823582
0.23351675272,-0.138536736369,-0.237957566977,-2.20235013962,-0.0161715075374,2.21731042862,-0.689907193184,0.0148104596883,-0.00294271437451,-0.368187010288,0.0416724346578,0.939523994923,-0.000143423880218,-0.75537788868,0.877370238304,0.535880934528,-0.00350591842057,0.343206239145,0.0165026445116,0.937720872866,0.339107827424,0.0735738294603
0.233516529202,-0.144521266222,-0.237228423357,-2.18640470505,-0.0161686223,2.20491123199,-0.674491345882,0.0148104596883,0.000846508773975,-0.340725392103,0.0472293049097,0.918275713921,-0.000665831612423,-0.716962456703,0.936693251133,0.538211334584,-0.0033963107938,0.35279310724,0.0169183886332,0.93988929572,0.33194765588,0.0783111317761
0.233529120684,-0.154862001538,-0.235949128866,-2.15865206718,-0.016171073541,2.18486595154,-0.64287263155,0.0148104596883,0.000979402218945,-0.312447607517,0.0386444367468,0.859759449959,0.000475069246022,-0.595194160938,1.08924818039,0.542119054195,-0.00323855402525,0.36976173219,0.0174984261415,0.944184551991,0.317154044212,0.0873077819706
0.233514979482,-0.16021849215,-0.235344082117,-2.14420413971,-0.0161666404456,2.17523503304,-0.623673915863,0.0148104596883,-0.00039972589002,-0.309437036514,0.034080401063,0.841619312763,0.00180901773274,-0.549762904644,1.16857886314,0.544080771656,-0.00322298860149,0.37874592915,0.0176785761683,0.946702650073,0.308065526627,0.0923969224695
0.23351880908,-0.165150985122,-0.234689474106,-2.13054037094,-0.0161669906229,2.16667532921,-0.603169441223,0.0148104596883,-0.00131815660279,-0.279216855764,0.0358064323664,0.776906549931,0.00111818523146,-0.479264438152,1.25940823555,0.545802864249,-0.00317151057846,0.386802283927,0.0177280969902,0.949144294678,0.298953212787,0.0971483335498
0.23350161314,-0.170182913542,-0.234057232738,-2.1166510582,-0.01616550982,2.15885567665,-0.580280184746,0.0148104596883,0.00108583539259,-0.272567480803,0.0325737595558,0.76546138525,-9.04486660147e-05,-0.399439841509,1.29471743107,0.547776402215,-0.00315711042218,0.396124473101,0.0176837096246,0.952073242135,0.287459358192,0.103009441814
0.233467131853,-0.182083040476,-0.232510402799,-2.08292222023,-0.0161681845784,2.14223670959,-0.50893586874,0.0148104596883,0.0019199057715,-0.208503201604,0.0272533018142,0.590787827969,0.00291442219168,-0.267820268869,1.52456355095,0.552170703327,-0.00317953871054,0.41790491177,0.0164266634741,0.960080201281,0.253228507314,0.117692372778
0.233485758305,-0.18520206213,-0.232093989849,-2.0743496418,-0.0161670520902,2.13848757744,-0.485427886248,0.0148104596883,-0.000863173161633,-0.198696672916,0.0294155925512,0.566139280796,-0.000205929973163,-0.223727986217,1.59456956387,0.553224180256,-0.00317324381335,0.423593488929,0.0156697124289,0.962503589245,0.241907624016,0.121745644435
0.233462333679,-0.188458621502,-0.231527552009,-2.0648150444,-0.0161679778248,2.13490128517,-0.456129491329,0.0148104596883,-0.000882418011315,-0.167358249426,0.0289886239916,0.496640652418,-0.000199632777367,-0.180750668049,1.64874887466,0.554454288337,-0.00313601693576,0.429907616737,0.0145897634126,0.96535587919,0.227784358319,0.126449401398
0.233452737331,-0.191369250417,-0.230999022722,-2.05601668358,-0.0161672588438,2.13156914711,-0.424217373133,0.0148032363504,0.000363496306818,-0.15057747066,0.0313629843295,0.429629504681,-6.42817249172e-05,-0.164907604456,1.71763694286,0.555575922876,-0.00309097663696,0.435979364714,0.013065580455,0.968467134999,0.211538941787,0.13096554828
0.233434304595,-0.197620585561,-0.2292843014,-2.03836631775,-0.0161677729338,2.1240401268,-0.335070520639,0.0148032363504,0.000951683963649,-0.0950062125921,0.0329432226717,0.268915235996,-0.000113751048048,-0.119738541543,1.84571838379,0.557286482381,-0.00266472315208,0.447474008397,0.00804476383486,0.975625184518,0.16940686631,0.139255500615
0.233416676521,-0.198983311653,-0.228669196367,-2.03438043594,-0.0161682423204,2.1221139431,-0.305281549692,0.0148032363504,-0.00122127041686,-0.0790679678321,0.0419605746865,0.221632033587,-0.000201309114345,-0.116030432284,1.87332618237,0.557610330527,-0.00244623168168,0.450087571319,0.00610055167355,0.977765746597,0.155059021574,0.141044771525
0.233358919621,-0.200139284134,-0.227917790413,-2.03125286102,-0.0161690413952,2.12016582489,-0.275169879198,0.0148032363504,-0.00265239691362,-0.0657997280359,0.0474112927914,0.175203517079,8.31253601064e-06,-0.120025776327,1.88821077347,0.55776326532,-0.00214825094265,0.452130309303,0.00403727831304,0.979782276225,0.140599269941,0.142275214169
0.233210921288,-0.20147511363,-0.225305765867,-2.02620983124,-0.0161679852754,2.1154191494,-0.179291769862,0.0148032363504,-0.00857132766396,-0.00552946003154,0.0620096996427,0.0374698899686,0.000106174360553,-0.0798290073872,1.94634592533,0.557751787714,-0.0008825385872,0.45494158621,-0.00276525259361,0.985162972027,0.0946483709188,0.143136150234
0.233131155372,-0.201408773661,-0.224078685045,-2.02594184875,-0.016169141978,2.11388683319,-0.144297406077,0.0148032363504,-0.00233106315136,0.00977862626314,0.0738831236959,-0.00152697425801,-3.30923612637e-05,-0.0917674973607,1.94221794605,0.557523944019,-0.000229845463161,0.454857767179,-0.00526390919974,0.986714777025,0.077983601388,0.142424708783
0.233047261834,-0.201099634171,-0.222895309329,-2.02612924576,-0.0161708127707,2.11236548424,-0.115341179073,0.0148019231856,-0.00359755777754,0.0326511859894,0.0859409049153,-0.0141544658691,-3.68178370991e-05,-0.110324494541,1.92689466476,0.557232997955,0.000411289205243,0.454398134632,-0.00730319070545,0.987844081245,0.0642637509851,0.141353827544
0.232919335365,-0.200251817703,-0.221214190125,-2.02656269073,-0.0161713007838,2.10990309715,-0.0787230357528,0.0148019231856,-0.0103414496407,0.0548612847924,0.0905814692378,-0.0259824264795,-5.13157901878e-05,-0.138255387545,1.93650305271,0.556774893153,0.00133074573052,0.453391019434,-0.00980236750473,0.98907586262,0.0469852506708,0.139374450636
0.232799321413,-0.196473240852,-0.21555288136,-2.02906298637,-0.0161709729582,2.10354423523,0.0165421906859,0.0148019231856,0.000888601236511,0.0967554301023,0.125065073371,-0.0702236667275,1.4510857909e-05,-0.107329778373,1.89124250412,0.555452996787,0.00462738089762,0.449231094616,-0.0157583308552,0.991037421337,0.00271235750131,0.132624082779
0.232815563679,-0.192869648337,-0.210648402572,-2.03162097931,-0.0161721371114,2.10012769699,0.0782381221652,0.0148019231856,0.000897099263966,0.12414418906,0.159375861287,-0.0811100229621,-0.000110869710625,-0.0962045639753,1.85829520226,0.554613034948,0.00754502141871,0.445547348021,-0.0190969117272,0.991335558301,-0.0253344747283,0.127464830045
0.232851907611,-0.190283238888,-0.207447513938,-2.03324913979,-0.0161707736552,2.0982375145,0.115036256611,0.0148019231856,0.00295935594477,0.13212056458,0.165284156799,-0.0835552290082,-8.35943938e-05,-0.100742578506,1.82277357578,0.554141910262,0.00945940109042,0.443089040395,-0.0208785403911,0.991155657359,-0.0419208330439,0.124165989267
0.233206704259,-0.186152458191,-0.201852187514,-2.03568720818,-0.0161712914705,2.09543728828,0.169780120254,0.0148019231856,0.0140706766397,0.136703759432,0.201223865151,-0.0853778198361,-9.61165860645e-05,-0.0828382894397,1.8146725893,0.553419305339,0.012934684305,0.439293460242,-0.0232635988779,0.990412036703,-0.0660344790841,0.119089251371
0.233559414744,-0.183340355754,-0.198073774576,-2.03734326363,-0.0161716956645,2.09395098686,0.203773230314,0.0148019231856,0.0237001180649,0.152493342757,0.197033882141,-0.0825381651521,4.23309684265e-05,-0.0752337649465,1.79098248482,0.552981093333,0.0153346871842,0.436770138507,-0.0245779313467,0.989669885811,-0.0807867936793,0.115857395421
0.233944118023,-0.180666416883,-0.194541558623,-2.03874492645,-0.0161720924079,2.09277176857,0.233791172504,0.0147986402735,0.0241895020008,0.160875976086,0.213388025761,-0.0772208571434,-0.00025685201399,-0.0617048069835,1.75763547421,0.552629098842,0.0176014152289,0.434493224748,-0.0256322797064,0.98883689869,-0.093675835855,0.113001820788
0.234359577298,-0.178121641278,-0.190999478102,-2.03997182846,-0.0161665137857,2.09173083305,0.261698305607,0.0147986402735,0.029427241534,0.150357574224,0.224828600883,-0.0780132338405,0.00108023604844,-0.0622315630317,1.73102664948,0.552312034315,0.0198809046705,0.432397062674,-0.0265381374203,0.98791806565,-0.105497163437,0.110381026581
0.237122774124,-0.170618385077,-0.179975390434,-2.04315447807,-0.0161447729915,2.08838224411,0.342803776264,0.0147986402735,0.0774187371135,0.152908697724,0.238983049989,-0.058535091579,-7.28677059669e-06,-0.0681015700102,1.63489985466,0.551266804729,0.0277325262958,0.426414484595,-0.0288268399694,0.98457452203,-0.138679386728,0.102713442454
0.238562345505,-0.168104439974,-0.175769820809,-2.04415559769,-0.0161428898573,2.08724117279,0.370108008385,0.0147986402735,0.0987666100264,0.142519623041,0.256096154451,-0.0589358285069,0.000468035257654,-0.0628668516874,1.59824204445,0.550856886235,0.0309170810636,0.424448834884,-0.02948158234,0.983258472998,-0.14933434841,0.100164183529
0.24034832418,-0.165386497974,-0.171173557639,-2.04516911507,-0.0161374472082,2.08629536629,0.398826628923,0.0147986402735,0.10212687403,0.151366531849,0.25271064043,-0.0506848171353,0.000213818188058,-0.0426650047302,1.56384670734,0.550448866573,0.0345094159691,0.422396543437,-0.0301278625519,0.981768387226,-0.160309756128,0.0975906118845
0.242576941848,-0.162400752306,-0.165712118149,-2.04614758492,-0.0161323975772,2.08539772034,0.430856198072,0.0147986402735,0.107247211039,0.139883160591,0.278561383486,-0.0414191298187,-5.43185524293e-05,-0.045234311372,1.49464213848,0.549998401102,0.0388243598651,0.420234465978,-0.0308151036057,0.97998715143,-0.172251872635,0.0948941752223
0.248304501176,-0.156612828374,-0.153111025691,-2.04744982719,-0.0161278601736,2.08323168755,0.494358927011,0.0147960130125,0.147206157446,0.121828056872,0.295180082321,-0.0210547968745,-0.00120548671111,-0.0324402786791,1.36477994919,0.548898141688,0.0490460766226,0.416314661075,-0.0320111879473,0.976290475587,-0.194364493636,0.0897476151958
0.251022189856,-0.154580891132,-0.147707134485,-2.04786062241,-0.0161280501634,2.08268237114,0.5183583498,0.0147960130125,0.148865044117,0.106773898005,0.304329574108,-0.0197094511241,0.000313992903102,-0.0282132122666,1.31299507618,0.5484224965,0.0535586931231,0.414997696698,-0.0324779288815,0.974855114987,-0.20211555431,0.0880453935163
0.253602713346,-0.152581751347,-0.14221060276,-2.04806804657,-0.0161280035973,2.08226060867,0.541399896145,0.0147960130125,0.144181534648,0.111639082432,0.309607416391,-0.0112988464534,-2.26861538977e-05,-0.0292846783996,1.23186826706,0.547982076689,0.0580457015268,0.413817366486,-0.0329176668543,0.973434889961,-0.209410309299,0.0865347575783
0.257203042507,-0.150198474526,-0.134372085333,-2.0481967926,-0.0161348283291,2.08170437813,0.571860253811,0.0147960130125,0.14901804924,0.0875327661633,0.317610442638,0.000396348041249,-0.00407841103151,-0.0215780436993,1.16548907757,0.547306890252,0.0643843616767,0.41247427669,-0.0335277747835,0.971535994864,-0.21866519177,0.084730352313
0.259748905897,-0.148745551705,-0.12912581861,-2.04817533493,-0.0161639656872,2.08142662048,0.591387808323,0.0147960130125,0.156154751778,0.0845715180039,0.299005180597,0.00216734292917,-0.00638910755515,-0.00965175405145,1.13515353203,0.546838494129,0.0686933209175,0.411716129665,-0.0339380680217,0.970312185971,-0.224360279275,0.0836954841871
0.26320579648,-0.147159785032,-0.122728489339,-2.04821276665,-0.0169704183936,2.08120989799,0.615194499493,0.0147960130125,0.165097638965,0.0621982179582,0.281306296587,-0.00197043293156,-0.0745177045465,-0.0102681042627,1.030184865,0.546206061409,0.0740189645959,0.410871002179,-0.0341594355763,0.968841391522,-0.230967193251,0.0826658718578
0.267633348703,-0.145710125566,-0.115461833775,-2.04818105698,-0.0207500066608,2.08093643188,0.642709195614,0.0147960130125,0.148414283991,0.0462671630085,0.238782688975,7.24588826415e-05,-0.171454638243,-0.00180281116627,0.919279932976,0.545413376053,0.0800950403907,0.410110470848,-0.0332743015746,0.967186961214,-0.23809733665,0.0821697078368
0.269759833813,-0.145085394382,-0.111963644624,-2.04820489883,-0.0237351860851,2.08088994026,0.656012296677,0.0147960130125,0.140430286527,0.0423814356327,0.233479112387,-0.0014998849947,-0.225944489241,-0.000373699178454,0.868635714054,0.545077368263,0.082566101363,0.409809255781,-0.0324595372764,0.966492876704,-0.240993086426,0.0822206160727
0.27225741744,-0.144561156631,-0.108107089996,-2.04822087288,-0.0285067148507,2.08077812195,0.671190321445,0.0147933866829,0.13690200448,0.0215833336115,0.19744412601,0.000389523920603,-0.29007935524,-0.00575428036973,0.816522300243,0.544668663698,0.0853570832576,0.409542444506,-0.0309575686021,0.965677210552,-0.244304717663,0.0826096761116
0.274887949228,-0.144350156188,-0.104719497263,-2.04820680618,-0.0346544012427,2.0806210041,0.686978518963,0.0147933866829,0.121008701622,0.00666377972811,0.143290400505,0.00121406163089,-0.327301055193,-0.00603028899059,0.748153090477,0.544290666635,0.0877530773322,0.409458848551,-0.0290142961598,0.964779568643,-0.24779404769,0.0834066194551
0.277829736471,-0.144333064556,-0.101624697447,-2.04819917679,-0.0445221662521,2.0805914402,0.707777678967,0.0147933866829,0.0786744728684,-0.00738147785887,0.076511003077,0.000766870041844,-0.361774295568,-0.000221279740799,0.693039357662,0.544018349928,0.0896160674502,0.40951086752,-0.0258649775877,0.963390383364,-0.252939123223,0.0850398248622
0.278962135315,-0.144438624382,-0.100629776716,-2.04815363884,-0.0514249317348,2.08058547974,0.71978777647,0.0147933866829,0.0460595525801,-0.00843114126474,0.0286392178386,0.00221370416693,-0.410274714231,-0.000158155729878,0.633403420448,0.544024853732,0.0897740948185,0.409631947302,-0.02360486646,0.962440490806,-0.256318156468,0.0863256294116
0.279444038868,-0.144604489207,-0.100467778742,-2.04812431335,-0.0577847249806,2.08058786392,0.72886711359,0.0147933866829,0.0171790458262,-0.0174137838185,-0.00137971015647,0.00236527784728,-0.428475260735,0.000134461995913,0.589693367481,0.54414721013,0.0891993081055,0.409774674363,-0.0214580992848,0.961631212262,-0.25910508648,0.0875757696505
0.277281850576,-0.145274549723,-0.103691056371,-2.04807543755,-0.0802923068404,2.08059000969,0.757466495037,0.0147933866829,-0.0893369615078,-0.00768448552117,-0.13546217978,-1.09958482426e-05,-0.428969413042,-5.12742553838e-05,0.509316384792,0.545242175029,0.082972313939,0.410304213918,-0.0136875287409,0.958086717194,-0.270918409641,0.0921179076119
0.275545746088,-0.145448118448,-0.106470428407,-2.04798531532,-0.0876934230328,2.08059048653,0.765701413155,0.0147855067626,-0.113224595785,-0.0108646042645,-0.190494433045,0.00799126923084,-0.440177768469,0.000190275430214,0.466352283955,0.545841518233,0.0794215649044,0.410487518702,-0.011082272889,0.956654421379,-0.275544274021,0.0936207991221
0.272491455078,-0.145564004779,-0.111339204013,-2.04774951935,-0.0968348532915,2.0805978775,0.775178194046,0.0147855067626,-0.17637014389,-0.000486714474391,-0.263974308968,0.0182712506503,-0.422668159008,-0.000412143737776,0.435870349407,0.546773389354,0.0737487338652,0.410717701017,-0.00781798811039,0.954610779413,-0.282035295502,0.0954632425215
0.270225614309,-0.145547032356,-0.114676751196,-2.04755711555,-0.101681254804,2.08060026169,0.780321657658,0.0147855067626,-0.205284848809,0.00129124219529,-0.286805123091,0.0196156222373,-0.383975595236,8.58792100189e-06,0.419510185719,0.547369054832,0.0699697444966,0.410826001924,-0.00606641792823,0.95328882755,-0.286196140276,0.0964125449463
0.235924229026,-0.145128905773,-0.163987249136,-2.04451298714,-0.131131291389,2.08062124252,0.812246501446,0.0147855067626,-0.456287056208,0.0153506463394,-0.655213296413,0.055775128305,-0.212647289038,-0.000220191242988,0.219237208366,0.552674158817,0.0194628109577,0.411888165603,0.00501670062738,0.936695671967,-0.335039103728,0.10161126656
0.220314770937,-0.144702151418,-0.186241194606,-2.04259800911,-0.136889651418,2.08064198494,0.817825078964,0.0147855067626,-0.544878065586,0.0216218084097,-0.783046007156,0.0743767023087,-0.163718923926,0.00431275786832,0.153125420213,0.553620772796,-0.00167395412625,0.412342129233,0.00736350606607,0.929752801741,-0.353575648173,0.102419564229
0.211363196373,-0.144266977906,-0.198995009065,-2.04127955437,-0.139163091779,2.0806953907,0.819905042648,0.0147815663368,-0.574124336243,0.0355735756457,-0.806873619556,0.0932043269277,-0.119038745761,0.00550137320533,0.113595299423,0.553877122109,-0.0148638391262,0.412613289264,0.00847718752663,0.92533887578,-0.364859092204,0.102732394017
0.201260238886,-0.143610864878,-0.213414147496,-2.03955793381,-0.141157031059,2.08077836037,0.821601331234,0.0147815663368,-0.60557693243,0.039058342576,-0.88437473774,0.10890712589,-0.10951397568,0.01188339293,0.0897743403912,0.553880341518,-0.0288318758897,0.412911385706,0.00946666181243,0.920578795364,-0.376616116359,0.102982350046
0.190710663795,-0.142876982689,-0.228972584009,-2.03754997253,-0.143058627844,2.08094024658,0.822828233242,0.0147815663368,-0.643281757832,0.0478893555701,-0.947009623051,0.125127986073,-0.110779501498,0.0116372248158,0.061511695385,0.55355874834,-0.0436851335158,0.413285948376,0.0104337469505,0.915436336611,-0.38884506482,0.103281003974
0.162276387215,-0.139996990561,-0.271626979113,-2.0314810276,-0.146027177572,2.08184218407,0.824039518833,0.0147815663368,-0.664608478546,0.0757703259587,-1.03222715855,0.158036410809,-0.0470046699047,0.0286390371621,-0.000421693810495,0.550906042857,-0.0847686028472,0.414106635406,0.0124606026144,0.900550459095,-0.421999858848,0.103777275041
0.134599715471,-0.136900693178,-0.3144492805,-2.02544331551,-0.14709572494,2.08403491974,0.824035763741,0.0147815663368,-0.683417141438,0.0863322019577,-1.09525704384,0.14312107861,-0.0123617574573,0.0770471543074,-0.0013265038142,0.545749955997,-0.124197951371,0.414797693591,0.0137058937627,0.885069850322,-0.453386480926,0.104423211562
0.10262016952,-0.133856803179,-0.366394490004,-2.01956558228,-0.147148251534,2.08824920654,0.823974013329,0.0147684337571,-0.663784325123,0.0335599519312,-1.09353768826,0.0881493315101,-0.00199602753855,0.0943639948964,-0.00258088461123,0.535942641579,-0.170422579821,0.415323462814,0.0146615897566,0.865159998433,-0.490077532788,0.105390827016
0.0900219008327,-0.133185178041,-0.38684079051,-2.01817178726,-0.147125482559,2.09019303322,0.823829770088,0.0147684337571,-0.670422077179,0.0276353452355,-1.0625180006,0.0543701201677,0.00235961470753,0.108641624451,-0.0132521223277,0.531100106726,-0.187411477504,0.415320450235,0.0150133445481,0.857386304224,-0.503486980537,0.105660706548
0.0789745301008,-0.133074268699,-0.404339939356,-2.01750397682,-0.147076815367,2.09218597412,0.823630154133,0.0147684337571,-0.63065713644,-0.00408222479746,-0.983732700348,0.021192830056,0.00246964674443,0.119268104434,-0.0136125227436,0.526122265633,-0.202748964141,0.415310520742,0.0152458494082,0.850128734835,-0.515571553602,0.10599373124
0.0491110272706,-0.134100303054,-0.44883441925,-2.01718354225,-0.145436421037,2.09750199318,0.822888076305,0.0147684337571,-0.574333488941,-0.0455681160092,-0.805363297462,-0.00386716844514,0.0739465802908,0.0727033019066,-0.0153956161812,0.510785000248,-0.241681333242,0.415147818476,0.0150976210741,0.830352928991,-0.546729385854,0.106644519093
0.0408569201827,-0.13485378027,-0.460191339254,-2.0172150135,-0.144069567323,2.09827685356,0.822681248188,0.0147684337571,-0.536321163177,-0.0569000281394,-0.728341698647,-0.000817702384666,0.10171508044,0.0362915508449,-0.0114777591079,0.50612582034,-0.251586140272,0.415180765598,0.0146217996648,0.824852591195,-0.555018085314,0.106580159513
0.0322189927101,-0.135882735252,-0.472000390291,-2.01726269722,-0.142321079969,2.09869265556,0.822501659393,0.0147684337571,-0.467165976763,-0.071343831718,-0.643662929535,-0.00578048173338,0.102709330618,0.0144889391959,-0.00702845025808,0.500698171797,-0.262297612237,0.415271557722,0.0139073632757,0.818660769965,-0.564165906399,0.10638589509
0.0135522894561,-0.14153547585,-0.497591197491,-2.01795053482,-0.134680002928,2.09905791283,0.822306632996,0.0147526729852,-0.255980283022,-0.139896526933,-0.35989049077,-0.0255832411349,0.19729398191,0.000364757754141,-0.00144728040323,0.488914281352,-0.28276093012,0.416635791263,0.00981672426404,0.805363869269,-0.583047462236,0.106528524007
0.00980348978192,-0.144412070513,-0.503186702728,-2.01842522621,-0.130622074008,2.09905099869,0.82229155302,0.0147526729852,-0.167339637876,-0.179716154933,-0.253550201654,-0.0265035629272,0.250636845827,-0.00232109101489,-0.000250283163041,0.486186300661,-0.286760514711,0.417515293629,0.00735383297682,0.802082740404,-0.58753316283,0.106836234052
0.00784203503281,-0.147234275937,-0.506342828274,-2.01881408691,-0.126596748829,2.09905385971,0.822288095951,0.0147526729852,-0.0781520456076,-0.176704913378,-0.141251429915,-0.0230113603175,0.262266218662,-0.000298134138575,-0.00198382022791,0.484663475568,-0.288689793454,0.418511778574,0.00482206686496,0.800010291159,-0.590293938081,0.107300270362
0.00719562359154,-0.150690808892,-0.507873177528,-2.01918363571,-0.120995491743,2.0990459919,0.822285592556,0.0147526729852,0.00613306509331,-0.189833387733,-0.0233996920288,-0.0144707849249,0.32282486558,0.00117401941679,0.000202771261684,0.484027167375,-0.288976025244,0.419881376871,0.00132574201275,0.798574193525,-0.59213015869,0.107978584257
0.00914780516177,-0.155847325921,-0.506594419479,-2.01938390732,-0.112202301621,2.0990588665,0.822284519672,0.0147526729852,0.153295651078,-0.201097026467,0.116160154343,0.00101666769478,0.34710329771,0.00292336358689,0.000261178181972,0.485025049412,-0.286235092784,0.42227503135,-0.0042545960592,0.798246230744,-0.592317118199,0.109294485892
0.013241504319,-0.159751549363,-0.503430783749,-2.0193169117,-0.105545498431,2.09909725189,0.822283565998,0.0147526729852,0.268777489662,-0.206965744495,0.208838954568,0.00407968554646,0.357470065355,0.004401802551,-0.000147740269313,0.487455663957,-0.281250531158,0.424537216343,-0.00910650252776,0.799572725337,-0.590225625165,0.110608496737
0.0191948115826,-0.163586914539,-0.49846893549,-2.01932120323,-0.098484300077,2.09925150871,0.82228666544,0.0147526729852,0.352907896042,-0.190219864249,0.303826212883,0.00195995089598,0.380101799965,0.00844837818295,0.000170288491063,0.490117024122,-0.27592309438,0.426292538364,-0.0130090428846,0.801408944022,-0.587467949606,0.11160590072
0.0263883490115,-0.167027279735,-0.491931706667,-2.01922774315,-0.091724306345,2.09950184822,0.822289168835,0.0147283766419,0.438284218311,-0.188772365451,0.424554497004,0.0141420038417,0.371549457312,0.0268196072429,0.000565357331652,0.494159745004,-0.267891298651,0.428448339723,-0.0177037403738,0.804541114408,-0.582811768922,0.112830024619
0.0519218891859,-0.174205586314,-0.465895444155,-2.01812696457,-0.0747627094388,2.10106492043,0.822284758091,0.0147283766419,0.645829498768,-0.100610755384,0.673230588436,0.0444723926485,0.345387637615,0.0478637367487,-0.000560551416129,0.507896113616,-0.23984596358,0.433969502751,-0.0289228604372,0.816743522067,-0.564458425133,0.116104148298
0.0641662403941,-0.175834849477,-0.452869743109,-2.01715612411,-0.0689374282956,2.10196685791,0.822285294533,0.0147283766419,0.715325117111,-0.078198581934,0.771185696125,0.0633873343468,0.301583826542,0.0558138713241,-0.000878551567439,0.514575316354,-0.225407203757,0.436132756873,-0.0329857757048,0.823282619742,-0.55437153367,0.117430272674
0.0791554301977,-0.176907226443,-0.436752915382,-2.01575660706,-0.0631600692868,2.1033782959,0.8222848773,0.0147283766419,0.775260388851,-0.025187779218,0.823260247707,0.0794043913484,0.27634909749,0.0817116871476,-0.000252072990406,0.521604156642,-0.209419561301,0.438220424351,-0.0367047364664,0.830536135251,-0.542901706559,0.118828561525
0.133041843772,-0.174515753984,-0.376758128405,-2.00929093361,-0.0498723052442,2.11079645157,0.822278439999,0.0147283766419,0.9293192029,0.107662804425,1.04937422276,0.121435754001,0.163627952337,0.156674861908,0.000164323821082,0.545047350676,-0.147161513298,0.443959089933,-0.0463555636685,0.857906972236,-0.496527978209,0.123720472138
0.150332644582,-0.172327503562,-0.357133477926,-2.00705909729,-0.0471611358225,2.1138010025,0.822266638279,0.0147283766419,0.97521173954,0.140421852469,1.12122130394,0.124736644328,0.145199611783,0.172157838941,0.000606667425018,0.551999581371,-0.124237008619,0.445277858658,-0.0488369005242,0.867396250813,-0.479111622162,0.125262741469
0.170875757933,-0.168877318501,-0.333283543587,-2.00430393219,-0.0439738184214,2.11769914627,0.822257459164,0.0147290332243,1.00351142883,0.184434190392,1.16993272305,0.128187969327,0.147119984031,0.194490224123,-0.00134518998675,0.558017246166,-0.101520370513,0.446186648763,-0.051143035399,0.876368453459,-0.461897686606,0.126543472729
0.200640559196,-0.16219496727,-0.298155218363,-2.00046110153,-0.0400049611926,2.12380862236,0.822234451771,0.0147290332243,0.988430082798,0.241189017892,1.17004656792,0.128570988774,0.138809874654,0.209460914135,0.000868197530508,0.565743458269,-0.0655770406705,0.446615954164,-0.0542232140734,0.889848805352,-0.434582812065,0.12793250486
0.220340967178,-0.157224312425,-0.274220228195,-1.99803507328,-0.0378931127489,2.12806200981,0.822222411633,0.0147290332243,0.979427993298,0.258461266756,1.2042016983,0.115494847298,0.0792973786592,0.206495821476,0.000196915410925,0.569987875312,-0.0390125864551,0.446474267938,-0.0562211880003,0.899254132451,-0.414274308849,0.128677814692
0.232750460505,-0.15376971662,-0.258864372969,-1.99662768841,-0.0370044410229,2.13078999519,0.822212278843,0.0147290332243,0.966114878654,0.290602773428,1.20056629181,0.10520721972,0.0659889280796,0.211744502187,0.000484879390569,0.571967741764,-0.0228471912637,0.446106184663,-0.0571807178492,0.904801042703,-0.401781921542,0.128983432386
0.251146703959,-0.147997125983,-0.23592056334,-1.99469709396,-0.0357540249825,2.1351287365,0.822189211845,0.0147290332243,0.950224339962,0.298808038235,1.19226706028,0.0934224650264,0.0749452635646,0.233039990067,-0.000701838929672,0.57407245724,0.000113838542074,0.445147881795,-0.0584302798053,0.912385412348,-0.383999160224,0.129164261171
0.29508754611,-0.133280605078,-0.179170429707,-1.99189555645,-0.0334504172206,2.14560365677,0.822158932686,0.0147290332243,0.85469853878,0.310998737812,1.10857725143,0.0159035027027,0.0356896445155,0.198182821274,-0.000432319444371,0.575067324338,0.0561055903377,0.441320420653,-0.0610487106832,0.929540106604,-0.340214422409,0.12838376692
0.309884041548,-0.127925217152,-0.159481838346,-1.99186718464,-0.0330143906176,2.14909529686,0.822164416313,0.0147237796336,0.794581055641,0.291593551636,1.06426084042,-0.00828894041479,0.0071429037489,0.183909922838,5.88653310842e-05,0.57356138427,0.0809903681891,0.438587490402,-0.0617786500808,0.936649505617,-0.320445704884,0.127222843586
0.322873651981,-0.12286812067,-0.141816392541,-1.99199044704,-0.0329494774342,2.15187764168,0.822163283825,0.0147237796336,0.733928620815,0.290458738804,1.00651609898,-0.00678452290595,0.00543646374717,0.144844710827,0.0030406259466,0.571725273514,0.0989515461939,0.436236987403,-0.0619990747679,0.941624605234,-0.30595425469,0.126060347734
0.335797816515,-0.117725193501,-0.124289877713,-1.99222230911,-0.0329636000097,2.15412640572,0.822174966335,0.0147237796336,0.699311614037,0.275519490242,0.928256750107,-0.0132775837556,-0.0122220087796,0.10696439445,-0.000130649277708,0.56924029071,0.116705769677,0.433656610375,-0.0620382732177,0.946397857285,-0.291491076571,0.124560428509
0.355455696583,-0.109682075679,-0.0988347604871,-1.9931807518,-0.0330811925232,2.15744972229,0.822197556496,0.0147237796336,0.617389976978,0.246674731374,0.772978663445,-0.0478306673467,-0.0124145234004,0.101997859776,0.00574987754226,0.56427712569,0.143629202775,0.429034229391,-0.0618470692071,0.953338025119,-0.269258070627,0.121744162015
0.36640381813,-0.105271793902,-0.0853253751993,-1.99426734447,-0.033524915576,2.15939378738,0.822248101234,0.0147237796336,0.542632341385,0.219093635678,0.649808943272,-0.0723065212369,-0.0392905846238,0.0914258658886,0.00209439662285,0.56126201027,0.156812944676,0.426410529486,-0.0615254731379,0.956630103671,-0.258119113623,0.120199766134
0.374715059996,-0.101930513978,-0.0756212025881,-1.99546003342,-0.0345349870622,2.16062903404,0.822346329689,0.0147237796336,0.492721527815,0.199944198132,0.569443881512,-0.0779960379004,-0.0872110500932,0.0656220093369,0.00804933067411,0.558603095787,0.166940176937,0.424066343098,-0.0608619034102,0.959180372348,-0.249284008959,0.118854215677
0.382894217968,-0.0985499173403,-0.0662433952093,-1.99698400497,-0.0364827774465,2.1616704464,0.822629868984,0.0147237796336,0.400426894426,0.164962947369,0.458165884018,-0.0897648185492,-0.123772628605,0.0586208030581,0.013254199177,0.555626509326,0.177075067,0.421354100662,-0.0596246167198,0.96177217105,-0.240102222278,0.117431335784
0.396995007992,-0.092897310853,-0.0516685433686,-2.0019724369,-0.0442662984133,2.16366553307,0.823342561722,0.0147244362161,0.19580283761,0.0877697244287,0.1633926332,-0.10918930918,-0.216165080667,0.0394453294575,0.0151973851025,0.550488368797,0.191519656635,0.415922586825,-0.0554944285602,0.965832540048,-0.225311963084,0.115422666612
0.399652600288,-0.0916359052062,-0.0495877191424,-2.00400781631,-0.0488370396197,2.16436362267,0.823554992676,0.0147244362161,0.0860364586115,0.0493975244462,0.0630143359303,-0.102267295122,-0.269675821066,0.0378515198827,0.01568784751,0.549543570198,0.193499333385,0.41423920798,-0.0532788081172,0.966703194207,-0.222101235987,0.115400795413
0.400248348713,-0.0909291729331,-0.0492981001735,-2.00564885139,-0.0539702735841,2.16503596306,0.823714911938,0.0147244362161,-0.00981227867305,0.028790153563,-0.0124138267711,-0.0847853198647,-0.326645165682,0.0368448235095,0.00949911121279,0.549401625038,0.193353820151,0.413142184182,-0.0511021582412,0.967092147815,-0.220651022317,0.115907174506
0.393665939569,-0.0901464521885,-0.0568268746138,-2.00736737251,-0.0711185112596,2.16685628891,0.823947072029,0.0147244362161,-0.228297412395,-0.00627706432715,-0.292111933231,0.0153114581481,-0.366979986429,0.0591009929776,0.00529895629734,0.552875699257,0.183396427992,0.412069735481,-0.0438516194741,0.966254388782,-0.223678003994,0.119990173974
0.390048742294,-0.0901990160346,-0.0613914504647,-2.00699353218,-0.0762730017304,2.16793227196,0.823997795582,0.0147244362161,-0.285330176353,0.0016863476485,-0.350518852472,0.045315567404,-0.365953028202,0.0981183350086,0.000519667519256,0.554872876016,0.178318149221,0.412472771859,-0.0420135211988,0.965441440277,-0.226483765736,0.121913055018
0.383385211229,-0.0901747271419,-0.0694937855005,-2.00555324554,-0.0837445780635,2.17030858994,0.824063897133,0.0147244362161,-0.3792950809,0.00130778097082,-0.461822241545,0.0965608805418,-0.382773280144,0.125322237611,0.000991392415017,0.558541944294,0.169424237532,0.413584910642,-0.0396239659215,0.963807908937,-0.231920261418,0.125368449105
0.374948561192,-0.0900970473886,-0.0795689299703,-2.00283122063,-0.0916121006012,2.17312073708,0.824147641659,0.0147244362161,-0.450468659401,0.00389612419531,-0.533949553967,0.164677381516,-0.400729089975,0.141808584332,0.00476007908583,0.563061296679,0.15841992602,0.415405669225,-0.0372960999852,0.96159364229,-0.239058779557,0.129605430607
0.349781781435,-0.0892241820693,-0.108820691705,-1.98988485336,-0.108737669885,2.17933988571,0.824207901955,0.0147244362161,-0.610440909863,0.0238013640046,-0.726287126541,0.380922019482,-0.337051719427,0.110052108765,0.000434673391283,0.575659779507,0.126367829888,0.422693329536,-0.0327487013292,0.954274190772,-0.26126474581,0.14152393322
0.341205984354,-0.0888520851731,-0.118993632495,-1.98408401012,-0.113291963935,2.18082523346,0.824209928513,0.0147244362161,-0.629392623901,0.0295687243342,-0.732715785503,0.43942412734,-0.310647398233,0.102030128241,4.09667372878e-05,0.57970614323,0.115298812883,0.425779787946,-0.0316710366574,0.951493662099,-0.269197023037,0.145566888061
0.32730191946,-0.088083319366,-0.135201051831,-1.97396934032,-0.119577519596,2.18277478218,0.824209332466,0.0147244362161,-0.691680848598,0.0381353534758,-0.807263731956,0.523130893707,-0.279594093561,0.092961654067,0.000843636516947,0.585808524476,0.0974268635138,0.431003721192,-0.0301871932929,0.946789520735,-0.282134181432,0.151916556516
0.305164366961,-0.0866900607944,-0.160744488239,-1.95534014702,-0.127514898777,2.18556380272,0.824211776257,0.0147244362161,-0.740342736244,0.0374868512154,-0.841657102108,0.649813532829,-0.245800480247,0.082015439868,-0.00090057705529,0.594714528761,0.0688738516115,0.440554316084,-0.0286434209946,0.938617796151,-0.302945251918,0.162481879634
0.292532533407,-0.0861020684242,-0.175410985947,-1.94390082359,-0.131667122245,2.18662309647,0.824210107327,0.0147244362161,-0.748986124992,0.0178901236504,-0.877616107464,0.707523703575,-0.223990470171,0.0562464743853,-0.000375575589715,0.599147992171,0.0522515121418,0.446505551049,-0.0277601159415,0.933613491777,-0.314886254316,0.168647177454
0.278975516558,-0.0856551453471,-0.191121950746,-1.93070650101,-0.135413333774,2.18751239777,0.82420784235,0.0147244362161,-0.754926681519,0.0237250719219,-0.87760168314,0.74276560545,-0.194519132376,0.0437892600894,-0.00237526651472,0.603424633465,0.0342820379829,0.453477593965,-0.0270764873977,0.927915859774,-0.32777737617,0.175502171965
0.265900552273,-0.085467197001,-0.206185504794,-1.91816651821,-0.13845975697,2.18805170059,0.824199676514,0.0147244362161,-0.771082878113,-0.0174308568239,-0.877842307091,0.764039099216,-0.154423877597,0.0232886541635,-0.000123898949823,0.606824697473,0.0168442810549,0.460209694401,-0.0264087509265,0.922209448145,-0.340219860493,0.181886662061
0.22891189158,-0.0874046012759,-0.248899444938,-1.88067865372,-0.144715115428,2.18811583519,0.824116170406,0.0147244362161,-0.733305335045,-0.0821378156543,-0.839106798172,0.745807468891,-0.0901911184192,-0.0270029678941,-0.00762443523854,0.612982054812,-0.0333074932833,0.481661520383,-0.0252213011564,0.904447430256,-0.375528456648,0.200791209463
0.216472908854,-0.0890789330006,-0.263475000858,-1.86856687069,-0.146092712879,2.18720221519,0.824003994465,0.0147244362161,-0.710395395756,-0.131359905005,-0.848403215408,0.687084257603,-0.0702982768416,-0.0753475055099,-0.0101434988901,0.613535091138,-0.0504983343136,0.489061804878,-0.0247888923694,0.898037910539,-0.387494176139,0.206788987095
0.204041093588,-0.0920820832253,-0.278421938419,-1.85657191277,-0.147374287248,2.18551850319,0.823836624622,0.0147244362161,-0.68623894453,-0.189970433712,-0.819402813911,0.631781041622,-0.0689251124859,-0.12175796926,-0.00880876090378,0.613129581619,-0.0680324308517,0.497043215213,-0.0244304108781,0.891297712645,-0.399587433839,0.212888291953
0.191342443228,-0.0962564274669,-0.293835639954,-1.84543347359,-0.148997813463,2.18242549896,0.823653519154,0.0147244362161,-0.648502469063,-0.248348981142,-0.806475996971,0.539942443371,-0.097232542932,-0.212290287018,-0.012005534023,0.611496084816,-0.0861359363978,0.504975449124,-0.0236620849522,0.884312189652,-0.411957927166,0.218455310957
0.129706516862,-0.156066641212,-0.380032151937,-1.81266975403,-0.15510854125,2.11344003677,0.817424952984,0.0147244362161,-0.2859788239,-0.583159089088,-0.526641249657,-0.00333269848488,-0.0200902931392,-0.77115136385,-0.0977977886796,0.573722178154,-0.179314264588,0.543054797676,-0.018648680667,0.848649087333,-0.478403331687,0.224893764185
0.125242710114,-0.165902063251,-0.388889670372,-1.81294226646,-0.155434474349,2.0998904705,0.815713584423,0.0147244362161,-0.243244305253,-0.566648185253,-0.506574034691,-0.0277681089938,-0.0100030303001,-0.820539712906,-0.106644384563,0.56708002012,-0.18714152499,0.545541694234,-0.0182808573747,0.845967074784,-0.484455846345,0.222054162847
0.121608443558,-0.17550098896,-0.397338360548,-1.8136152029,-0.155578479171,2.08557295799,0.813711643219,0.0147244362161,-0.192395910621,-0.56581145525,-0.488554984331,-0.0485660620034,-0.00398310320452,-0.848228991032,-0.118316166103,0.560444425793,-0.194058577585,0.54748105693,-0.0179687845173,0.843752975773,-0.489909809811,0.218509534271
0.118229627609,-0.186901897192,-0.406949371099,-1.81498098373,-0.155574649572,2.06790995598,0.811012804508,0.0147244362161,-0.133915215731,-0.524282217026,-0.430411159992,-0.0861503183842,-0.000528536271304,-0.815990626812,-0.124270141125,0.552550826353,-0.201267730136,0.549278838476,-0.0177648149994,0.841616737742,-0.495702112607,0.213647123352
0.115833468735,-0.197089165449,-0.415162801743,-1.81744515896,-0.155556052923,2.05200839043,0.808624625206,0.0147244362161,-0.100727878511,-0.506152451038,-0.391176700592,-0.159466221929,0.00273270532489,-0.755635499954,-0.12994889915,0.545819424729,-0.206659080366,0.550086439015,-0.0176628770539,0.840147654115,-0.500216025556,0.208863279432
0.114099428058,-0.207186207175,-0.422783374786,-1.82143735886,-0.155421748757,2.03673887253,0.805639624596,0.0147244362161,-0.0721936523914,-0.45253777504,-0.331820160151,-0.221262514591,0.0104295583442,-0.690899014473,-0.163197875023,0.538582659067,-0.211635171349,0.550117045667,-0.0176575675197,0.839123126456,-0.504305569984,0.203067675166
0.112657994032,-0.217898622155,-0.430229902267,-1.82833850384,-0.154159545898,2.02003264427,0.801370441914,0.0147244362161,-0.0490745566785,-0.381495893002,-0.240537837148,-0.313105672598,0.100467100739,-0.599105477333,-0.166967868805,0.531174754837,-0.21553194194,0.548533041998,-0.0179206728565,0.838912789281,-0.507610881533,0.195538676665
0.111823812127,-0.225134029984,-0.434789031744,-1.83577859402,-0.150926887989,2.00858926773,0.797775328159,0.0147244362161,-0.0343293696642,-0.313252538443,-0.1919054389,-0.399262458086,0.206033021212,-0.501583397388,-0.183923482895,0.526123350962,-0.217139074462,0.545894389336,-0.0189534621223,0.839289869109,-0.509504206425,0.188782269236
0.11139792949,-0.229818567634,-0.437535971403,-1.84295117855,-0.147047683597,2.00064778328,0.79466176033,0.0147244362161,-0.0200666151941,-0.241076752543,-0.136143639684,-0.437607467175,0.252564966679,-0.42139685154,-0.180712416768,0.522700352631,-0.217458039854,0.542809823526,-0.0201428410984,0.840004387988,-0.510449261628,0.182834474529
0.111204154789,-0.234205305576,-0.4398227036,-1.85340726376,-0.139891058207,1.99243092537,0.790746569633,0.0147244362161,0.00112904701382,-0.162112534046,-0.0739094763994,-0.521940529346,0.390795618296,-0.341569960117,-0.163657471538,0.519280624189,-0.21653109011,0.537766804523,-0.0224149693755,0.841290625679,-0.511076718683,0.17472332292
0.112549111247,-0.237320929766,-0.440454423428,-1.87949430943,-0.116302169859,1.98049354553,0.783957362175,0.0147244362161,0.08889131248,0.0307217314839,0.0110079487786,-0.625452399254,0.668097257614,-0.187848284841,-0.149429351091,0.515286554621,-0.209586094525,0.523163244291,-0.0299406119257,0.844975010262,-0.510950437788,0.15508204788
0.114417620003,-0.236611604691,-0.440219730139,-1.88935410976,-0.105709284544,1.97787725925,0.781945109367,0.0147244362161,0.145199730992,0.0662549436092,0.0171333942562,-0.680954694748,0.745425522327,-0.160843670368,-0.132339477539,0.514835408683,-0.206022332745,0.517534976981,-0.033129995564,0.846386852933,-0.510477835641,0.14813533527
0.117912530899,-0.234391644597,-0.439535707235,-1.90213525295,-0.0906331315637,1.97533118725,0.779548108578,0.0147237796336,0.211282297969,0.174721479416,0.0480650998652,-0.676093459129,0.835920333862,-0.111312918365,-0.119541727006,0.514813026027,-0.199769799665,0.508848762085,-0.0382103416925,0.848608489043,-0.509363784096,0.137666761508
0.136520951986,-0.213356807828,-0.430927664042,-1.94673681259,-0.0265285782516,1.97054350376,0.77235519886,0.0147237796336,0.352403491735,0.461588233709,0.219238683581,-0.637558281422,1.07837760448,-0.0297242496163,-0.102609880269,0.518874220198,-0.170252160817,0.475126938492,-0.0566221271653,0.857203577718,-0.502352844403,0.0981711793132
0.142474532127,-0.205629229546,-0.426803320646,-1.95661628246,-0.00914954394102,1.97022950649,0.770959854126,0.0147237796336,0.392887532711,0.514024317265,0.291249752045,-0.608235180378,1.10370409489,-0.0139746265486,-0.073162637651,0.520651121926,-0.16103933543,0.466528875505,-0.0611513103634,0.859542051529,-0.499680672781,0.0881317412103
0.150877952576,-0.194558650255,-0.420273542404,-1.96833372116,0.0128728887066,1.97001111507,0.769557774067,0.0147237796336,0.444569945335,0.596919059753,0.356954276562,-0.562147319317,1.12721121311,-0.00795105658472,-0.0759496241808,0.523030431748,-0.148950754157,0.456111194197,-0.0662002966049,0.86253563408,-0.495864641166,0.0759477318914
0.164750620723,-0.176274567842,-0.40840035677,-1.9828094244,0.045117944479,1.96998655796,0.767340362072,0.0147237796336,0.512141525745,0.675052821636,0.468672662973,-0.450700849295,1.1109572649,0.000283439032501,-0.0700886547565,0.527266078838,-0.127801708691,0.440061750439,-0.073566929562,0.867744288193,-0.488224236775,0.0569635978095
0.174340873957,-0.163635224104,-0.399340689182,-1.99035739899,0.0651707425714,1.97003006935,0.765974640846,0.0147237796336,0.555016219616,0.720455169678,0.52718180418,-0.377502739429,1.10279345512,3.77134929295e-05,-0.0737611278892,0.5299825297,-0.113771712698,0.430617565702,-0.0775402779575,0.871198991025,-0.482612945171,0.0456570712247
0.183468729258,-0.151810109615,-0.390248954296,-1.99601221085,0.082519441843,1.97007441521,0.764902293682,0.0147250937298,0.581886053085,0.747096717358,0.595330536366,-0.32479968667,1.06934142113,0.000513565959409,-0.0515646003187,0.5324143381,-0.100578419463,0.422476011184,-0.0806554184241,0.87446836537,-0.476985780205,0.0358377817145
0.194982931018,-0.137450620532,-0.377999454737,-2.00138306618,0.102470733225,1.97042822838,0.764089882374,0.0147250937298,0.626337707043,0.771086573601,0.680007040501,-0.239845693111,1.03800201416,0.0373031236231,-0.0332947149873,0.535314699492,-0.0839856417413,0.413352351693,-0.0839932798135,0.878548029491,-0.469558489026,0.0247651746892
0.226226806641,-0.101994104683,-0.342775791883,-2.00920772552,0.147171884775,1.97287797928,0.762050032616,0.0147250937298,0.724368751049,0.744267404079,0.84627699852,-0.106819942594,0.882332205772,0.0568562969565,-0.0420933440328,0.54173770358,-0.0399251153915,0.393427916306,-0.0904238845458,0.889786812815,-0.447328253433,0.000618222369866
0.239610761404,-0.0886878594756,-0.32714176178,-2.01055622101,0.162271425128,1.97404420376,0.761457502842,0.0147250937298,0.752345144749,0.732171475887,0.8910176754,-0.0491860285401,0.798670053482,0.079118154943,-0.0233552735299,0.543616416245,-0.0215057914033,0.386622828914,-0.0921015485085,0.894683382713,-0.437035078241,-0.00769996894029
0.256009787321,-0.0735462605953,-0.30761179328,-2.01098513603,0.17801682651,1.97607672215,0.761087715626,0.0147250937298,0.795321404934,0.696675777435,0.968078017235,-0.00083117937902,0.699854195118,0.107428014278,-0.013553801924,0.545351205465,0.00076751602456,0.379358392258,-0.0935064687335,0.900702954162,-0.423936706258,-0.016382839584
0.294552952051,-0.0438911579549,-0.260280251503,-2.01031446457,0.204956144094,1.98486566544,0.760967314243,0.0147250937298,0.845897138119,0.569543600082,1.03417634964,0.0230698995292,0.469139128923,0.230289295316,-8.19444612716e-05,0.546618650156,0.0521224247412,0.365870826281,-0.0950182378455,0.914949295461,-0.390995407901,-0.0310147044524
0.306563973427,-0.0363051444292,-0.245352953672,-2.00988698006,0.211005166173,1.98814678192,0.760972738266,0.0147250937298,0.846144378185,0.521185934544,1.06907832623,0.0370005406439,0.394547224045,0.241384670138,0.00151837035082,0.546095266969,0.0678195964442,0.362530859453,-0.0951281536555,0.919370458141,-0.380167541062,-0.0343691065207
0.323650807142,-0.0265383999795,-0.223789691925,-2.00904154778,0.21790151298,1.99306058884,0.760989785194,0.0147250937298,0.862320899963,0.455855458975,1.08680427074,0.0452508628368,0.304924070835,0.251438707113,0.00469160173088,0.544621110102,0.0900265940414,0.358349563064,-0.094993202423,0.925663339628,-0.364215567257,-0.038349620775
0.339974075556,-0.0184471458197,-0.20305635035,-2.00806069374,0.222716107965,1.99777817726,0.761089265347,0.0147250937298,0.856103301048,0.396447986364,1.08106553555,0.056294824928,0.223706007004,0.255965590477,0.0093620410189,0.542509831753,0.109896857504,0.355160434395,-0.0946166376105,0.931299929485,-0.349324394537,-0.0412383352657
0.365589529276,-0.00787801668048,-0.170691639185,-2.00603652,0.226904049516,2.00596547127,0.761844694614,0.0147250937298,0.828208744526,0.309694290161,1.05605232716,0.0710444822907,0.0830885916948,0.279660969973,0.0477508455515,0.537549427783,0.1431231544,0.351008998981,-0.0936307519881,0.940606639952,-0.323313265399,-0.0442827648625
0.379676520824,-0.00317913922481,-0.152783155441,-2.00483250618,0.227595806122,2.01111841202,0.762794673443,0.0147250937298,0.839503467083,0.244297012687,1.05808115005,0.0726330503821,0.0132661620155,0.316727876663,0.0582960061729,0.534238671768,0.160522153833,0.349446165456,-0.0930289785302,0.945357718001,-0.309239523275,-0.0448922165059
0.391043633223,-4.05006176152e-05,-0.138280704618,-2.00391960144,0.227555885911,2.01580095291,0.763757050037,0.0147250937298,0.79421800375,0.201196834445,1.01458382607,0.0582484528422,0.000434928922914,0.353525936604,0.0780361816287,0.531246068786,0.174445227316,0.348536621824,-0.0926591790275,0.949068075742,-0.297780958078,-0.044839322522
0.407516270876,0.0035427340772,-0.117411524057,-2.00271487236,0.227305799723,2.02351140976,0.765958428383,0.0147250937298,0.766102671623,0.141797170043,0.971851944923,0.0583984032273,-0.0368345603347,0.371791988611,0.124744974077,0.526448598064,0.194429460304,0.347769306394,-0.0926122034573,0.954060583345,-0.281512346707,-0.0440701874285
0.428771436214,0.00635182438418,-0.0906018093228,-2.00098490715,0.22398135066,2.03449368477,0.770310223103,0.0147250937298,0.710414171219,0.0426913164556,0.879317462444,0.0615356974304,-0.19292999804,0.379462510347,0.18595123291,0.519522547905,0.219566633707,0.347882849784,-0.0924349243543,0.96014437422,-0.26052218103,-0.0413129313349
0.441743642092,0.00679458584636,-0.0745181962848,-1.99975812435,0.219232976437,2.04183602333,0.774383485317,0.0147250937298,0.657932519913,0.00753826927394,0.806136488914,0.0692658498883,-0.300915658474,0.391042798758,0.230305194855,0.515041199426,0.234300508379,0.348739789417,-0.0920279098593,0.963657370775,-0.247858801255,-0.038227606389
0.451939880848,0.00667056813836,-0.0623410083354,-1.99859106541,0.213740929961,2.04810237885,0.778459250927,0.0147250937298,0.610001385212,-0.0172018315643,0.726668894291,0.0773444324732,-0.383713155985,0.399241983891,0.271530538797,0.511565789967,0.245384836078,0.349786988023,-0.0914782715355,0.966283688414,-0.238135515171,-0.0349146881443
0.462514430285,0.00608070101589,-0.0499958880246,-1.99699139595,0.205756828189,2.05536413193,0.783676326275,0.0147250937298,0.557326436043,-0.0535850040615,0.64466637373,0.0924690663815,-0.50631660223,0.402665287256,0.307680755854,0.508143024121,0.256460465392,0.351351688804,-0.0906309111592,0.968927816092,-0.228141604596,-0.0302709942129
0.485073804855,0.00143810152076,-0.0254982821643,-1.99217271805,0.175812214613,2.07447361946,0.79935926199,0.0147250937298,0.38352778554,-0.130131542683,0.39387139678,0.105129279196,-0.75678396225,0.392631024122,0.33512070775,0.502191402963,0.278050498157,0.357619951324,-0.0870815119816,0.974457353307,-0.206575523906,-0.0132751449874
0.492181390524,-0.00159658584744,-0.0181843452156,-1.99007284641,0.159049719572,2.08274579048,0.806580960751,0.0147250937298,0.299535483122,-0.162148594856,0.295202106237,0.0955850854516,-0.838404178619,0.387354701757,0.349296331406,0.501303857288,0.283481708743,0.360734498378,-0.0850181579647,0.976101102353,-0.199939507582,-0.00476904655061
0.496561557055,-0.00469244224951,-0.0141654433683,-1.9885071516,0.144132018089,2.08903360367,0.812917351723,0.0147250937298,0.223566949368,-0.189639315009,0.181854367256,0.0933837071061,-0.916902899742,0.354846894741,0.387555599213,0.501353995594,0.286314607614,0.363665490094,-0.0829785498538,0.977133372286,-0.195744707316,0.00299036489259
0.501108109951,-0.013499150984,-0.0110460752621,-1.98438358307,0.10115609318,2.10304570198,0.829948246479,0.0147250937298,-0.00840459484607,-0.23565711081,-0.0102513534948,0.0883406251669,-1.04629695415,0.290474265814,0.392312794924,0.5052565596,0.286019152382,0.371687823594,-0.0761690196937,0.978338506152,-0.190941285007,0.0243613052855
0.500114381313,-0.0177710000426,-0.0120686218143,-1.98279702663,0.0818736404181,2.10810232162,0.836807012558,0.0147250937298,-0.0930439010262,-0.236684173346,-0.107452332973,0.0883366838098,-1.08935654163,0.269413411617,0.364409685135,0.508228945068,0.28304981928,0.375324374957,-0.0728388555841,0.978298375858,-0.191016611388,0.0337556333192
0.497660785913,-0.0223467703909,-0.015406018123,-1.9810526371,0.0609058625996,2.11292815208,0.843417346478,0.0147250937298,-0.16668112576,-0.239695936441,-0.232856020331,0.0949322655797,-1.12338244915,0.242502123117,0.33947584033,0.512316154041,0.277941070825,0.379247948846,-0.0689669682457,0.977902566798,-0.19242729526,0.0438390565069
0.493502289057,-0.0271541532129,-0.0211684573442,-1.9790803194,0.0378995388746,2.11764550209,0.850213229656,0.0147250937298,-0.247227936983,-0.245990812778,-0.325531601906,0.0987538173795,-1.17152297497,0.224383920431,0.337851464748,0.517616863,0.2704381222,0.38347804064,-0.0644148355974,0.977057387329,-0.195487271454,0.0547203546709
0.484661459923,-0.0339023284614,-0.0322799496353,-1.97624099255,0.00554223917425,2.12382268906,0.859354376793,0.0147250937298,-0.38231536746,-0.226509794593,-0.474609911442,0.104550212622,-1.13500571251,0.220621332526,0.313000947237,0.526355134495,0.256613111891,0.389545596278,-0.057654862607,0.975076291522,-0.202502637324,0.0699630195288
0.476731151342,-0.0379427559674,-0.0420674867928,-1.97394561768,-0.0163045972586,2.12787222862,0.865177929401,0.0147250937298,-0.449961125851,-0.215608149767,-0.552161037922,0.132813304663,-1.15626466274,0.204837054014,0.300382852554,0.533178237132,0.244950659804,0.393612389764,-0.0527740799479,0.97316575302,-0.209126935804,0.0801825295817
0.471041351557,-0.0404569618404,-0.0490733273327,-1.97228932381,-0.030207356438,2.1302819252,0.868601262569,0.0147250937298,-0.493563145399,-0.195971921086,-0.61760443449,0.148951038718,-1.13621687889,0.199624508619,0.277332305908,0.538515647066,0.235265079669,0.396729796215,-0.0489933799046,0.97149141473,-0.214722339092,0.0877405072994
0.45877584815,-0.0445242151618,-0.0643879771233,-1.96844184399,-0.0561757422984,2.13498020172,0.874360263348,0.0147244362161,-0.576950252056,-0.150816753507,-0.71992713213,0.182681754231,-1.10113453865,0.204499676824,0.226683557034,0.547006407945,0.219096193449,0.401393684754,-0.0432560077333,0.968522190402,-0.224319944656,0.0988647895746
0.439719438553,-0.0483362041414,-0.0877240374684,-1.96219658852,-0.0878055468202,2.14092469215,0.880294620991,0.0147244362161,-0.679737687111,-0.0989121347666,-0.803340733051,0.235375285149,-1.02261972427,0.177981808782,0.191380023956,0.559689166635,0.192509427083,0.407909066474,-0.0349489734023,0.963267489331,-0.240680911572,0.113872787585
0.426882475615,-0.0498011671007,-0.103266432881,-1.95754361153,-0.105679325759,2.1439704895,0.883693277836,0.0147244362161,-0.732877790928,-0.0687752664089,-0.902930796146,0.278187483549,-0.955425262451,0.163448050618,0.187263071537,0.56772292916,0.173747041378,0.412002933669,-0.0295265111917,0.959271355829,-0.2527022702,0.122752651089
0.414150714874,-0.0506587736309,-0.118832692504,-1.9526617527,-0.120970614254,2.1467924118,0.886594414711,0.0147244362161,-0.780760765076,-0.025397894904,-0.937035381794,0.297762751579,-0.835856795311,0.168085172772,0.157969206572,0.575082201557,0.155033561337,0.415806785139,-0.024685660064,0.955036985999,-0.265047400868,0.130555921136
0.400464773178,-0.0508201904595,-0.135279342532,-1.94737708569,-0.134446978569,2.14955282211,0.889173805714,0.0147244362161,-0.832536637783,0.000508189899847,-0.986257433891,0.327378153801,-0.743069410324,0.159023523331,0.152148663998,0.581005556695,0.138508647263,0.418804098424,-0.0208423869655,0.951112117659,-0.276264560937,0.136488924855
0.383063733578,-0.0505727790296,-0.156230837107,-1.93985962868,-0.148883849382,2.15288281441,0.891663074493,0.0147244362161,-0.848964869976,0.0242667812854,-1.01958847046,0.374203801155,-0.639987111092,0.149245902896,0.0940156579018,0.588754921706,0.114795482622,0.42325271592,-0.0159957454335,0.945173959327,-0.292474181136,0.144392436763
0.364997595549,-0.0498524010181,-0.178089052439,-1.93181765079,-0.161175623536,2.15585446358,0.893075764179,0.0147244362161,-0.872986137867,0.0527945794165,-1.03984236717,0.401594281197,-0.531672775745,0.13746111095,0.0414127744734,0.596589983943,0.0864850134936,0.428262221691,-0.0107348074758,0.937798981634,-0.31168592034,0.152544159844
0.341121077538,-0.0482422448695,-0.206591755152,-1.92073667049,-0.174607306719,2.15902495384,0.893840432167,0.0147244362161,-0.882995605469,0.0566549375653,-1.05139183998,0.429554641247,-0.455050349236,0.108760893345,0.0102545740083,0.60310602926,0.0573911693213,0.433163772166,-0.00555228259335,0.929895906073,-0.331221447743,0.159859714332
0.327046960592,-0.0473008938134,-0.223462209105,-1.91338431835,-0.18115234375,2.16036939621,0.893864631653,0.0147244362161,-0.88405919075,0.0707010030746,-1.06124413013,0.469976872206,-0.376857846975,0.0615800023079,1.79443159141e-05,0.606677946223,0.0380123759716,0.436780536541,-0.00244543419338,0.924362220964,-0.344215219366,0.164512573213
0.31117656827,-0.0461692176759,-0.242425948381,-1.9047306776,-0.187103673816,2.16107416153,0.893858253956,0.0147237796336,-0.873323738575,0.0515084080398,-1.03268778324,0.483487725258,-0.287436276674,0.0239824187011,-0.00210091494955,0.609843043409,0.0161539706628,0.440879856582,0.00082682080482,0.917843577605,-0.359078423075,0.169189743127
0.272465497255,-0.0446145273745,-0.288767129183,-1.88159275055,-0.195965215564,2.16137433052,0.893800199032,0.0147237796336,-0.805678963661,-0.00847365241498,-0.982380151749,0.502179503441,-0.111466497183,0.000697914161719,-0.0134593714029,0.614013699835,-0.0349950941822,0.451856877303,0.00666946007324,0.901111297225,-0.394596338814,0.179576383155
0.257661253214,-0.0448246262968,-0.306628018618,-1.87198579311,-0.196813881397,2.16134667397,0.893597364426,0.0147237796336,-0.772890508175,-0.0136247267947,-0.900200307369,0.505226790905,0.00760443881154,-0.00899539049715,-0.0146494014189,0.614423638015,-0.0586820797492,0.457900978139,0.00809304468858,0.892538667118,-0.411437741194,0.184467382273
0.245666280389,-0.0455664247274,-0.320838928223,-1.86379516125,-0.196764037013,2.16104793549,0.893271446228,0.0147237796336,-0.72785115242,-0.0711882859468,-0.879320263863,0.523133397102,0.00113314716145,-0.0274283085018,-0.0270333588123,0.614142886589,-0.0739960650409,0.462359989943,0.00861827154206,0.88671835473,-0.422346987888,0.187827863416
0.230600729585,-0.0477959960699,-0.338586986065,-1.85246050358,-0.196397483349,2.15998530388,0.892434120178,0.0147237796336,-0.662427246571,-0.122853890061,-0.759149670601,0.506852865219,0.0429473854601,-0.0617295615375,-0.0519189685583,0.613021021495,-0.0945556977765,0.469522420855,0.00892430211242,0.878596511228,-0.436767331245,0.192932178024
0.212177917361,-0.0529581643641,-0.359639286995,-1.83809220791,-0.193455547094,2.15761375427,0.890715658665,0.0147237796336,-0.564771413803,-0.232920184731,-0.624951958656,0.468023300171,0.157748162746,-0.0892422124743,-0.0730744600296,0.610252651079,-0.11909870613,0.479733772264,0.00781059641623,0.868237345202,-0.454223232199,0.199459675069
0.204186365008,-0.0568585321307,-0.368353992701,-1.8311958313,-0.190411299467,2.15580749512,0.889599978924,0.0147237796336,-0.501900076866,-0.285616874695,-0.546331644058,0.442989081144,0.239786848426,-0.148247152567,-0.0721326321363,0.608499491847,-0.129330740698,0.485312892464,0.00614882244338,0.863509030198,-0.461803538515,0.202612532264
0.195376232266,-0.0630249083042,-0.37796407938,-1.82308876514,-0.185012385249,2.15220856667,0.888247907162,0.0147237796336,-0.429692625999,-0.361427009106,-0.464781910181,0.403779447079,0.330313652754,-0.224000930786,-0.0766315534711,0.605857625864,-0.140410666095,0.492487770004,0.00310392233132,0.857968964109,-0.470578714958,0.205998288789
0.188522607088,-0.0702335983515,-0.385614335537,-1.81611835957,-0.178264036775,2.14731025696,0.88651740551,0.0147237796336,-0.343844354153,-0.430486738682,-0.380039811134,0.378466427326,0.416456699371,-0.305652856827,-0.105984658003,0.602982650735,-0.148876336435,0.499387131288,-0.00077236453509,0.85337019553,-0.477785136751,0.208518765572
