imanlab/tactile_prediction_flat_dataset/test/data_sample_2021-11-25-13-29-56/robot_state.csv
position_panda_joint1,position_panda_joint2,position_panda_joint3,position_panda_joint4,position_panda_joint5,position_panda_joint6,position_panda_joint7,position_panda_finger,velocity_panda_joint1,velocity_panda_joint2,velocity_panda_joint3,velocity_panda_joint4,velocity_panda_joint5,velocity_panda_joint6,velocity_panda_joint7,ee_state_position_x,ee_state_position_y,ee_state_position_z,ee_state_orientation_x,ee_state_orientation_y,ee_state_orientation_z,ee_state_orientation_w
0.40055000782,-0.0313217975199,-0.400057762861,-2.53747940063,-0.0658776313066,2.51932644844,-0.699086546898,0.0677555203438,0.000461046933196,-0.000729385006707,0.000391422043322,-0.000194145730347,1.10329046947e-05,-0.00470079807565,7.18050723663e-05,0.457455150511,-0.00143204371065,0.172432002508,0.0143284436591,0.929858923277,0.367636590818,0.000644422161884
0.400553673506,-0.0313215330243,-0.400055319071,-2.5374777317,-0.0658776760101,2.51932692528,-0.69912147522,0.0677555203438,-1.94150345578e-07,0.000432117725722,0.000147144135553,-0.000233633050811,0.000128204046632,-0.000104734521301,-2.33054088312e-05,0.457456027905,-0.00142928036694,0.172432589073,0.0143288885718,0.92985137271,0.367655669309,0.000645082050053
0.40055346489,-0.0313214547932,-0.400055259466,-2.53747749329,-0.06587780267,2.5193259716,-0.699141681194,0.0677555203438,0.000226763775572,-0.000223963841563,0.000107905783807,0.000349643931258,-0.000113304253318,0.000703038531356,-0.00419072294608,0.457455923222,-0.00142937534261,0.172432562218,0.0143288246399,0.929847671215,0.367665034194,0.000644543355524
0.400550156832,-0.0313222259283,-0.400057345629,-2.53747749329,-0.0658777505159,2.51932644844,-0.699182808399,0.0677555203438,-0.000276595324976,-5.86638161622e-05,-0.00013313513773,-0.0022873042617,4.56305097032e-05,4.45482764917e-05,-0.00183141988236,0.457455863726,-0.00143187273906,0.172432629752,0.0143287871569,0.929840926313,0.36768209361,0.000644465688381
0.40055090189,-0.0313210524619,-0.400056004524,-2.53747749329,-0.0658779740334,2.5193259716,-0.699302494526,0.0677555203438,-0.000426831975346,-0.000366996478988,-0.000386911822716,-0.000392773392377,3.26130466419e-05,-0.000147563667269,-0.000710230960976,0.45745585806,-0.00143091980976,0.172432389026,0.0143289180396,0.929818686696,0.367738328193,0.000643149322797
0.400553435087,-0.0313228033483,-0.400056064129,-2.53747558594,-0.0658781677485,2.5193271637,-0.699319422245,0.0677555203438,-6.15548269707e-05,-0.000162571348483,0.000106178515125,4.41117808805e-05,-0.000409064989071,-3.92319407183e-06,-0.00131366692949,0.457457293599,-0.00142968066189,0.172433965681,0.0143294934944,0.929815092071,0.367747390713,0.000645353785172
0.400553375483,-0.0313238203526,-0.400055348873,-2.53747653961,-0.065878406167,2.51932644844,-0.699341654778,0.0677555203438,0.000326827925164,0.000235558487475,0.000101818717667,7.95629748609e-05,5.28819055035e-06,-8.69900832186e-05,-0.000280160165858,0.457456834759,-0.00142933984239,0.172433967092,0.0143292769902,0.929810851212,0.367758122379,0.000644901837611
0.400553643703,-0.031320925802,-0.400054752827,-2.53747940063,-0.0658779293299,2.51932621002,-0.699380278587,0.0677555203438,-8.53183373692e-05,-0.000183750089491,0.000152366847033,-4.64285767521e-06,9.7874126368e-06,4.74236512673e-05,-0.000295031495625,0.457454986038,-0.00142909276595,0.172431631663,0.0143286381791,0.929803651062,0.367776356488,0.000641788513078
0.400554418564,-0.0313214398921,-0.400055408478,-2.53747868538,-0.0658775195479,2.51932668686,-0.699403941631,0.0677561834455,-0.000546814291738,-2.98209542962e-05,-0.000276312115602,0.000504798663314,-3.35879303748e-05,3.50879672624e-05,-0.00256879371591,0.457455505931,-0.00142897627495,0.172432161362,0.0143287228856,0.929799340637,0.367787249318,0.000642475408756
0.400551855564,-0.0313223898411,-0.400059252977,-2.53747749329,-0.0658777505159,2.51932668686,-0.699425756931,0.0677561834455,0.000228742239415,7.90420817793e-05,0.000144566176459,0.000294574390864,2.46288582275e-05,3.87801555917e-05,-0.00138605944812,0.457456201141,-0.00143184742842,0.172432997561,0.0143289431692,0.929796477122,0.367794478475,0.000643278087876
0.400549590588,-0.0313236899674,-0.400056362152,-2.53747749329,-0.0658774524927,2.5193259716,-0.699444711208,0.0677561834455,-7.88875622675e-05,-0.000441820244305,0.000224205068662,0.000185830635019,5.6688724726e-05,8.83562388481e-05,-0.000517434615176,0.457456243372,-0.0014314871746,0.172433495799,0.0143287829414,0.929792928171,0.367803456089,0.000643487810169
0.400551259518,-0.0313225910068,-0.400055229664,-2.53747582436,-0.0658775344491,2.51932668686,-0.699469745159,0.0677561834455,0.000467935751658,-0.000480899849208,2.54959886661e-05,-8.26627001516e-05,-7.6753400208e-05,0.000446328689577,0.000282624299871,0.457457042082,-0.0014302817145,0.172433745503,0.014329263413,0.929787793468,0.367816416739,0.000643886629552
0.400552332401,-0.0313212648034,-0.400057435036,-2.53747725487,-0.0658776313066,2.5193271637,-0.699519097805,0.0677561834455,-0.000366495805793,-0.000278890598565,-5.32996200491e-05,-0.000532447535079,5.50940349058e-05,-0.000143635494169,-0.000508506142069,0.457456259212,-0.00143086454957,0.172432668914,0.0143291007154,0.929778902222,0.367838900669,0.000642412794478
0.400552332401,-0.031320951879,-0.40005710721,-2.53747940063,-0.0658776164055,2.51932644844,-0.699536263943,0.0677561834455,6.26404871582e-05,-0.000379385659471,-0.000124775062432,3.71467685909e-05,4.66618948849e-05,-4.55908157164e-05,0.000183805197594,0.457455030982,-0.00143073568146,0.172431650425,0.014328603455,0.929775685497,0.367847053597,0.000640800673611
0.400551974773,-0.0313219502568,-0.400056838989,-2.53748106956,-0.0658776462078,2.5193271637,-0.699551403522,0.0677561834455,-6.5937252657e-05,0.000329339614836,-7.04756675987e-05,0.00023062240507,-1.70782004716e-05,0.000121703000332,-0.00101498316508,0.457454535692,-0.00143069965058,0.172431495521,0.0143284159075,0.929772908615,0.367854079801,0.000640750990478
0.400552123785,-0.0313230231404,-0.400055408478,-2.53747677803,-0.0658777877688,2.51932692528,-0.699591875076,0.0677561834455,-0.000280978711089,0.00323742697947,-0.00030114321271,0.000188251986401,-5.60898697586e-05,-2.29584202316e-05,-0.00173365406226,0.457456702654,-0.00142994689069,0.172433581898,0.0143292273262,0.929765164425,0.367873617782,0.000642877238183
0.400549411774,-0.0313195921481,-0.400058656931,-2.53747844696,-0.065877430141,2.51932692528,-0.699604392052,0.0677561834455,2.08782057598e-05,7.03482965037e-06,-0.000193891872186,0.000244964379817,0.000104402737634,-5.59589207114e-05,-0.00191275007091,0.457455380317,-0.00143284525681,0.172431478705,0.0143288178386,0.929764001589,0.367876577188,0.000640288110867
0.400551199913,-0.0313215330243,-0.400055736303,-2.53747868538,-0.0658778622746,2.51932787895,-0.699612319469,0.0677555203438,8.77817146829e-05,-0.000342251092661,0.000200341295567,0.000160730822245,3.46780070686e-05,-0.000179567083251,0.000157740883878,0.457456133949,-0.00143043551369,0.172432970431,0.0143291055824,0.929761548153,0.367882762965,0.000642422415491
0.400552421808,-0.0313213132322,-0.40005415678,-2.53747963905,-0.0658772364259,2.51932621002,-0.69961899519,0.0677555203438,-7.13214030839e-05,-0.000141849581269,0.00053527468117,-0.000555251783226,-1.00329189081e-05,-5.89246083109e-05,-0.000383665290428,0.457454927354,-0.00142931782728,0.172431705393,0.0143284841589,0.929759968531,0.367886783204,0.000640224901623
0.400551259518,-0.0313217267394,-0.400056630373,-2.53747439384,-0.0658773705363,2.51932835579,-0.699638664722,0.0677555203438,-3.599061165e-05,0.00107212283183,0.000120101161883,0.000114116322948,-0.000101485515188,-5.41102708667e-05,-0.000205668868148,0.457457698678,-0.0014313583123,0.172433340174,0.0143298397584,0.92975695645,0.367894338228,0.0006428136195
0.400551855564,-0.0313199199736,-0.400057762861,-2.5374789238,-0.0658796876669,2.51932764053,-0.699646055698,0.0677555203438,-7.84175426816e-05,0.000231124518905,-0.000156999740284,-0.000318966252962,0.000104489758087,-9.43660488701e-05,-0.000424352736445,0.457455369495,-0.00143141647663,0.172431506431,0.0143294905598,0.929755375798,0.367898351268,0.000640073283921
0.40055090189,-0.0313197560608,-0.400057166815,-2.53747940063,-0.0658777058125,2.51932787895,-0.699652552605,0.0677555203438,4.51707492175e-05,-0.000733393593691,2.84984816972e-05,-4.79259215354e-05,1.06523211798e-05,2.22472590394e-05,-9.14977790671e-05,0.45745516352,-0.00143147670991,0.17243127622,0.0143289060825,0.929754546243,0.367900470561,0.000640028611706
0.400552004576,-0.0313225984573,-0.400056630373,-2.53747439384,-0.0658779069781,2.51932835579,-0.699671268463,0.0677555203438,-0.000591862539295,0.000346062413882,-0.000274336052826,-0.00064496207051,0.000491893384606,0.000103916710941,-8.46661259857e-06,0.457458088749,-0.00143057790491,0.172434441317,0.0143299368918,0.929750785572,0.367909927515,0.000643860960511
0.400551438332,-0.0313210003078,-0.400056004524,-2.53747439384,-0.0658774673939,2.51932740211,-0.699678361416,0.0677555203438,-9.83498321148e-05,-0.00327643472701,0.000121647353808,8.61744338181e-05,-2.56183411693e-05,-0.000117362709716,-0.000168280967046,0.457457644884,-0.00143064258214,0.17243368581,0.0143296950482,0.929749537445,0.36791309328,0.000642603082765
0.400552779436,-0.0313206464052,-0.40005710721,-2.53747725487,-0.0658782795072,2.51932740211,-0.699683964252,0.0677555203438,-0.000300828833133,0.000366525404388,-0.00388995069079,-0.000107513391413,-9.00911891222e-06,-9.90932821878e-05,-0.000518386892509,0.457456223373,-0.00143058335073,0.17243243309,0.0143293829663,0.929748332748,0.367916152633,0.000640977520173
0.400551855564,-0.0313191227615,-0.400055974722,-2.53748059273,-0.0658772364259,2.51932668686,-0.699693858624,0.0677555203438,0.000183469237527,-0.000374920957256,0.000352218165062,-0.000313315162202,-6.08699338045e-05,4.61390936835e-06,3.67380016542e-05,0.457454243671,-0.00143052590241,0.172430450398,0.0143284069281,0.929746626429,0.367920507149,0.000638358733032
0.400552898645,-0.0313215143979,-0.400055617094,-2.53747916222,-0.0658776685596,2.51932930946,-0.699711918831,0.0677555203438,-0.000240927474806,1.33699995786e-05,0.000209001300391,0.000211463193409,-6.50531947031e-05,-8.37457264424e-05,0.000177790803718,0.457455856986,-0.0014297305169,0.172432245229,0.0143291877486,0.929742976376,0.36792969529,0.00064130081355
0.400553077459,-0.0313235260546,-0.400056958199,-2.53747630119,-0.0658777803183,2.51932883263,-0.699720799923,0.0677555203438,0.000327740446664,0.000254084297922,0.000269460928394,0.000315623154165,0.00012446945766,0.000118316740554,-6.64676772431e-05,0.457457416509,-0.00143015524222,0.172434139964,0.0143296267958,0.929741552349,0.367933273089,0.000643326756858
0.40055540204,-0.0313217863441,-0.400055527687,-2.53747558594,-0.0658782720566,2.51932811737,-0.69972962141,0.0677555203438,0.000429339997936,-1.6883634089e-05,-0.000153656947077,0.000113916525152,8.44499227242e-05,5.8459227148e-05,-0.00289598875679,0.457457355725,-0.00142859410595,0.172433627056,0.0143298253531,0.929739163977,0.367939302225,0.000642366520721
0.400551825762,-0.0313216708601,-0.400055587292,-2.53747463226,-0.0658776462078,2.51933002472,-0.699766397476,0.0677555203438,0.000365933694411,-0.000107215557364,-0.000618248421233,-3.47248874277e-06,-2.37043855122e-06,0.000166309269844,-0.000901535502635,0.457458203158,-0.00143020642857,0.172434115567,0.0143301434005,0.929733154832,0.367954472021,0.000643428371215
0.400549709797,-0.0313206613064,-0.400057166815,-2.53747463226,-0.065877482295,2.51932907104,-0.699784636497,0.0677555203438,-0.000308677350404,0.000343317515217,-0.000228676974075,0.000195762113435,-6.0502501583e-05,-7.7430086094e-05,3.48306130036e-05,0.457457637289,-0.00143224611504,0.172433513366,0.0143298485073,0.929730288716,0.367961727861,0.000642028484776
0.400550246239,-0.0313214026392,-0.400056988001,-2.53747940063,-0.0658777505159,2.51932883263,-0.699814081192,0.0677555203438,-5.41518602404e-05,-0.000136484784889,0.000266630580882,0.000727871782146,-4.40088188043e-05,0.000135608846904,0.00029461827944,0.457455614338,-0.00143158164073,0.17243205603,0.0143291048654,0.92972491036,0.367975349333,0.000640138715078
0.400552153587,-0.0313220359385,-0.400056511164,-2.53747582436,-0.0658779144287,2.51932764053,-0.699830889702,0.0677555203438,-9.86362429103e-05,-0.000161590549396,3.82065009035e-05,0.000645922322292,-7.07247672835e-05,7.17969396646e-06,0.000162371521583,0.457457165645,-0.00143049529042,0.172433591394,0.0143296225009,0.929721368303,0.36798427614,0.000641433263282
0.400554955006,-0.0313226319849,-0.400054067373,-2.53747868538,-0.0658777877688,2.51933121681,-0.699868559837,0.0677561834455,-0.000176563291461,0.000118041120004,-0.000186387056601,-0.000344248343026,-4.62544521724e-05,-7.95210580691e-05,-0.00403368659317,0.457456674189,-0.00142800023757,0.172433079512,0.0143296710244,0.929713469626,0.368004229053,0.000641877744162
0.400551855564,-0.0313214175403,-0.40005671978,-2.53747749329,-0.0658776015043,2.51933455467,-0.699907660484,0.0677561834455,0.000123773163068,-0.000589218339883,2.65799953922e-05,0.00040323761641,-3.34793639922e-06,0.00020006034174,-0.00205163494684,0.457457357743,-0.00143041720583,0.172432707445,0.0143302361756,0.929708132706,0.368017688981,0.000642333472809
0.400549352169,-0.0313241444528,-0.400056242943,-2.5374751091,-0.0658771544695,2.519333601,-0.699949920177,0.0677561834455,-7.66148223192e-05,0.000246701238211,-0.000197414890863,-0.000146933554788,-2.64122809313e-05,-0.000160324241733,-0.00285342871211,0.457458716765,-0.00143165335694,0.172434758541,0.0143305220072,0.929699158328,0.368040345667,0.000644041648872
0.400548964739,-0.0313244126737,-0.400057286024,-2.53747749329,-0.0658779516816,2.51933526993,-0.699981093407,0.0677561834455,0.000411908840761,0.000716523500159,-0.000388165208278,-0.000407121639,-0.00017463680706,8.76245176187e-05,-0.000563392124604,0.457458371347,-0.0014320428967,0.172434634304,0.0143305462583,0.929694418846,0.368052316257,0.000644353875039
0.400554299355,-0.0313231348991,-0.40005543828,-2.53747820854,-0.0658779889345,2.51933503151,-0.700093150139,0.0641162768006,0.000165293939062,7.53269705456e-05,-0.000156519949087,0.000539660453796,1.93598898477e-05,0.000149237574078,-0.00379400933161,0.457457802087,-0.00142884857625,0.172433810985,0.0143304650338,0.929672464762,0.368107773476,0.000642515278836
0.400551438332,-0.031320836395,-0.400056302547,-2.5374815464,-0.0658781602979,2.51933765411,-0.700166463852,0.0641162768006,-0.000117552095617,-0.000125941689475,-0.000139039184432,0.000331342278514,-3.2125168218e-05,-8.70171134011e-05,-0.00476703979075,0.457456428384,-0.00143065041137,0.172431794045,0.0143303536473,0.929659605192,0.368140257098,0.000640489063621
0.400552302599,-0.0313217751682,-0.400055319071,-2.53747987747,-0.0658793672919,2.51933789253,-0.700189590454,0.0641162768006,4.90210513817e-05,-4.31986918557e-05,-0.000627898145467,-0.000514549145009,-0.00544127030298,0.000173537817318,0.000185470678844,0.45745742635,-0.00142982269854,0.172432858833,0.014331043186,0.929654828133,0.368152291579,0.000641576247728
0.40055334568,-0.0313229933381,-0.400056004524,-2.53748106956,-0.065878123045,2.51933908463,-0.700249433517,0.0641162768006,4.57316855318e-05,-0.000575108628254,6.41886072117e-05,-0.000209061123314,-2.79403775494e-05,-0.000153910747031,2.54076312558e-05,0.457457290563,-0.00142948771825,0.172433015276,0.0143306633053,0.929643931175,0.368179821526,0.000641892016725
0.400551825762,-0.0313208550215,-0.400055766106,-2.53747701645,-0.0658782273531,2.51933979988,-0.700285792351,0.0641162768006,0.000183206197107,-0.000553674763069,-2.78119023278e-05,0.000174655622686,-7.99159533926e-05,-0.000102523430542,-0.000724763027392,0.457459069582,-0.00143022240308,0.172433738451,0.0143315914531,0.929637456694,0.36819613134,0.00064276643262
0.400552481413,-0.0313220731914,-0.40005800128,-2.53747534752,-0.0658787041903,2.51933979988,-0.70030862093,0.0641162768006,0.000336531345965,0.000402778910939,-0.000644249143079,-8.94230906852e-05,0.000159651084687,-4.17457777075e-05,-0.000985900405794,0.457460043551,-0.00143089185638,0.172434880066,0.0143319886428,0.929633478464,0.368206158098,0.000643928414418
0.400552213192,-0.0313223041594,-0.400055706501,-2.53747987747,-0.0658793002367,2.51933884621,-0.700331032276,0.0641162768006,-2.53377656918e-05,0.000893352378625,0.000528672884684,4.84478659928e-05,-7.26909638615e-05,-0.00439646421,-0.000442847085651,0.457457710475,-0.00142998858917,0.172433165137,0.0143312093008,0.929628884501,0.368217791508,0.000641282278551
0.400554299355,-0.0313213914633,-0.400055587292,-2.53747940063,-0.0658784732223,2.51934027672,-0.700344145298,0.0641162768006,-0.000569599389564,0.000422743469244,-0.000216513770283,0.000290278519969,-2.12335216929e-05,0.00384198920801,-0.00393575569615,0.45745799311,-0.00142943279968,0.172432746541,0.0143313220426,0.929625859619,0.368225423842,0.000641292745848
0.400553554296,-0.0313234478235,-0.400054693222,-2.53747582436,-0.0658779889345,2.51933956146,-0.700367689133,0.054087664932,6.27082335996e-05,4.25954021921e-05,-0.000321173341945,-0.000360001489753,-8.64091925905e-05,-7.12503824616e-05,-0.000603899592534,0.457459977198,-0.00142877895409,0.17243527125,0.0143317186216,0.929621909295,0.368235376627,0.00064396048351
0.400552600622,-0.0313226953149,-0.400055110455,-2.53747820854,-0.0658788383007,2.51933908463,-0.7003942132,0.054087664932,-0.000231547703152,-0.000693877984304,-9.14976117201e-05,0.000195351691218,-2.52076006291e-05,-4.64555196231e-05,-0.0020396776963,0.457458643232,-0.00142963488627,0.172434061167,0.0143314465144,0.929617141452,0.368247426912,0.000642041310967
0.40055206418,-0.031321298331,-0.400057882071,-2.53747916222,-0.0658782348037,2.5193400383,-0.700409114361,0.054087664932,-0.000212310056668,0.000504133990034,-0.000466519413749,-0.000301452120766,4.38504030171e-05,0.00555306114256,2.29675169976e-05,0.457458152845,-0.00143103095897,0.17243311042,0.0143312388804,0.929615092213,0.368252609579,0.000641205000581
0.400552839041,-0.0313205979764,-0.40005633235,-2.53747606277,-0.0658782050014,2.51934194565,-0.700438439846,0.054087664932,0.000121747747471,0.000904248736333,-1.81760369742e-05,0.00015358919336,-9.07254616322e-06,-7.82010247349e-05,-0.000101654550235,0.457459954635,-0.00143000381806,0.172434186981,0.0143321443496,0.929609263805,0.368267284061,0.000643009798194
0.40055090189,-0.0313215143979,-0.400056093931,-2.53747963905,-0.0658785104752,2.51934409142,-0.700448215008,0.054087664932,0.000369134853827,-0.000444708566647,0.000220506917685,-0.000109758664621,-0.000148338833242,-0.000162289958098,-0.00181573070586,0.45745884382,-0.00143069587771,0.17243339434,0.0143319089577,0.929607714933,0.368271203504,0.000642710580955
0.400554090738,-0.0313205868006,-0.400056779385,-2.5374777317,-0.0658781975508,2.51934194565,-0.700456798077,0.054087664932,-0.000273217039648,0.000719501287676,0.000152473396156,3.57553144568e-05,9.3382295745e-06,-0.000149151237565,-0.000401219265768,0.457459154177,-0.00142962654856,0.172433538752,0.0143318342905,0.929605733172,0.368276209885,0.000642103266742
0.400551348925,-0.0313205309212,-0.400056570768,-2.53747725487,-0.0658780410886,2.51934337616,-0.700467884541,0.054087664932,3.59385048796e-05,0.00219103530981,-0.000104596430901,0.000397429364966,0.000132761721034,0.00015711542801,0.000423461140599,0.457459799943,-0.00143084073508,0.172433932023,0.0143321460152,0.929604124991,0.368280255515,0.000643017929753
0.400554358959,-0.0313223339617,-0.400055974722,-2.53747558594,-0.0658785104752,2.5193426609,-0.700494706631,0.0505206510425,0.000232297912589,0.000560071959626,-7.72541170591e-05,-0.000309908005875,6.03730441071e-05,8.24578237371e-05,-0.00291989650577,0.457460599583,-0.00142904704951,0.172435167447,0.0143324329111,0.929598512171,0.368294410033,0.000644018481744
0.400553524494,-0.0313228145242,-0.40005633235,-2.5374789238,-0.0658793449402,2.51934242249,-0.700504779816,0.0505206510425,-6.55908661429e-05,0.000201817791094,5.35771978321e-05,-0.000233052516705,-6.58896169625e-05,-0.000196419117856,0.000229594574193,0.45745902075,-0.00142959613339,0.172434065341,0.0143320046666,0.929596745268,0.368298889212,0.000642431244845
0.40055346489,-0.0313203409314,-0.400057733059,-2.53748059273,-0.0658779516816,2.519343853,-0.700518906116,0.0505206510425,4.03368139814e-05,5.46195587958e-05,5.16826112289e-05,0.000297548889648,7.09833984729e-05,-1.15528400784e-05,-0.00282239029184,0.457458158243,-0.0014303066521,0.172432502813,0.014331551672,0.929594609386,0.368304300101,0.000641122221487
0.400552332401,-0.031322080642,-0.400057226419,-2.53747534752,-0.0658788532019,2.51934432983,-0.700551092625,0.0505206510425,0.000257690902799,-2.87906386802e-05,0.000417831324739,0.000328978901962,6.51433510939e-05,-0.00552865909413,-0.00307444762439,0.457461110513,-0.00143042702149,0.17243540808,0.0143328340878,0.929588521227,0.368319610568,0.000644380398099
0.40055128932,-0.0313223525882,-0.400057643652,-2.53747582436,-0.0658790022135,2.51934480667,-0.700558960438,0.0421606265008,-0.000314536009682,0.000295803882182,0.000242946087383,0.000137885595905,-6.55840703985e-05,-5.44373615412e-05,-8.77969941939e-05,0.457460946614,-0.00143120166981,0.172435268661,0.014332861777,0.929587466444,0.368322271588,0.000644390758755
0.400553554296,-0.0313195474446,-0.400057166815,-2.53747868538,-0.0658782571554,2.51934432983,-0.700568258762,0.0421606265008,0.000241214642301,-0.00047009147238,-0.000195999426069,-0.000366886437405,3.58401666745e-05,-0.00100806541741,0.000397100753617,0.457459060876,-0.00143007784629,0.172432948239,0.0143320962585,0.92958535262,0.368327641408,0.000641459386004
0.400556385517,-0.0313229709864,-0.400055676699,-2.53749299049,-0.0658783763647,2.51933693886,-0.700583994389,0.0421606265008,9.21410755836e-05,-0.000352656643372,0.000197882138309,-0.00134093977977,-4.90469165015e-06,0.000196661552764,-0.000126750775962,0.457451118888,-0.00142794269534,0.172428235978,0.0143283124205,0.929581657276,0.368337129555,0.000632924961072
0.400563657284,-0.0313330739737,-0.400048524141,-2.53747415543,-0.0658832937479,2.5193605423,-0.700595080853,0.0421606265008,-0.000514543091413,0.000836777675431,0.00274215219542,0.00142849294934,-0.00641094474122,0.00438276771456,-0.000378717901185,0.457466816893,-0.00142077021822,0.172441897707,0.0143368776035,0.929576153736,0.368350642426,0.000657460645847
0.400542795658,-0.0313426591456,-0.400062561035,-2.53742957115,-0.0658781081438,2.5195069313,-0.700608313084,0.0421606265008,-0.00265084486455,0.00361994467676,-2.44029415626e-05,-0.00209120777436,-7.0176225563e-05,0.0268654152751,-0.000127513558255,0.457521343599,-0.00143390228761,0.172476181375,0.0143665794585,0.929580329499,0.368338764984,0.000752528177519
0.400540024042,-0.0313591174781,-0.400065004826,-2.53744411469,-0.0658788904548,2.52011036873,-0.700619339943,0.0421606265008,0.0012000448769,0.00112095999066,0.000280172505882,-0.000219151464989,-0.000238628723309,0.0091181974858,-4.24831778219e-05,0.457648103511,-0.00142669834617,0.172532022001,0.0144597581497,0.929576142941,0.368344985388,0.00103985263413
0.400562316179,-0.0313499495387,-0.40005132556,-2.53746008873,-0.0658802315593,2.52018332481,-0.70063239336,0.0421606265008,0.000171633728314,0.000436661590356,0.000196207445697,5.01555805386e-05,-7.06053469912e-05,0.00172542221844,-0.000110270048026,0.457655258681,-0.00140976725239,0.17252862634,0.0144693321408,0.929566384235,0.368369170096,0.00106298375034
0.400545507669,-0.0313496664166,-0.400059700012,-2.53745341301,-0.0658786296844,2.52020907402,-0.700637698174,0.0421606265008,-0.0004743396712,7.86626260378e-05,-0.000441947253421,-0.000459383707494,2.06033291761e-05,0.000219585534069,0.000428861181717,0.457663754784,-0.00142092764891,0.172533425075,0.014473853434,0.929570275675,0.368359130028,0.00107757004323
0.400548964739,-0.0313528738916,-0.400059521198,-2.53745770454,-0.0658805370331,2.52023482323,-0.700650155544,0.0421606265008,0.000996764865704,-0.000249307340709,-6.94549016771e-05,-0.000317297584843,8.81381856743e-05,0.000188927122508,-0.000120775432151,0.457667787429,-0.00141878754097,0.172535458138,0.0144776523073,0.929566889471,0.368367491856,0.00108913323511
0.400553077459,-0.0313501320779,-0.400055855513,-2.53745818138,-0.0658802986145,2.52024507523,-0.70065420866,0.0421606265008,-0.000716358772479,0.000744373188354,-0.000285637419438,0.000160963303642,0.000151531174197,-3.22301712004e-05,5.50883232791e-05,0.457669401836,-0.00141525662807,0.172535068283,0.0144792146198,0.929564686947,0.368372978592,0.00109245279062
0.400549709797,-0.0313507169485,-0.400057971478,-2.53745102882,-0.0658800005913,2.52025914192,-0.700657784939,0.0368639528751,6.78530268488e-05,-0.000168067403138,0.000246600888204,-0.000400501216063,-2.34225935856e-05,6.83489779476e-05,0.000332067720592,0.457675959426,-0.00141753521146,0.172539322923,0.0144826470092,0.929565026033,0.368371957465,0.00110270059125
0.400546252728,-0.0313498005271,-0.400060385466,-2.53746533394,-0.0658785328269,2.52026891708,-0.700660526752,0.0368639528751,-0.000186369463336,-3.54712501576e-05,-0.000213346007513,-0.00150477350689,3.55409320036e-05,-0.000162042371812,-0.00013701771968,0.457670489232,-0.00142018259793,0.172533778319,0.0144809320386,0.929565808491,0.368370059471,0.00109966368034
0.400551378727,-0.03134412691,-0.400057345629,-2.53746747971,-0.0658807456493,2.52027821541,-0.700669050217,0.0368639528751,-0.000134575471748,-0.000996673596092,0.000379998848075,-0.000509282283019,-6.59243232803e-05,-0.000228739401791,-2.51831352216e-05,0.457670662272,-0.00141669515142,0.172531060201,0.0144828224412,0.929562213286,0.368379057874,0.00109949516453
0.400551199913,-0.0313376113772,-0.400058984756,-2.53747916222,-0.0658810287714,2.52028059959,-0.700673401356,0.0368639528751,0.000140554388054,0.000487881625304,-0.000202652110602,-0.000799502595328,-2.37921121879e-05,0.000298053375445,0.000471621722681,0.457665225592,-0.00141776314045,0.172524931653,0.0144813118204,0.92956171739,0.368380387819,0.00109303497138
0.400545716286,-0.0313426814973,-0.400061070919,-2.53746891022,-0.0658801198006,2.52028393745,-0.700676977634,0.0368639528751,-0.000550086144358,-0.000272370671155,-0.00109804631211,0.00179183518048,0.000134802918183,0.0027970073279,-9.9621960544e-05,0.457672552846,-0.00142137171826,0.172532153041,0.01448373259,0.929562800625,0.368377529119,0.00110313615196
0.400546878576,-0.0313686579466,-0.400061666965,-2.53741955757,-0.0658783391118,2.52030849457,-0.700679540634,0.0368639528751,0.000891599978786,-0.00209281942807,0.000319750251947,0.00300218816847,-4.63769720227e-05,0.00175738031976,-0.000170486673596,0.457704389293,-0.00141872932256,0.172563410011,0.0144955643056,0.929562318184,0.368378138906,0.00114964707231
0.40055924654,-0.0314299836755,-0.400050520897,-2.53739261627,-0.0658798590302,2.52040672302,-0.700680971146,0.0368639528751,-0.000984368729405,-0.00197807420045,-0.000462391210021,0.000182324991329,0.000115300506877,0.00398416258395,-0.000244181079324,0.457747770424,-0.00140299876786,0.172608532794,0.014515992352,0.929557170218,0.368390033575,0.00123939862123
0.400553286076,-0.0314316414297,-0.400054335594,-2.53739571571,-0.065879188478,2.52046632767,-0.700684428215,0.0368639528751,-0.000290436990326,0.00073716416955,-0.000421480537625,-0.000254855083767,-8.84177188709e-06,0.0030197869055,-0.00267320801504,0.457759473686,-0.00140645751674,0.172613411107,0.0145246351978,0.92955812803,0.368387182128,0.00126700984174
0.40054911375,-0.0314196571708,-0.400056958199,-2.53740429878,-0.0658797472715,2.52047324181,-0.700685679913,0.0368639528751,-6.17715922999e-05,0.00397404190153,-0.000241478599492,0.000253240868915,5.07408840349e-05,-0.000248592870776,2.63948259089e-05,0.457755086575,-0.00141020050242,0.172605678447,0.0145244129521,0.92955898737,0.368385045875,0.00126019392754
0.400552213192,-0.0314719006419,-0.400056153536,-2.53731822968,-0.0658790543675,2.5205271244,-0.700690925121,0.0360372103751,0.000428851722972,-0.000441459211288,0.000568389659747,0.00203875917941,-4.01712131861e-05,-0.000383014121326,-0.000121139761177,0.457815718237,-0.00140472768744,0.172665642942,0.0145480142524,0.929557383484,0.368387836547,0.00135190980608
0.400556445122,-0.0315163470805,-0.400053590536,-2.53727698326,-0.065879508853,2.5205476284,-0.700691103935,0.0360372103751,-5.04810741404e-05,-0.000520951813087,-0.00018374575302,0.00185821810737,0.00019581457309,0.00295816967264,-0.00138081447221,0.457846493466,-0.0013987675128,0.172702088216,0.0145585009211,0.929556085098,0.368390507384,0.00140301906857
0.400553613901,-0.0315160788596,-0.400054514408,-2.53725385666,-0.0658794492483,2.52056717873,-0.700691998005,0.0360372103751,6.04890692557e-06,0.000291426054901,-8.76496415003e-05,-8.61938970047e-05,8.23417212814e-06,0.00293623865582,-4.06022300012e-05,0.457861765232,-0.0014003210525,0.172712633627,0.0145658345611,0.929556554441,0.368388957049,0.00142287295341
0.400550127029,-0.0315032526851,-0.400056838989,-2.53726100922,-0.0658805891871,2.52057290077,-0.700694024563,0.0360372103751,-5.11279176862e-06,0.000312367628794,-0.000279861589661,-0.000189634680282,-0.000103462451079,1.48752233144e-05,9.4809125585e-05,0.457857807929,-0.00140360509571,0.172705362701,0.0145657035175,0.929557024263,0.368387803236,0.00141599264148
0.400551438332,-0.0315139442682,-0.400055319071,-2.53725337982,-0.0658804401755,2.52058982849,-0.700695514679,0.0360372103751,-0.000275399070233,0.000377365940949,-0.000135572990985,0.000463125528768,3.36059783876e-05,0.000450616062153,-0.000205292279134,0.457866601561,-0.00140155232755,0.172713966757,0.0145698112005,0.929556181697,0.368389702566,0.0014326193424
0.400549292564,-0.0315127074718,-0.400057315826,-2.53725790977,-0.0658790096641,2.52059674263,-0.700698196888,0.0360372103751,0.00046458261204,0.000245112954872,-7.43355485611e-05,-0.000246050505666,2.75938291452e-05,0.00194462074433,-0.000299533014186,0.457865741032,-0.00140331922072,0.172712316882,0.0145696691053,0.929556623509,0.368388590856,0.00143326355332
0.400550484657,-0.0315084569156,-0.400056421757,-2.53726172447,-0.0658796280622,2.52059984207,-0.700698554516,0.0360372103751,0.000323269836372,0.000370299851056,0.000188433026779,-0.000114138347271,5.2768176829e-05,7.20065690984e-06,0.000426384794991,0.457863846728,-0.00140243426508,0.172709102974,0.0145697388728,0.929555991199,0.368390194066,0.00143057152007
0.400554507971,-0.0315116941929,-0.400056183338,-2.53726005554,-0.0658792480826,2.5206155777,-0.700702667236,0.0360372103751,-0.000258707499597,-0.000358423596481,-0.000186358869541,7.62866329751e-05,0.000196198161575,0.000346951128449,0.000382736383472,0.457868672852,-0.0014002192611,0.172712778054,0.0145723610162,0.929554489919,0.368393839111,0.0014406788743
0.400546878576,-0.0315090566874,-0.400055527687,-2.53725385666,-0.0658809840679,2.52061867714,-0.700703918934,0.0360372103751,6.43373496132e-05,1.17599538498e-05,-0.00040451408131,0.000593497068621,6.4274725446e-05,0.000135321286507,-0.000125862905406,0.457871920632,-0.00140366060428,0.172714338281,0.0145745199615,0.929555266151,0.368391784093,0.00144348049852
0.400551438332,-0.0315068624914,-0.400054037571,-2.53725624084,-0.0658810660243,2.52062320709,-0.700706064701,0.0360372103751,4.40379772044e-05,0.000454916706076,-0.000177405730938,-0.000538006948773,-6.9936591899e-05,4.95129643241e-05,8.73246463016e-05,0.457871452746,-0.00140096500978,0.172712916446,0.0145748700081,0.929553711587,0.368395692961,0.00144344397292
0.400555700064,-0.0315115526319,-0.400055199862,-2.53726005554,-0.0658808127046,2.52062726021,-0.700710237026,0.0360372103751,0.000946329033468,-0.000150532170665,0.00014532446221,0.000705207756255,7.66932862462e-05,0.000272461416898,-0.000249858567258,0.457871202379,-0.00139915888993,0.172713784668,0.0145746704852,0.929552394031,0.36839901552,0.0014459531621
0.400550544262,-0.031505599618,-0.400056362152,-2.53724169731,-0.0658788233995,2.52062988281,-0.700710892677,0.0360372103751,-0.00401051994413,0.000505274045281,-0.000177107227501,0.00131449836772,5.09306410095e-05,0.00201321742497,-0.00017412721354,0.457879661679,-0.00140235091091,0.172718565626,0.0145779688946,0.929553742679,0.368395454731,0.00145289787345
0.400550097227,-0.0315008759499,-0.40005761385,-2.53723263741,-0.0658801272511,2.52062964439,-0.70071208477,0.0360372103751,-0.000350818561856,-0.000438842922449,8.40942520881e-05,0.00122487661429,4.23459787271e-05,7.93336730567e-05,0.000341171427863,0.457889175252,-0.00140387629461,0.172723752179,0.0145823190091,0.929553626875,0.368395550726,0.00145898096243
0.400533944368,-0.0314780771732,-0.40006685257,-2.53672218323,-0.0658822134137,2.52059817314,-0.700749516487,0.0346936695278,-0.00140223756898,0.00133710692171,-0.00218407949433,0.0160087235272,0.000105266030005,-0.000566850416362,0.000563888635952,0.458125009806,-0.00142053181482,0.172909763397,0.0146725433282,0.929552347788,0.368394293878,0.00167126195189
0.400507509708,-0.0314344502985,-0.400077879429,-2.53637742996,-0.0658820867538,2.52058935165,-0.700762629509,0.0346936695278,-0.00203516334295,0.00214537838474,-0.000100661593024,0.026068508625,-9.79387550615e-06,0.00028765713796,-0.00042729449342,0.458273663654,-0.00144082352619,0.173017318657,0.0147319453402,0.929556926544,0.368379769693,0.00179862895793
0.400468319654,-0.0313905626535,-0.400077849627,-2.535633564,-0.065885104239,2.52056932449,-0.700793981552,0.0346936695278,-0.00456425733864,0.00161068886518,8.89857037691e-05,0.0528383031487,-0.000198900685064,-0.00158340285998,-0.0042606042698,0.458618424743,-0.00146525822863,0.173283458253,0.014866981493,0.929558879347,0.36836775293,0.00211210176779
0.400238931179,-0.0315186791122,-0.400139927864,-2.53158664703,-0.0658892542124,2.52009153366,-0.701032519341,0.0346936695278,-0.00668173609301,-0.00934649910778,-5.24848337591e-06,0.136746168137,-0.00303647876717,-0.0369982942939,-0.00275086751208,0.460463862334,-0.00161625040829,0.174856549378,0.0155350148314,0.929574226931,0.368287634542,0.00382594676836
0.400115519762,-0.0318167544901,-0.400147944689,-2.52875328064,-0.0658926665783,2.51930499077,-0.701057314873,0.0346936695278,-0.00834661908448,-0.0249929316342,0.000217662614887,0.172709792852,-0.00016285883612,-0.045896217227,-0.00282413791865,0.46168441746,-0.00168298772024,0.17600932869,0.0159290474506,0.929599206094,0.36819478792,0.00491724618691
0.399918824434,-0.0324205346406,-0.400160372257,-2.52521777153,-0.0658947527409,2.51803684235,-0.701090276241,0.0346936695278,-0.0134348617867,-0.0368248708546,-0.000976936542429,0.218838721514,-0.000147953644046,-0.0878525301814,-0.00336075155064,0.463173741981,-0.00177783811331,0.177524996514,0.0163720709585,0.929639238783,0.368053893972,0.00625873989472
0.399248749018,-0.0359643697739,-0.400176137686,-2.50977134705,-0.065906137228,2.50839233398,-0.701163947582,0.0346936695278,-0.0140789104626,-0.115537360311,0.000115677874419,0.403159916401,4.19975658588e-05,-0.327278077602,-0.00189749652054,0.468852730628,-0.00210451475325,0.18421669658,0.0176442973399,0.929804621513,0.367476610853,0.0106294282938
0.399078398943,-0.0381453633308,-0.400180459023,-2.50296068192,-0.0659104511142,2.50262117386,-0.701193988323,0.0346936695278,-0.00800572521985,-0.154304161668,4.77155736007e-05,0.443987190723,9.14198462851e-05,-0.411358445883,-0.000496968335938,0.471076649304,-0.00218158542387,0.187322630377,0.0179545976002,0.929864120326,0.367263925948,0.0121473675093
0.398926198483,-0.0412518419325,-0.400185525417,-2.49447536469,-0.0659094825387,2.49414396286,-0.701227724552,0.0346936695278,-0.0100067304447,-0.192648306489,-0.000841107743327,0.520906329155,-0.000108126252599,-0.514319658279,-0.0026093099732,0.473586678138,-0.00225166739902,0.191265945604,0.0181277894118,0.929939802917,0.367011863197,0.013624909467
0.398937284946,-0.0645979940891,-0.400005429983,-2.43877840042,-0.0659483149648,2.43309760094,-0.701324403286,0.0346936695278,-0.000800352368969,-0.386894613504,0.00908725894988,0.839392244816,-0.00117185595445,-0.934024691582,-0.000700036704075,0.488192494822,-0.00227020925615,0.218677511344,0.0183240026112,0.930258957513,0.365768987824,0.0222609551814
0.399022787809,-0.072726123035,-0.399821430445,-2.41997671127,-0.0659655481577,2.41259026527,-0.701337695122,0.0346936695278,0.00811657868326,-0.389395833015,0.0117882741615,0.927442669868,0.0028278271202,-1.03560853004,-0.000444313278422,0.492723873072,-0.00225669181432,0.228336153267,0.0183845669434,0.930320635811,0.365407597241,0.025353694932
0.399320274591,-0.0853232964873,-0.399420946836,-2.38984775543,-0.066027648747,2.38059711456,-0.70135307312,0.0346936695278,0.0120633011684,-0.427541255951,0.021391350776,1.07149779797,-0.0045851371251,-1.09083044529,7.15012138244e-05,0.499642895643,-0.00221078446104,0.243986803178,0.0186154837032,0.930346012429,0.364936766666,0.0305109315373
0.399547338486,-0.0930383726954,-0.398945003748,-2.3698580265,-0.0661187842488,2.36055159569,-0.701356291771,0.0346936695278,0.0142338639125,-0.427446812391,0.0269066710025,1.11819958687,-0.00257684011012,-1.13082361221,0.0013142254902,0.5041029164,-0.00213785594211,0.254377718455,0.0189743423613,0.930291127247,0.364733862176,0.0341701970205
0.399749487638,-0.100531600416,-0.398313879967,-2.34993314743,-0.0661242157221,2.34110069275,-0.701355814934,0.0346936695278,0.0110119646415,-0.437869727612,0.0446689240634,1.21192574501,-0.00243555591442,-1.14923799038,-0.000847420014907,0.508388166707,-0.00203758458256,0.264833819873,0.0193843924897,0.930207654996,0.364547894132,0.0379841609426
0.400025695562,-0.107996381819,-0.397437572479,-2.3289835453,-0.066134929657,2.32129907608,-0.701355576515,0.0346936695278,0.0231174621731,-0.446115285158,0.0552523508668,1.26333904266,0.000233180850046,-1.18060958385,0.0018687704578,0.512728859421,-0.00184357636219,0.275842033349,0.0199207715004,0.930050694937,0.364467325483,0.0421003093741
0.400510162115,-0.116270683706,-0.396208792925,-2.30461716652,-0.0661287903786,2.29904699326,-0.701352775097,0.0346936695278,0.033723462373,-0.437209874392,0.0700624510646,1.31746900082,-0.00102418207098,-1.17579591274,0.000280998210656,0.517824302134,-0.00145779081228,0.289404300054,0.0207016581293,0.929759231739,0.364524388108,0.0473411291096
0.401754528284,-0.128976479173,-0.393827289343,-2.26462078094,-0.0661100074649,2.2641146183,-0.701337754726,0.0346930138767,0.0558579415083,-0.398697167635,0.0896067321301,1.34755194187,0.00153303635307,-1.14852654934,0.00058429769706,0.5252296293,-0.000530939544548,0.310653377414,0.0221451560161,0.929090959266,0.364940779578,0.0558373401977
0.402863949537,-0.136044219136,-0.392195999622,-2.24152517319,-0.0660873651505,2.24467110634,-0.701314508915,0.0346930138767,0.0734243169427,-0.409430593252,0.103908233345,1.33058190346,-0.00474796723574,-1.12945985794,0.00228380528279,0.528957742614,0.000239621651854,0.322337400148,0.0230110584357,0.928584781513,0.365403841945,0.060669817103
0.404311448336,-0.142972424626,-0.390351951122,-2.21851682663,-0.066002368927,2.22563052177,-0.701242268085,0.0346930138767,0.0940973088145,-0.402319937944,0.115192599595,1.36269295216,0.0109683675691,-1.09960508347,0.00719324871898,0.532637946766,0.00131922978563,0.334803187651,0.0239325387817,0.927937497322,0.366083484326,0.0658947405996
0.407954543829,-0.155361950397,-0.385988473892,-2.17628073692,-0.0655639916658,2.19154405594,-0.70047980547,0.0346930138767,0.128346666694,-0.389202594757,0.150663092732,1.30071985722,0.0124149862677,-1.02302849293,0.0291118510067,0.538673781322,0.00431122466366,0.357946829468,0.0255716467171,0.926450172167,0.367814525871,0.0758198101897
0.416948437691,-0.174866095185,-0.376382261515,-2.1128821373,-0.0629648342729,2.14242506027,-0.696561634541,0.0346930138767,0.202281862497,-0.345826029778,0.214381381869,1.08932757378,0.0878978446126,-0.822387576103,0.125253468752,0.545785942554,0.0124683731745,0.394113849306,0.0271685654318,0.923383935382,0.371553552233,0.092584741919
0.420580118895,-0.180612340569,-0.372390180826,-2.09521389008,-0.0611986368895,2.1291282177,-0.69405144453,0.0346930138767,0.228485926986,-0.344952613115,0.252103507519,0.998877108097,0.119481399655,-0.737214267254,0.173823982477,0.54726069692,0.0161905468167,0.404566309377,0.027083750187,0.922337317972,0.372818794015,0.0978084294075
0.433854490519,-0.19612544775,-0.358083963394,-2.05220365524,-0.054522510618,2.09879827499,-0.68183362484,0.0346930138767,0.31172221899,-0.284952372313,0.328236818314,0.743896961212,0.153407931328,-0.519707024097,0.326340377331,0.549747611927,0.0305237299035,0.431440247084,0.0254831749212,0.919080686063,0.376719802254,0.112798451111
0.439001709223,-0.200568571687,-0.352759152651,-2.04068470001,-0.0520880408585,2.09111762047,-0.676257908344,0.0346930138767,0.327573210001,-0.257369399071,0.34656471014,0.688716650009,0.158126890659,-0.449408888817,0.370148330927,0.550030208269,0.0361579421524,0.438955614413,0.0245673210015,0.918012453393,0.378001591329,0.117321689332
0.445215851068,-0.204854816198,-0.346134245396,-2.02903628349,-0.0499635338783,2.08354520798,-0.669062495232,0.0346930138767,0.359910696745,-0.216186583042,0.378212243319,0.602290034294,0.0981039106846,-0.397040575743,0.432962059975,0.550101140081,0.0430692800447,0.446546360534,0.0236554362965,0.916743772956,0.379690004188,0.121888373035
0.452603638172,-0.208790138364,-0.338275909424,-2.01745152473,-0.0480053573847,2.07638812065,-0.659665763378,0.0346930138767,0.389073014259,-0.169417306781,0.407362431288,0.553137004375,0.105159521103,-0.320944070816,0.503316640854,0.549943977872,0.0513225361833,0.454049550138,0.0226374417959,0.915388613998,0.381515089624,0.126481096066
0.464637696743,-0.212574154139,-0.324756115675,-2.00262331963,-0.0448523648083,2.06758332253,-0.643783986568,0.0346930138767,0.400715589523,-0.0853676572442,0.455130755901,0.435733288527,0.084803506732,-0.268264085054,0.552933990955,0.549175904724,0.0654270568481,0.463219280729,0.0207072622343,0.913266434323,0.384794293583,0.132094589353
0.471847444773,-0.213673621416,-0.316722512245,-1.99554789066,-0.0437101460993,2.06343579292,-0.634244441986,0.0346930138767,0.43360722065,-0.0397802181542,0.481139808893,0.404495328665,0.0570246428251,-0.220223367214,0.575046777725,0.548486616778,0.0738452596371,0.467300781298,0.0197464055464,0.912031085942,0.386949798998,0.134459029
0.478487402201,-0.213765874505,-0.309366554022,-1.98968660831,-0.0430188700557,2.06042671204,-0.625283658504,0.0346930138767,0.460788071156,0.00436614640057,0.509515464306,0.358867406845,0.0403233915567,-0.180653572083,0.627481639385,0.547808203671,0.0821441516358,0.47051851143,0.0189633765524,0.910865817436,0.389078217206,0.136315786141
0.487794488668,-0.213393092155,-0.29880002141,-1.98327505589,-0.0422014892101,2.05710721016,-0.612414360046,0.0346930138767,0.454846292734,0.040898296982,0.52235776186,0.292224109173,0.0283202342689,-0.147260129452,0.664628505707,0.546631771925,0.0926685636434,0.473501775999,0.0179018658543,0.909464053679,0.391811611675,0.137979414772
0.501755952835,-0.210466295481,-0.282688647509,-1.97585725784,-0.041915435344,2.05318951607,-0.592165052891,0.0346936695278,0.46921429038,0.142640471458,0.546764135361,0.207494169474,0.0019561953377,-0.116558901966,0.701770186424,0.544425225616,0.109442549178,0.475946697343,0.0164913341271,0.9074901486,0.396129590558,0.138820075117
0.51024222374,-0.207691252232,-0.272493064404,-1.97261250019,-0.0419162549078,2.05119800568,-0.579109013081,0.0346936695278,0.461426198483,0.170968264341,0.577856063843,0.163641095161,6.83544858475e-05,-0.100753895938,0.751114368439,0.542746717404,0.119890760027,0.476271496988,0.0156069595125,0.906435972095,0.39871488317,0.138407705437
0.518076896667,-0.204310551286,-0.262700259686,-1.9701833725,-0.0419344678521,2.04946517944,-0.566208481789,0.0346936695278,0.457050442696,0.22204709053,0.566210210323,0.123240955174,-0.00510680209845,-0.108660593629,0.764633178711,0.540986715028,0.129777318336,0.475837769542,0.0147469853364,0.905616816266,0.400949681668,0.137404734157
0.525848686695,-0.20020608604,-0.253117084503,-1.96840691566,-0.0420870408416,2.04767274857,-0.553134858608,0.0346936695278,0.452117949724,0.262066543102,0.561739444733,0.0861024409533,-0.0159385502338,-0.10165065527,0.774559557438,0.539056330478,0.139500137916,0.474628362646,0.0139246301745,0.904951689097,0.403063257864,0.135678129828
0.546961009502,-0.184806197882,-0.225765645504,-1.9668879509,-0.0458860136569,2.04311680794,-0.513600468636,0.0346936695278,0.415045589209,0.377879172564,0.523919165134,-0.00895529054105,-0.133222326636,-0.104783706367,0.824330210686,0.532827654166,0.166144145895,0.467237833297,0.0132444165859,0.903789765597,0.408394448667,0.127289508629
0.554586946964,-0.17709043622,-0.216217398643,-1.96705126762,-0.0489483550191,2.04088282585,-0.497516810894,0.0346936695278,0.395034462214,0.433699429035,0.48428016901,-0.00741066271439,-0.201437145472,-0.123763293028,0.865140736103,0.530276598522,0.175781241162,0.462642028353,0.0138920642299,0.90384525286,0.409786458184,0.122253130024
0.560780227184,-0.170103475451,-0.20858348906,-1.96720910072,-0.0525760613382,2.03888344765,-0.483725190163,0.0346936695278,0.373413383961,0.451687306166,0.465509414673,-0.0133164608851,-0.251873284578,-0.120564565063,0.860033273697,0.528428300647,0.182520244529,0.458901923484,0.0149216731894,0.903986669967,0.410631740557,0.118182137044
0.567588031292,-0.16095803678,-0.200209960341,-1.96758759022,-0.057834032923,2.0367205143,-0.46729016304,0.0346936695278,0.344958633184,0.508295655251,0.414206475019,-0.0258652139455,-0.309964239597,-0.0918580964208,0.881043553352,0.526322392612,0.190270935006,0.453608618121,0.0168055533852,0.904363211859,0.411288557212,0.112634261202
0.582059979439,-0.134242787957,-0.183361887932,-1.97059571743,-0.0773029848933,2.03216338158,-0.423563629389,0.0346936695278,0.233973249793,0.563005447388,0.261497676373,-0.085250928998,-0.494152218103,-0.092182636261,0.887709259987,0.522307309455,0.205094354589,0.437211835647,0.0250857785073,0.906667965465,0.409905021294,0.0964457221089
0.585298538208,-0.125783294439,-0.179793864489,-1.97210204601,-0.0851552337408,2.03079557419,-0.4103962183,0.0346936695278,0.193388819695,0.56619489193,0.220300555229,-0.108783349395,-0.555885672569,-0.0936852619052,0.866494059563,0.52154842296,0.207786442265,0.431729741856,0.0286993701557,0.907675659034,0.408649405274,0.0911422371799
0.588420033455,-0.115578241646,-0.176255151629,-1.97426354885,-0.0960098206997,2.02914237976,-0.395163744688,0.0346936695278,0.156430467963,0.564952671528,0.162094265223,-0.132634058595,-0.655254840851,-0.0940043106675,0.826039910316,0.520913362906,0.209945791905,0.424958308134,0.0338368409067,0.908885850492,0.406964071854,0.0846275538527
0.590863645077,-0.10478233546,-0.173937141895,-1.97693884373,-0.108871608973,2.02756953239,-0.379596203566,0.0346936695278,0.103850260377,0.567252099514,0.0818253308535,-0.160607427359,-0.707063138485,-0.0727970376611,0.796745240688,0.520700435889,0.210763994415,0.417646245723,0.0400389918532,0.910290555924,0.404638100675,0.0776916346115
0.591802477837,-0.0789097100496,-0.173657134175,-1.98505461216,-0.145652905107,2.02333569527,-0.345839262009,0.0346923582256,-0.0484198443592,0.549175024033,-0.0658555924892,-0.189499884844,-0.887819826603,-0.112644255161,0.686835169792,0.522016874303,0.206120681859,0.399444282082,0.0582376991423,0.9139269952,0.397146915085,0.0601676438107
0.590287148952,-0.0684504210949,-0.175772294402,-1.98875319958,-0.163115248084,2.02118015289,-0.333278119564,0.0346923582256,-0.107866480947,0.548884689808,-0.145397365093,-0.19534483552,-0.945418059826,-0.103851854801,0.635743021965,0.523277857788,0.201537723321,0.391975154009,0.0669724452426,0.915491810371,0.393208531934,0.0526923791255
0.588063299656,-0.0592749603093,-0.178839728236,-1.9921298027,-0.179930835962,2.01943445206,-0.323191821575,0.0346923582256,-0.153864473104,0.528031826019,-0.207368522882,-0.200764372945,-1.01873493195,-0.103808045387,0.564137279987,0.524823051591,0.19615642655,0.385472854132,0.0753828230447,0.916777365792,0.389499865437,0.0461144886869
0.58145570755,-0.0425695255399,-0.18739078939,-1.99872708321,-0.214576914907,2.01610302925,-0.306057721376,0.0346923582256,-0.246046990156,0.487317919731,-0.319426447153,-0.190553367138,-1.07127869129,-0.0893387123942,0.477698922157,0.528567861259,0.182698802456,0.373704713787,0.0926265330012,0.919076603773,0.381552099545,0.0337122647694
0.576908051968,-0.0344308204949,-0.193468421698,-2.00190091133,-0.232804059982,2.01480650902,-0.298499554396,0.0346923582256,-0.288533747196,0.466654002666,-0.386591643095,-0.181175246835,-1.07751047611,-0.0689836069942,0.411813318729,0.531117681928,0.173690035174,0.367860846327,0.102175060531,0.920334961039,0.376558216001,0.0273445815436
0.572582185268,-0.0280372891575,-0.199272125959,-2.00441241264,-0.248114734888,2.01400375366,-0.293152332306,0.0346923582256,-0.329805880785,0.44492572546,-0.442383885384,-0.180363178253,-1.12170052528,-0.0545864254236,0.358868956566,0.533314482059,0.165869293676,0.363639701207,0.10970816917,0.921248594651,0.372497763664,0.0225955796065
0.565461874008,-0.0196111947298,-0.208959817886,-2.00785517693,-0.270818650723,2.01285409927,-0.286682605743,0.0346923582256,-0.375407665968,0.407962143421,-0.517766654491,-0.161692976952,-1.154946208,-0.0637809038162,0.287888139486,0.536507784279,0.153954318289,0.358448626713,0.120197095936,0.922429256008,0.366621256751,0.0163027473259
0.555367588997,-0.0101809445769,-0.222621276975,-2.01124501228,-0.298463284969,2.01130342484,-0.28060528636,0.0346923582256,-0.452929586172,0.373176395893,-0.601346135139,-0.125406250358,-1.14455330372,-0.0632838830352,0.223401278257,0.540838508016,0.136915127763,0.352750712971,0.133512266581,0.923942573733,0.358374753212,0.00849300062281
0.546699464321,-0.0037208639551,-0.233906880021,-2.01309537888,-0.31879350543,2.01026678085,-0.277097433805,0.0346923582256,-0.505209207535,0.33957400918,-0.657226860523,-0.0817691534758,-1.13748848438,-0.064871288836,0.180082827806,0.544197101901,0.123033033745,0.349241832445,0.143210984271,0.925133991395,0.351580510306,0.00297597135305
0.536513209343,0.00229312269948,-0.246931359172,-2.01441454887,-0.340389311314,2.00906586647,-0.274181067944,0.0346923582256,-0.564974963665,0.292044043541,-0.715977787971,-0.0514776371419,-1.10906541348,-0.054951839149,0.113692626357,0.54777302531,0.107150513287,0.346365951162,0.153393498566,0.926452803827,0.343728132011,-0.00257056916158
0.518981277943,0.0103416144848,-0.268952459097,-2.01493883133,-0.371992707253,2.00810790062,-0.272770345211,0.0346930138767,-0.633211791515,0.250413686037,-0.810746431351,0.00620811199769,-1.04716551304,-0.0130579024553,0.00374048971571,0.553252277602,0.0808798595166,0.343469696828,0.168103429531,0.928509768819,0.330915778259,-0.0102758732584
0.506378769875,0.0143450666219,-0.284738749266,-2.01463055611,-0.391129463911,2.00807356834,-0.272788912058,0.0346930138767,-0.687301337719,0.18187315762,-0.863705694675,0.0208015404642,-0.977959871292,-0.000939469318837,-0.00285843829624,0.55640162402,0.0634995168422,0.342641322151,0.176406435333,0.930053716064,0.321981850745,-0.0144409931753
0.496657073498,0.0166304614395,-0.296767830849,-2.01413965225,-0.404423445463,2.00807571411,-0.272861629725,0.0346930138767,-0.700061619282,0.153751313686,-0.867112517357,0.043616514653,-0.929209768772,-0.00180203991476,-0.010476142168,0.558710505233,0.0485699497761,0.342462570071,0.182853461981,0.931512811548,0.313906005429,-0.0176497253033
0.481195539236,0.0195866581053,-0.315670013428,-2.01268649101,-0.42274710536,2.00807762146,-0.273450165987,0.0346930138767,-0.760122299194,0.115690506995,-0.945496618748,0.098489113152,-0.815182626247,-0.000230147750699,-0.0560290701687,0.561474474045,0.0268663430398,0.342787722513,0.19108250517,0.933832203079,0.301599802562,-0.0219647784357
0.459607213736,0.0217993408442,-0.342091977596,-2.00931048393,-0.443128108978,2.00807285309,-0.276053071022,0.0346930138767,-0.799248933792,0.0400499813259,-0.966660857201,0.152976855636,-0.650519251823,0.00217678863555,-0.108350872993,0.564108797915,-0.00284193232252,0.344641196989,0.200118130747,0.937333341972,0.283964341639,-0.0268922319083
0.44440677762,0.0222008842975,-0.360666275024,-2.00621676445,-0.454422175884,2.00812530518,-0.278631806374,0.0346930138767,-0.812288165092,0.00889146421105,-0.988426446915,0.177700996399,-0.533692240715,0.00269362400286,-0.182072818279,0.565119191434,-0.0233849980185,0.346728047994,0.205054857938,0.9399753334,0.271144921687,-0.0296531442762
0.428137600422,0.0220950227231,-0.380673706532,-2.00224637985,-0.463973164558,2.00819993019,-0.283283114433,0.0346930138767,-0.808072686195,-0.0194591544569,-1.00808656216,0.22024551034,-0.435255587101,0.00277071306482,-0.278962492943,0.565463020453,-0.0451380429549,0.349407015049,0.209195617574,0.942773061236,0.257627368274,-0.032315435917
0.415779680014,0.0216486118734,-0.39576742053,-1.99862611294,-0.469752013683,2.00829148293,-0.28800624609,0.0346930138767,-0.828942239285,-0.0478314906359,-1.01013529301,0.257152080536,-0.345844686031,0.00797455012798,-0.350773870945,0.565295403593,-0.0614186860536,0.35182796452,0.211703330488,0.944845436962,0.247572701221,-0.0340081962317
0.373972952366,0.0166147332639,-0.446465373039,-1.98306667805,-0.481038540602,2.00943803787,-0.309187233448,0.0346930138767,-0.808371663094,-0.143555939198,-0.985002815723,0.320569813251,-0.0833381190896,0.0339251533151,-0.455227255821,0.562081827849,-0.115215774238,0.362858531127,0.216703186263,0.95182088075,0.213863658938,-0.0365933751838
0.35988432169,0.0134308934212,-0.46366494894,-1.97750771046,-0.48146802187,2.01017427444,-0.317598581314,0.0346930138767,-0.779337823391,-0.205513939261,-0.946921348572,0.295068442822,0.00370509759523,0.0413820743561,-0.473354399204,0.559838553251,-0.132933916345,0.367234387021,0.216898298713,0.954325142521,0.202216187323,-0.0364316296884
0.349183052778,0.0101821217686,-0.476750999689,-1.97346496582,-0.48138204217,2.01079893112,-0.324271738529,0.0346930138767,-0.748052537441,-0.252490878105,-0.930267095566,0.281609088182,0.0201850216836,0.0560870282352,-0.475893974304,0.557663137572,-0.146333330481,0.370832562682,0.216802865834,0.956201569521,0.193342104889,-0.0359709046333
0.330591619015,0.00252150511369,-0.499516993761,-1.96641290188,-0.479584485292,2.01258945465,-0.337008059025,0.0346930138767,-0.698751747608,-0.328644186258,-0.831017255783,0.253081351519,0.143038630486,0.0724013969302,-0.499394357204,0.553124552573,-0.169334428789,0.377949979544,0.215872123186,0.95946735193,0.177984314018,-0.0338113984539
0.315839976072,-0.00590834859759,-0.517032802105,-1.96148204803,-0.475104123354,2.01397132874,-0.34808588028,0.0346930138767,-0.644916653633,-0.425615519285,-0.747165560722,0.20047211647,0.273460149765,0.0661835148931,-0.491393089294,0.548588827461,-0.186780282679,0.38410175249,0.213601960524,0.962257128017,0.165763454137,-0.0309499435321
0.304780840874,-0.0139283295721,-0.52996712923,-1.95817267895,-0.469088375568,2.01502728462,-0.356926560402,0.0346930138767,-0.583270311356,-0.474151879549,-0.689186930656,0.163827195764,0.392535984516,0.0493242405355,-0.482599973679,0.544650796419,-0.199316340021,0.389084937368,0.210616777259,0.964588249689,0.156325680345,-0.0277914205545
0.295892655849,-0.021978341043,-0.540495157242,-1.95589566231,-0.461621969938,2.01566815376,-0.36451420188,0.0346930138767,-0.53647506237,-0.529043197632,-0.630285382271,0.128616854548,0.525507748127,0.0280277244747,-0.466129571199,0.541011514959,-0.209047211969,0.393405926439,0.20691192285,0.966749233058,0.14828489911,-0.0243919034339
0.274405062199,-0.0514847077429,-0.565089464188,-1.95210838318,-0.427789777517,2.01587581635,-0.385543942451,0.0346930138767,-0.338137149811,-0.659658312798,-0.394581288099,0.0326402448118,0.828967750072,-0.00217052875087,-0.394435197115,0.53050503401,-0.229668304206,0.406264271722,0.190146329166,0.973474330624,0.126846992321,-0.0100966011453
0.269264876842,-0.0629530549049,-0.571234822273,-1.95182514191,-0.413091391325,2.01582145691,-0.391744315624,0.0346930138767,-0.263743668795,-0.689728617668,-0.318351656199,0.00926152523607,0.890716254711,0.00182855105959,-0.335318565369,0.527451743754,-0.233747172553,0.410564639843,0.182876096055,0.975694667712,0.120672409952,-0.00379711216784
0.265477776527,-0.0748049095273,-0.575667858124,-1.95177233219,-0.397339373827,2.01579093933,-0.397282510996,0.0346930138767,-0.179032430053,-0.696900725365,-0.214438825846,0.00177647685632,0.953493475914,-0.00664994912222,-0.307712286711,0.52502783672,-0.236012350159,0.414902829902,0.175146243579,0.977736407588,0.115520104484,0.00322735068462
0.262057781219,-0.108879484236,-0.58030462265,-1.95168042183,-0.346420198679,2.01536011696,-0.411361992359,0.0346930138767,0.0400286614895,-0.6867659688,0.0208589341491,0.00315098650753,1.09810721874,-0.00369165465236,-0.247545555234,0.521686015397,-0.233061900151,0.427955924046,0.149606346342,0.982610303345,0.106572653952,0.0271514644402
0.263484477997,-0.120205536485,-0.579388082027,-1.95164370537,-0.32742023468,2.01536822319,-0.415365159512,0.0346930138767,0.126226469874,-0.646584153175,0.0909757018089,0.01113311667,1.1385383606,0.000166572528542,-0.226944282651,0.521832739602,-0.229625295794,0.431743643155,0.141664608599,0.98363776137,0.105741855969,0.0347354670261
0.266351610422,-0.131009221077,-0.577240645885,-1.95146501064,-0.308176130056,2.01532769203,-0.418952047825,0.0346936695278,0.204475060105,-0.623359262943,0.159314319491,0.0141898924485,1.12271261215,0.00343385292217,-0.205274641514,0.522594456498,-0.224375014714,0.436007011922,0.132608484931,0.984539698498,0.105897738953,0.0433847944329
0.281360954046,-0.158345222473,-0.563123703003,-1.95025002956,-0.252124845982,2.0151348114,-0.426312059164,0.0346936695278,0.389082670212,-0.484195113182,0.395089298487,0.0457742772996,1.12394237518,-0.006967486348,-0.0966876223683,0.52794487225,-0.201276407259,0.44785504841,0.106467259134,0.985592425784,0.112578963774,0.0678105418205
0.288584142923,-0.166025564075,-0.555708229542,-1.94936525822,-0.233288198709,2.01491904259,-0.427647799253,0.0346936695278,0.459032893181,-0.408197551966,0.484187811613,0.0653461366892,1.09122526646,-0.0112358601764,-0.0660168677568,0.530810569236,-0.190212268792,0.451941684903,0.0972440234047,0.985414130285,0.117107369892,0.0760818990352
0.296252071857,-0.172173023224,-0.547407269478,-1.94821667671,-0.215935975313,2.01475715637,-0.428680121899,0.0346936695278,0.510334730148,-0.354948103428,0.564984202385,0.0802697464824,1.06263375282,-0.00752591434866,-0.0562640316784,0.533546581793,-0.179892750651,0.455206492287,0.0898052537647,0.985010239902,0.121926268173,0.0826064677291
0.307639181614,-0.178745374084,-0.534490048885,-1.94637644291,-0.194312900305,2.01465368271,-0.429492354393,0.0346936695278,0.559606790543,-0.274346023798,0.648608148098,0.0936614125967,0.986049115658,-0.00613263947889,-0.0149252545089,0.537774427847,-0.163741695366,0.459533612983,0.0799843541432,0.984036488807,0.13031014554,0.0910711669741
0.325371652842,-0.185157626867,-0.513990700245,-1.94304907322,-0.167727872729,2.01461291313,-0.42950540781,0.0346936695278,0.660354077816,-0.169562354684,0.777013361454,0.125724956393,0.843993067741,0.00151112896856,0.00222738576122,0.543847943726,-0.139148241255,0.465065857519,0.0680026297515,0.981981741062,0.144319210093,0.101289031303
0.336814731359,-0.187388077378,-0.500411212444,-1.94062709808,-0.154415994883,2.01462721825,-0.429385155439,0.0346936695278,0.687841296196,-0.0958271250129,0.81217443943,0.150210484862,0.744922101498,-0.000308897404466,0.0166205670685,0.547433683895,-0.123486820011,0.46801664308,0.0620955959212,0.980336177936,0.15417436091,0.106373781222
0.349577903748,-0.188373267651,-0.485200703144,-1.93792021275,-0.142031565309,2.01468420029,-0.428759396076,0.0346936695278,0.722125887871,-0.0211659632623,0.883930146694,0.155102670193,0.646750807762,0.00062528566923,0.0512641444802,0.551072923344,-0.106180792216,0.470647495828,0.0566348960731,0.978333981862,0.165417272376,0.110870348502
0.362079948187,-0.188224717975,-0.469891250134,-1.93526256084,-0.132000595331,2.01472187042,-0.427342146635,0.0346943251789,0.746467709541,0.0189647227526,0.924217879772,0.156509667635,0.535915374756,-0.000512152852025,0.106823593378,0.554263834143,-0.0891592720351,0.47272539668,0.0522145383619,0.976219061138,0.176608379138,0.114365496405
0.399188876152,-0.183697029948,-0.42356556654,-1.92838323116,-0.112593837082,2.01515364647,-0.417627245188,0.0346943251789,0.785060286522,0.168251931667,0.992900073528,0.129573389888,0.293569475412,0.00921181030571,0.288637727499,0.561130317868,-0.0389475103828,0.476361587909,0.04335095876,0.969389913835,0.209319305504,0.120786246599
0.412641525269,-0.180642455816,-0.406490564346,-1.92626392841,-0.108137898147,2.01517701149,-0.412045508623,0.0346943251789,0.770321428776,0.189635172486,1.00164568424,0.122399866581,0.224087700248,0.0019749160856,0.370625525713,0.562633827076,-0.0207424064022,0.476697006727,0.0411363830709,0.966820979696,0.220747806617,0.121800643572
0.426497131586,-0.176866963506,-0.388417333364,-1.92421138287,-0.10484161973,2.01520681381,-0.404352605343,0.0346943251789,0.788787662983,0.225332707167,1.01168036461,0.105555787683,0.154680773616,0.000447473226814,0.475497573614,0.563650164155,-0.00181840418546,0.476620123873,0.0393291455701,0.964184353056,0.232018243892,0.122349032787
0.441001087427,-0.172144457698,-0.369449496269,-1.9223241806,-0.1029003039,2.01523065567,-0.394382476807,0.0346943251789,0.748658120632,0.272045552731,0.973205924034,0.0963239073753,0.0470054447651,0.00146096479148,0.5693577528,0.564123295635,0.0178734727541,0.475939790077,0.0380082129579,0.961496713519,0.243162443967,0.122276208546
0.463733613491,-0.163122564554,-0.340152591467,-1.91980791092,-0.102690771222,2.01524949074,-0.374313682318,0.0346943251789,0.708863973618,0.3056820333,0.913636267185,0.071934401989,0.000546672730707,0.00083855050616,0.693780839443,0.563764506693,0.0472318002794,0.473725672754,0.03703513669,0.957738775076,0.258302310873,0.121015508327
0.473512679338,-0.158836022019,-0.327727973461,-1.91900098324,-0.102757029235,2.01523709297,-0.364274710417,0.0346936695278,0.67886608839,0.308647036552,0.865875124931,0.0459894090891,-0.0149704460055,0.00481028808281,0.740321457386,0.563028520527,0.0619930108474,0.472099440832,0.0365165652856,0.95602015723,0.26513679756,0.11997698821
0.486143708229,-0.152898043394,-0.311973243952,-1.91837275028,-0.103421606123,2.0152220726,-0.349487364292,0.0346936695278,0.650015056133,0.324781090021,0.812096476555,0.0210338402539,-0.0586268305779,-0.00075785536319,0.822398722172,0.561834598079,0.0775371424593,0.469876848205,0.0361240922134,0.954412671937,0.271583296417,0.118465245556
0.497841149569,-0.146753668785,-0.297643840313,-1.91814339161,-0.105107828975,2.01519322395,-0.33298972249,0.0346936695278,0.578251302242,0.314351767302,0.703779935837,0.00141360494308,-0.107042685151,-0.00766055285931,0.904643774033,0.560327686352,0.0924381240695,0.467131112235,0.036121449052,0.953196328679,0.276652873196,0.116512605988
0.527909636497,-0.126994103193,-0.261227667332,-1.91840493679,-0.115724414587,2.01459169388,-0.268631160259,0.0346936695278,0.341537207365,0.307582467794,0.396492987871,-0.00408178474754,-0.237121298909,-0.0047881831415,1.10489797592,0.555168869047,0.129476660166,0.457228057713,0.0383848960095,0.95292380147,0.280186648857,0.109353874383
0.533598005772,-0.121466226876,-0.254480570555,-1.91847717762,-0.120384447277,2.01436519623,-0.247029066086,0.0346936695278,0.255250513554,0.26233908534,0.312266469002,-0.0101800747216,-0.250006467104,-0.0124780526385,1.15952813625,0.554223132795,0.136050040954,0.454345276371,0.0398173938973,0.954090034991,0.276781813493,0.107324776658
0.540025174618,-0.11045576632,-0.246058240533,-1.91897046566,-0.133131176233,2.01387524605,-0.190240696073,0.0346930138767,0.0256987381727,0.207214191556,0.055263325572,-0.0132606206462,-0.280193120241,-0.00371132488362,1.24128568172,0.553688652769,0.143018620472,0.448234630532,0.0440485136394,0.959411245405,0.258683956729,0.10330731271
0.539564788342,-0.106960393488,-0.246209412813,-1.91925084591,-0.138186380267,2.01373505592,-0.166075393558,0.0346930138767,-0.0683337301016,0.159443259239,-0.0460761003196,-0.0140103539452,-0.253317385912,-0.00578404124826,1.28282296658,0.554273886889,0.142102537717,0.446348329144,0.0456043979146,0.962207864348,0.248273399128,0.102159598937
0.537868022919,-0.104696489871,-0.247568756342,-1.9195497036,-0.141970172524,2.01359009743,-0.145300224423,0.0346930138767,-0.142300948501,0.129332065582,-0.123475342989,-0.0206775665283,-0.223624378443,-0.00922489631921,1.30141592026,0.555037107252,0.139932870645,0.444975233549,0.0467448397355,0.964951308347,0.237504350357,0.101368514495
0.533941924572,-0.102310433984,-0.251339763403,-1.92002630234,-0.146000191569,2.01344251633,-0.119367681444,0.0346930138767,-0.240246713161,0.117411956191,-0.24461646378,-0.0252335518599,-0.175789132714,0.000588638999034,1.31133198738,0.556421690276,0.13512286533,0.443409263223,0.0478992360389,0.968671891069,0.222016949852,0.100443537926
0.525438725948,-0.0999662652612,-0.260013252497,-1.92064476013,-0.150788769126,2.01325631142,-0.0830088630319,0.0346930138767,-0.364114105701,0.0340731143951,-0.377328634262,-0.0249939057976,-0.157605260611,-0.0207528974861,1.303383708,0.559184252088,0.12397352818,0.441648414028,0.0492301392327,0.974509884634,0.194995489049,0.0994164829798
0.513765871525,-0.0992437303066,-0.272387057543,-1.92107391357,-0.154655024409,2.01291394234,-0.0469915494323,0.0346930138767,-0.480451613665,0.0202391147614,-0.518304049969,-0.0125621650368,-0.121129028499,-0.0200206357986,1.25912332535,0.56220032653,0.109538753209,0.440876320095,0.0499861215285,0.979859440904,0.166078476958,0.0989686966367
0.499877035618,-0.0991717204452,-0.287479370832,-1.92111229897,-0.157656446099,2.01233148575,-0.0143283605576,0.0346930138767,-0.57275056839,-0.00723045319319,-0.624491333961,0.00663728732616,-0.100614987314,-0.0201203208417,1.2314248085,0.565022225512,0.0937675480597,0.440573496024,0.0505087499742,0.984149330355,0.138456154417,0.0986349569848
0.467265963554,-0.100649505854,-0.323265373707,-1.92058265209,-0.162308514118,2.01139640808,0.0450406596065,0.0346930138767,-0.732317984104,-0.0293654575944,-0.815073728561,0.0290086623281,-0.107680633664,-0.0303477551788,1.17456054688,0.57019338651,0.0538501204746,0.440908725564,0.0512370900934,0.990913268316,0.0759812803799,0.0984504951945
0.45413261652,-0.101066842675,-0.338033735752,-1.9200630188,-0.164089486003,2.01081347466,0.0646018236876,0.0346930138767,-0.799680054188,-0.0280085168779,-0.8998016119,0.0283959712833,-0.0970963016152,-0.0400630347431,1.14778482914,0.571542601796,0.0374970401772,0.441046573641,0.0517320477047,0.992425316807,0.0526744782467,0.0981895352928
0.439560472965,-0.101695619524,-0.354778379202,-1.91942846775,-0.165555968881,2.00987744331,0.084882542491,0.0346930138767,-0.827311456203,-0.0334359146655,-0.957992136478,0.0399503111839,-0.076970256865,-0.0642149150372,1.11651408672,0.572432235274,0.0191669685977,0.441244608024,0.0520920748821,0.993472319041,0.0272045874664,0.0977705331526
0.42318379879,-0.102284096181,-0.37366899848,-1.91856884956,-0.16703042388,2.00848460197,0.105663344264,0.0346930138767,-0.867038369179,-0.0344121530652,-1.00586402416,0.0454655699432,-0.0763028040528,-0.0696242675185,1.07200729847,0.572708943235,-0.00147791006414,0.441409102596,0.0525436912566,0.993889832165,-0.000519383963963,0.0970664306921
0.377366870642,-0.104245722294,-0.427358627319,-1.91674411297,-0.170473083854,2.00444221497,0.157012745738,0.0346930138767,-0.946890771389,-0.0465991646051,-1.12970519066,0.0334753505886,-0.040303979069,-0.10684659332,0.989646971226,0.569328429361,-0.0595050198947,0.441539061627,0.0537012275335,0.991226431461,-0.0751834574858,0.0945187132476
0.364094406366,-0.104924678802,-0.443267822266,-1.91634786129,-0.170821845531,2.00297904015,0.170642182231,0.0346930138767,-0.949538767338,-0.0459669306874,-1.13328874111,0.0265181344002,-0.0159991960973,-0.108035445213,0.948871910572,0.567138856565,-0.076320230555,0.441464454043,0.0537546515248,0.989476966438,-0.0964343467265,0.093521050022
0.346841007471,-0.105853505433,-0.464008837938,-1.91599225998,-0.170905530453,2.00105118752,0.187306001782,0.0346930138767,-0.962975084782,-0.0597237460315,-1.16712236404,0.00934776384383,-0.00318435346708,-0.107136972249,0.907482743263,0.56351168484,-0.0980310457262,0.441266451587,0.0536654334363,0.986595275425,-0.123562965562,0.0920976492744
0.29983830452,-0.109272755682,-0.522454202175,-1.91596400738,-0.170894294977,1.99557852745,0.231221333146,0.0346930138767,-0.928598761559,-0.0777637809515,-1.17295312881,0.00299182231538,0.00220106169581,-0.127828285098,0.834421515465,0.5488559379,-0.15724612733,0.440397040993,0.0529885929551,0.974979006478,-0.197225187364,0.0878087188638
0.286355644464,-0.110538035631,-0.539889097214,-1.91595828533,-0.170717477798,1.993694067,0.243594184518,0.0346930138767,-0.876495659351,-0.0916958674788,-1.14841759205,-0.00126793049276,0.032042440027,-0.118656784296,0.812752187252,0.543308585161,-0.174234090183,0.440159800601,0.0525972585614,0.970586472707,-0.218441471435,0.0864797701311
0.270633608103,-0.11234677583,-0.56032127142,-1.91605305672,-0.169877737761,1.99149155617,0.257558941841,0.0346930138767,-0.849240899086,-0.10965949297,-1.12119102478,-0.00789571460336,0.0597823262215,-0.121907241642,0.740362465382,0.536133947846,-0.193755659607,0.439932792775,0.0517370916418,0.964911620263,-0.242991366749,0.0849943163299
0.254015058279,-0.114797346294,-0.582069098949,-1.91636788845,-0.168185338378,1.98916220665,0.272089898586,0.0346930138767,-0.813416779041,-0.13138513267,-1.05895471573,-0.0230375509709,0.109514638782,-0.11903809011,0.713954329491,0.527705517755,-0.214023245908,0.43975969719,0.0502636363305,0.958227693737,-0.268877899886,0.0835339958421
0.230854824185,-0.119791358709,-0.61227619648,-1.91766762733,-0.162101730704,1.98603606224,0.29292294383,0.0346930138767,-0.731557786465,-0.191120952368,-0.935633778572,-0.0571443624794,0.280159503222,-0.106869466603,0.650239169598,0.514630581624,-0.240984359085,0.439643322475,0.0458919124924,0.947563427523,-0.305470186859,0.0818867987951
0.205757275224,-0.128299936652,-0.643705129623,-1.92078995705,-0.148018717766,1.98215699196,0.315792858601,0.0346936695278,-0.614623963833,-0.276222139597,-0.751358866692,-0.104342229664,0.472749471664,-0.105281889439,0.599195837975,0.499049165796,-0.267337664984,0.439731939987,0.0365546098705,0.93429082895,-0.345347315042,0.0806203393381
0.196838632226,-0.132760122418,-0.654357731342,-1.92249941826,-0.140431880951,1.98061013222,0.324595540762,0.0346936695278,-0.555488228798,-0.315941363573,-0.669872283936,-0.118210151792,0.536388218403,-0.105756230652,0.564763844013,0.493228739757,-0.275759380308,0.440006924404,0.0315242906138,0.928993536048,-0.359850025787,0.0805306631499
0.175347775221,-0.150299116969,-0.680207371712,-1.9292447567,-0.108933925629,1.97499668598,0.349804967642,0.0346936695278,-0.308499366045,-0.394496589899,-0.389383196831,-0.144434452057,0.756618916988,-0.127671301365,0.492191791534,0.478133562306,-0.293247907735,0.441781811617,0.0107684552594,0.913584894029,-0.398270031598,0.0814104623808
0.170987412333,-0.157229498029,-0.68590927124,-1.93155992031,-0.0951991006732,1.97280049324,0.358242958784,0.0346936695278,-0.214464366436,-0.412354230881,-0.282868802547,-0.134220898151,0.842454433441,-0.128641366959,0.485289037228,0.474584401358,-0.295748369394,0.44297019953,0.00132263519209,0.908680780838,-0.409304269125,0.0822648413738
0.168133988976,-0.164282813668,-0.689926087856,-1.93366122246,-0.0804056227207,1.97063994408,0.366507172585,0.0346936695278,-0.117875620723,-0.41131785512,-0.182974860072,-0.116008371115,0.897072613239,-0.128645807505,0.47814014554,0.47242904343,-0.296385398244,0.444295308283,-0.00761125464505,0.904731376677,-0.417698153425,0.083255373177
0.166935071349,-0.172511085868,-0.692250549793,-1.93575119972,-0.0615023188293,1.96824359894,0.375539362431,0.0346936695278,-0.0089277504012,-0.411439746618,-0.0535037405789,-0.0951508283615,0.974866867065,-0.0977396816015,0.437661647797,0.471269405108,-0.294892456107,0.446328125969,-0.019472728368,0.900563803832,-0.425932109514,0.0847790412726
0.168804943562,-0.184220343828,-0.691189467907,-1.93795835972,-0.0306674130261,1.96580910683,0.388563752174,0.0346936695278,0.144636854529,-0.366433739662,0.113243617117,-0.0486497953534,1.06702160835,-0.0648613423109,0.433334827423,0.472536248592,-0.288604939039,0.450197082321,-0.0382582625893,0.895612236977,-0.434401759835,0.0878073860676
0.172155663371,-0.190255537629,-0.688543796539,-1.93853092194,-0.0122291138396,1.96495473385,0.396111190319,0.0346936695278,0.247313126922,-0.337302595377,0.192513689399,-0.0199496205896,1.0903288126,-0.0372423417866,0.441604197025,0.474789158826,-0.282968326154,0.452803505124,-0.0492257277593,0.893457728357,-0.437327975061,0.0897460710517
0.177474156022,-0.195905640721,-0.684272170067,-1.93862235546,0.00764785241336,1.96452450752,0.403894156218,0.0346936695278,0.33610317111,-0.295068919659,0.277205556631,0.00301916827448,1.12858986855,-0.00787401292473,0.409856617451,0.478266149087,-0.275482155445,0.455773202861,-0.0608110721694,0.891788023475,-0.438844688261,0.091823057822
0.184266284108,-0.200857102871,-0.678465723991,-1.93848466873,0.0280190669,1.96450686455,0.410898000002,0.0346936695278,0.409819483757,-0.257884323597,0.374278247356,0.0137684512883,1.12365972996,0.0024650581181,0.376156836748,0.482648416824,-0.266482836839,0.458830031412,-0.0724173412918,0.890812648344,-0.438655455962,0.0937547057999
0.20844322443,-0.209956750274,-0.654419720173,-1.93737852573,0.0818612426519,1.96465229988,0.428331583738,0.0346936695278,0.604941964149,-0.129181265831,0.60842859745,0.0365449339151,1.12140548229,0.00975669268519,0.37533351779,0.497919801731,-0.234142369192,0.466808589036,-0.102533817641,0.891542227763,-0.430482397876,0.0965617789207
0.219402775168,-0.211633622646,-0.643118679523,-1.93667340279,0.101066984236,1.96480715275,0.434718698263,0.0346936695278,0.678496181965,-0.0658534392715,0.703792333603,0.0520343445241,1.13293623924,0.0107416380197,0.369091868401,0.504157957586,-0.220023131565,0.469393185907,-0.112591050985,0.892801162939,-0.425330901806,0.0965554883801
0.232159942389,-0.212289452553,-0.629874229431,-1.93568980694,0.121001139283,1.96499192715,0.441158741713,0.0346936695278,0.7293202281,-0.0139099666849,0.745418012142,0.0534030236304,1.107021451,0.0122008631006,0.342751771212,0.510590137608,-0.204677545971,0.471747367056,-0.122161285751,0.894589803795,-0.419019184367,0.0959615861509
0.265278369188,-0.210910543799,-0.595551133156,-1.93332242966,0.164629459381,1.96570730209,0.453904509544,0.0346949845552,0.871018707752,0.089492186904,0.898736834526,0.06130887568,1.02501273155,0.0204236805439,0.293566703796,0.525910853281,-0.162853944829,0.476539265311,-0.143441672925,0.900907366583,-0.399064877789,0.0923992764969
0.288243472576,-0.207799121737,-0.57162541151,-1.93207943439,0.190297484398,1.96624708176,0.461508065462,0.0346949845552,0.927198410034,0.155734702945,0.966330170631,0.0425320155919,0.978593885899,0.0182361155748,0.30243781209,0.534659622425,-0.133722688535,0.478454163,-0.155186917355,0.905849807441,-0.384128386888,0.0883092809746
0.321182310581,-0.201191723347,-0.536463975906,-1.93049776554,0.222880020738,1.96669220924,0.47171151638,0.0346949845552,0.972259640694,0.21921004355,1.0569280386,0.037525948137,0.88856202364,0.0088149253279,0.289072811604,0.544381646164,-0.0925084705791,0.479732643563,-0.168716154612,0.91312412281,-0.362218366995,0.0808520241331
0.368888437748,-0.187926709652,-0.484346747398,-1.92905521393,0.26144695282,1.96682107449,0.484002351761,0.0346949845552,0.985139429569,0.315513044596,1.10279250145,0.0190124884248,0.705067098141,-0.00113844452426,0.22460244596,0.553425459365,-0.0290076519444,0.478487745372,-0.183218366555,0.92499242849,-0.326206277189,0.0664040796807
0.444012224674,-0.160286352038,-0.398516148329,-1.92920947075,0.300220310688,1.96665906906,0.501428663731,0.0346930138767,0.929557263851,0.396152228117,1.09558129311,-0.00876081828028,0.333876729012,0.00251090410165,0.239810839295,0.55344840304,0.0691561800759,0.469299698865,-0.191144791853,0.944157684343,-0.265456607715,0.0395313135667
0.486322671175,-0.140999019146,-0.34820151329,-1.93071722984,0.312082588673,1.96625947952,0.513783633709,0.0346930138767,0.819443941116,0.38482350111,0.999932348728,-0.0594351515174,0.177196100354,-0.0101426783949,0.263094902039,0.545753394309,0.124789803157,0.459845280626,-0.188612689034,0.954583990813,-0.229595128781,0.0219256595895
0.499103099108,-0.134833574295,-0.332425951958,-1.9318087101,0.314654946327,1.96610677242,0.518071234226,0.0346930138767,0.786384403706,0.389111161232,0.972127318382,-0.0742341578007,0.140333414078,-0.00577710988,0.270823419094,0.542252871144,0.14118782454,0.456364114556,-0.187007192644,0.95752403966,-0.218883728776,0.0163075547236
0.513340651989,-0.127672180533,-0.314617216587,-1.93347704411,0.316223412752,1.96582186222,0.523208677769,0.0346930138767,0.719084382057,0.372913360596,0.908544301987,-0.0964824855328,0.0399073585868,-0.0289807487279,0.264093518257,0.537915263321,0.158317922902,0.452190101066,-0.184500345344,0.9606343815,-0.207455028836,0.0101793099013
0.527088999748,-0.120347224176,-0.297163814306,-1.93558001518,0.316406160593,1.96538281441,0.528476595879,0.0346930138767,0.651173293591,0.353643029928,0.840763807297,-0.114716656506,-0.00398605084047,-0.0130854826421,0.284068793058,0.532812231385,0.175574364272,0.447322587488,-0.181028245193,0.963814234321,-0.195645872398,0.00368625403826
0.553740262985,-0.105161942542,-0.263111740351,-1.94174015522,0.314579129219,1.96431934834,0.542450010777,0.0346930138767,0.501260876656,0.311507970095,0.628035843372,-0.149857863784,-0.132667019963,-0.0364674292505,0.336477011442,0.520921559491,0.208124013754,0.436006982842,-0.172243338007,0.969468189958,-0.174246036878,-0.0100984898752
0.561772108078,-0.100021190941,-0.25305685401,-1.94431865215,0.311897665262,1.96356487274,0.548389732838,0.0346930138767,0.451212078333,0.300414711237,0.557306408882,-0.154980748892,-0.188805580139,-0.0403142571449,0.365561574697,0.516842090082,0.217280999219,0.431728737117,-0.168176387419,0.971147740079,-0.168447649841,-0.014634159037
0.569607317448,-0.0942294299603,-0.242972359061,-1.94731509686,0.306514620781,1.96274089813,0.555886983871,0.0346930138767,0.344749391079,0.268030762672,0.459502667189,-0.154990121722,-0.341744303703,-0.0419826619327,0.381047576666,0.512665985419,0.225828794613,0.426724515074,-0.162588507816,0.972928084033,-0.163125816345,-0.0191282033076
0.57824909687,-0.0867573991418,-0.231717139482,-1.95192837715,0.293014168739,1.9614803791,0.566650807858,0.0346930138767,0.237176731229,0.249647185206,0.300863742828,-0.150595590472,-0.537171840668,-0.0410248488188,0.345197319984,0.507854667027,0.233959738988,0.419535458788,-0.152451550258,0.975420365479,-0.157324866215,-0.0237175377726
0.581610620022,-0.0825979635119,-0.227640613914,-1.95430493355,0.282781779766,1.96065807343,0.5725466609,0.0346930138767,0.161629706621,0.235745549202,0.187856912613,-0.130942866206,-0.638652384281,-0.0571147464216,0.352402329445,0.506104981451,0.236147359168,0.415490653046,-0.145801514555,0.976713646303,-0.155336074392,-0.0253589267612
0.583595991135,-0.078866109252,-0.225245594978,-1.95634746552,0.271790474653,1.95964670181,0.578408241272,0.0346930138767,0.0862329974771,0.231734380126,0.116430439055,-0.11949172616,-0.718671739101,-0.0639015957713,0.376061528921,0.505108566948,0.236631088603,0.411808348194,-0.139110024588,0.977776751483,-0.154611726152,-0.0263863440085
0.584288597107,-0.0747455134988,-0.223903864622,-1.95842707157,0.258077472448,1.9587239027,0.585244774818,0.0346930138767,0.00168693764135,0.225238934159,0.0278102979064,-0.113763935864,-0.793836236,-0.0399593822658,0.382017195225,0.504832753826,0.235374815576,0.407585355448,-0.130775620898,0.978830030837,-0.155143734228,-0.0268314952337
0.582400918007,-0.0681341215968,-0.22512896359,-1.96102905273,0.233507424593,1.95778596401,0.596255123615,0.0346936695278,-0.130923464894,0.223938971758,-0.0989899784327,-0.0719575360417,-0.902664005756,-0.0200300235301,0.366988301277,0.506335286354,0.229790529119,0.401555540505,-0.11750670885,0.979976953703,-0.15863166905,-0.0259487351469
0.578707337379,-0.0634741261601,-0.228176921606,-1.9623156786,0.213622704148,1.95739412308,0.603612363338,0.0346936695278,-0.214107364416,0.22357468307,-0.195453688502,-0.0522482655942,-0.979644358158,-0.0109968129545,0.32075586915,0.508561202254,0.2235181506,0.397750739341,-0.107889208368,0.980510092256,-0.162393852354,-0.0242510642286
0.575340330601,-0.0602403394878,-0.231324091554,-1.96281683445,0.199626818299,1.95729219913,0.608018040657,0.0346936695278,-0.271921634674,0.236785188317,-0.252119421959,-0.0256471838802,-1.01261806488,-0.00235997606069,0.314669698477,0.510840672731,0.217601038794,0.395035195585,-0.100490125757,0.980758251344,-0.165856573284,-0.0225074174694
0.568241417408,-0.0549072548747,-0.238247513771,-1.96310424805,0.176162585616,1.95728445053,0.61498606205,0.0346936695278,-0.347001731396,0.22873622179,-0.347390204668,-0.00138479855377,-1.04371321201,0.000187992496649,0.296668350697,0.514922793109,0.207208502112,0.391364254508,-0.0896531870232,0.980776320915,-0.172222852541,-0.0194782737443
0.557277143002,-0.0485922656953,-0.249558478594,-1.96304416656,0.146211579442,1.95734274387,0.623052477837,0.0346936695278,-0.437043249607,0.226005479693,-0.4503005445,0.0014857162023,-1.09999144077,0.000396548799472,0.273729711771,0.521011539604,0.191007502957,0.387067436626,-0.0754853839271,0.980229346297,-0.182283703615,-0.0150012187498
0.548986554146,-0.0445321165025,-0.258231818676,-1.96302485466,0.126262694597,1.95744085312,0.627878367901,0.0346936695278,-0.487774580717,0.225976392627,-0.518153548241,0.00190762314014,-1.12736415863,0.00436234846711,0.276037186384,0.525205632902,0.178992978698,0.384365436486,-0.0660804230626,0.97954341539,-0.189696209021,-0.0119759355355
0.541350364685,-0.0411366447806,-0.266522109509,-1.96295714378,0.108749017119,1.95762109756,0.631850302219,0.0346936695278,-0.525842547417,0.216908112168,-0.57620704174,0.00352238491178,-1.14035403728,0.0153754809871,0.253922224045,0.528885208582,0.167825255421,0.38217555549,-0.0578809364283,0.978743469978,-0.19653367776,-0.0092482633579
0.53207296133,-0.0374749600887,-0.276717334986,-1.96285676956,0.0886848792434,1.95783448219,0.635919809341,0.0346936695278,-0.56973439455,0.208810344338,-0.623597741127,0.00534547446296,-1.19387590885,0.0109681691974,0.218648687005,0.533027639453,0.154283409741,0.379868228062,-0.0485264024678,0.977607456535,-0.204674443284,-0.00610091403583
0.520047307014,-0.0330092944205,-0.289700001478,-1.96267676353,0.0648627281189,1.95808815956,0.639986515045,0.0346936695278,-0.630392968655,0.236928284168,-0.668832182884,0.0174062214792,-1.2014746666,0.015065359883,0.185491994023,0.538057854796,0.136178259915,0.377054622931,-0.0367508648331,0.975845792558,-0.215334441819,-0.00233258259135
0.500887274742,-0.026364069432,-0.310364216566,-1.96203041077,0.0296084061265,1.95851373672,0.645146489143,0.0346936695278,-0.676135122776,0.217670351267,-0.740883588791,0.0244568679482,-1.21424925327,0.0140076130629,0.168934509158,0.544617020716,0.108871878348,0.373477824303,-0.020069677544,0.972702295488,-0.231170203874,0.00279086574108
0.489360332489,-0.0226719882339,-0.323123693466,-1.96157944202,0.0099783251062,1.95878970623,0.648121476173,0.0346936695278,-0.696450591087,0.227790549397,-0.789671957493,0.029532071203,-1.15181457996,0.0225416626781,0.178803354502,0.547973790294,0.092274516588,0.371616364251,-0.0106529298226,0.970437687825,-0.241054125894,0.00548791572091
0.482099980116,-0.0202820282429,-0.331199675798,-1.96121942997,-0.00147195952013,1.95897293091,0.649855434895,0.0346936695278,-0.734721422195,0.226874753833,-0.803885221481,0.0450881868601,-1.10346186161,0.00428534811363,0.16818228364,0.551017634712,0.0748326862935,0.369779244083,-0.00138194604264,0.967775053903,-0.25168999876,0.00785362880799
0.46204456687,-0.0140540860593,-0.353203684092,-1.959882617,-0.0313090421259,1.95917570591,0.654343605042,0.0346936695278,-0.753238499165,0.222875833511,-0.811705291271,0.0613784044981,-1.07550978661,0.00764524191618,0.161152407527,0.553856667489,0.0550348133782,0.367996254923,0.00889565842768,0.964500420938,-0.263730088606,0.0103075373995
0.438348799944,-0.00735809328035,-0.379423171282,-1.95806980133,-0.0623733364046,1.95949435234,0.658415019512,0.0346936695278,-0.766111254692,0.218033507466,-0.843604683876,0.0578871704638,-0.892390072346,0.0133503684774,0.0969862565398,0.557104616189,0.0222099037033,0.365579104782,0.0243348743583,0.958429742502,-0.283966002892,0.0135481168407
0.425748050213,-0.00401305733249,-0.393233388662,-1.95717096329,-0.0758746042848,1.95963287354,0.6598097682,0.0346936695278,-0.787228405476,0.191104605794,-0.860567629337,0.0498582497239,-0.795788764954,0.0032691352535,0.0796232223511,0.558014259732,0.00526398553953,0.364431293572,0.0312843610244,0.954953624103,-0.294741448117,0.0145719943667
0.411737263203,-0.00100575352553,-0.408311098814,-1.956422925,-0.08934918046,1.95959615707,0.660942494869,0.0346936695278,-0.781033337116,0.145130068064,-0.823233067989,0.0327455364168,-0.716319382191,-0.00480900704861,0.0422662943602,0.558300881636,-0.0132056365256,0.363419118336,0.0382430864711,0.950944085227,-0.306605388901,0.0153606085881
0.362121671438,0.0029166827444,-0.460310548544,-1.95577132702,-0.127271085978,1.95526969433,0.661165475845,0.0346930138767,-0.718931853771,-0.0249476321042,-0.702079236507,0.0041610985063,-0.453625679016,-0.198649480939,-0.0081650391221,0.552906306272,-0.0769838163728,0.362063325969,0.0578847252518,0.935511986504,-0.348198978352,0.0149717350255
0.35067564249,0.00204784469679,-0.471342116594,-1.9557185173,-0.134371802211,1.95116305351,0.660962879658,0.0346930138767,-0.696326255798,-0.0932202264667,-0.681676387787,0.00354379066266,-0.438533216715,-0.321277827024,-0.0158079471439,0.550213740594,-0.0897212261165,0.362308615839,0.0612988725434,0.932051622406,-0.356841174284,0.0136600664899
0.338211029768,-0.000441913260147,-0.483509421349,-1.95572292805,-0.142190411687,1.9432939291,0.660310208797,0.0346930138767,-0.621344447136,-0.164549663663,-0.600282788277,-0.000634192954749,-0.384928405285,-0.502966046333,-0.0502014905214,0.545910129217,-0.104516468699,0.363018391168,0.0652598141515,0.927921385712,-0.366854848842,0.0109808087115
0.296756386757,-0.0300923921168,-0.523488104343,-1.95665466785,-0.167605936527,1.86353588104,0.654314637184,0.0346930138767,-0.348401457071,-0.565227150917,-0.35678422451,-0.025308592245,-0.246596902609,-1.38893043995,-0.0971695631742,0.515986822435,-0.151064470115,0.370607124532,0.0772079053035,0.912947609479,-0.400336876433,-0.017204265538
0.291172295809,-0.0409253947437,-0.529063522816,-1.95724308491,-0.172010734677,1.83741748333,0.652740836143,0.0346930138767,-0.280036479235,-0.652347028255,-0.267653048038,-0.0366481989622,-0.230195596814,-1.52483212948,-0.0853719264269,0.507727474134,-0.156906408221,0.373397920575,0.0786321041086,0.910559204441,-0.404987211645,-0.0261588511665
0.282452732325,-0.0742419064045,-0.537444531918,-1.95921075344,-0.180106863379,1.76463735104,0.647909343243,0.0346930138767,-0.117281086743,-0.841187357903,-0.114619016647,-0.0357383973897,-0.141814962029,-1.78219616413,-0.13660249114,0.485874695569,-0.164832796808,0.382620556854,0.0793525950977,0.906356284643,-0.411897107556,-0.0506184097487
0.280482411385,-0.0946232527494,-0.53911459446,-1.9601290226,-0.183260560036,1.72247588634,0.645046234131,0.0346930138767,-0.044644266367,-0.918842077255,-0.0326553434134,-0.0336069203913,-0.126828789711,-1.87876069546,-0.119121327996,0.474847754632,-0.165720495658,0.388180563685,0.078672269844,0.905147973814,-0.412935079682,-0.063264833081
0.280206680298,-0.109930969775,-0.539298892021,-1.96057868004,-0.185171127319,1.69208180904,0.643229424953,0.0346930138767,0.00128741993103,-0.9640224576,-0.000288824434392,-0.0277816876769,-0.115237243474,-1.89874589443,-0.109372012317,0.466833333789,-0.165302437462,0.392731557023,0.0778247515259,0.904582671796,-0.412838983967,-0.0723703733028
0.285940825939,-0.175159811974,-0.534364163876,-1.96066606045,-0.189393535256,1.57116270065,0.636315762997,0.0346923582256,0.158430933952,-1.03812170029,0.12937541306,0.0145843122154,-0.0302541609854,-1.80026531219,-0.0860611721873,0.436299013484,-0.157556096783,0.413402642334,0.0719955227195,0.904642831847,-0.406532243844,-0.105685977731
0.288948357105,-0.193856790662,-0.531601250172,-1.96044170856,-0.189670190215,1.5394411087,0.63478833437,0.0346923582256,0.176158130169,-1.04351878166,0.167572587729,0.00231523695402,-0.0103748803958,-1.71905231476,-0.0770864412189,0.428425288363,-0.154218788153,0.419554595137,0.0698503184102,0.905211698532,-0.403505423654,-0.11356093791
0.294906377792,-0.224521502852,-0.525819897652,-1.95991563797,-0.189717769623,1.49072539806,0.632924199104,0.0346923582256,0.218065321445,-0.999727725983,0.218308374286,0.0314708128572,0.00102640478872,-1.52778935432,-0.0535588525236,0.415955436833,-0.147836876788,0.430147888234,0.0660619014051,0.906697543547,-0.397402955679,-0.124925098376
0.299512267113,-0.245255947113,-0.521049320698,-1.95940172672,-0.189720675349,1.46084368229,0.631613850594,0.0346923582256,0.225001528859,-0.978581488132,0.234225660563,0.0159958321601,-0.0023907397408,-1.33617925644,-0.0601502470672,0.408849994039,-0.143584543663,0.436880175095,0.0636273904276,0.908078205662,-0.392869693156,-0.130379950403
0.303272545338,-0.260490715504,-0.517220973969,-1.95894801617,-0.18972299993,1.44080126286,0.630552828312,0.0346923582256,0.237212136388,-0.93510311842,0.238357007504,0.0388047285378,0.00179777794983,-1.16498684883,-0.0647499784827,0.403775837082,-0.140197970015,0.44213225037,0.0616743410413,0.90941386939,-0.388993192601,-0.133592610601
0.307511091232,-0.27661255002,-0.512898445129,-1.95821917057,-0.189704433084,1.42156469822,0.629441201687,0.0346923582256,0.236190408468,-0.856748878956,0.242948308587,0.0482573620975,0.0029066442512,-0.988351106644,-0.0620734244585,0.398856972595,-0.136586749158,0.447809648527,0.0594791658942,0.911062465548,-0.384666416006,-0.13586449415
0.314447194338,-0.301812380552,-0.505678355694,-1.95640337467,-0.189685493708,1.39708459377,0.627780377865,0.0346923582256,0.212617143989,-0.737642705441,0.224637016654,0.071428053081,0.00204229680821,-0.601073086262,-0.0347522124648,0.392420897774,-0.131087731671,0.457008811799,0.0555707543545,0.914162514216,-0.37768057776,-0.136294422946
0.318458914757,-0.315060913563,-0.501437783241,-1.95492148399,-0.189681306481,1.38794648647,0.627312242985,0.0346923582256,0.207855388522,-0.65904802084,0.226047262549,0.0832634344697,-0.000313451193506,-0.363346517086,-0.0249165147543,0.38996022258,-0.128135765979,0.462121847389,0.0532044072602,0.916125484093,-0.373932119622,-0.134380646076
0.320253133774,-0.321002095938,-0.499376535416,-1.95415866375,-0.189700618386,1.38519823551,0.627143740654,0.0346923582256,0.186823040247,-0.624624967575,0.217488467693,0.0763830021024,0.00377503689378,-0.229700952768,-0.0184865295887,0.389171021242,-0.126823337167,0.46448787764,0.052021312107,0.917113957762,-0.372236412724,-0.132799940844
0.32387804985,-0.332897871733,-0.49499091506,-1.95241189003,-0.189671784639,1.38311862946,0.626729905605,0.0346923582256,0.167511805892,-0.53303360939,0.205085724592,0.0815312713385,0.00373135576956,0.00927566736937,-0.0212108753622,0.388389760736,-0.124099718189,0.469627628631,0.0491001416666,0.919480206309,-0.368604166926,-0.127578580102
0.32698315382,-0.342321127653,-0.491234004498,-1.95053493977,-0.189676254988,1.38503015041,0.62613940239,0.0346936695278,0.148183345795,-0.423234701157,0.16760738194,0.0993291661143,9.82908677543e-05,0.167202264071,-0.0353642478585,0.388680692032,-0.122109213679,0.473630468613,0.0465938042326,0.921505828228,-0.365765312336,-0.121949833634
0.332753062248,-0.357367038727,-0.484710276127,-1.94591617584,-0.189674392343,1.40626180172,0.624496161938,0.0346936695278,0.0830853953958,-0.192014575005,0.0958122611046,0.0700132101774,-0.00725281611085,0.735025107861,-0.0291919466108,0.393624580976,-0.118845211518,0.481783143024,0.039980147651,0.926208340608,-0.36047923024,-0.102929207858
0.333832532167,-0.359742879868,-0.483355402946,-1.9448466301,-0.189677536488,1.41988456249,0.624108552933,0.0346936695278,0.0560883358121,-0.108635663986,0.0822092592716,0.0660093799233,-0.00138754968066,0.947371184826,-0.0220693536103,0.396860988875,-0.11840974239,0.483691009322,0.0376571571825,0.927544416557,-0.359528577595,-0.0947760275719
0.334580093622,-0.360894203186,-0.482180207968,-1.94393134117,-0.189671501517,1.43892455101,0.623715341091,0.0346936695278,0.026325404644,-0.0286862552166,0.0544137135148,0.0393411368132,-6.96297502145e-05,1.15280497074,-0.0194341819733,0.401424041911,-0.118224105812,0.485419146418,0.035001910691,0.928907717528,-0.358820236213,-0.0845775167104
0.335196167231,-0.357807517052,-0.48092353344,-1.9438123703,-0.189683124423,1.50777864456,0.622530043125,0.0346930138767,0.00400882866234,0.15758150816,-0.00327440397814,-0.00510400859639,0.00037970446283,1.53064286709,-0.0246738772839,0.417801496812,-0.118927089195,0.488266582266,0.0275024836068,0.93186616811,-0.357953658698,-0.052328157213
0.335063964128,-0.3539711833,-0.481094330549,-1.94414770603,-0.189700245857,1.53933918476,0.622027754784,0.0346930138767,-0.00903111044317,0.221475988626,-0.0133703770116,-0.0211387649179,-0.000679289398249,1.61647760868,-0.0174734760076,0.42540233167,-0.11956148654,0.488787314939,0.0247624692376,0.932631860309,-0.357888900893,-0.0387319965412
0.335005044937,-0.350453406572,-0.48126077652,-1.94440674782,-0.189700976014,1.56222939491,0.621763348579,0.0346930138767,-0.00304391421378,0.28346735239,-0.0133918337524,-0.0176727753133,0.00582728208974,1.64772462845,-0.0105063496158,0.430986639822,-0.119975079402,0.488989248036,0.023007505083,0.933049284608,-0.357826038127,-0.0291584177546
0.335144579411,-0.325163513422,-0.482505977154,-1.94692909718,-0.189714029431,1.6772787571,0.620901107788,0.0346930138767,0.012944418937,0.4439650774,-0.0142714269459,-0.0696516633034,0.000316864810884,1.71556472778,-0.00788125488907,0.459503897188,-0.121421748635,0.487598704551,0.0167543281654,0.933907197407,-0.356787928471,0.0154600420924
0.33547821641,-0.316850870848,-0.482662975788,-1.94822764397,-0.189713791013,1.7081438303,0.620717942715,0.0346930138767,0.0309755913913,0.479100495577,-0.00572982989252,-0.0852661132812,-0.000638145080302,1.68801879883,-0.0169795136899,0.467178951935,-0.12140636024,0.486588803892,0.0156512832454,0.933963864472,-0.35603473654,0.0265669579478
0.33609560132,-0.309494763613,-0.48273947835,-1.94957053661,-0.189709812403,1.73321223259,0.620565474033,0.0346930138767,0.0565517060459,0.505713939667,-0.00262377620675,-0.096768707037,0.000307842885377,1.65566849709,-0.00912422407418,0.473447868309,-0.121127426588,0.485444976993,0.0149717212825,0.934029166221,-0.355140597532,0.0352210147603
0.337727993727,-0.298854291439,-0.482918083668,-1.95171666145,-0.189690411091,1.7671495676,0.620384573936,0.0346930138767,0.100792631507,0.509037435055,-0.00926029775292,-0.114733323455,0.000187067169463,1.56383371353,-0.00707839522511,0.481985823783,-0.120301012612,0.483513432286,0.0142552672738,0.934178102748,-0.353476046523,0.0465053106712
0.341237574816,-0.284679830074,-0.483003824949,-1.95492887497,-0.189441338181,1.8074529171,0.620225012302,0.0346930138767,0.163120344281,0.539795219898,-1.48950211951e-05,-0.12697789073,0.0192689448595,1.41897308826,-0.00416650576517,0.491563633637,-0.118429590632,0.480597841521,0.0138023905599,0.934545399138,-0.350790026724,0.0581441983385
0.344765424728,-0.274086385965,-0.482999533415,-1.95754027367,-0.188873380423,1.83423054218,0.620081245899,0.0346930138767,0.201813027263,0.550916075706,0.000100538112747,-0.144915193319,0.0348051525652,1.32238638401,-0.0160728823394,0.499297550025,-0.116000364959,0.477488596448,0.0136348729764,0.935069090257,-0.347897258645,0.0665385887839
0.348457276821,-0.265043914318,-0.482862055302,-1.96002781391,-0.188115730882,1.85522830486,0.619966268539,0.0346930138767,0.242112740874,0.553209245205,0.0184259675443,-0.14456550777,0.0428816117346,1.2264509201,-0.00420116260648,0.504867564004,-0.113541067933,0.474729938177,0.0136023484537,0.935639431051,-0.345278692358,0.0719475883462
0.353300005198,-0.255152404308,-0.482265174389,-1.96287453175,-0.18685759604,1.87619590759,0.619938790798,0.0346930138767,0.286983370781,0.548510193825,0.0473170652986,-0.158495277166,0.083313986659,1.11008024216,0.000195904678549,0.510590796704,-0.110048732153,0.471429200117,0.0135995737771,0.936477678669,-0.34193921213,0.0768256717575
0.368302613497,-0.230900868773,-0.47913980484,-1.97055101395,-0.18100912869,1.91992402077,0.61991673708,0.0346930138767,0.37609192729,0.535179495811,0.114850878716,-0.178196266294,0.156817793846,0.830234110355,-0.000166672994965,0.523062244375,-0.0981610534103,0.462030963386,0.0132051179114,0.939396081399,-0.331985285947,0.0845363632615
0.377141982317,-0.219447702169,-0.476017743349,-1.97426688671,-0.176983296871,1.93687820435,0.619915664196,0.0346930138767,0.419077903032,0.513773798943,0.174170926213,-0.164915367961,0.214291572571,0.716896474361,0.00548325153068,0.5282729097,-0.090395029596,0.457108757522,0.0128765215576,0.941342972742,-0.325970545876,0.0863180500874
0.384578794241,-0.210729882121,-0.472723215818,-1.97695231438,-0.173205658793,1.94839441776,0.619919359684,0.0346930138767,0.452759921551,0.513949453831,0.213655397296,-0.155433267355,0.238665506244,0.638923943043,-5.77671453357e-05,0.531993701642,-0.0834505110249,0.453268565204,0.0124525705703,0.9430601748,-0.320789734664,0.0870424380086
0.409508287907,-0.184683814645,-0.458006829023,-1.98350155354,-0.159230604768,1.97476053238,0.620056211948,0.0346930138767,0.515871465206,0.506025135517,0.367501288652,-0.0955429971218,0.304751783609,0.422329336405,0.0106748035178,0.541447734673,-0.0580142380721,0.441539014377,0.0108640415826,0.949180762476,-0.302575308276,0.085942045922
0.419135034084,-0.175464019179,-0.450873911381,-1.98500049114,-0.15352833271,1.98197448254,0.62042671442,0.0346930138767,0.552588641644,0.5079408288,0.415424704552,-0.0680441558361,0.320795029402,0.376564919949,0.0298780668527,0.544303789462,-0.04737061193,0.437527410587,0.0101446240776,0.951593278651,-0.295228434914,0.0848969347822
0.428031533957,-0.167441442609,-0.443795114756,-1.98581063747,-0.148316860199,1.98755657673,0.621088325977,0.0346930138767,0.584239721298,0.499166995287,0.472918182611,-0.0356582403183,0.312659978867,0.330509930849,0.0491557866335,0.546612818374,-0.0372968864861,0.434189828142,0.00941913166716,0.953776108682,-0.288421689347,0.0838769531567
0.437580943108,-0.159352734685,-0.435708463192,-1.98603367805,-0.143319144845,1.99247813225,0.6219419837,0.0346930138767,0.602464020252,0.506784558296,0.526301085949,0.000896477955393,0.308134704828,0.29033857584,0.0570373050869,0.548764812208,-0.0263347366193,0.431033526991,0.00880647581244,0.956107596866,-0.280920518631,0.0828515002934
0.481161177158,-0.126080080867,-0.395264327526,-1.98378241062,-0.127723827958,2.01032757759,0.630697011948,0.0346930138767,0.699007451534,0.494876116514,0.689051449299,0.0850594639778,0.165995761752,0.216107577085,0.219618111849,0.555269305848,0.0246254299956,0.419070635678,0.0078721383747,0.965876539755,-0.246310352818,0.0796978617999
0.494517236948,-0.116621129215,-0.38188803196,-1.98179829121,-0.124762587249,2.01420736313,0.635183691978,0.0346930138767,0.705973923206,0.51339250803,0.716332376003,0.12328337878,0.149405524135,0.199145823717,0.248196974397,0.556188451605,0.039695323894,0.416242149296,0.00802853036699,0.968402866185,-0.236377984295,0.0791004405785
