imanlab/tactile_prediction_flat_dataset/test/data_sample_2021-11-25-13-37-50/robot_state.csv
position_panda_joint1,position_panda_joint2,position_panda_joint3,position_panda_joint4,position_panda_joint5,position_panda_joint6,position_panda_joint7,position_panda_finger,velocity_panda_joint1,velocity_panda_joint2,velocity_panda_joint3,velocity_panda_joint4,velocity_panda_joint5,velocity_panda_joint6,velocity_panda_joint7,ee_state_position_x,ee_state_position_y,ee_state_position_z,ee_state_orientation_x,ee_state_orientation_y,ee_state_orientation_z,ee_state_orientation_w
-0.143853127956,-0.042461771518,0.133792042732,-2.56067109108,-0.026641946286,2.55895376205,-0.811580061913,0.0777230635285,0.00045172625687,0.000559699663427,-0.00190386571921,4.13102316088e-05,8.31439683679e-05,0.000204041309189,4.39094546891e-05,0.456922540498,-0.00680908286395,0.173219404585,0.0175661690738,0.916193222467,0.400095267337,0.0143242990996
-0.14385356009,-0.0424627773464,0.133790418506,-2.56067109108,-0.0266416911036,2.55895400047,-0.811580955982,0.0777230635285,0.000339190475643,-0.000481494120322,0.000128148982185,0.000422082695877,1.32293234856e-05,-2.48613446274e-06,-8.49316857057e-05,0.456923157733,-0.00680997432842,0.173220134985,0.017566593726,0.916193462444,0.400094662027,0.0143253362156
-0.14385175705,-0.0424612648785,0.133790642023,-2.56067204475,-0.026640990749,2.55895376205,-0.811580717564,0.0777230635285,0.000245748698944,0.000252743891906,0.00287744030356,0.000224831368541,-2.10375110328e-05,-8.43709058245e-05,4.90788625029e-05,0.456922138451,-0.00680911259014,0.173218713732,0.0175655622666,0.916193366901,0.400094978033,0.0143238857296
-0.143847987056,-0.0424590706825,0.133793398738,-2.56066989899,-0.0266415290534,2.55895400047,-0.81157541275,0.0777230635285,-0.000595424557105,0.00013166651479,-0.000115421091323,-0.000474417465739,0.000103402409877,0.000140019707032,0.000247823511017,0.45692248236,-0.00680635625725,0.173217927974,0.0175650820067,0.916193345043,0.400095061233,0.0143235487858
-0.143850326538,-0.0424606688321,0.133792892098,-2.5606713295,-0.0266422759742,2.55895400047,-0.811573445797,0.0777230635285,-0.000162994329003,-0.000468028301839,0.000640747137368,-0.000113288173452,-8.79101280589e-05,7.65415534261e-05,-0.000309564056806,0.456922461662,-0.00680749447687,0.173218739732,0.0175658933256,0.916193865976,0.40009381682,0.014323992549
-0.143851533532,-0.042458973825,0.133792370558,-2.56067228317,-0.0266402550042,2.55895400047,-0.811570346355,0.0777230635285,-0.00010118575301,-0.000405469094403,-0.000312573247356,0.000541753252037,1.9762723241e-05,-2.81747065856e-06,-5.25826326339e-05,0.456921724491,-0.00680814419087,0.173217601016,0.0175647079426,0.916195192544,0.400090863503,0.0143230868295
-0.143851339817,-0.0424630753696,0.133793905377,-2.56067109108,-0.0266412999481,2.55895423889,-0.811567127705,0.0777237266302,-0.000150857435074,-0.000108630527393,-0.000436469417764,0.000413708185079,1.39948169817e-05,0.000219504159759,-9.06159039005e-05,0.456923006211,-0.00680751050141,0.173219942341,0.017566342905,0.91619526845,0.400090535479,0.014325388895
-0.143850803375,-0.0424619391561,0.133792892098,-2.56067180634,-0.026641106233,2.55895447731,-0.811567127705,0.0777237266302,0.000135610927828,-0.000293500896078,0.000583391869441,2.1032143195e-05,-7.86328018876e-05,0.000123173536849,0.000230642821407,0.456922532912,-0.00680768303608,0.17321917542,0.0175658782615,0.916195409222,0.400090257492,0.0143247192436
-0.143849864602,-0.0424630828202,0.133792847395,-2.56066989899,-0.0266397856176,2.55895423889,-0.811565876007,0.0777237266302,-0.000245452887611,-0.0001181296102,0.000270865421044,-0.000250149198109,-4.77360445075e-05,0.000120406701171,-3.44135537489e-06,0.456923581435,-0.00680724450227,0.173220409176,0.0175661650875,0.91619567914,0.400089576085,0.0143261354975
-0.143851518631,-0.0424612909555,0.133791968226,-2.56067252159,-0.0266404096037,2.55895447731,-0.811563193798,0.0777237266302,0.000241959132836,9.8073418485e-05,-5.61873748666e-05,0.000177470516064,1.32518707687e-05,-7.58141395636e-05,0.000266547867795,0.456922077188,-0.00680837589942,0.173218605883,0.0175653472314,0.916196652309,0.400087451752,0.0143242279417
-0.143853858113,-0.0424610748887,0.133790567517,-2.56067061424,-0.0266410615295,2.55895400047,-0.811560690403,0.0777237266302,0.0002292694262,0.000392365414882,0.00177994405385,-7.46914010961e-05,-5.63537359994e-05,-0.00253243627958,0.000174024578882,0.456922830211,-0.00681010785895,0.173219205733,0.0175657404859,0.916197783498,0.400084826562,0.0143247167731
-0.143856137991,-0.0424599349499,0.133790299296,-2.56066966057,-0.0266412831843,2.55895495415,-0.811560869217,0.0777237266302,0.000290775933536,2.70552027359e-05,0.000474843021948,9.99749245238e-05,-0.000109939217509,4.86073622596e-06,0.000160439580213,0.456923133247,-0.00681161761573,0.173219063116,0.0175657681317,0.916198382035,0.400083448786,0.0143248816718
-0.143856346607,-0.0424620844424,0.133789822459,-2.56067013741,-0.0266417190433,2.55895400047,-0.811555683613,0.0777237266302,-3.74491828552e-05,3.0370460081e-05,-0.000282802386209,-6.45054606139e-05,7.97610191512e-05,-0.00489632459357,-0.000148892446305,0.456923250791,-0.00681150615496,0.173219874834,0.0175662591329,0.916199277696,0.400081356142,0.0143254402426
-0.143855601549,-0.0424587465823,0.133791252971,-2.56067228317,-0.0266402196139,2.55895400047,-0.811555802822,0.0777224078774,0.000238627573708,0.000135386231705,-0.00128869176842,-0.000517080596182,-0.000160401570611,-8.9057823061e-05,0.000202388953767,0.45692165432,-0.00681049877552,0.173217500786,0.017564551682,0.91619914721,0.400081814102,0.0143230890706
-0.143851265311,-0.0424616672099,0.133793160319,-2.56066942215,-0.0266412924975,2.55895519257,-0.811554968357,0.0777224078774,0.000459917529952,-3.9609381929e-05,0.00074454623973,7.26346261217e-05,-3.15390207106e-05,-3.49287802237e-07,-0.000347727967892,0.456923784369,-0.00680777914088,0.173220045507,0.0175664011028,0.916197823332,0.400084656763,0.0143261012508
-0.143848910928,-0.0424598716199,0.133794873953,-2.56067013741,-0.0266420748085,2.55895543098,-0.811552464962,0.0777224078774,0.000157898510224,4.46188496426e-05,0.000418515643105,-7.03812766005e-05,7.93362414697e-05,-0.000180982562597,-0.00029096295475,0.456923235597,-0.00680592522797,0.17321897394,0.017566014427,0.916197397343,0.40008568614,0.0143250712756
-0.143849745393,-0.0424582660198,0.133795827627,-2.56067180634,-0.0266413185745,2.55895519257,-0.811553120613,0.0777224078774,-0.000893347198144,-0.000450545485364,0.00307629210874,-0.000115760347398,-4.18468698626e-05,5.34729842911e-05,0.0021085627377,0.456922130466,-0.00680580183895,0.173217572874,0.0175650281043,0.916197398962,0.400085778786,0.0143235895644
-0.143852636218,-0.042462464422,0.133794218302,-2.56067156792,-0.026640901342,2.5589556694,-0.811552166939,0.0777224078774,-0.000343180086929,0.000165169709362,0.000106059058453,0.000344630680047,-6.47583292448e-05,2.54203605436e-05,0.000400079588871,0.456922981924,-0.00680792163284,0.173219617667,0.0175661647548,0.916198517646,0.400083090249,0.014325735486
-0.143852204084,-0.0424631908536,0.133792042732,-2.56067156792,-0.0266411341727,2.5589556694,-0.811550021172,0.0777224078774,-0.000158569149789,-9.0077322966e-05,0.00367865292355,0.000429882813478,-1.24606112877e-05,0.000117102936201,0.000146981838043,0.456923087178,-0.00680873033253,0.17321995253,0.0175663745387,0.916199250897,0.40008139078,0.0143260452587
-0.143850564957,-0.0424610711634,0.133794039488,-2.56067466736,-0.0266415718943,2.55895543098,-0.811547458172,0.0777224078774,-0.000190187201952,-0.000284422974801,0.00103160156868,0.000260068918578,6.3889689045e-05,-7.86655891716e-06,0.000219562309212,0.456921239134,-0.00680704803955,0.173217762283,0.0175652401278,0.916199009041,0.400082081866,0.0143236036733
-0.143851354718,-0.0424598827958,0.133795171976,-2.56067180634,-0.0266402568668,2.55895519257,-0.811546862125,0.0777224078774,-0.000268837495241,-0.000399240292609,0.00062494026497,0.000290325639071,5.00775822729e-05,1.22516230476e-05,2.41169836954e-05,0.456922370783,-0.00680681921383,0.173218306139,0.0175651386035,0.916199268453,0.400081462317,0.0143244400662
-0.143850505352,-0.0424612946808,0.133794158697,-2.56067252159,-0.0266412552446,2.55895495415,-0.811544239521,0.0777230635285,-0.000272129196674,-0.000307758076815,0.000362584774848,7.73516585468e-05,1.20035674627e-05,1.43607958307e-05,1.01978548628e-06,0.456922200544,-0.00680696532122,0.173218649051,0.0175655411008,0.916199655689,0.400080554914,0.0143245224169
-0.143858239055,-0.0424617640674,0.133790016174,-2.56067013741,-0.0266420729458,2.55895662308,-0.811539828777,0.0777230635285,-0.0004340428859,-0.000237705928157,-0.000115938921226,8.98056678125e-05,-0.000112893038022,7.95596679382e-06,-0.0003224259126,0.456923699619,-0.00681241036852,0.173219958929,0.0175666683349,0.916202734573,0.40007338503,0.0143264648791
-0.143852755427,-0.0424570590258,0.133789628744,-2.56067085266,-0.0266409162432,2.55895662308,-0.811536967754,0.0777230635285,0.00020560779376,-0.000282742810668,-0.00112420588266,0.000687254709192,3.30016905536e-06,-7.37738519092e-05,0.000398084608605,0.456922647481,-0.00680991497411,0.173217549115,0.0175649175533,0.916202526536,0.400074014158,0.0143243470188
-0.143848985434,-0.0424546785653,0.133794903755,-2.56067180634,-0.0266406740993,2.5589568615,-0.811538279057,0.0777230635285,0.000301861524349,0.000908732472453,0.000444966455689,-0.000179247159394,-8.79845447344e-06,-6.8094508606e-05,-3.86048886867e-05,0.456921921868,-0.00680575014539,0.173216110133,0.0175641181211,0.916200519844,0.400078691242,0.0143230474298
-0.143849998713,-0.0424549020827,0.133794605732,-2.56067299843,-0.0266414731741,2.5589568615,-0.811535418034,0.0777230635285,0.000127033868921,-0.000491629354656,-0.000344766129274,3.49909132638e-05,8.30965364003e-05,3.21476932186e-06,6.49643770885e-05,0.456921378021,-0.0068063866732,0.173215750641,0.0175641238459,0.916201228794,0.400077086187,0.0143225241982
-0.143853649497,-0.0424635224044,0.13379214704,-2.56067276001,-0.0266420245171,2.55895805359,-0.811533868313,0.0777224078774,0.000150633029989,-5.91613861616e-05,0.00421537412331,-0.00052418699488,-2.51701585512e-05,8.58135081216e-07,-0.000300822517602,0.456923073087,-0.0068093793364,0.173219871589,0.0175668085814,0.916202581499,0.400073718597,0.0143267672351
-0.143853589892,-0.0424599349499,0.133792951703,-2.56067109108,-0.0266411527991,2.55895757675,-0.811531126499,0.0777224078774,-0.00187605165411,0.000274109566817,0.000125669175759,0.0002536958782,3.90449094994e-05,1.62305550475e-05,-0.000405100669013,0.456923207168,-0.0068088736441,0.17321884411,0.0175658741493,0.916203124319,0.4000725473,0.014325907665
-0.143858835101,-0.042458396405,0.133789524436,-2.56067490578,-0.0266415979713,2.55895709991,-0.811530470848,0.0777224078774,-0.000182178046089,0.000473123276606,0.000361827056622,-0.000115951152111,-0.000104484395706,-6.40124490019e-05,0.000467833946459,0.456920978592,-0.006812789479,0.173216630319,0.0175647061379,0.916204966418,0.400068476503,0.0143232119232
-0.143860042095,-0.04245749861,0.133790582418,-2.56067276001,-0.0266411937773,2.55895638466,-0.811528503895,0.0777224078774,0.000210246536881,-0.00361241423525,0.000749736034777,3.86608626286e-05,2.21304053412e-05,0.000135690032039,-0.000446544057922,0.456921708168,-0.00681283452729,0.173216983451,0.0175646706308,0.916205454819,0.400067348163,0.0143235303043
-0.143851682544,-0.0424575917423,0.133794799447,-2.56067109108,-0.026642087847,2.55895853043,-0.811529099941,0.0777224078774,0.000213067207369,-0.000724211800843,0.00126598426141,5.77450446144e-05,1.49548532136e-05,3.15273755405e-05,0.000219465146074,0.456923066183,-0.00680715698793,0.173217870742,0.0175656763375,0.916202630442,0.400073709671,0.0143252747602
-0.143856391311,-0.0424624197185,0.133790686727,-2.56067299843,-0.026640901342,2.55895709991,-0.811526656151,0.0777224078774,-0.000155605812324,0.000378655618988,-0.000681671488564,-3.42300627381e-05,4.88397163281e-05,-2.93101693387e-05,6.42276572762e-05,0.456922706473,-0.00681209172651,0.173219189863,0.0175659029284,0.916205526731,0.400067035366,0.0143261556878
-0.143862053752,-0.0424579270184,0.133787184954,-2.56067657471,-0.0266412589699,2.55895805359,-0.811522722244,0.0777224078774,0.000318326841807,-0.000372848677216,0.000764576718211,-0.000293211342068,6.96301212884e-05,0.000129308042233,-0.000423798250267,0.456920274502,-0.00681527696355,0.173215868048,0.0175642806241,0.916207692454,0.400062267828,0.0143227747382
-0.14385381341,-0.0424601212144,0.133791312575,-2.56067347527,-0.0266414973885,2.55895733833,-0.811523675919,0.0777230635285,0.000214119485463,0.00051484402502,0.00431439932436,4.98052140756e-05,-5.9326707742e-06,-3.59190926247e-05,-0.000163978867931,0.456922032429,-0.0068097282018,0.173217985247,0.0175654087332,0.916204950941,0.400068423609,0.0143248176164
-0.143853411078,-0.0424583666027,0.133793026209,-2.56067299843,-0.0266412366182,2.55895829201,-0.8115208745,0.0777230635285,-2.54164679063e-05,-0.000371487054508,0.0036125772167,9.69171305769e-05,4.08728592447e-05,6.54964169371e-05,-4.25088037446e-05,0.456922201245,-0.00680871809983,0.173217462693,0.0175651573462,0.916205131357,0.400068022716,0.014324782866
-0.143852323294,-0.042456459254,0.133793026209,-2.56067252159,-0.0266407802701,2.5589568615,-0.811519086361,0.0777230635285,0.00250039668754,0.000506277312525,0.000672779628076,-8.64586909302e-05,2.3858186978e-05,3.42507519235e-05,5.5686905398e-05,0.456921827253,-0.00680816366717,0.173216644496,0.0175643347895,0.916205375978,0.400067540642,0.0143236090886
-0.143851056695,-0.0424570254982,0.133793711662,-2.56067681313,-0.0266413390636,2.55895829201,-0.811520218849,0.0777230635285,0.000245174043812,-0.000748458725866,-0.000244899041718,-0.000202358671231,-3.78070617444e-05,-0.000119221564091,0.000116948627692,0.456920182082,-0.00680729789239,0.173215373886,0.0175640355889,0.916204680352,0.400069187035,0.0143224865393
-0.143850892782,-0.0424613729119,0.13379752636,-2.5606777668,-0.0266413986683,2.55895781517,-0.811518311501,0.0777230635285,0.000196364155272,-0.000508447468746,-0.000330375012709,0.000325065950165,2.2095407985e-05,-0.000119819356769,-4.20930482505e-05,0.456920333496,-0.00680560914505,0.173216918615,0.0175649358965,0.916204232588,0.400070130193,0.0143236805008
-0.14385792613,-0.0424619019032,0.133789226413,-2.56067204475,-0.0266417786479,2.55895924568,-0.811516702175,0.0777217522264,-0.000667258223984,4.28930943599e-05,-0.00170584977604,0.000582603970543,-1.45275598697e-05,0.000125670150737,-0.000129902880872,0.456923369745,-0.00681259498162,0.173219536903,0.0175665718319,0.916207490674,0.400062474373,0.0143271025265
-0.143862694502,-0.0424576029181,0.13378739357,-2.56067156792,-0.0266413539648,2.55895924568,-0.811516284943,0.0777217522264,0.000104667466076,0.000784854637459,-0.000196182823856,-0.000110768152808,-2.42437236011e-05,-8.75019904925e-05,0.000140021802508,0.456922874922,-0.00681548101384,0.173217777769,0.0175654371407,0.916208997866,0.400059129527,0.0143255090417
-0.143862321973,-0.0424496755004,0.133787214756,-2.56067371368,-0.0266407541931,2.55895781517,-0.811515212059,0.0777217522264,0.000152156339027,0.000629635353107,-0.000294066645438,6.66862761136e-05,5.89696064708e-05,-0.000127952866023,0.000286676833639,0.456920286783,-0.00681518212732,0.173213214595,0.0175624618564,0.916209374531,0.400058573752,0.0143205867214
-0.143853724003,-0.0424589030445,0.133795395494,-2.56067442894,-0.026641542092,2.55895924568,-0.811512172222,0.0777217522264,4.11183864344e-05,-0.00149190193042,-0.000418588228058,0.000102803074697,-1.10904875328e-05,-0.00011754904699,0.00010226789891,0.456921818022,-0.00680781388685,0.173217237602,0.0175652364777,0.916206405989,0.400065098462,0.0143248303847
-0.143848627806,-0.0424648784101,0.133796527982,-2.56067633629,-0.0266419649124,2.5589594841,-0.811512231827,0.0777217522264,0.000505949836224,-0.00022516741592,-0.000132075423608,0.000366604945157,-0.000113422582217,-0.000208721467061,-0.00383131275885,0.456921903153,-0.0068050666366,0.17321898896,0.0175664166744,0.916205093645,0.400067992918,0.0143264827575
-0.143852323294,-0.0424660779536,0.133796334267,-2.5606739521,-0.0266406331211,2.55895924568,-0.811513185501,0.0777217522264,-6.78092765156e-05,-0.000282748922473,-0.0001921398798,-0.000123623307445,0.000217470515054,-2.77410672425e-05,-0.000336477271048,0.456923195507,-0.00680687451165,0.173220670803,0.0175669973503,0.916205823545,0.400066234352,0.0143282001265
-0.143859907985,-0.0424562171102,0.133789569139,-2.5606739521,-0.0266409348696,2.55895972252,-0.811511039734,0.0777217522264,3.78085351258e-05,0.000678908661939,-0.00217136438005,0.000342556391843,-6.22488514637e-05,6.3785322709e-05,0.000329401285853,0.456921647905,-0.00681316922248,0.173216265354,0.0175645340959,0.916209150549,0.4000588676,0.0143241658901
-0.143862605095,-0.0424496531487,0.133787989616,-2.56067490578,-0.0266420207918,2.55895924568,-0.811510384083,0.0777217522264,0.000126088169054,-0.000514061946888,0.00268357014284,0.00017317358288,-3.19742684951e-05,-6.9932983024e-05,0.000281901127892,0.456920023464,-0.00681501232302,0.173212879776,0.0175627946971,0.916210023657,0.400057072565,0.0143205853568
-0.143858492374,-0.0424480959773,0.133789464831,-2.5606751442,-0.0266406722367,2.55895900726,-0.811509132385,0.0777217522264,0.000107937747089,-0.000255851860857,0.000735524168704,-7.17000002624e-05,5.16641739523e-06,-5.57939274586e-05,5.41342269571e-05,0.456919647602,-0.00681237096827,0.173212053565,0.0175619168904,0.916209399634,0.400058564646,0.0143199033233
-0.143850564957,-0.0424508340657,0.133796393871,-2.56067371368,-0.0266408864409,2.55895876884,-0.811508715153,0.0777217522264,-6.55068697597e-06,-2.98596351058e-05,-0.00156547641382,0.000478088273667,-0.000127230596263,5.86067289987e-05,-0.000140109754284,0.45692080896,-0.0068057098055,0.173213809072,0.0175629562141,0.916206442312,0.400065229579,0.0143216408773
-0.143856197596,-0.0424561686814,0.133791670203,-2.56067276001,-0.0266405306756,2.55895924568,-0.811507225037,0.0777217522264,-0.000243122398388,-0.00227653537877,7.57845336921e-05,-0.000110122091428,0.00215429696254,3.15307006531e-05,1.74927754415e-05,0.456922145906,-0.00681051405344,0.173216653988,0.0175645366224,0.916208814333,0.400059622774,0.0143245767096
-0.143859088421,-0.0424544624984,0.133790969849,-2.56067490578,-0.0266410689801,2.55895924568,-0.811507940292,0.0777217522264,7.44460776332e-05,4.4110838644e-05,0.000142914024764,-0.000339230988175,-0.00474844034761,0.000126875995193,-0.000116537448775,0.456920824832,-0.00681213041381,0.173215050882,0.0175638055073,0.916209331771,0.400058534108,0.0143227818915
-0.143858358264,-0.0424534752965,0.133790761232,-2.56067752838,-0.0266412850469,2.55895709991,-0.811506986618,0.0777217522264,0.000243011629209,-0.00310426042415,-6.30582289887e-05,0.000538952182978,0.000111561217636,0.000172834872501,-0.000192511462956,0.456918954508,-0.00681188081891,0.173213379679,0.0175626327462,0.916209436517,0.400058439241,0.0143201690582
-0.1438588202,-0.0424559153616,0.133791148663,-2.56067419052,-0.0266417283565,2.55895972252,-0.811508238316,0.0777230635285,-0.000228069373406,-5.4101456044e-06,-0.00266116927378,0.000284307898255,6.93667698215e-06,8.35273822304e-05,-4.51634005003e-05,0.456921503044,-0.00681199146849,0.173216032994,0.0175646008426,0.916209048757,0.400059108436,0.0143238685714
-0.143854990602,-0.0424576662481,0.133794471622,-2.56067585945,-0.026640297845,2.5589594841,-0.811507642269,0.0777230635285,-0.000191507540876,-0.000925653032027,-0.000158409209689,0.000409213971579,0.000129371677758,9.2876412964e-05,-7.68720710767e-05,0.456920973898,-0.00680871645302,0.173216146437,0.0175643079724,0.916207978452,0.400061570078,0.0143239356897
-0.143853768706,-0.0424575842917,0.133794948459,-2.56067228317,-0.0266408305615,2.55896019936,-0.811505198479,0.0777230635285,0.00014271728287,7.77299865149e-05,-0.000343061139574,0.000600416620728,7.91440470493e-05,0.000185912562301,0.000579614308663,0.45692283926,-0.00680797317609,0.173217564769,0.0175652744598,0.916208000807,0.400061408569,0.0143258314183
-0.143854185939,-0.0424525551498,0.133794099092,-2.56067156792,-0.0266414079815,2.55896139145,-0.811506688595,0.0777230635285,0.000184520249604,0.00104632345028,-0.000408678402891,-0.000446302146884,4.16612601839e-05,5.43777559869e-06,-0.000240754176048,0.456922635711,-0.0068084543366,0.17321568101,0.017564481078,0.916207882016,0.400061763487,0.0143244899264
-0.143857315183,-0.0424459017813,0.133792847395,-2.56067824364,-0.0266413222998,2.55895876884,-0.811503767967,0.0777230635285,-0.000349724490661,0.000298472034046,-0.00307199801318,-0.00048722414067,0.000159730465384,-9.99002168101e-06,0.000332423107466,0.456917792802,-0.00681028467201,0.173209826345,0.0175608162645,0.916209498194,0.400058476016,0.014317422977
-0.143855378032,-0.0424575693905,0.133792772889,-2.56067276001,-0.0266408361495,2.55896019936,-0.811505496502,0.0777230635285,2.08300571103e-05,0.000333825650159,-1.18450407172e-05,-0.000404391350457,-6.41928199911e-05,-3.42188614013e-05,-0.000282644497929,0.456922584869,-0.00680968572587,0.173217378517,0.0175651644148,0.916208701789,0.400059816478,0.0143255954748
-0.143853113055,-0.0424585007131,0.133793115616,-2.56067633629,-0.0266413222998,2.5589594841,-0.811503052711,0.0777230635285,5.39481334272e-05,-0.000112148947665,8.54302270454e-05,-0.000303926935885,-0.000118488096632,-2.05403539439e-05,-0.000871939642821,0.456920882888,-0.00680853448047,0.173216344072,0.0175646350034,0.916208617815,0.400060088612,0.0143240154875
-0.143857568502,-0.0424487888813,0.133792877197,-2.56067800522,-0.0266418289393,2.55895924568,-0.81150251627,0.0775661244988,1.98550606001e-05,0.0036650034599,0.000311975454679,0.000106561317807,1.57900449267e-05,-2.86626600428e-05,-0.000260003173025,0.456918464931,-0.0068104754503,0.173211273699,0.0175618435443,0.91620967694,0.400057967687,0.0143189281559
-0.143857046962,-0.042457357049,0.13379214704,-2.56067323685,-0.0266423393041,2.55896234512,-0.811497569084,0.0775661244988,-8.60052605276e-05,-0.000381625810405,-0.000159316536156,-0.000279296655208,-3.54573421646e-05,-0.000205481264857,-0.000323963991832,0.456922884646,-0.00681075159549,0.173217632545,0.0175659716769,0.916210464676,0.400055712773,0.0143264586303
-0.143857464194,-0.0424584746361,0.133793145418,-2.56067442894,-0.0266412813216,2.55896067619,-0.81149828434,0.0775661244988,-5.06053183926e-05,-0.000182916002814,-0.00033977944986,0.000279653933831,0.00551289739087,0.000345462234691,-0.000236789812334,0.456922019482,-0.00681050640898,0.173217187114,0.0175652371014,0.916210413635,0.400055898701,0.0143254315078
-0.143856748939,-0.0424536392093,0.13379137218,-2.56067538261,-0.0266407169402,2.55895996094,-0.811496257782,0.0775661244988,0.000688543485012,-0.000315679877531,-0.00328477774747,0.000200122449314,3.40039659932e-05,-5.07786207891e-05,0.00217104516923,0.456920638304,-0.00681084057201,0.173214560654,0.0175634427088,0.916211181855,0.400054315664,0.0143227065404
-0.143857389688,-0.0424530543387,0.133791580796,-2.56067609787,-0.0266404636204,2.55896162987,-0.811496317387,0.0775661244988,-0.00019747170154,0.000237489206484,-4.92203580507e-05,-3.85671519325e-05,-3.39212929248e-05,1.14948215924e-06,-0.000115967290185,0.456920559193,-0.00681100474792,0.17321417879,0.0175634084621,0.91621129079,0.400054059945,0.0143229227098
-0.143857389688,-0.0424512587488,0.133791431785,-2.56067752838,-0.0266400109977,2.55895996094,-0.81149828434,0.0775661244988,0.000434492278146,0.000322527746903,-1.18700936582e-05,-0.000561107706744,-3.80318874704e-06,-2.04283496714e-05,-3.18435377267e-05,0.456919229683,-0.00681101306491,0.173212648853,0.0175622127036,0.916211048819,0.400054743524,0.014320774095
-0.143854796886,-0.042449966073,0.133792698383,-2.56067562103,-0.0266407895833,2.55896043777,-0.811496257782,0.0775661244988,-0.000242618843913,-7.70404367358e-05,-3.67077736882e-05,0.00016858780873,6.69701466904e-06,9.18209334486e-05,-0.000248323776759,0.456920066963,-0.00680926859754,0.173212846474,0.0175625376036,0.916210541021,0.400055874725,0.0143212630182
-0.143856227398,-0.0424517430365,0.133792057633,-2.56067538261,-0.0266410019249,2.55895972252,-0.811496555805,0.0688442736864,-0.000121135446534,0.000154482986545,-9.74255526671e-05,-0.000167502847034,4.41958982265e-05,-5.36742481927e-06,-3.82538746635e-05,0.456920294833,-0.0068102649907,0.173213676876,0.0175629761761,0.916210851497,0.400055126653,0.014321759169
-0.143855452538,-0.0424511991441,0.133795067668,-2.56067466736,-0.0266392305493,2.55896067619,-0.811496734619,0.0688442736864,-2.56525108853e-05,0.000620979233645,-0.000243188929744,-0.000206286553293,-5.93927543378e-05,8.15804160084e-05,0.000103468642919,0.456920778584,-0.00680845892381,0.173213790718,0.0175627337882,0.916210342673,0.400056276296,0.0143224941104
-0.143855452538,-0.0424536541104,0.133794113994,-2.56067371368,-0.0266403481364,2.55896115303,-0.811496794224,0.0688442736864,-0.000503814255353,-0.000628538196906,0.000234047955018,-0.000143841083627,4.69274200441e-05,-1.90329519683e-05,0.000258660700638,0.45692172128,-0.00680899705355,0.173215322706,0.0175639488268,0.916210300587,0.40005626309,0.0143240651854
-0.143854185939,-0.0424538590014,0.13379368186,-2.5606739521,-0.0266408771276,2.55896139145,-0.811493992805,0.0688442736864,-0.000573047087528,-0.000216484841076,-0.000234617909882,5.29959470441e-05,4.03128724429e-05,4.93299085065e-05,0.000158478869707,0.456921839613,-0.00680888633585,0.173215407808,0.0175641589597,0.916210669206,0.400055401418,0.0143242951092
-0.143853127956,-0.0424568876624,0.133794054389,-2.56067466736,-0.0266405493021,2.55896091461,-0.811491966248,0.0688442736864,-0.00053661945276,0.000238492430071,0.00017129011394,7.41331605241e-05,-1.67231628438e-05,-0.000296664104098,-1.12050702228e-05,0.456921740086,-0.00680804375786,0.17321639552,0.017564560051,0.916210763271,0.400055145515,0.0143249336757
-0.143855974078,-0.0424495190382,0.133791655302,-2.56067323685,-0.0266412980855,2.55896067619,-0.811492323875,0.0688442736864,-0.000505243777297,-0.000289562885882,-0.000283858011244,0.000140706950333,1.26654013002e-05,-0.000176121029654,-0.000469593127491,0.456921175755,-0.00681029463507,0.17321359469,0.0175630548253,0.916211668057,0.400053235927,0.0143222388996
-0.143858224154,-0.042452160269,0.133790135384,-2.56067633629,-0.026639573276,2.55896186829,-0.811490952969,0.0688442736864,0.000181976007298,-0.00077945785597,-0.000315339013468,-1.22859401017e-05,-6.05233653914e-05,-0.000313994416501,0.000202471215744,0.456920340338,-0.00681197212861,0.173213706921,0.0175628913098,0.916212975952,0.400050231599,0.0143226891576
-0.143856197596,-0.0424511507154,0.133790895343,-2.56067419052,-0.0266411583871,2.55896186829,-0.811492145061,0.0688442736864,0.000432769185863,-0.00115124089643,0.000283874192974,0.000784598872997,0.000102258818515,-0.000241072004428,-0.000329068338033,0.456921227569,-0.00681076146168,0.173214081279,0.0175634776119,0.91621190496,0.40005264529,0.0143230632322
-0.143855154514,-0.04245294258,0.133791849017,-2.56067228317,-0.0266409683973,2.55896258354,-0.811491250992,0.0688442736864,-0.000430006504757,-0.000135832975502,1.0806613318e-05,0.000250359065831,-6.0294103605e-05,1.57352906172e-06,-3.84673439839e-05,0.456922591042,-0.00680988989412,0.173215699616,0.0175644267112,0.916211677049,0.400053054098,0.0143250599338
-0.1438549757,-0.0424532145262,0.133792728186,-2.56067419052,-0.0266415011138,2.55896234512,-0.81149315834,0.0671632066369,0.000663477461785,0.00047678235569,0.00138493441045,-0.000158402704983,-0.000110823384603,4.28960993304e-05,0.000115823655506,0.456921675769,-0.00680943997226,0.173215058425,0.0175642217877,0.916211010963,0.400054622324,0.0143241174905
-0.143856406212,-0.0424547716975,0.133792907,-2.56067466736,-0.0266403257847,2.55896186829,-0.81149327755,0.0671632066369,0.00051915703807,-4.45657060482e-05,0.000869337818585,0.000412577588577,0.000101141049527,-0.00018279721553,-5.24010429217e-05,0.456921581638,-0.00680999447412,0.173215531452,0.0175641502001,0.916211430714,0.400053651802,0.0143244621823
-0.143855065107,-0.0424514934421,0.13379317522,-2.56067490578,-0.0266415271908,2.5589632988,-0.811492621899,0.0671632066369,0.000430136016803,-0.00262673804536,-0.00267736264504,-0.000299841776723,-1.63033237186e-05,1.6737218175e-05,-0.000334243581165,0.456921268311,-0.00680923532422,0.173214092186,0.0175638156571,0.916211051883,0.400054568572,0.0143234993136
-0.14385356009,-0.0424543395638,0.133794978261,-2.56067585945,-0.0266414582729,2.55896162987,-0.811492145061,0.0671632066369,0.000168834332726,0.00254997005686,-0.000430862681242,-0.000413862260757,8.05061972642e-06,-1.12321413326e-05,5.96809040871e-05,0.456920923054,-0.00680780358517,0.173214846207,0.0175640336473,0.91621049994,0.400055822126,0.0143235255706
-0.143855750561,-0.042453404516,0.133793234825,-2.5606739521,-0.0266409181058,2.55896401405,-0.811492443085,0.0671632066369,-8.08364056866e-05,-0.00245499052107,0.000374947994715,0.000144849196658,-3.19451173709e-05,-4.91024838993e-05,-0.000100004319393,0.45692217663,-0.00680953618634,0.173215396498,0.017564500129,0.916211282818,0.400053950873,0.0143251403209
-0.143857687712,-0.0424550138414,0.133792206645,-2.56067347527,-0.0266401115805,2.55896186829,-0.811492741108,0.0630964711308,-0.000265710521489,-0.000849655712955,-0.000117665113066,0.00018741042004,1.56920359586e-05,-8.00342822913e-05,0.000362141552614,0.456922177992,-0.0068108937137,0.173216105045,0.0175644001589,0.916211958404,0.400052408444,0.01432512837
-0.143859490752,-0.0424515455961,0.133791252971,-2.56067609787,-0.0266406647861,2.5589632988,-0.811490178108,0.0630964711308,-0.000120632394101,0.00132488552481,8.92688258318e-05,0.000208706303965,0.00486698979512,-1.90499140444e-05,-0.000373549846699,0.456920663748,-0.00681207957977,0.173213657433,0.0175633551144,0.916212964735,0.400050223519,0.0143230636514
-0.143856167793,-0.0424503348768,0.133792981505,-2.5606751442,-0.026640214026,2.5589621067,-0.811491370201,0.0630964711308,0.000443545111921,0.000138912306284,-0.00011815878679,0.00474651018158,-5.0955779443e-05,-5.01284775964e-05,-0.000366926455172,0.456920704944,-0.00680974278035,0.173213358608,0.0175628857701,0.916211806686,0.400052916451,0.014322501622
-0.143855810165,-0.0424525812268,0.133793100715,-2.56067585945,-0.0266398731619,2.55896139145,-0.811490237713,0.0630964711308,-0.000103353260783,-0.000405321392464,-0.000408143620007,0.000321745959809,6.77835414535e-05,-2.58450527326e-05,0.000127196792164,0.456920518199,-0.00680944307631,0.173213873002,0.0175630590635,0.91621195146,0.400052564168,0.014322867811
-0.1438588202,-0.0424535535276,0.133791267872,-2.56067466736,-0.0266405846924,2.5589621067,-0.811487495899,0.0630964711308,-0.000346280750819,-0.000382958503906,-0.000577909057029,-0.000244217750151,0.000157577480422,7.59380636737e-05,-0.000254969345406,0.456921377572,-0.00681228747196,0.173215032036,0.0175639217078,0.916213549381,0.400048820558,0.0143241556526
-0.143858835101,-0.0424543358386,0.133791550994,-2.56067490578,-0.0266403891146,2.55896258354,-0.811490535736,0.0630964711308,0.000318915961543,0.000578543695156,0.000623461441137,0.00389054324478,-1.06346515167e-05,9.00318700587e-05,0.000418840907514,0.456921528065,-0.00681170333771,0.173215314062,0.0175641251138,0.91621272337,0.400050691196,0.0143244964522
-0.143852889538,-0.0424505956471,0.133794352412,-2.56067681313,-0.0266411527991,2.55896067619,-0.811487853527,0.0630964711308,4.73296167911e-05,-0.000441043957835,0.000114530703286,0.00385063909926,0.000101017540146,3.91505564039e-05,-0.000340174068697,0.456919669675,-0.00680768033609,0.173212688749,0.0175625443573,0.916211450696,0.400053795428,0.014321141485
-0.143856957555,-0.0424504727125,0.133793205023,-2.56067490578,-0.0266409888864,2.55896258354,-0.811488211155,0.0630964711308,-0.000471910694614,-0.000155560672283,0.000292326323688,-0.000173874592292,1.38902535696e-07,0.000252346566413,0.000391733541619,0.456920939927,-0.00681004116527,0.173213559852,0.0175632500817,0.916212413488,0.400051499339,0.0143228200912
-0.143859535456,-0.0424564443529,0.133792757988,-2.56067657471,-0.0266412235796,2.5589632988,-0.81148737669,0.0630964711308,-0.000474383676192,-0.000331632065354,-0.000352050672518,-0.000386623723898,0.000122462981381,-0.000338767335052,0.000294976634905,0.45692121879,-0.00681156025564,0.173215689313,0.0175646905444,0.916213102284,0.400049784711,0.0143248833188
-0.14385895431,-0.0424536652863,0.133791178465,-2.56067538261,-0.0266417134553,2.55896449089,-0.811486721039,0.0630899071693,0.00051809247816,-0.000119355463539,0.000294637342449,0.000140447853482,0.000534017337486,0.000102821119071,0.000302716856822,0.456921601936,-0.00681196236441,0.173215011907,0.0175645347905,0.916213351042,0.400049226452,0.0143247542926
-0.143857881427,-0.0424483120441,0.133791878819,-2.5606751442,-0.0266404245049,2.55896425247,-0.811486840248,0.0630899071693,-0.000128011466586,-0.000307866197545,0.000217571126996,0.000556995917577,6.91932800692e-05,-0.000197000903427,3.77070718969e-05,0.456920828974,-0.00681097562594,0.173212652319,0.0175627924131,0.916213233672,0.400049647677,0.0143226338647
-0.143854543567,-0.042448207736,0.133795127273,-2.56067419052,-0.0266401600093,2.55896234512,-0.811487197876,0.0630899071693,-0.000320767285302,-0.000137594470289,2.9873859603e-05,0.000313283875585,-4.15610229538e-05,0.00015853952209,-0.000114555121399,0.456920900224,-0.00680798568904,0.173212782139,0.0175625343297,0.916211902964,0.400052722362,0.0143221948687
-0.143853604794,-0.0424497164786,0.133795663714,-2.56067752838,-0.0266393311322,2.55896353722,-0.811485588551,0.0630899071693,-2.65705257334e-05,0.000249738193816,0.000405912433052,5.30992365384e-05,-1.61842781381e-05,-9.85170481727e-05,0.000406530190958,0.456919805711,-0.0068072967252,0.173212284455,0.017562253616,0.916212070462,0.40005235884,0.0143219780627
-0.143863305449,-0.0424501225352,0.133789539337,-2.56067562103,-0.0266407448798,2.5589632988,-0.811484217644,0.0630899071693,0.000275669008261,-8.64663234097e-05,-0.000439321651356,1.58217551416e-06,-2.30279965763e-05,-1.67771395354e-05,-0.000201072049094,0.456920631161,-0.00681456582854,0.173213201816,0.0175630643049,0.916215257481,0.400044998652,0.0143226905784
-0.143859356642,-0.0424486286938,0.133789882064,-2.56067585945,-0.0266402065754,2.55896401405,-0.811485111713,0.0630899071693,0.000409728090744,-0.000164431941812,-0.00188722158782,-0.000610254995991,-0.000266467104666,-0.000164569370099,-9.9514683825e-05,0.456920463315,-0.00681254398678,0.173212500137,0.0175626031067,0.916214316737,0.400047185141,0.0143223643193
-0.143857032061,-0.042449504137,0.133790224791,-2.56067538261,-0.0266417283565,2.55896234512,-0.811485767365,0.0630899071693,0.000352805800503,1.20232753034e-05,0.000203499206691,0.00017054687487,-1.02048688859e-05,0.000147895712871,0.000119948730571,0.456920801672,-0.00681128298102,0.17321321602,0.0175631412787,0.916213412319,0.400049229534,0.0143224573554
-0.143856912851,-0.0424518622458,0.133792057633,-2.56067299843,-0.026640586555,2.55896496773,-0.811483204365,0.0630899071693,0.000218312110519,-0.000664303719532,-0.000565516937058,9.05432352738e-06,3.08405651595e-05,-9.62532940321e-05,0.00029818105395,0.456922579868,-0.00681054410088,0.173215162242,0.017564317622,0.91621364856,0.400048528929,0.0143254710972
-0.143852517009,-0.0424499250948,0.133794844151,-2.56067633629,-0.0266402829438,2.55896377563,-0.811482965946,0.059259571135,7.14136913302e-05,6.95070775691e-05,-0.00296011031605,-4.9017053243e-05,-0.000133262234158,-5.64037291042e-05,-0.0001707359188,0.456920491417,-0.00680730859881,0.173212949693,0.017562798253,0.916212460033,0.400051415126,0.0143227488619
-0.143852993846,-0.0424520075321,0.133794292808,-2.56067466736,-0.0266403388232,2.55896306038,-0.811484634876,0.059259571135,-0.000406282517361,-0.000105828963569,5.97860935159e-06,0.00341284740716,1.83601002846e-06,0.000110001848952,-0.000405688973842,0.456921477977,-0.00680781295009,0.17321439993,0.0175636385359,0.91621221518,0.400051893229,0.0143240273971
-0.143859416246,-0.0424529016018,0.133790835738,-2.56067681313,-0.0266415402293,2.55896353722,-0.81148225069,0.059259571135,3.87782311009e-05,-0.000162121708854,0.000741924392059,4.28690254921e-05,5.1121100114e-05,-0.00024622483761,8.25152383186e-05,0.456920585452,-0.00681230242163,0.173214019514,0.0175637778115,0.916214464379,0.400046758556,0.0143233942429
-0.143856674433,-0.0424496233463,0.133792281151,-2.56067347527,-0.0266412701458,2.55896496773,-0.81148225069,0.059259571135,8.72139935382e-05,-0.000940375030041,-0.000384353217669,0.00039661230403,-0.000132724700961,9.18604273465e-05,-0.000268674601102,0.456922000718,-0.00681031418914,0.173213962815,0.0175638009633,0.916213655077,0.400048580966,0.0143242344936
-0.143857225776,-0.042447604239,0.1337916255,-2.56067466736,-0.0266395546496,2.55896496773,-0.811479628086,0.059259571135,-0.000224540272029,0.000376197538571,-0.000192070860066,0.000149746294483,0.0028847544454,-0.000378306838684,0.000200479858904,0.456921101928,-0.00681073093774,0.173212585402,0.0175625578795,0.916214735361,0.400046203842,0.0143230492828
-0.143856868148,-0.0424485616386,0.133791700006,-2.56067585945,-0.0266406238079,2.55896401405,-0.811480104923,0.059259571135,0.000195993445232,-0.000499526388012,-0.000596403784584,0.000148442268255,-0.000113271606097,-0.000153656495968,-0.000474724016385,0.45692048049,-0.00681060731119,0.173212465631,0.0175626597112,0.916214387237,0.40004702172,0.0143223495445
-0.143859833479,-0.0424458123744,0.133791700006,-2.5606751442,-0.0266404822469,2.55896449089,-0.811480283737,0.059259571135,3.76613388653e-05,-0.000367863569409,-0.000110595523438,0.000220358910155,-6.24001695542e-05,-8.6780069978e-05,-0.000117934279842,0.456920470697,-0.00681189236482,0.173211543079,0.0175621598636,0.916214979878,0.400045709028,0.0143217162974
-0.143857970834,-0.042450375855,0.133792191744,-2.56067490578,-0.0266406852752,2.55896496773,-0.811478495598,0.059259571135,-0.000330210488755,-0.000138771894854,9.60804973147e-05,7.93045910541e-05,3.07735717797e-05,6.44758110866e-05,-2.29401139222e-05,0.456921424859,-0.00681093266785,0.173213748687,0.0175635363612,0.916214787064,0.400046008775,0.0143239903529
-0.143857315183,-0.0424514822662,0.133791267872,-2.56067562103,-0.0266398638487,2.55896472931,-0.811479985714,0.059259571135,8.83492612047e-06,-0.000214738945942,0.000129690452013,-0.00306965736672,5.84716399317e-05,8.1089012383e-05,-0.000144775578519,0.456921204539,-0.00681103453646,0.173213951129,0.0175634182077,0.916214679828,0.400046255167,0.0143241131084
-0.143856048584,-0.0424507893622,0.133793085814,-2.56067728996,-0.0266396328807,2.55896496773,-0.811479449272,0.059259571135,4.23002238676e-05,0.000195076034288,0.000387632288039,0.000414856884163,-3.74345072487e-05,-0.00540006486699,3.43833562511e-05,0.456920366001,-0.00680960581247,0.173213008156,0.0175628873518,0.91621422565,0.400047351166,0.014323205296
-0.143855780363,-0.0424521714449,0.133793920279,-2.56067633629,-0.0266410131007,2.55896425247,-0.811479449272,0.059259571135,-0.000125485559693,-0.000186688193935,0.000222490736633,0.000208119527088,2.46384115599e-05,8.47658302519e-05,-0.000171249630512,0.456920894822,-0.00680921023775,0.173213934486,0.0175636727835,0.916213762341,0.400048358624,0.014323740347
-0.143857181072,-0.0424501523376,0.133792385459,-2.56067347527,-0.0266410131007,2.55896401405,-0.81147903204,0.0535583905876,-0.00144215044565,-1.10903811219e-05,0.000227404583711,-0.00209079263732,-5.51792254555e-05,0.000110277804197,7.9465287854e-05,0.456921876101,-0.00681050310924,0.173214109824,0.0175636699196,0.916214428759,0.400046820568,0.0143240730028
-0.143858551979,-0.0424477830529,0.133791446686,-2.56067299843,-0.0266414619982,2.55896449089,-0.811479330063,0.0535583905876,-0.000376072508516,-0.000203164032428,-6.68287830194e-05,-0.000164300043252,-6.69454457238e-05,0.000159355578944,0.00545036047697,0.456921817903,-0.00681151771771,0.173213269933,0.0175633538172,0.916214766477,0.400046083642,0.0143234400708
-0.143855810165,-0.0424443334341,0.133794024587,-2.56067466736,-0.02664032951,2.55896401405,-0.811477661133,0.0535583905876,0.000261046254309,0.000198993133381,-8.4954124759e-05,0.000322193751344,2.8472244594e-05,5.45053489986e-06,-0.000193315630895,0.456920164717,-0.00680891205503,0.173210788861,0.0175615906318,0.916214222128,0.400047498288,0.0143209112772
-0.143853083253,-0.0424464344978,0.133795335889,-2.56067633629,-0.02664090693,2.55896353722,-0.811479389668,0.0535583905876,-0.0001455204183,0.000653125869576,1.03744696389e-05,-0.000860813073814,-0.000187928468222,-4.69179394713e-05,-0.000159333489137,0.45691986019,-0.00680720795952,0.173211261848,0.0175619892859,0.916213025159,0.400050218707,0.0143210074624
-0.14385561645,-0.0424531549215,0.133795067668,-2.56067466736,-0.0266411416233,2.55896472931,-0.811478257179,0.0535583905876,3.71908618035e-06,0.000113007088657,-0.000500340072904,0.000418227282353,2.36895903072e-05,-5.94863231527e-05,0.000238555992837,0.456921960253,-0.00680865013746,0.173215070796,0.0175644024431,0.916213689214,0.400048444194,0.0143251332073
-0.143860176206,-0.0424544326961,0.133792385459,-2.56067538261,-0.026640528813,2.55896496773,-0.811477839947,0.0535583905876,-0.000387937441701,-0.000215843494516,-0.000151875356096,0.000120749100461,7.04315461917e-05,6.73272588756e-05,-0.000152381151565,0.456921824014,-0.00681193751505,0.173215401591,0.0175644809279,0.916215316898,0.400044699794,0.0143254996308
-0.143855378032,-0.0424425788224,0.133794143796,-2.56067752838,-0.0266406349838,2.55896377563,-0.811477422714,0.0535583905876,-0.000297289458103,0.000223025068408,-0.000312348915031,-0.000167022735695,5.83349537919e-05,-5.82002794545e-05,-0.000591328484006,0.456918708063,-0.00680868731138,0.173209077983,0.017560694122,0.916214201252,0.400047655046,0.0143189671429
-0.143856436014,-0.0424403138459,0.133793517947,-2.56067800522,-0.0266405530274,2.55896306038,-0.811476886272,0.0535583905876,0.00011779875058,-0.000256717408774,-0.000343034655089,0.000329651025822,-3.01378131553e-05,3.18567326758e-05,-0.000291196018225,0.456917957515,-0.0068094976691,0.173207806204,0.0175597913917,0.916214778691,0.400046424969,0.0143174922678
-0.143857523799,-0.0424474440515,0.133792832494,-2.56067419052,-0.0266415793449,2.55896472931,-0.811475932598,0.0535583905876,0.000469025544589,-0.000216250511585,-0.000117159754154,0.00011567085312,-4.94526684633e-05,0.00535258464515,0.000171700608917,0.456921259772,-0.00681041805897,0.173212673695,0.0175630806868,0.916214953468,0.400045687272,0.0143228842736
-0.143854424357,-0.0424483530223,0.133793056011,-2.56067657471,-0.0266398731619,2.55896401405,-0.811475038528,0.0535432882607,0.000118055962957,0.000203595758649,-0.000520858739037,-0.000734007218853,-0.000608331116382,-8.84446035343e-06,4.44645320385e-06,0.456920129049,-0.00680883878536,0.173212089569,0.0175622246388,0.916214773854,0.400046164898,0.0143220832638
-0.143855974078,-0.0424449145794,0.133793309331,-2.56067657471,-0.0266399942338,2.55896401405,-0.811474084854,0.0535432882607,-0.000102602425613,0.00171660026535,0.000294439843856,0.000124902799143,9.89247637335e-05,4.80566995975e-05,-0.000292927812552,0.45691957629,-0.00680935986638,0.173210530837,0.0175613565778,0.9162152323,0.400045206019,0.0143206032615
-0.14385612309,-0.042449388653,0.133792892098,-2.56067323685,-0.0266408640891,2.55896496773,-0.811472356319,0.0535432882607,7.4322168075e-05,0.000178097237949,0.00096855458105,3.62644022971e-05,5.82087268413e-05,-1.04064042716e-06,-0.000390472530853,0.456922084902,-0.00680976364189,0.173213946993,0.017563614402,0.916215469579,0.400044428238,0.0143243802652
-0.143855988979,-0.0424466356635,0.133793517947,-2.56067490578,-0.0266413185745,2.55896496773,-0.811472535133,0.0535432882607,-0.000298272934742,0.000209017031011,0.000280109903542,-8.88470676728e-05,-9.2143936854e-06,-0.000332039373461,0.000419326534029,0.456920860816,-0.00680944379036,0.173212083954,0.0175626150965,0.916215302971,0.400044929076,0.0143222747227
-0.143857479095,-0.0424451902509,0.133793488145,-2.56067585945,-0.026641940698,2.55896496773,-0.811473011971,0.0535432882607,-4.31591724919e-05,-0.000202269162401,-0.000109633096145,-0.000603837543167,-2.15268846659e-05,0.000524521281477,-0.000184734264622,0.456920159614,-0.0068100625238,0.173211026851,0.0175622709824,0.91621536706,0.400044833773,0.0143212588072
-0.143857464194,-0.0424414947629,0.13379381597,-2.56067609787,-0.0266388747841,2.55896353722,-0.811470866203,0.0535432882607,0.000181092706043,0.000482440314954,0.00018868331972,-0.000390530505683,0.00211692182347,-5.86219284742e-05,7.29493913241e-05,0.456919153439,-0.00680968531876,0.173209117507,0.017560162633,0.916216290171,0.400042882584,0.0143192907871
-0.143857881427,-0.0424427762628,0.133792608976,-2.56067705154,-0.0266387201846,2.55896401405,-0.811471581459,0.0535432882607,-0.000142859003972,-0.000329681643052,0.00027388689341,-0.00168276170734,6.11864834354e-06,0.000137395734782,0.000365304906154,0.456918726268,-0.00681102654079,0.173209689758,0.01756058075,0.916216500639,0.40004236065,0.0143198927277
-0.14385715127,-0.0424470566213,0.1337916255,-2.56067371368,-0.0266399867833,2.55896472931,-0.811470746994,0.0535432882607,0.000139714233228,0.000114009075332,4.89040830871e-05,-0.000701012089849,-2.8539102459e-06,0.000125676539028,0.000114499322081,0.456921421543,-0.00681070829694,0.173212684471,0.0175626102052,0.916216423765,0.400042330256,0.0143231711012
-0.143857717514,-0.0424477867782,0.133794605732,-2.56067609787,-0.0266406107694,2.55896472931,-0.811471223831,0.0535432882607,0.000298814498819,0.000465608405648,-0.000306767557049,0.000335698743584,-8.92412790563e-05,4.66722813144e-05,-0.000569279887713,0.456920408879,-0.00680966618044,0.17321208391,0.0175625164899,0.916215754485,0.400043898188,0.0143223060681
-0.143857672811,-0.0424446798861,0.133794561028,-2.5606751442,-0.0266410093755,2.55896449089,-0.811470270157,0.0535432882607,-0.000282420165604,-0.000315768673318,-0.000108016261947,0.000708402367309,-5.28718228452e-05,1.30384851218e-05,7.93497019913e-06,0.456920323294,-0.00680961706082,0.173211023253,0.0175619419169,0.916215899114,0.400043629082,0.014321275031
-0.143857643008,-0.0424444191158,0.1337916255,-2.5606751442,-0.026640502736,2.55896472931,-0.81147134304,0.0486465245485,-0.000252772762906,-8.37176776258e-05,0.00018983046175,-8.83068423718e-05,9.91942215478e-06,8.02979484433e-05,0.000315701152431,0.456920310944,-0.00681081258369,0.173210917227,0.0175616806416,0.916216486667,0.400042292202,0.0143213499043
-0.143857002258,-0.0424461551011,0.133794173598,-2.56067299843,-0.0266404021531,2.55896449089,-0.811469078064,0.0486465245485,-0.000243111455347,0.00251422473229,-0.00015972527035,0.000164892946486,5.43592395843e-05,-0.00237209349871,-9.78637617663e-05,0.456922019306,-0.00681060215245,0.173212734227,0.0175629660437,0.91621656449,0.400041983782,0.0143234099108
-0.143856301904,-0.0424466915429,0.133792519569,-2.56067299843,-0.0266408100724,2.55896496773,-0.811469435692,0.0486465245485,-0.000253055302892,-0.00382899655961,0.000416311639128,0.000676605035551,-3.14206918119e-05,-0.000302442582324,7.64937576605e-05,0.456921769171,-0.00680994922691,0.17321281806,0.017562914457,0.916216193664,0.400042836608,0.0143233746965
-0.143855184317,-0.0424471274018,0.133793398738,-2.56067728996,-0.0266411174089,2.55896425247,-0.811470210552,0.0486465245485,-0.000223475595703,-0.000164338969626,0.00021893097437,3.57481512765e-05,7.36502697691e-05,-2.24350951612e-05,-5.99804370722e-05,0.456919641451,-0.0068090592814,0.17321128019,0.017562098816,0.916215628094,0.400044244203,0.0143212388715
-0.143861159682,-0.0424480214715,0.133789390326,-2.56067490578,-0.0266408789903,2.55896496773,-0.811468780041,0.0486465245485,8.13150472823e-05,-0.000289183284622,-0.000347798515577,9.57995071076e-05,2.31394278671e-05,0.000354118761607,-0.000115616632684,0.456921014584,-0.00681360496694,0.173212688912,0.0175628887214,0.916217916175,0.400038904914,0.0143230323647
-0.143856704235,-0.042447488755,0.133792832494,-2.56067442894,-0.0266402326524,2.55896520615,-0.811469554901,0.0486465245485,0.000274165271549,0.000619827536866,-0.000106178427814,0.000314346165396,1.94107960851e-05,-0.000163927397807,0.000238402906689,0.456921260143,-0.00680997851535,0.173212646248,0.0175627356786,0.916216287013,0.400042635793,0.0143232313251
-0.14385291934,-0.0424468144774,0.133795678616,-2.56067371368,-0.0266410894692,2.55896472931,-0.811467528343,0.0486465245485,0.000170147279277,0.00347138708457,-0.000175391251105,-0.000172811807715,-2.98016584566e-05,-0.000177502079168,0.000422159326263,0.456921436292,-0.00680699783083,0.173212565729,0.0175628230153,0.916215227119,0.400045067784,0.0143229977754
-0.143850952387,-0.0424466021359,0.133794978261,-2.56067633629,-0.026640323922,2.55896472931,-0.811467349529,0.0486465245485,-0.000135621608933,-0.000700585485902,0.000187333906069,0.000945116858929,9.25307322177e-05,-0.000138377828989,0.000115535855002,0.45691998181,-0.00680640552789,0.173211082558,0.0175617309688,0.916215239798,0.400045144005,0.0143213967862
-0.143855839968,-0.0424464643002,0.133791744709,-2.5606751442,-0.0266412459314,2.5589659214,-0.811464548111,0.047095477581,-4.274029925e-05,-2.72545566986e-05,0.00353193446063,0.00114344875328,7.82439819886e-05,-6.93920010235e-05,-0.000129278574605,0.456920909597,-0.00681009190828,0.173211977469,0.0175626673084,0.916217170092,0.400040633952,0.0143227376349
-0.143855556846,-0.0424462072551,0.133795306087,-2.56067633629,-0.0266409143806,2.55896496773,-0.811465680599,0.047095477581,0.000153093191329,0.00117409590166,0.000488890567794,-0.00029835983878,-3.16933728755e-05,2.82008622889e-05,5.73831166548e-05,0.456920115179,-0.00680834028063,0.173211297249,0.0175621288582,0.916216252519,0.400042797424,0.0143216675138
-0.143854156137,-0.042448412627,0.133793130517,-2.56067371368,-0.0266413241625,2.55896496773,-0.811465263367,0.047095477581,-0.00031755733653,0.000432975124568,-0.000390165921999,-0.000205603719223,6.86585408403e-05,-0.000107953623228,1.35951786433e-05,0.456921717192,-0.00680875564574,0.173213319614,0.0175633165312,0.916216382253,0.400042372711,0.0143237746256
-0.143856793642,-0.0424464903772,0.133792281151,-2.56067490578,-0.0266403779387,2.5589659214,-0.81146389246,0.047095477581,-0.000192446212168,-6.2827974034e-05,-0.000471975799883,0.00013982411474,-7.0289526775e-05,-8.34520596982e-06,-0.00241273408756,0.456921024086,-0.00681024681008,0.173212079548,0.017562505838,0.916217527776,0.400039814129,0.0143229528239
-0.143858656287,-0.0424445793033,0.133791327477,-2.56067848206,-0.0266407839954,2.55896496773,-0.81146466732,0.047095477581,-0.000209107529372,0.000540338340215,0.000141056676512,-0.00179521681275,1.22478240883e-05,-0.000120251825138,0.000119346754218,0.456918848981,-0.00681147386036,0.173209683918,0.0175611072127,0.916217982961,0.400038938676,0.0143200012696
-0.143850937486,-0.0424469038844,0.133793249726,-2.56067562103,-0.0266406405717,2.55896472931,-0.81146466732,0.047095477581,0.000257639389019,-0.000609844631981,-0.000240876179305,0.00046218794887,0.000106342544314,-2.56604494098e-06,8.04445080576e-05,0.45692053593,-0.0068071606304,0.173211872142,0.0175622787963,0.916215979584,0.400043394531,0.0143222655578
-0.143854528666,-0.0424479730427,0.13379496336,-2.56067299843,-0.0266411136836,2.55896568298,-0.811461627483,0.047095477581,0.000271294557024,0.000444134610007,-0.000249664968578,0.00391564238816,-2.67997147603e-05,-7.1820570156e-05,0.000101692399767,0.456922152277,-0.00680808017362,0.173213462168,0.0175634281298,0.916216841991,0.400041296356,0.0143242918068
-0.143857881427,-0.0424459688365,0.133792459965,-2.5606751442,-0.0266410540789,2.55896782875,-0.811460614204,0.047095477581,-0.000111497298349,-6.84919577907e-05,-0.000172854881384,0.000496841559652,-4.74253065477e-05,1.23118261399e-05,-0.000131380424136,0.456921231989,-0.00681067399064,0.173211935364,0.0175628522554,0.916218236831,0.400038157432,0.0143234422922
-0.143856599927,-0.0424410440028,0.133792474866,-2.5606739521,-0.0266417618841,2.55896639824,-0.811461389065,0.047095477581,0.000454748922493,0.00074832997052,-0.000129942272906,0.000150716732605,-3.56952950824e-05,-9.7835836641e-05,0.000428133062087,0.456920725441,-0.00681001185543,0.173210028227,0.0175616996323,0.91621775126,0.400039401887,0.0143211591766
-0.143856793642,-0.0424424782395,0.133794218302,-2.56067585945,-0.0266389083117,2.55896759033,-0.811458587646,0.047095477581,-0.000527007912751,-0.000314007920679,0.00011868783622,-0.000615480297711,-0.000108409491077,0.000552006007638,0.00221779965796,0.456920302578,-0.00680920440179,0.17321004654,0.0175611796287,0.916218469861,0.400037756218,0.0143217923715
-0.143857210875,-0.0424447059631,0.133793592453,-2.56067323685,-0.0266402941197,2.55896711349,-0.811460196972,0.047095477581,2.32175425481e-05,-0.000426699582022,5.55282385903e-05,-0.000565365655348,5.42817142559e-05,-5.88947877986e-05,0.000414637645008,0.456921802669,-0.00680980190597,0.173212030039,0.0175625779003,0.916218089396,0.400038503641,0.014323540277
-0.143855988979,-0.0424461327493,0.133793652058,-2.56067371368,-0.0266402680427,2.5589659214,-0.811459839344,0.0443762205541,-0.000248496478889,-4.52388012491e-05,0.000154585577548,0.000676700670738,5.70421798329e-05,9.01593084564e-05,-0.000161401199875,0.456921551941,-0.00680925234905,0.173212376272,0.0175626071034,0.916217914521,0.400038908025,0.0143233965609
-0.143858477473,-0.0424456372857,0.133791789412,-2.56067609787,-0.0266407448798,2.55896568298,-0.811459183693,0.0443762205541,-0.000616433680989,0.000619409314822,0.00030616967706,-0.000374324969016,-1.90865303011e-05,7.57954621804e-05,0.000184365708265,0.456920252724,-0.00681123295374,0.173211209167,0.0175620587658,0.916218863194,0.40003681209,0.0143219228082
-0.143855810165,-0.0424419231713,0.133791953325,-2.5606751442,-0.0266416426748,2.55896520615,-0.811459481716,0.0443762205541,-0.000324661203194,-0.000187023862964,4.40013491243e-06,-3.10556897603e-05,-9.07898283913e-05,-0.000227552169235,0.000165700723301,0.456920073599,-0.00681000292924,0.173209953412,0.0175614262066,0.916218190936,0.400038427296,0.0143205892124
-0.14385728538,-0.0424411892891,0.133793309331,-2.56067824364,-0.0266414564103,2.55896496773,-0.811458468437,0.0443762205541,0.000173570137122,-0.000344795436831,1.14061194836e-05,2.44376224146e-05,-3.44553263858e-05,-3.01777308778e-05,3.03805222757e-06,0.456918384923,-0.00680993362999,0.17320828904,0.017560495279,0.916218407596,0.40003804109,0.0143186574203
-0.143856674433,-0.0424451865256,0.133790925145,-2.56067657471,-0.0266407653689,2.55896568298,-0.81145966053,0.0443762205541,0.000530919816811,-6.69978471706e-05,0.000227840806474,-0.00162055774126,-3.40056139976e-05,0.000381966034183,-0.000284914829535,0.456919960293,-0.00681078721189,0.173210822141,0.0175618287823,0.916218584498,0.400037474725,0.0143215252759
-0.143857091665,-0.0424457788467,0.133791998029,-2.56067180634,-0.0266407392919,2.55896663666,-0.811456382275,0.0443762205541,-3.70040506823e-05,-0.00118533545174,-0.00044168200111,-0.00042221028707,3.4555199818e-05,-0.000189918922842,0.000126547864056,0.456922546632,-0.00681051610152,0.173213029351,0.0175631306404,0.916219057589,0.400036230524,0.0143244162871
-0.143857747316,-0.0424473509192,0.133791863918,-2.5606739521,-0.0266398247331,2.55896759033,-0.81145387888,0.0443762205541,0.000223286479013,0.000794222636614,0.000133140973048,-0.00031598933856,7.80570844654e-05,-2.18233435589e-05,0.000139361509355,0.456921966995,-0.00681085896756,0.173213001226,0.0175630396787,0.916219863564,0.400034379628,0.0143246655681
-0.143858060241,-0.0424407832325,0.133791580796,-2.56067585945,-0.0266403332353,2.55896544456,-0.811454474926,0.0443762205541,0.000103073463833,2.76978389593e-05,-0.000246627401793,-0.000527361989953,0.00196296791546,0.000432498549344,-0.000125408070744,0.456919246307,-0.00681083582128,0.173208785293,0.0175603435304,0.916219960358,0.400034451295,0.0143197777268
-0.14385676384,-0.0424387603998,0.133794292808,-2.56067466736,-0.0266415383667,2.55896615982,-0.811455845833,0.0443762205541,0.000309394061333,-0.000154803725309,-0.000172326021129,0.000235557163251,0.000127429157146,-0.000144735779031,0.000201152535737,0.456919979756,-0.00680920538154,0.173208688155,0.017560828131,0.916218594094,0.400037557659,0.0143198217384
-0.143853798509,-0.0424418672919,0.133793577552,-2.56067371368,-0.0266411229968,2.5589659214,-0.811454117298,0.0443762205541,-0.000157602669788,0.000323140062392,-0.000438952672994,0.00309247057885,-5.78797116759e-05,-0.00010357593419,8.17929540062e-05,0.456920943457,-0.00680842871639,0.173210585052,0.0175618696993,0.916218587803,0.400037455142,0.0143218106866
-0.143855646253,-0.0424440391362,0.133792117238,-2.56067609787,-0.0266409683973,2.55896639824,-0.811454474926,0.042684648186,1.68171809491e-05,-2.36947398662e-05,-0.000174419343239,-1.15711300168e-05,0.00564435031265,-8.64030007506e-05,2.40871686401e-05,0.456920175276,-0.00680976252215,0.173210553479,0.0175617841452,0.916219140939,0.400036199098,0.0143216132625
-0.143855661154,-0.0424452908337,0.133791491389,-2.56067609787,-0.0266407188028,2.55896663666,-0.811453223228,0.042684648186,-0.0004551790189,0.0011247145012,-5.29994322278e-05,-0.000243653426878,5.26330950379e-05,-0.000349511770764,2.65085491264e-05,0.456920296916,-0.00681040483626,0.173210448345,0.0175616602252,0.916219806626,0.40003467433,0.0143217684217
-0.143859103322,-0.0424416661263,0.133793830872,-2.56067752838,-0.0266405716538,2.55896806717,-0.811452209949,0.042684648186,-0.000237626605667,0.00218811910599,0.000126931074192,-0.000235109531786,1.71097017301e-05,-3.05856228806e-05,-0.000104749611637,0.456919460307,-0.00681048695238,0.173209079988,0.0175611148099,0.916220021831,0.400034241758,0.014320752238
-0.143858268857,-0.042443908751,0.133792772889,-2.56067538261,-0.0266402289271,2.55896687508,-0.811451971531,0.042684648186,7.92458013166e-05,-0.00189242814668,-0.000516938453075,-0.000215755833779,-5.66676935705e-05,6.10389633948e-06,-0.000416278111516,0.456920585465,-0.00681062795398,0.173210815512,0.017561805119,0.916220148549,0.400033869908,0.0143221856252
-0.143856778741,-0.0424423702061,0.133792489767,-2.56067371368,-0.0266413465142,2.55896687508,-0.81145298481,0.042684648186,0.000419822492404,-8.56846891111e-05,0.000153002343723,0.000495641783345,-0.00012155091099,5.77281389269e-05,-0.000165325414855,0.456921150655,-0.00681009619936,0.173210767345,0.0175620243608,0.916219516167,0.400035309204,0.0143221704228
-0.143853083253,-0.0424414984882,0.133794426918,-2.56067609787,-0.0266395453364,2.55896735191,-0.811449587345,0.0380709059536,0.000255324703176,0.00315629248507,0.000145880214404,7.7562777733e-05,-3.90282511944e-05,-0.00024238487822,0.000207779099583,0.45692000894,-0.00680742315057,0.17320948714,0.0175609026144,0.916219392358,0.4000356769,0.0143211959852
-0.143851727247,-0.0424428805709,0.13379406929,-2.5606751442,-0.0266411583871,2.55896830559,-0.811448395252,0.0380709059536,1.28187639348e-05,0.000334870332154,-0.00025407015346,0.00347524089739,5.52665696887e-05,-0.000119793767226,0.000260227330728,0.456920897604,-0.00680707014792,0.173210578023,0.0175620438376,0.916219130687,0.400036179582,0.014322495783
-0.143856838346,-0.0424419306219,0.133794590831,-2.56067562103,-0.0266406964511,2.55896759033,-0.811449944973,0.0380709059536,-8.61860826262e-05,-0.00460585951805,-0.00072263320908,2.383861829e-05,-4.40933081336e-06,5.72399767407e-05,0.00194853777066,0.456920333009,-0.0068091294057,0.173209891689,0.0175614902451,0.916219836007,0.400034622726,0.0143215386024
-0.143855929375,-0.0424424856901,0.133792862296,-2.56067419052,-0.026639515534,2.55896925926,-0.811450362206,0.0380709059536,0.000175285633304,0.000654941424727,0.000129659485538,-0.000294694764307,0.000146552411024,2.78632105619e-05,-0.00010195033974,0.456921460713,-0.00680944508055,0.173210862501,0.0175619254545,0.916220079039,0.400033982539,0.0143233388169
-0.143856614828,-0.0424441248178,0.133794412017,-2.56067681313,-0.0266410373151,2.55896735191,-0.811447918415,0.0380709059536,-4.63861251774e-05,0.00113471015356,0.000465663411887,0.000177583860932,3.54425865225e-05,-0.000119798969536,8.97605423233e-05,0.456920171482,-0.0068091654654,0.17321036684,0.0175618639528,0.916220220859,0.400033712852,0.0143218743871
-0.143855676055,-0.0424450598657,0.133794486523,-2.56067442894,-0.0266404896975,2.55896806717,-0.811449706554,0.0380709059536,-0.00028874099371,-0.000174309243448,-0.000115662769531,0.000106093481008,-9.22689469007e-06,-9.69514730969e-05,-0.000316756806569,0.456921508698,-0.00680870825632,0.173211818266,0.0175625871216,0.916219665227,0.400034889514,0.0143236670688
-0.143854230642,-0.0424441024661,0.133792474866,-2.56067562103,-0.0266397297382,2.55896854401,-0.811449825764,0.0380709059536,3.56995697075e-05,0.000492261839099,2.11673923332e-05,-0.000176978908712,0.00138254882768,-3.29109643644e-05,-0.000224206436542,0.456920886649,-0.00680888965798,0.173210972433,0.0175619551291,0.916219894813,0.400034413889,0.0143230397405
-0.143853634596,-0.0424432456493,0.133790999651,-2.56067490578,-0.0266402848065,2.55896615982,-0.811446845531,0.0342786572874,0.000336171651725,-0.000102204590803,0.000229658340686,6.01608662691e-05,-4.44925644842e-05,-1.30736088977e-06,-4.10976026615e-05,0.456920576282,-0.0068093000117,0.173210635263,0.0175615140524,0.916220602099,0.400032854988,0.0143218757328
-0.14385817945,-0.0424436815083,0.133793443441,-2.56067490578,-0.0266406927258,2.55896878242,-0.811446428299,0.0342786572874,-0.000635940639768,0.00150314730126,0.000236114938161,0.00047710724175,-6.6254833655e-05,9.49683526414e-05,4.33863606304e-05,0.456921193276,-0.00681029474728,0.173211080651,0.0175623011051,0.916221003854,0.400031853586,0.0143231796347
-0.143859028816,-0.0424447096884,0.133791342378,-2.56067609787,-0.0266406014562,2.55896806717,-0.811445772648,0.0342786572874,-8.83595930645e-05,0.000326407985995,5.92964679527e-05,-0.0030805321876,4.05861646868e-05,1.83460997505e-05,0.000492339779157,0.456920606111,-0.00681149637935,0.173210870933,0.0175620963579,0.916221695327,0.400030295852,0.0143227045444
-0.14385637641,-0.0424417071044,0.133792907,-2.56067371368,-0.0266409274191,2.55896782875,-0.811445951462,0.0342786572874,0.000355791358743,0.000258101266809,0.000283761706669,0.00034472355037,-6.46644693916e-05,-3.81878198823e-05,-6.46435873932e-05,0.45692125603,-0.0068096854986,0.173210557585,0.0175618776978,0.91622082392,0.400032310764,0.0143224401479
-0.143854767084,-0.0424405969679,0.133793145418,-2.56067562103,-0.026641221717,2.55896806717,-0.811445057392,0.0342786572874,9.46871150518e-05,7.9867146269e-05,-0.000271225289907,-0.000432901491877,6.08469708823e-05,2.99196763081e-05,-7.38955423003e-05,0.456920230708,-0.00680882513375,0.173209337536,0.0175613021148,0.916220606403,0.40003287876,0.0143211962663
-0.143851473927,-0.0424409285188,0.133795052767,-2.56067633629,-0.0266413278878,2.55896782875,-0.811445176601,0.0342786572874,-0.000277087412542,-4.67019162897e-06,-0.00020610386855,-0.000563058827538,-4.78244191982e-06,6.27574336249e-05,-0.000327629095409,0.456919922813,-0.00680647424596,0.173209182697,0.017561222304,0.916219530232,0.400035357247,0.0143209121974
-0.143856465816,-0.042441777885,0.133794233203,-2.56067347527,-0.0266398973763,2.5589697361,-0.811444997787,0.0342786572874,-0.000398624717491,8.03263465059e-05,0.000233094746363,-0.000167345642694,1.98755915335e-05,0.00024405689328,-0.00216229935177,0.456921798571,-0.00680907505573,0.173210862194,0.0175620573333,0.916220915477,0.40003205239,0.0143235794054
-0.143858030438,-0.0424452014267,0.133790671825,-2.56067419052,-0.0266404282302,2.55896806717,-0.811442792416,0.0342786572874,-0.000118640244182,3.85866223951e-05,-0.00015065864136,0.000167311998666,-0.000106302039057,-0.000107322557596,-0.000257121864706,0.456921606969,-0.0068115008685,0.173211984333,0.0175625831811,0.916222289747,0.400028870503,0.0143238922068
-0.143853202462,-0.0424425303936,0.133794784546,-2.56067490578,-0.0266423262656,2.55896830559,-0.811439752579,0.0342786572874,0.000219529159949,-0.000309729715809,-0.000307439593598,-0.00320173497312,0.000484095537104,-0.000177567082574,-0.00035230780486,0.456920951183,-0.00680746999279,0.173210511175,0.0175622596189,0.91622081659,0.400032312816,0.0143223834317
-0.143856495619,-0.0424397811294,0.133794039488,-2.56067681313,-0.0266412235796,2.55896830559,-0.811440527439,0.0342786572874,0.000150645486428,-0.000236995911109,0.000717491784599,-0.000109805383545,0.00011542251741,-0.00019445286307,-0.000121532240883,0.45691957546,-0.00680918990884,0.173208526323,0.017560879631,0.916221693036,0.400030435656,0.0143204380804
-0.143856406212,-0.0424449928105,0.133792892098,-2.56067442894,-0.0266397371888,2.55896782875,-0.811440885067,0.0326763913035,-5.0721817388e-05,-0.000530394900125,-7.15417627362e-05,-0.00404210714623,-0.000126523023937,0.000127019447973,-0.000184048491064,0.456921432098,-0.00680972322373,0.173211768053,0.0175622526359,0.916222024139,0.400029500607,0.0143236897814
-0.143857210875,-0.0424390025437,0.133792579174,-2.56067538261,-0.0266410633922,2.55896830559,-0.811439871788,0.0326763913035,-6.22718434897e-05,-0.000427284976467,7.0204216172e-05,0.000280316598946,7.25730424165e-05,8.85400440893e-05,-4.47641250503e-05,0.4569203351,-0.00680997284619,0.173209107398,0.0175609811275,0.916222293082,0.400029035443,0.0143210364484
-0.143855512142,-0.0424374565482,0.133793309331,-2.56067490578,-0.0266408063471,2.55896782875,-0.811439037323,0.0326763913035,2.61194254563e-05,-6.7795132054e-05,0.000192203820916,5.01288377563e-05,3.04848508677e-05,2.12581617234e-05,-0.000390119821532,0.456920021015,-0.00680900337026,0.173208167889,0.01756043049,0.9162220192,0.400029717843,0.0143201723897
-0.143854349852,-0.0424390025437,0.133794099092,-2.56067585945,-0.0266398135573,2.55896925926,-0.81143862009,0.0326763913035,-0.000163187229191,-0.000203669420443,-0.000538129243068,0.000229723882512,8.96468191058e-05,-7.55344399295e-06,-0.000238311069552,0.45692012862,-0.00680809679523,0.173208633986,0.0175606610317,0.916221857306,0.400030042514,0.0143211782232
-0.143856182694,-0.0424419268966,0.133791953325,-2.56067585945,-0.0266399849206,2.55896830559,-0.811435818672,0.0326763913035,3.29956783389e-05,-0.000583426211961,-0.000224886272918,-0.000389939697925,0.000133076420752,-0.00151649129111,2.37310487137e-05,0.456920360889,-0.00680997877434,0.173209872555,0.0175612606047,0.916223171388,0.400026977897,0.014321975167
-0.14385612309,-0.0424415022135,0.133794605732,-2.56067848206,-0.0266406480223,2.55896902084,-0.811436593533,0.0326763913035,0.0002518427209,-0.000195022264961,8.16069768916e-06,-0.000398740987293,-8.47569172038e-05,-5.42538618902e-05,2.72871238849e-05,0.456919207732,-0.00680876966502,0.173208726198,0.0175609570615,0.916222379966,0.400028844552,0.0143208394673
-0.143855959177,-0.0424413867295,0.133792966604,-2.56067609787,-0.0266401357949,2.55896878242,-0.811436295509,0.0326763913035,0.000252705562161,0.000856634113006,5.81384229008e-05,0.000345594220562,-0.000163923250511,-4.35571564594e-05,0.000325889966916,0.456920271424,-0.00680941279698,0.173209579024,0.0175612141398,0.916222804341,0.400027825652,0.0143218346504
-0.143857777119,-0.0424421206117,0.13379226625,-2.56067466736,-0.0266403779387,2.55896902084,-0.811437249184,0.0326763913035,-1.24079278976e-05,-0.000152617838467,-0.00011091032502,-6.33091985947e-05,9.28576700971e-05,7.96987951617e-05,7.43725759094e-05,0.456921107664,-0.00681058942492,0.173210491423,0.0175618217456,0.916223056024,0.400027185877,0.014322858218
-0.143849611282,-0.0424410589039,0.133797451854,-2.56067276001,-0.0266404431313,2.55896997452,-0.811436414719,0.0326763913035,0.000203058560146,-0.000238344509853,-0.000591806543525,0.000427204329753,4.62613570562e-05,-4.24661666329e-05,-0.000116180919576,0.456922144504,-0.0068045053374,0.173210829329,0.0175621264745,0.916220522867,0.400032941555,0.0143237754266
-0.143853142858,-0.0424403548241,0.133794680238,-2.56067490578,-0.0266409795731,2.5589697361,-0.811435878277,0.0326763913035,-4.15599024564e-05,0.000295639707474,-0.000356775941327,-5.16697000421e-05,-0.000117337891425,-0.000255110906437,3.98446672989e-06,0.456920190939,-0.00680833978485,0.173208586532,0.0175607967918,0.916222341524,0.400028930575,0.0143210925447
-0.1438588202,-0.0424402169883,0.133792728186,-2.5606777668,-0.0266414657235,2.55896830559,-0.811436533928,0.0326763913035,-5.05037278344e-05,-0.000215167223359,-7.93201324996e-05,0.000258945277892,-1.32247187139e-05,-0.000182335264981,3.18382044497e-05,0.456919164241,-0.00681086068407,0.173208357501,0.0175608359856,0.916223183015,0.400027034235,0.0143201783481
-0.143857225776,-0.0424423925579,0.133792564273,-2.56067442894,-0.0266402326524,2.55896878242,-0.811436474323,0.0300424993038,-2.02698738576e-05,-4.36017180618e-05,-6.85095947119e-05,0.000641191552859,0.000672699767165,-0.000102682766737,0.000218309665797,0.456921218961,-0.0068102045712,0.173210683189,0.0175618519006,0.916223063837,0.400027161573,0.0143230002192
-0.143857136369,-0.0424403138459,0.133791610599,-2.56067562103,-0.0266403090209,2.55896949768,-0.81143450737,0.0300424993038,-0.00197003688663,-0.00047734376858,0.000160661249538,-0.000282794062514,-5.92354408582e-05,-9.68796666712e-05,-0.000118274227134,0.456920468293,-0.00681054222387,0.173209350449,0.0175611938482,0.916223636727,0.40002591718,0.0143219146387
-0.143857732415,-0.0424407087266,0.133791029453,-2.56067681313,-0.0266408268362,2.55896949768,-0.811435461044,0.0300424993038,-0.000184333854122,0.000134624322527,-0.00133506499697,-0.00207036361098,-6.60167133901e-05,-0.000166612298926,0.00115856027696,0.456919952572,-0.00681110615314,0.173209069048,0.0175611930842,0.916223601488,0.400026013944,0.0143214672077
-0.143858864903,-0.0424438528717,0.133791983128,-2.56067419052,-0.0266401879489,2.55897045135,-0.811432242393,0.0300424993038,7.81593334978e-05,0.00030985660851,0.000499627669342,0.000703088298906,1.41853697642e-05,-0.000339514110237,-0.000218947287067,0.456921908771,-0.00681123937738,0.173211600192,0.0175625738838,0.916224328887,0.400024177725,0.0143245269144
-0.143852055073,-0.0424424670637,0.133794620633,-2.56066894531,-0.0266405586153,2.55897521973,-0.811433076859,0.0300424993038,7.70029510022e-05,-0.000781519396696,0.000452934153145,0.0027639537584,0.000106398445496,-0.00160735449754,-0.00051661033649,0.456925290388,-0.00680691965319,0.173213461199,0.0175642915327,0.916222123632,0.400029009872,0.0143285300032
-0.143853440881,-0.0424424409866,0.133794099092,-2.56067919731,-0.0266402736306,2.5589723587,-0.811431527138,0.0300424993038,-8.17361433292e-05,-0.000183773430763,-0.00011855133198,-0.000965552288108,3.91690155084e-05,-9.17907746043e-05,0.000208067096537,0.456919747211,-0.00680775890962,0.173209197829,0.0175615495015,0.916222981399,0.400027379393,0.0143225609664
-0.143857359886,-0.0424417965114,0.133792594075,-2.56067562103,-0.0266408193856,2.55897188187,-0.81143206358,0.0300424993038,0.000139473282616,-0.000416551658418,-0.000277289713267,-0.000188859368791,0.000155624686158,9.29533707676e-05,-7.13651752449e-06,0.456921416303,-0.00681039364256,0.173210348513,0.0175622529505,0.916223888843,0.400025228549,0.0143237212239
-0.143852084875,-0.0424444340169,0.13379354775,-2.56067681313,-0.0266402233392,2.55897092819,-0.811431646347,0.0300424993038,7.31481050025e-05,-5.91037896811e-05,8.70201693033e-05,1.74759898073e-05,-8.9981353085e-05,-0.000141659635119,-0.00186910957564,0.456921209178,-0.00680775787477,0.173211049563,0.0175625622661,0.916222860123,0.40002754906,0.0143243383543
-0.143855318427,-0.0424411334097,0.133792251348,-2.5606751442,-0.0266401320696,2.5589723587,-0.811430156231,0.0272851567715,0.000990959699266,-0.000112986446766,-0.000101695513877,0.000329536007484,-4.68923135486e-05,1.38212762977e-05,5.172019155e-05,0.456921458188,-0.00680942217415,0.173210181614,0.0175619809972,0.91622400162,0.400024976839,0.0143238704333
-0.143852069974,-0.0424437820911,0.133794903755,-2.56066608429,-0.0266412664205,2.5589799881,-0.811427295208,0.0272851567715,-5.97953749093e-06,0.000800354289822,0.000520368630532,0.000471091509098,0.000133137291414,0.000327279529301,0.00013830352691,0.45692789709,-0.00680684862261,0.173215627752,0.0175662966432,0.916223018937,0.400026726924,0.0143325580364
-0.143854051828,-0.0424431674182,0.133795306087,-2.56066966057,-0.0266402214766,2.55897974968,-0.811429440975,0.0272851567715,9.30289570533e-06,-0.000345436157659,-6.96303832228e-05,-0.000365752610378,2.6982743293e-05,4.29902465839e-05,4.56263151136e-05,0.456926023884,-0.00680750151735,0.173213937117,0.0175651193963,0.916223118455,0.400026619456,0.0143306383747
-0.143859475851,-0.0424421466887,0.13379098475,-2.56067490578,-0.0266396794468,2.55897855759,-0.811427950859,0.0272851567715,-0.000116134804557,-0.000157037997269,-0.000503595918417,0.000502319890074,0.000112738984171,-1.30731887111e-05,2.78265633824e-05,0.456923031059,-0.00681186609545,0.173211335297,0.0175633857758,0.916225523072,0.400021307513,0.0143273015172
-0.143857210875,-0.0424411259592,0.13379304111,-2.56067180634,-0.0266411509365,2.55897831917,-0.811426639557,0.0272851567715,-4.67384015792e-05,-1.07407640826e-05,-0.000148239414557,-0.000124325495563,1.44262176036e-05,-0.000114415124699,0.000398580130422,0.45692433112,-0.00680996138947,0.173212048049,0.0175640828382,0.916224659512,0.400023228741,0.0143280300031
-0.143852502108,-0.0424377210438,0.133794754744,-2.56068277359,-0.0266397632658,2.55897688866,-0.811427175999,0.0272851567715,-0.000122464218293,0.000932118971832,0.00016567647981,-0.000289388961392,-8.42256777105e-05,1.82081257663e-05,-0.00011083658319,0.456918272856,-0.00680687289786,0.173206107729,0.017560291652,0.916223636348,0.400025986305,0.0143211143427
-0.143854990602,-0.0424473658204,0.133794680238,-2.56066346169,-0.0266415439546,2.5589838028,-0.811424314976,0.0264262370765,0.000370374677004,0.000208899087738,-7.05007623765e-05,-0.000964547856711,-6.53348397464e-05,0.000213810038986,-0.000274421239737,0.456930520081,-0.00680836860899,0.173218638633,0.0175685893066,0.916224102382,0.400023985453,0.0143370020483
-0.143852949142,-0.0424414910376,0.133793771267,-2.56068301201,-0.0266398601234,2.55897736549,-0.811425447464,0.0264262370765,-0.000181081602932,0.000327724061208,5.52896599402e-05,-8.01486385171e-05,2.93179550681e-06,0.000518426531926,0.000392107933294,0.456918848773,-0.00680760764209,0.173207772381,0.0175613347398,0.916224217265,0.400024548589,0.0143228288526
-0.143849641085,-0.0424366891384,0.1337954849,-2.56066966057,-0.026640092954,2.55898475647,-0.81142437458,0.0264262370765,-0.000258080108324,-0.000534397026058,-0.000288426264888,0.000587873568293,8.79540948517e-06,-5.60097505513e-05,0.000175075605512,0.456926108186,-0.00680522864603,0.173211484775,0.0175642863802,0.916223232834,0.400026406542,0.0143302899188
-0.143857479095,-0.0424379333854,0.133794635534,-2.5606842041,-0.0266404841095,2.55898046494,-0.811424255371,0.0264262370765,0.000239864733885,-9.66678271652e-05,0.000149915111251,0.000722777622286,0.000121625307656,9.28565932554e-05,-0.000296765007079,0.456918356881,-0.00680921934869,0.173205995947,0.0175609510581,0.916225088911,0.400022595139,0.0143220985832
-0.14385522902,-0.0424436107278,0.133792191744,-2.56066584587,-0.026640785858,2.55898427963,-0.811421096325,0.0264262370765,-0.000272320146905,0.000180500443093,-0.00222183461301,0.000263180962065,3.49504553014e-05,0.000150437903358,0.000186759614735,0.456928870405,-0.00680946670326,0.173216063769,0.0175669593199,0.916225464867,0.400021020351,0.0143346582684
-0.143853604794,-0.0424439609051,0.133794337511,-2.56066799164,-0.0266412869096,2.55898356438,-0.811420619488,0.0264262370765,0.00014620134607,0.000618615129497,0.00019504953525,-0.000678025011439,1.0131729141e-05,-0.000297803984722,-0.000139190146001,0.456927256123,-0.00680762603694,0.173214782241,0.0175663433716,0.916224650625,0.400022976901,0.0143328573575
-0.143855974078,-0.0424381941557,0.133792549372,-2.56068229675,-0.0266394075006,2.5589799881,-0.81142115593,0.0264262370765,-0.000323109648889,0.000372426293325,-0.000168467406183,0.000991158536635,-6.53298484394e-05,4.59268449049e-05,-7.3529612564e-05,0.45691920658,-0.00680943267387,0.173206811853,0.0175609824857,0.916225992907,0.400020489921,0.0143230283025
-0.143857896328,-0.0424448475242,0.133793249726,-2.56065511703,-0.0266406647861,2.55899310112,-0.811419606209,0.0230857729912,0.000255280814599,-0.000520784175023,-0.000190885941265,-0.000651746348012,-3.26107583533e-05,-0.000727265141904,8.90850933501e-05,0.456936091697,-0.00681022116425,0.173221635446,0.0175711854807,0.916225904808,0.400019487194,0.0143441397852
-0.143857061863,-0.0424415133893,0.133794039488,-2.56068515778,-0.0266409050673,2.55898523331,-0.811419069767,0.0230857729912,0.000639450037852,0.000465477263788,-6.15764220129e-05,-0.00089295982616,0.00345182325691,-6.99687880115e-05,-0.000244816968916,0.456919492271,-0.00680937450819,0.173207711376,0.0175626899427,0.916226015669,0.400020278535,0.0143253821876
-0.143853604794,-0.0424404256046,0.133795171976,-2.56066131592,-0.0266404338181,2.55899190903,-0.811419010162,0.0230857729912,-0.000180808085133,-0.00414099451154,0.00024672280415,-0.00144893128891,-9.60877150646e-05,-0.000222674847464,7.69865607708e-07,0.456932207029,-0.00680727218297,0.173217107047,0.0175684453607,0.916224922056,0.400022044538,0.0143389503007
-0.143854394555,-0.0424395240843,0.133792534471,-2.56068658829,-0.0266398172826,2.55898690224,-0.811417579651,0.0230857729912,-6.65949482936e-05,-0.000458547438029,0.000369184563169,-0.000661639962345,2.75820693787e-05,5.25365903741e-05,0.000214643383515,0.456917922073,-0.00680876242545,0.173205967478,0.0175616634239,0.916226299027,0.40001972091,0.0143240885177
-0.143857806921,-0.0424429103732,0.133792832494,-2.56066131592,-0.0266403332353,2.55899167061,-0.81141769886,0.0230857729912,0.000177360270754,5.16834697919e-05,0.000142317876453,0.000279511383269,-3.4213728668e-06,0.000361774407793,0.000230519217439,0.456932506322,-0.00681029786407,0.173218215796,0.017569023252,0.916226491839,0.400018390053,0.0143398875639
-0.143854930997,-0.0424389019608,0.133794933558,-2.56066703796,-0.0266404077411,2.55899477005,-0.81141525507,0.0230857729912,0.00271840742789,-0.00165807327721,-0.000108441956399,-0.000945649924688,-7.26648868294e-05,-9.11113529583e-05,0.000385609950172,0.456929830766,-0.00680792102145,0.173214474558,0.0175674027119,0.916226018845,0.400019646821,0.0143370356694
-0.143853455782,-0.0424360409379,0.133794561028,-2.56068181992,-0.0266408976167,2.55898952484,-0.811417102814,0.0230857729912,0.000371988600818,0.00137039634865,-4.93775805808e-05,-0.0003341701522,4.44177057943e-05,-0.00020359143673,-6.97796203895e-05,0.456921177034,-0.00680735607956,0.17320693948,0.0175627290291,0.916225553889,0.40002129071,0.0143266049829
-0.143852800131,-0.0424352400005,0.133794695139,-2.56067943573,-0.0266409050673,2.55898857117,-0.81141513586,0.0230857729912,0.000130410553538,-0.000266951159574,-0.000200048016268,0.000618653721176,6.56943666399e-05,0.00015588592214,0.00590852182359,0.456922385457,-0.00680710087173,0.173207945967,0.0175631020522,0.916225946644,0.400020339478,0.0143275897451
-0.143856391311,-0.0424434803426,0.133790910244,-2.56066703796,-0.0266404487193,2.55899143219,-0.81141513586,0.0230857729912,-0.000278516672552,-0.000966993160546,-0.000126397892018,0.00343369902112,-5.33459096914e-05,-2.53122434515e-05,0.00480995746329,0.456929891577,-0.00680985981723,0.173215869404,0.0175678460226,0.916226776033,0.400017887602,0.0143371875175
-0.143856927752,-0.0424422062933,0.133791953325,-2.56067562103,-0.0266408678144,2.55899262428,-0.811416089535,0.0215393230319,4.82379618916e-05,0.00198662653565,-0.000401751429308,-0.000554902071599,-3.36398261425e-05,-0.000186579170986,-0.000347817869624,0.456925342924,-0.00681047986283,0.173212129633,0.0175659382076,0.916226901156,0.400017839952,0.0143328578149
-0.14385522902,-0.0424436256289,0.133794233203,-2.56067705154,-0.0266415290534,2.55898976326,-0.811416745186,0.0215393230319,0.000189155558473,0.000281653861748,0.000126841550809,0.000255728635238,-0.000122147306683,0.000101485384221,-0.000161275966093,0.456924698143,-0.00680852889573,0.173212250485,0.0175659209124,0.916225833936,0.400020314901,0.014332027012
-0.143856287003,-0.0424409173429,0.13379278779,-2.56067442894,-0.0266405753791,2.55899095535,-0.811414361,0.0215393230319,0.000198594047106,-0.00023765763035,-8.6596897745e-05,0.000764145166613,0.000129826075863,-5.32358280907e-05,0.000153429413331,0.456926229759,-0.0068094263768,0.173212665152,0.0175658675233,0.916227023628,0.400017548137,0.0143332597756
-0.143852964044,-0.0424365326762,0.133794173598,-2.56067562103,-0.0266399588436,2.5589902401,-0.811414003372,0.0215393230319,6.28734342172e-05,0.000209672682104,7.61298870202e-05,-0.000261166074779,0.000136607821332,-0.000118390518764,-0.000337557983585,0.456924378539,-0.00680728618917,0.173209635568,0.0175639928366,0.916226246064,0.400019524271,0.0143301103011
-0.143852859735,-0.0424378104508,0.133795797825,-2.56066918373,-0.026640875265,2.5590004921,-0.811411261559,0.0215393230319,0.000208247744013,0.000395633775042,0.000212594866753,0.00085267261602,2.09399368032e-05,0.000106690473331,-0.000128281884827,0.456930295592,-0.00680648193512,0.173213931351,0.017568004525,0.916226164455,0.400019226731,0.0143387137275
-0.143855914474,-0.0424423143268,0.133795067668,-2.56066966057,-0.0266398880631,2.55903172493,-0.811410069466,0.0215393230319,-0.000181996481842,0.00127377628814,-6.45117688691e-05,0.0019069488626,-0.000168915619724,0.00705469911918,-2.11126225622e-05,0.456937062797,-0.00680818985774,0.173218576207,0.0175747917711,0.916226888438,0.400016707714,0.0143544009718
-0.143860653043,-0.0424571670592,0.133791521192,-2.56065869331,-0.0266396496445,2.55924081802,-0.811411499977,0.0215393230319,0.000110568747914,-0.00215318775736,-0.000246986426646,0.000153415065142,-1.08139502117e-05,0.0164186581969,-0.000167302889167,0.456989617058,-0.00681136454445,0.173249793638,0.0176215746888,0.916225711388,0.400013470988,0.0144619710468
-0.143857255578,-0.0424647368491,0.133792221546,-2.5606610775,-0.0266390033066,2.55961942673,-0.811408162117,0.0215393230319,-3.20899962389e-05,0.00237425975502,-0.000211730235606,-0.0006262245588,-5.7985962485e-06,0.00444482313469,-0.000446839869255,0.457071180537,-0.00680792300981,0.17328894178,0.0176965314478,0.916221302873,0.400013836128,0.0146385628946
-0.143856063485,-0.0424510650337,0.133792310953,-2.56065583229,-0.0266393702477,2.5596382618,-0.811410546303,0.0215393230319,-3.9263828512e-05,0.00129452045076,0.000395262381062,0.00237011304125,-1.17867139124e-05,0.000755084678531,0.000324225722579,0.45707559356,-0.00680697101154,0.173286602913,0.0176977697137,0.916220364011,0.400015741237,0.0146437687065
-0.143854752183,-0.042476657778,0.133793860674,-2.5606470108,-0.0266382377595,2.55997753143,-0.81140679121,0.0199436228722,9.99807671178e-05,0.000344831001712,0.000237555475906,8.30572171253e-05,-3.77091928385e-05,0.0068594221957,-0.000271321536275,0.457160012101,-0.00680412075421,0.173335753014,0.0177748268085,0.916216004744,0.400015756584,0.0148216850367
-0.143854171038,-0.0424780659378,0.13379342854,-2.56064391136,-0.0266401618719,2.56006407738,-0.811406970024,0.0199436228722,0.000105790983071,-2.19084195123e-05,0.000199756948859,0.000255167571595,3.3566600905e-05,0.00197516521439,-0.000135065201903,0.457177212642,-0.00680436536407,0.173344721286,0.0177903443253,0.916215108536,0.400015820638,0.0148566974247
-0.143858090043,-0.0424665920436,0.13379265368,-2.56064295769,-0.0266400724649,2.56011080742,-0.811408221722,0.0199436228722,-3.82051530323e-06,0.00425718072802,-0.000237050058786,-0.000410556676798,-0.00395391555503,0.00280156196095,6.45558757242e-05,0.45718587898,-0.00680603028852,0.173344420303,0.0177966128964,0.916215362221,0.400014327326,0.0148737424317
-0.143857732415,-0.0424538590014,0.133791863918,-2.5606534481,-0.0266384985298,2.56024622917,-0.811407089233,0.0199436228722,-0.00285722105764,-0.00056911126012,-0.00016567549028,-0.000486817996716,-6.52595263091e-05,0.00867984443903,-0.000308280345052,0.457210892914,-0.00680523081701,0.173348845711,0.0178197709352,0.916214576947,0.400012896013,0.0149327646079
-0.143856212497,-0.0424610972404,0.133791729808,-2.56065201759,-0.0266398712993,2.56040859222,-0.811405062675,0.0199436228722,0.000317443045788,-0.000867406197358,-0.000236753141508,8.05711024441e-05,2.80014628515e-05,0.00129640160594,-2.9849645216e-05,0.457244742858,-0.0068040819802,0.173367289983,0.0178511434346,0.916212507434,0.400013554372,0.0150044626424
-0.143856570125,-0.0424564369023,0.133794546127,-2.56065797806,-0.0266392510384,2.56044435501,-0.811404287815,0.0199436228722,-0.000491498212796,-0.000674578710459,-6.55813419144e-05,-0.000332625146257,-6.08021400694e-05,0.00318169547245,8.12705256976e-05,0.457248859366,-0.00680266452962,0.173366324349,0.0178555185258,0.916211950443,0.400014190666,0.0150163001786
-0.143853142858,-0.0424497202039,0.133794859052,-2.56065702438,-0.0266375821084,2.56046748161,-0.811403632164,0.0199436228722,0.000783861498348,0.000232869177125,0.000341640057741,8.94901495485e-06,1.7570662294e-06,-5.21325864611e-06,-0.000419199874159,0.457253090324,-0.00680138435112,0.173365835937,0.0178579159537,0.916211747924,0.400014249996,0.0150242232735
-0.143853962421,-0.0424540825188,0.133794233203,-2.56066131592,-0.026638744399,2.56047773361,-0.81140422821,0.0199436228722,0.000178310248884,0.000232853111811,-0.000259386870312,-0.000569599797018,-6.93145266268e-05,1.65408812336e-06,-0.000183044336154,0.457254084999,-0.0068013756144,0.173367199256,0.0178605538723,0.91621124923,0.400015086388,0.0150292296076
-0.143860369921,-0.0424492247403,0.133791163564,-2.56065988541,-0.0266395006329,2.56050491333,-0.811402380466,0.0199436228722,2.50044395216e-05,-0.000290200841846,1.53770615725e-05,-0.00322256516665,-8.76868944033e-06,0.00272365822457,0.000581772706937,0.45725978813,-0.00680549230336,0.173368196663,0.0178650515128,0.916213101152,0.400010230949,0.0150402137444
-0.143858790398,-0.0424503274262,0.133791908622,-2.56065750122,-0.0266379844397,2.56051492691,-0.811401546001,0.0199436228722,0.000459979521111,0.000167700985912,0.000174965491169,-0.000190671707969,-0.000109305074147,-0.000184921038453,-0.000253405596595,0.457263272251,-0.00680435029856,0.173370590326,0.0178673750251,0.916212909862,0.400010326146,0.01504657335
-0.143850892782,-0.0424527227879,0.133794680238,-2.56066179276,-0.0266378074884,2.56051802635,-0.811402142048,0.0174896605313,0.000489765196107,-0.00072474044282,-0.000314202858135,0.000258997053606,-7.62030103942e-05,-3.79138691642e-05,0.000634444528259,0.457262332256,-0.00679951243734,0.173370304438,0.0178676596907,0.916210666465,0.400015430529,0.0150471396673
-0.143862053752,-0.0424319133162,0.133790791035,-2.56067204475,-0.0266386978328,2.560516119,-0.811402738094,0.0174896605313,-0.000505800184328,2.85239748337e-05,-0.000218835251871,0.000403466925491,7.27081278455e-05,-2.98229970213e-05,-0.00027862197021,0.457253627223,-0.00680591302742,0.173356713281,0.0178599834213,0.916213702146,0.400009368789,0.0150325498505
-0.143864139915,-0.0424279645085,0.133787617087,-2.56067895889,-0.0266385264695,2.56051564217,-0.811402261257,0.0174896605313,0.000380985147785,-6.27099216217e-05,-7.97721804702e-05,-0.000947940396145,3.8516765926e-05,-0.000213682564208,0.000457422545878,0.457249557179,-0.00680818086352,0.173352200262,0.0178573692949,0.916214979134,0.400006749857,0.0150275121563
-0.143851190805,-0.0424259155989,0.133796498179,-2.56068468094,-0.0266387239099,2.56051516533,-0.811402142048,0.0174896605313,0.0017908255104,0.00106305652298,-0.00343599240296,-0.00174676557072,-0.000148393810377,-1.48987692228e-05,-4.69942497148e-05,0.457246530847,-0.00679821134792,0.173348981888,0.017855611868,0.916210675792,0.400016821145,0.0150238866999
-0.143853515387,-0.0424257479608,0.133797392249,-2.56067943573,-0.0266391132027,2.56051540375,-0.81139934063,0.0174896605313,-0.000161212010426,0.000154773995746,-0.000285388581688,-0.00103800103534,6.91941168043e-05,-0.000131136606797,0.000189181708265,0.457249056903,-0.00679889908443,0.173350963038,0.0178567939463,0.916211409717,0.400014997651,0.0150262753316
-0.143852010369,-0.0424138903618,0.133796736598,-2.56067895889,-0.0266391094774,2.56051540375,-0.811400473118,0.0174896605313,0.000440374074969,0.000121896599012,0.000293937686365,-0.000166524521774,-7.07387425791e-06,5.37222767889e-05,-0.000278223102214,0.457247418116,-0.00679823576558,0.173345772329,0.0178537550261,0.916211113217,0.400015993188,0.0150214621072
-0.143850147724,-0.0424097143114,0.133797749877,-2.56068062782,-0.026638938114,2.56051588058,-0.811397790909,0.0174896605313,-0.000656760530546,-3.55394076905e-05,6.971052062e-05,-0.000257436098764,6.54362156638e-05,0.000227312571951,0.000142082048114,0.457246080149,-0.00679681776836,0.173343274282,0.0178523375623,0.916211148439,0.400016060539,0.0150192047697
-0.143861860037,-0.0424023158848,0.133790045977,-2.56068706512,-0.0266392771155,2.56051301956,-0.811397373676,0.0181968901306,0.000285760499537,-0.000144821198774,0.000105386519863,-0.000609210634138,-0.000136771792313,-9.74835493253e-05,-0.000341284059687,0.457241088789,-0.00680548308783,0.17333716262,0.017848605181,0.916215213525,0.400007198345,0.0150116871439
-0.143855676055,-0.0424057431519,0.13379240036,-2.56068563461,-0.0266389548779,2.56051063538,-0.811396837234,0.0181968901306,0.000563404697459,-0.000586134498008,0.000411880610045,0.00343355326913,-0.000149217768922,8.02558060968e-05,-0.000125950711663,0.457241858091,-0.0068016737644,0.17333903463,0.0178492283544,0.916213652172,0.400010705449,0.0150127888187
-0.143858119845,-0.0424056649208,0.133791103959,-2.56068086624,-0.0266380403191,2.56051254272,-0.811397492886,0.0181968901306,-0.000256987899775,-0.000630409922451,-0.00058972631814,0.00019090922433,4.4591648475e-05,0.000124696045532,0.000276956299786,0.457244514722,-0.0068033344398,0.173341037256,0.0178503272177,0.91621435939,0.400008920203,0.0150158883977
-0.143856406212,-0.0423959940672,0.133794277906,-2.56067633629,-0.0266404785216,2.56051278114,-0.811396956444,0.0181968901306,-0.00015807885211,0.000819995708298,0.000287532486254,-3.57774042641e-05,3.26589179167e-05,-6.33070958429e-05,0.00573997152969,0.457245238545,-0.00680102562375,0.173338427399,0.0178493991273,0.916213122026,0.400011878237,0.0150136913699
-0.143858253956,-0.0423887036741,0.133795589209,-2.56068062782,-0.0266375355422,2.56050872803,-0.811397135258,0.0181968901306,-0.000362910679542,-0.000587117276154,-1.325998619e-05,-0.000241343848757,-8.4365667135e-05,-8.40243737912e-05,4.63432370452e-05,0.457240990969,-0.0068011112635,0.173333189748,0.0178451514652,0.916213822827,0.400010711126,0.0150070681581
-0.143857389688,-0.0423978455365,0.133794888854,-2.56068682671,-0.0266391504556,2.56050539017,-0.811396479607,0.0181968901306,-0.00147144577932,-0.000319889310049,-5.81688582315e-05,-0.00042034193757,4.8865989811e-05,-0.000267375115072,0.000185073164175,0.457238604123,-0.00680118645033,0.173334305268,0.0178457579064,0.916213768728,0.400010844975,0.0150060821333
-0.143853574991,-0.0423977263272,0.133796259761,-2.56068730354,-0.0266395397484,2.5605032444,-0.811397016048,0.0181968901306,-0.000514675863087,0.000588322116528,-0.000173758642632,0.000509889097884,-4.65359407826e-05,0.000118385964015,-0.00448479503393,0.457238239287,-0.00679884856895,0.173334025339,0.017845513298,0.916212496081,0.400013805382,0.0150051612842
-0.143862962723,-0.0423943586648,0.133788987994,-2.56067943573,-0.0266380254179,2.56050491333,-0.811396300793,0.0181968901306,-0.00104094226845,4.53710017609e-05,-0.000308427377604,0.00023847380362,-9.2193886303e-06,-9.32085549721e-06,-0.000121286437206,0.457241726694,-0.00680628010652,0.173335730347,0.0178461565108,0.916216167194,0.400005254072,0.0150081999712
-0.143860578537,-0.0423795282841,0.133790567517,-2.56067180634,-0.0266395062208,2.56050801277,-0.811395049095,0.0181968901306,-2.89420222543e-05,0.00158631440718,0.000205437245313,-2.67140731012e-05,-0.000103199854493,-3.29605973093e-05,0.00013265661255,0.457243729621,-0.00680421503834,0.173332264178,0.0178447839517,0.916215402895,0.400007123412,0.0150066680116
-0.143859744072,-0.0423818938434,0.133792802691,-2.56067800522,-0.0266392808408,2.560505867,-0.81139177084,0.0181968901306,-0.000279105617665,3.67229622498e-05,0.000350195303326,-0.000667886983138,-0.000153775225044,7.25432910258e-05,0.000193588479306,0.457240692009,-0.00680286404398,0.173330717088,0.0178436559544,0.916215540504,0.400006961818,0.0150039147997
-0.143856748939,-0.0423885993659,0.13379496336,-2.56068253517,-0.026638764888,2.56050372124,-0.811393797398,0.0181968901306,0.00028158799978,-0.00322809279896,0.000403484213166,-0.000496411463246,-1.56549576786e-05,-0.000126129540149,-6.28851485089e-05,0.45723915348,-0.00680064893374,0.173331785783,0.0178439610715,0.916214196253,0.400010032582,0.0150037712677
-0.143853411078,-0.0423863194883,0.133795708418,-2.56068658829,-0.0266372747719,2.56050181389,-0.81139332056,0.0181968901306,0.000174675587914,-3.65916130249e-05,1.25448277686e-05,-0.000375459436327,-5.20928188052e-05,-0.000100193748949,-0.000382249709219,0.457236468258,-0.00679866342827,0.173328990447,0.0178417529209,0.916213801978,0.40001116514,0.0150002787538
-0.143860280514,-0.0423800237477,0.133791804314,-2.56067633629,-0.026640092954,2.56050539017,-0.811393678188,0.0182947330177,-7.07501499164e-07,-0.000119784424896,-0.000230599282077,-5.63777903153e-05,0.000144846228068,-8.69541509019e-06,-9.88461179077e-05,0.457241171564,-0.00680310752159,0.173331064083,0.0178438561593,0.916215215265,0.400007693195,0.0150040387998
-0.143861874938,-0.0423810444772,0.133791968226,-2.56067466736,-0.0266396123916,2.56050515175,-0.811393380165,0.0182947330177,-0.000253733480349,-7.76238739491e-05,-0.00022558143246,0.000143204757478,-2.49294826062e-05,4.10673646911e-06,-0.00256882701069,0.457241966967,-0.00680386618007,0.173331498725,0.0178440719794,0.916215686203,0.400006583246,0.0150046156563
-0.143857523799,-0.0423794128001,0.133792966604,-2.56067943573,-0.0266389474273,2.56050443649,-0.811392843723,0.0182947330177,-0.000116346513096,-0.000170754807186,6.32724404568e-05,-5.91484749748e-05,8.04068113212e-05,-7.54601642257e-05,-1.46887133567e-08,0.457239323083,-0.0068017053454,0.17332889725,0.0178423376741,0.916214955633,0.400008447163,0.0150015979258
-0.143857464194,-0.0423829518259,0.133794620633,-2.56068515778,-0.0266379527748,2.56050443649,-0.811391353607,0.0182947330177,-0.00352034019306,-0.000607266614679,0.00170108384918,-0.000989408697933,6.30507565802e-05,-4.02633959311e-05,-0.000585948117077,0.457237151755,-0.00680095282428,0.173328276221,0.0178418479057,0.916215096455,0.400008183321,0.0150006149179
-0.143860638142,-0.0423787012696,0.133793011308,-2.56068181992,-0.0266390331089,2.56050300598,-0.811389684677,0.0182947330177,-0.000811973819509,0.000860235013533,-0.0012640694622,-0.000282008957583,4.13526395278e-05,-7.59190224926e-05,-0.000165929261129,0.457237740334,-0.00680309699697,0.17332751045,0.0178414063054,0.916216230654,0.400005645438,0.0149995401572
-0.143858551979,-0.0423775240779,0.133793309331,-2.56068372726,-0.0266392752528,2.56049609184,-0.811390399933,0.0182947330177,0.000102342972241,-0.000237179061514,3.10871073452e-05,-0.000430517684435,-8.33986196085e-05,-1.67954949575e-05,0.000190814549569,0.457235169631,-0.00680201945853,0.1733255652,0.0178394162083,0.916215677436,0.400007172673,0.0149949705236
-0.143858224154,-0.0423766747117,0.133794769645,-2.56070041656,-0.0266383849084,2.56048440933,-0.8113899827,0.0183013007045,0.000244424736593,-0.000724907149561,-0.000439462863142,-0.000454561930383,-7.88089091657e-05,0.000145199970575,-7.7056720329e-06,0.457224540483,-0.0068011592954,0.173317565146,0.0178332838833,0.916215840887,0.400007568088,0.0149817237603
-0.143858969212,-0.0423930995166,0.133795782924,-2.56086587906,-0.026639232412,2.56048464775,-0.811386823654,0.0183013007045,-0.00020978275279,-0.000382321304642,-0.00053414714057,-0.00449629081413,7.49005484977e-05,0.000146901817061,4.76161658298e-05,0.457147948591,-0.00680101450591,0.173260823432,0.0178040165492,0.916217570269,0.400007468824,0.0149132655983
-0.143860965967,-0.042410928756,0.133793741465,-2.56094050407,-0.0266384743154,2.56048798561,-0.811388492584,0.0183013007045,-0.0013798980508,-0.00022973108571,0.000872374745086,-0.000189889469766,-7.96421136329e-06,0.0002236491855,0.00021207719692,0.45712105918,-0.00680221338674,0.173242751928,0.01779526998,0.916217895901,0.400007907282,0.0148919236242
-0.143864512444,-0.0424183122814,0.133788004518,-2.56094861031,-0.0266383960843,2.56048893929,-0.811388373375,0.0183013007045,5.97288817517e-05,-0.000219902984099,0.000219973982894,9.19571466511e-05,-7.802213986e-06,-0.000111720721179,-0.00253643817268,0.4571131509,-0.00680734574976,0.173240587778,0.017794323975,0.916220515601,0.400002085019,0.0148882668039
-0.143860012293,-0.0424329005182,0.133793398738,-2.56095409393,-0.0266390386969,2.56048774719,-0.811387658119,0.0183013007045,-0.00319614028558,-0.000141360287671,-0.000321518076817,0.000333723932272,-9.64378887147e-06,-5.56884660909e-05,0.000217488399358,0.457112636935,-0.0068032160611,0.17324494552,0.0177970003351,0.916218506506,0.400006452198,0.0148913731871
-0.143860772252,-0.0424349531531,0.133792027831,-2.56093406677,-0.0266384053975,2.56049180031,-0.811385989189,0.0183013007045,-0.000159599192557,-4.11222345065e-06,0.000302952161292,0.000530117133167,2.50386074185e-06,3.56041382474e-05,-9.78446041699e-05,0.457123411897,-0.006804233245,0.173254042714,0.0178022424699,0.916219134458,0.400004335329,0.0149033290174
-0.143853828311,-0.0424399785697,0.133795335889,-2.56092023849,-0.0266391355544,2.56048774719,-0.811386227608,0.0183013007045,0.00072110973997,-0.00124624755699,6.33630115772e-05,0.000592599157244,-0.000144980862387,-0.000470825907541,-5.19811474078e-05,0.457130024182,-0.00679977487595,0.173261286376,0.0178057822799,0.916216797013,0.400009287848,0.0149098727248
-0.143859252334,-0.0426308251917,0.133794650435,-2.56075787544,-0.0266399718821,2.56034517288,-0.811383426189,0.018305240199,-0.000216551270569,-0.00771420635283,-4.0617382183e-05,0.0102159855887,-4.05999817303e-05,-0.013842523098,-8.6694577476e-05,0.457207221293,-0.00680804965478,0.17339700951,0.0178618058475,0.916217026056,0.400002925462,0.0149992119326
-0.143855944276,-0.0433194488287,0.133793503046,-2.55978393555,-0.0266407392919,2.55765938759,-0.811382114887,0.018305240199,-0.00328283058479,-0.0204731561244,-0.000152124644956,0.0342314988375,-0.000167170263012,-0.0912754163146,0.000127710853121,0.457204115087,-0.00683755861838,0.17382721541,0.0177202595331,0.916233401135,0.399990151353,0.0144991568142
-0.143847152591,-0.0438714101911,0.13379585743,-2.5589454174,-0.0266403853893,2.55550146103,-0.811384320259,0.018305240199,0.000332141033141,-0.0346324145794,0.000231925383559,0.0633253827691,-6.54307950754e-06,-0.154215872288,-0.00271606096067,0.457227566946,-0.00685700528699,0.174194602617,0.0176173805268,0.916243589072,0.399984834952,0.0141224953973
-0.143843919039,-0.0447252802551,0.133799687028,-2.55756998062,-0.0266411118209,2.55173063278,-0.811382472515,0.018305240199,0.000102756013803,-0.0543322227895,-0.000121445154946,0.0925652235746,2.53524831351e-05,-0.25279122591,-5.42871057405e-05,0.457206714104,-0.0068938649911,0.174752780098,0.0173904094556,0.916266123467,0.399968802434,0.0133761506302
-0.143844738603,-0.0515063367784,0.133796557784,-2.54828381538,-0.0266430173069,2.52437138557,-0.811282277107,0.0183091796935,-0.000167145728483,-0.175900638103,0.00011636945419,0.206105977297,-4.57260066469e-05,-0.607200264931,0.0133564351127,0.456770031205,-0.00718639800065,0.178741031926,0.0157815420596,0.916439139662,0.399782667463,0.00800404289513
