imanlab/tactile_prediction_flat_dataset/test/data_sample_2021-11-25-13-21-10/robot_state.csv
position_panda_joint1,position_panda_joint2,position_panda_joint3,position_panda_joint4,position_panda_joint5,position_panda_joint6,position_panda_joint7,position_panda_finger,velocity_panda_joint1,velocity_panda_joint2,velocity_panda_joint3,velocity_panda_joint4,velocity_panda_joint5,velocity_panda_joint6,velocity_panda_joint7,ee_state_position_x,ee_state_position_y,ee_state_position_z,ee_state_orientation_x,ee_state_orientation_y,ee_state_orientation_z,ee_state_orientation_w
-0.18521951139,-0.0150234485045,0.173611760139,-2.55533790588,0.0209841746837,2.60134792328,-0.776432156563,0.074522472918,0.000307433714624,1.34252259159e-05,0.000729676568881,0.000221395064727,2.14610536204e-05,-0.000132477711304,-0.000168706581462,0.464137794625,-0.00504775926012,0.166895979329,0.00763865171536,0.93057700097,0.364804935967,0.0297565899321
-0.185215234756,-0.0150193497539,0.173609972,-2.55533623695,0.020983370021,2.60134863853,-0.776434242725,0.074522472918,0.000218956891331,0.000880150182638,0.000285642890958,-0.000144433870446,-5.10826648679e-05,8.31182769616e-05,-0.000129549647681,0.464138096954,-0.00504651708242,0.166894824678,0.00763820233583,0.930576071469,0.364807374339,0.0297558798702
-0.185213133693,-0.0150223327801,0.173612684011,-2.55533623695,0.0209832731634,2.60134863853,-0.776437282562,0.074522472918,4.29021492891e-05,-0.000646028784104,0.000359647121513,0.000475112057757,-5.45226139366e-05,-3.24241555063e-05,-0.000108159598312,0.464138549479,-0.00504447877205,0.16689625731,0.0076390638542,0.930574669201,0.364810828127,0.0297571690584
-0.185214981437,-0.0150232827291,0.173610731959,-2.55533242226,0.0209833774716,2.60134840012,-0.776439487934,0.074522472918,0.000357394688763,-9.82858473435e-05,-0.00176996702794,0.000914137403015,5.91725111008e-05,-5.74055266043e-05,0.000150896856212,0.464140536536,-0.0050461846248,0.166898071339,0.00763997995,0.93057481519,0.364810272093,0.0297591851495
-0.185214146972,-0.015021325089,0.173612192273,-2.55533480644,0.0209839120507,2.60134792328,-0.776442289352,0.074522472918,0.000142314762343,-0.000974424823653,0.000107590050902,-0.000244183640461,6.07584261161e-05,-0.000845468661282,0.00384857296012,0.46413897458,-0.00504502904911,0.166896205506,0.00763880375029,0.930574040179,0.364812445367,0.0297570800418
-0.185216829181,-0.0150195751339,0.173611655831,-2.55533289909,0.020984409377,2.60134887695,-0.776445448399,0.0744994878769,-0.000277673243545,-8.54192421684e-06,0.00019619394152,8.37477055029e-05,7.65642980696e-05,0.000240262816078,0.000229953700909,0.464139942357,-0.00504651971536,0.166896413902,0.00763899538701,0.930574019307,0.364812431252,0.0297578565835
-0.185218065977,-0.0150156589225,0.173610121012,-2.55532741547,0.0209834706038,2.60134863853,-0.776450753212,0.0744994878769,0.000145326674101,0.00144265475683,-1.73849844032e-06,0.000214467509068,3.43783285643e-05,0.00010529915744,0.000481317139929,0.464141744017,-0.0050476864602,0.166896545512,0.00763914215435,0.930573485218,0.364813751267,0.0297583381115
-0.185217037797,-0.0150150377303,0.173613667488,-2.55532574654,0.0209832843393,2.60134863853,-0.776452183723,0.0744994878769,0.000226881049457,0.000557682360522,0.000117129507998,-0.000267762690783,-6.07121837675e-05,-0.00153569260146,0.000339919468388,0.464142470393,-0.00504556767151,0.166896901985,0.00763931313107,0.930572345277,0.364816615629,0.0297588263612
-0.185214608908,-0.015017493628,0.173613399267,-2.55532622337,0.0209833215922,2.60134768486,-0.776454508305,0.0744994878769,-9.30717142182e-05,-0.000330502283759,0.00299554760568,0.000155686371727,-3.51782546204e-05,-0.00514887133613,-0.00129581906367,0.46414244871,-0.00504462890537,0.166897744322,0.00763967895403,0.930571515178,0.364818693913,0.0297592120248
-0.185217037797,-0.0150156095624,0.173614531755,-2.555321455,0.0209839027375,2.6013481617,-0.776459276676,0.0744994878769,8.89277289389e-05,0.000293101358693,-0.000255364284385,0.000763448304497,-9.3651280622e-05,-0.00544221512973,-8.06038406154e-06,0.464144540697,-0.00504517962108,0.166898772377,0.00764012108658,0.930570919597,0.36482006826,0.0297608741399
-0.185217395425,-0.0150160398334,0.173610508442,-2.55532240868,0.0209838561714,2.6013481617,-0.776463031769,0.0744994878769,0.00010021043272,4.78653491882e-05,-0.000317355705192,0.000220593763515,-4.55809786217e-05,-0.000123549369164,-4.2338957428e-05,0.46414412976,-0.00504721342721,0.166898605462,0.00764016309836,0.930571034724,0.3648197965,0.0297605948579
-0.185218334198,-0.0150127802044,0.1736112535,-2.55532193184,0.0209839846939,2.60134792328,-0.776463747025,0.0744994878769,-0.000213640698348,0.000889116839971,0.00361705431715,-7.4536226748e-05,3.18445636367e-05,-6.18901322014e-05,-0.000104631166323,0.46414377603,-0.00504720122537,0.166897274631,0.00763932842775,0.930571004984,0.364819992872,0.0297593318045
-0.185216963291,-0.0150109902024,0.173612251878,-2.55532097816,0.0209834072739,2.60134863853,-0.776462376118,0.0744994878769,-0.00032990478212,-0.000360558595276,-3.61417260137e-05,-0.000496622698847,4.31410699093e-05,0.000112397436169,-0.000172132553416,0.464144107993,-0.00504608022048,0.166896895741,0.00763926793457,0.930570738084,0.364820678015,0.0297592940858
-0.1852170825,-0.0150086451322,0.173611149192,-2.5553176403,0.0209838822484,2.60134840012,-0.77646946907,0.0742598101497,-5.31141886313e-05,0.00110813509673,-0.00134816684294,-0.000471195118735,3.78527693101e-05,2.65162179858e-05,-0.0017143455334,0.464145282241,-0.00504656892768,0.166897090698,0.00763922490201,0.930569727279,0.364823219327,0.0297597587328
-0.185216128826,-0.0150112463161,0.173612773418,-2.55531811714,0.0209833290428,2.60134720802,-0.776468276978,0.0742598101497,0.000475954206195,-9.31785762077e-05,-0.000196235254407,0.000191988670849,1.37311262733e-05,1.79556900548e-05,0.00211333646439,0.464145234064,-0.00504546592429,0.166897972855,0.00763968317935,0.930569373465,0.364824089077,0.0297600424044
-0.185218110681,-0.0150059657171,0.173612102866,-2.55530905724,0.0209837388247,2.60134768486,-0.776475071907,0.0742598101497,-0.000600654690061,0.00023345927184,-0.00058152229758,4.30248655903e-06,8.63927125465e-05,7.47780431993e-05,5.10147328896e-05,0.464148839273,-0.00504656380544,0.166899108394,0.00764011270923,0.930568615411,0.364825835272,0.0297622292994
-0.185216769576,-0.0150061277673,0.173613771796,-2.55531001091,0.0209838394076,2.60134673119,-0.77647459507,0.0742598101497,0.000689359090757,-0.000345721637132,-0.000269376614597,7.73559077061e-05,2.05021464694e-07,8.98827274796e-05,0.000170680912561,0.464148272197,-0.00504514895162,0.166898871579,0.0076397512968,0.930568282482,0.364826743007,0.0297616046314
-0.18521681428,-0.015004879795,0.173612907529,-2.5553085804,0.0209847260267,2.60134792328,-0.776477873325,0.0742598101497,-0.000128375861095,-0.000777212670073,0.000244579219725,0.00102582864929,9.22893668758e-05,-1.73159096448e-05,-0.00032385380473,0.464148954533,-0.00504552460845,0.166898819684,0.00763973070246,0.930567877794,0.364827727399,0.0297621964591
-0.185214608908,-0.0150035759434,0.173611447215,-2.55530357361,0.0209833532572,2.60134792328,-0.776479363441,0.0742598101497,-0.000131577515276,-5.44643226021e-05,-0.00254349783063,-0.000734291854315,-8.10777783045e-05,-5.84589724895e-05,-7.87786775618e-05,0.464151164216,-0.00504520937113,0.166900159329,0.00764066928011,0.930567203644,0.364829294607,0.0297638229461
-0.185216024518,-0.015004536137,0.173610746861,-2.55529952049,0.0209836084396,2.60134792328,-0.77648037672,0.0742598101497,4.54273140349e-05,0.000589742849115,0.000809425546322,0.000182680800208,-1.14413614938e-05,-4.03122066928e-05,-0.000312971329549,0.464153269608,-0.00504622834691,0.166902165159,0.00764166328654,0.930567366561,0.364828670473,0.0297661243538
-0.185218319297,-0.0150058176368,0.173611924052,-2.55529594421,0.0209833607078,2.60134792328,-0.776480793953,0.0742598101497,-0.000951879250351,0.000190605016542,-0.000133388079121,-0.000273949757684,-9.78275147645e-06,-4.26905862696e-05,-0.000134470654302,0.464155200642,-0.00504681493937,0.166904131211,0.00764276645728,0.930567381827,0.364828431941,0.0297682873621
-0.18521900475,-0.0150038413703,0.17361086607,-2.5552854538,0.0209835618734,2.6013481617,-0.776482641697,0.0742598101497,0.000453499931609,-0.00109887158033,0.000331473856932,0.00203420547768,-2.91145133815e-05,6.89501257511e-06,-4.13099514844e-05,0.464159990291,-0.00504760372853,0.166907306331,0.00764425589267,0.930567259034,0.36482837594,0.0297724295134
-0.185214594007,-0.0150004699826,0.173613876104,-2.55526566505,0.0209839679301,2.6013481617,-0.77648460865,0.0742144957185,-7.6011820056e-05,-0.000150617022882,0.000177211419214,-0.000400433695177,-9.5304545539e-05,-0.000113881222205,-5.31048281118e-05,0.464169039357,-0.00504413993275,0.166913407341,0.00764691504016,0.930565355376,0.364832540247,0.0297802170375
-0.185220330954,-0.0150006562471,0.17361164093,-2.55525183678,0.0209834240377,2.6013481617,-0.776486575603,0.0742144957185,7.87375538494e-05,0.00343509274535,-0.000861712440383,0.00109493953642,-3.77723190468e-05,-4.26177648478e-05,-4.57436144643e-05,0.464175712435,-0.00504792452215,0.166918837922,0.00764983032648,0.930566151951,0.364829925047,0.0297866146669
-0.185220405459,-0.0150017300621,0.173611268401,-2.55524563789,0.0209835506976,2.60134911537,-0.776486933231,0.0742144957185,0.000572630902752,0.000544210197404,0.00014864190598,0.00126502220519,-1.65702876984e-05,4.84888441861e-05,-0.000434510526247,0.464180541144,-0.00504678311636,0.166922754185,0.00765176337212,0.930565283679,0.364831711567,0.0297913619618
-0.185219764709,-0.014994786121,0.173612251878,-2.55522990227,0.0209837052971,2.60134768486,-0.77648806572,0.0742144957185,0.00235121767037,-0.000162382129929,2.40623394347e-05,0.000690156477503,0.000103939470137,-0.000148900959175,0.00184200482909,0.464185877105,-0.00504714009171,0.166925156208,0.00765252132872,0.9305652608,0.364831476915,0.0297947553468
-0.185217857361,-0.0149922436103,0.173612311482,-2.55511569977,0.0209833923727,2.60134625435,-0.776493489742,0.0731697380543,-0.000347616558429,-0.000179678507266,-0.000417777569965,0.00273751467466,-1.22112805911e-05,-0.000114931928692,0.000155287867528,0.464238180286,-0.00504658178704,0.166966045707,0.00767214732081,0.930562364876,0.364834456183,0.0298436341399
-0.185215979815,-0.0149911018088,0.173610731959,-2.55505847931,0.0209837630391,2.6013469696,-0.776492595673,0.0731697380543,0.000612728472333,-0.000245450704824,0.000353408191586,0.000496800523251,-0.000109376116598,8.22479123599e-05,0.00521743670106,0.46426734899,-0.00504690382743,0.166989068083,0.00768332060239,0.930561656648,0.364833738927,0.0298715983212
-0.185215249658,-0.0149928582832,0.173613905907,-2.55500674248,0.0209834314883,2.60134863853,-0.7764929533,0.0731697380543,-2.12433569686e-05,2.96622201859e-05,-0.000186236778973,0.00398255046457,4.04575512221e-05,-3.14683347824e-05,0.000898518483154,0.464293006388,-0.00504541579003,0.167010031508,0.00769387764871,0.930559979618,0.364835710154,0.0298970376638
-0.185221612453,-0.0149926673621,0.173610791564,-2.55491375923,0.0209836438298,2.60134673119,-0.77649897337,0.0731697380543,0.00025265981094,0.00167772301938,-2.82935234281e-05,-0.00011711064144,1.66340341821e-05,-7.84596559242e-05,0.000296408514259,0.46433744592,-0.00505021029532,0.167045694568,0.00771107233539,0.930559232118,0.364833802913,0.0299391185519
-0.185220703483,-0.014988604933,0.173612833023,-2.5549030304,0.0209841541946,2.60134625435,-0.776499330997,0.0731697380543,1.17896870506e-05,0.000356919859769,0.000177396723302,0.000237455707975,-1.56585101649e-05,4.29244028055e-05,-5.66246490052e-05,0.464341879431,-0.00504874841737,0.167047933285,0.0077117639589,0.93055860938,0.364835123635,0.0299422018758
-0.185216724873,-0.0149876996875,0.173613190651,-2.55489301682,0.0209842268378,2.60134458542,-0.776500999928,0.0731697380543,0.000141973418067,0.000926519103814,-0.00011688858649,-0.00029418914346,-0.000128878862597,-0.000107989566459,-5.87998365518e-05,0.464346235609,-0.00504673979706,0.167051220649,0.0077130216178,0.930557406213,0.36483787834,0.0299457050746
-0.185215801001,-0.0149875748903,0.17361330986,-2.55488228798,0.02098345384,2.60134792328,-0.776500165462,0.0731697380543,0.000228689255891,0.000638912490103,-0.000362750753993,0.000473643332953,-1.76066459971e-05,-0.000143730518175,0.00557379284874,0.464352114095,-0.00504635387137,0.167055648233,0.0077158224979,0.930557041361,0.364838226238,0.0299520820034
-0.185218781233,-0.014987279661,0.17361278832,-2.55486392975,0.0209848843515,2.60134601593,-0.776505947113,0.0727875605226,0.000167754071299,0.000393808528315,-0.000152730484842,-3.51837734343e-05,-4.21319964516e-05,-0.000118448471767,6.91432287567e-05,0.464360512497,-0.00504798762794,0.167062417756,0.00771859686848,0.930556589207,0.364838695531,0.0299596974858
-0.185221090913,-0.014988578856,0.173612609506,-2.55485725403,0.0209840144962,2.6013469696,-0.776508331299,0.0727875605226,-0.00326972245239,0.000859481748194,0.000224451694521,0.00109805271495,-0.000142780205351,-2.28678945859e-05,0.000213215258555,0.464364235975,-0.00504903665499,0.167065610613,0.00772051871405,0.930556359867,0.36483892087,0.0299635812964
-0.185216024518,-0.0149836139753,0.173612326384,-2.5548517704,0.0209836028516,2.60134768486,-0.776508033276,0.0727875605226,-0.000218196219066,0.000143915909575,-0.000209097081097,4.6300797294e-06,8.66100308485e-05,-0.000157408401719,0.000154811394168,0.464366154826,-0.00504692443743,0.16706561065,0.00772054919268,0.930555440459,0.364841197014,0.0299644122026
-0.185217738152,-0.0149837108329,0.173611775041,-2.55483555794,0.0209843721241,2.60134768486,-0.776512563229,0.0727875605226,-0.000303628097754,-0.000718385097571,0.00663915090263,0.000251747755101,-0.000170597020769,-0.000101875775727,-0.000385365681723,0.46437399238,-0.00504802404633,0.167071923108,0.00772352570933,0.930554891768,0.364841908762,0.0299720178155
-0.185217961669,-0.014983789064,0.173613145947,-2.55483031273,0.0209839716554,2.60134601593,-0.776513636112,0.0727875605226,-0.00062883697683,-0.000705108861439,0.000432198838098,-1.81745472219e-05,0.000112660578452,-0.000119593292766,9.66713996604e-05,0.464376188135,-0.00504752426842,0.167073815811,0.00772431181258,0.930554365534,0.364843098907,0.0299736660648
-0.185215502977,-0.0149816023186,0.173613145947,-2.55482625961,0.0209834612906,2.60134530067,-0.776515364647,0.0719989016652,0.00029589002952,0.000794072693679,-0.00520690716803,-0.000230359466514,-0.000109544285806,-2.29596480494e-05,9.85338629107e-05,0.464377648956,-0.00504634827352,0.167074309925,0.00772446960103,0.930553504398,0.364845244993,0.0299742374795
-0.185216471553,-0.0149798821658,0.173613980412,-2.55482196808,0.0209833513945,2.60134649277,-0.776515007019,0.0719989016652,-0.000567855662666,0.000281292537693,-0.000374266994186,-0.000154477311298,-0.000133994341013,-1.66276604432e-05,-0.000145553480252,0.464379694444,-0.00504639242649,0.167075301822,0.00772508255489,0.93055352141,0.364845041327,0.0299760303414
-0.185217604041,-0.0149796484038,0.173612520099,-2.55481624603,0.0209840964526,2.60134625435,-0.776523470879,0.0719989016652,0.000274795893347,0.000127123334096,0.00352997798473,-0.000242345995503,1.34805832204e-05,0.000123294084915,0.000309298542561,0.46438235813,-0.00504758271506,0.16707738481,0.00772601906859,0.930552482063,0.364847468452,0.0299785123888
-0.185217127204,-0.0149813974276,0.173612326384,-2.55481076241,0.0209845472127,2.60134887695,-0.776526987553,0.0719989016652,5.22163536516e-05,-1.9000217435e-05,-0.00190688041039,-9.28633235162e-05,-6.88879345034e-06,6.2869177782e-05,0.000247347838013,0.464385853253,-0.00504753139262,0.167080570513,0.00772796097617,0.930551710418,0.364849023856,0.0299830340751
-0.185216397047,-0.0149761913344,0.173611685634,-2.55479550362,0.0209833253175,2.60134577751,-0.776536643505,0.0719989016652,-0.000447694619652,9.22557519516e-05,-0.000103720492916,0.00123861094471,5.04370545968e-05,1.51237363752e-05,0.000338559068041,0.46439171441,-0.00504742300076,0.167083774786,0.00772928345562,0.930549631649,0.364854028633,0.0299863083901
-0.185219496489,-0.0149763487279,0.173612177372,-2.55479574203,0.0209846831858,2.60134649277,-0.776537179947,0.0719989016652,-0.000270975317108,0.000878669263329,0.000344580505043,-0.000198236884899,-7.63313728385e-05,-7.5428870332e-05,3.01406780636e-05,0.464391765385,-0.00504859355923,0.167083826889,0.00772913224514,0.930550208203,0.364852527457,0.0299867207435
-0.18521939218,-0.0149767119437,0.17361100018,-2.5547940731,0.0209838207811,2.60134506226,-0.776541233063,0.0719989016652,0.000228202319704,-0.000240785288042,0.00069370563142,0.000187892626855,-3.44406689692e-05,-3.0122751923e-05,0.00024412413768,0.46439232021,-0.00504912954383,0.16708449451,0.00772954600742,0.930549520721,0.364854258598,0.0299868849938
-0.185216188431,-0.0149756353348,0.173612490296,-2.55479049683,0.0209840238094,2.60134792328,-0.776544392109,0.0686111599207,-0.000407121668104,8.71289594215e-05,0.000323426298564,0.000281940912828,-6.84157494106e-05,0.000124096535728,-8.47386672831e-06,0.464394505126,-0.00504694985904,0.167085672552,0.00773042869543,0.930548041906,0.364857803061,0.0299894215986
-0.185217574239,-0.01497616712,0.173612087965,-2.55478239059,0.020984351635,2.60134840012,-0.776551246643,0.0686111599207,-5.25033938175e-05,0.000170567145688,0.000368442008039,0.000115723370982,-2.18251261686e-05,-1.80322404049e-05,-0.00129556236789,0.464398600864,-0.00504782412881,0.167089098463,0.0077322305951,0.930547027275,0.364860007291,0.0299936227054
-0.185217708349,-0.0149692520499,0.173610821366,-2.55477666855,0.0209836624563,2.60134553909,-0.776558756828,0.0686111599207,-0.000118172516522,-0.000693727633916,-0.00024924337049,-3.58214419975e-05,-0.00017089281755,-0.000243827700615,-5.32495905645e-05,0.464399620479,-0.00504829186404,0.167087859365,0.00773120949592,0.930545864085,0.364863134998,0.029991926199
-0.185222774744,-0.014971180819,0.173610016704,-2.55477380753,0.0209835767746,2.60134744644,-0.776562154293,0.0686111599207,-0.000112461770186,-0.000455264787888,-0.0001635812514,0.00050159386592,-3.78128897864e-05,-0.000230522709899,0.00017902268155,0.464401694144,-0.00505110526535,0.167090041653,0.00773278687393,0.930546202522,0.364861993647,0.0299949038105
-0.185220867395,-0.0149722862989,0.173611193895,-2.55477714539,0.0209838729352,2.60134768486,-0.776570439339,0.0686111599207,6.61443045828e-05,0.000322940439219,-0.00141179992352,-0.000145321057062,2.83328063233e-06,-0.000200426962692,-0.000587140559219,0.464400328158,-0.00504968478823,0.167089279703,0.00773251134035,0.930544205003,0.364867172996,0.029993942029
-0.185213059187,-0.0149700110778,0.173614084721,-2.55477166176,0.0209852661937,2.6013469696,-0.776576161385,0.0686111599207,0.00399571610615,0.000157816859428,8.86765919859e-05,0.000137075970997,4.13704874518e-05,0.000144359713886,-0.000310361676384,0.46440250787,-0.00504462228877,0.167090283576,0.00773239435587,0.930541381336,0.364874261721,0.0299953415768
-0.185216739774,-0.0149674741551,0.173613876104,-2.55476856232,0.0209856387228,2.60134553909,-0.77658444643,0.0686111599207,8.6057378212e-05,0.000720961892512,0.000276774168015,-5.27288066223e-05,-4.3885094783e-05,-0.000215521533391,-5.62985042052e-05,0.464403267466,-0.00504634070728,0.167090177006,0.00773211219526,0.930540646468,0.364876166878,0.0299950369514
-0.185218945146,-0.0149647500366,0.173612505198,-2.55477023125,0.020985558629,2.60134530067,-0.776587605476,0.0686111599207,-0.00328474515118,-0.000605034758337,-0.000101484147308,0.000196956723812,-1.50185469465e-05,0.000166839483427,-6.96396818967e-05,0.464401948714,-0.00504790846842,0.167088263312,0.00773114244847,0.930540781548,0.364876012741,0.0299929712272
-0.185219585896,-0.0149651672691,0.173611730337,-2.55476760864,0.0209858100861,2.60134553909,-0.776592552662,0.0686111599207,1.14144031613e-05,0.00025191475288,0.000254462414887,-0.000256038911175,-3.27840898535e-05,-7.2996095696e-05,-0.000401894765673,0.464403327938,-0.00504858115844,0.167089493194,0.00773182006093,0.930540125262,0.364877548332,0.0299944768759
-0.185216635466,-0.0149650210515,0.173613741994,-2.55476593971,0.0209854450077,2.60134744644,-0.776594340801,0.0686111599207,0.000197663874133,-0.00327294156887,0.000198285197257,-0.000309626979288,-0.000149983403389,2.31494923355e-05,-0.00100291881245,0.464404540463,-0.00504631211627,0.167090262064,0.00773252465972,0.930538788897,0.364880813729,0.029996031023
-0.18521489203,-0.0149624664336,0.173612967134,-2.55476045609,0.0209849774837,2.60134649277,-0.776608586311,0.0686111599207,0.000230466859648,0.000164977653185,-0.000146249833051,-0.0001823772036,9.74475187832e-06,6.35254982626e-05,0.000206705430173,0.46440657437,-0.0050458182222,0.167091117784,0.00773300139426,0.930535909112,0.364888071945,0.0299969528309
-0.18521258235,-0.0149641167372,0.173614069819,-2.55475950241,0.0209842231125,2.60134553909,-0.776613354683,0.0612768493593,0.00036846101284,0.000578293227591,0.000210858343053,0.000216117841774,-8.92338994163e-06,-7.47389276512e-05,-0.000273898680462,0.464407116862,-0.00504431232065,0.167092143172,0.00773364637748,0.930534274049,0.364892177477,0.0299975671608
-0.185212865472,-0.0149629730731,0.173613086343,-2.55475759506,0.0209867376834,2.60134577751,-0.776621580124,0.0612768493593,-0.000384966755519,0.000757170957513,-0.000145486948895,-4.75688611914e-05,9.96141898213e-05,-3.13913551508e-05,0.000173629407072,0.464408091584,-0.00504475189489,0.167092690942,0.00773345253434,0.930533377499,0.364894382803,0.0299986025537
-0.18521541357,-0.0149640049785,0.173613071442,-2.55475521088,0.0209857542068,2.60134530067,-0.776635825634,0.0612768493593,-0.000158717535669,-8.81934101926e-05,0.000249523232924,-0.000102926984255,5.35661711183e-05,0.000163996897754,6.55042958897e-06,0.464409256232,-0.00504638144575,0.167093917618,0.00773473834511,0.930530847342,0.364900684668,0.0300000996878
-0.185215875506,-0.0149636399001,0.173613578081,-2.55475330353,0.020985390991,2.60134625435,-0.77665412426,0.0612768493593,4.54602959508e-05,0.000158692448167,-0.00014146034664,-0.000541710527614,-3.21444311169e-08,1.48609260577e-05,-0.000964249658864,0.464410168368,-0.00504604455146,0.167094394972,0.00773519834032,0.930527605859,0.364908906665,0.0300005160282
-0.185213848948,-0.014959721826,0.173613131046,-2.55475330353,0.0209850929677,2.60134530067,-0.776713609695,0.0612768493593,-0.000594436074607,0.000622547639068,0.000204782438232,-0.000270800490398,9.41464531934e-05,-1.55548605107e-05,-0.00947897974402,0.464409506482,-0.00504545776932,0.167092642829,0.00773527268178,0.930514274793,0.364943062942,0.0299985076114
-0.185213372111,-0.014962144196,0.173613548279,-2.55474662781,0.0209848899394,2.60134530067,-0.776818394661,0.0612768493593,0.000383957289159,-0.00128712330479,0.000268553791102,-0.000170815823367,-3.16203077091e-05,-4.00571188948e-05,-0.000477981986478,0.464412958009,-0.00504489265924,0.167096195008,0.00773842069877,0.93049703535,0.364986674112,0.0300018575392
-0.18521374464,-0.0149610396475,0.173612415791,-2.55474638939,0.0209843032062,2.60134553909,-0.776826500893,0.0612768493593,0.000423841062002,-5.92940414208e-05,-0.000151357045979,0.000499800138641,-3.96389850721e-06,7.09332744009e-05,-0.000326965906424,0.464412936163,-0.00504557963642,0.167095807263,0.00773850273494,0.930495751352,0.36498997387,0.0300015157846
-0.185217037797,-0.0149577204138,0.173611149192,-2.55474376678,0.0209853183478,2.60134482384,-0.776846528053,0.0612768493593,0.0002809301659,-0.00100048957393,-6.04957167525e-05,-6.49431603961e-05,5.8595345763e-05,-1.76808043761e-05,-0.000177222958882,0.46441348804,-0.00504756198199,0.16709523242,0.0077380831195,0.930493103624,0.364996774249,0.0300010108084
-0.18521617353,-0.0149575704709,0.173614218831,-2.55473899841,0.0209845211357,2.60134530067,-0.776854872704,0.0612768493593,-7.55521614337e-06,-0.000502668437548,0.0001655875094,9.83787103905e-05,1.89312704606e-05,-0.000159655202879,-0.00014817637566,0.464415886209,-0.00504579310484,0.167097051614,0.00773931698976,0.930490663149,0.365002784497,0.0300032624771
-0.185213446617,-0.0149566205218,0.173615321517,-2.55473852158,0.0209864545614,2.60134530067,-0.77686047554,0.0612768493593,9.53234994086e-05,0.000676894851495,-0.000811180507299,-0.000367963366443,-1.04957307485e-05,-0.000132574379677,0.000365817744751,0.46441598254,-0.00504391865985,0.167096800793,0.00773870632311,0.930489243885,0.365006414815,0.0300032709336
-0.185215160251,-0.0149550912902,0.17361138761,-2.55473589897,0.0209853742272,2.60134410858,-0.776878237724,0.0593725182116,-0.000334566226229,0.000979461008683,0.000555400154553,0.000509022618644,-3.13717137033e-05,0.000121728247905,1.75424047484e-05,0.464416718185,-0.00504652872499,0.16709699891,0.00773915559555,0.930486867041,0.365012478261,0.0300031020474
-0.185215622187,-0.0149571178481,0.173613250256,-2.55473542213,0.020986314863,2.60134553909,-0.776888251305,0.0593725182116,0.000358439458068,-0.000640681770165,-0.000668903521728,-0.00397698068991,2.30239384109e-05,0.000374685478164,-0.00117212743498,0.464417602087,-0.0050457968223,0.167098286301,0.00773991212106,0.930484927461,0.365017268904,0.0300047765273
-0.185212939978,-0.0149583173916,0.173612535,-2.55472612381,0.0209848452359,2.60135126114,-0.776893794537,0.0593725182116,-6.5519430791e-05,6.19962083874e-05,-2.91589130939e-05,0.00132827193011,0.000152243243065,-1.49357856571e-05,0.000202633586014,0.464423987973,-0.00504532074168,0.167103407859,0.007743743274,0.930483049586,0.365021323505,0.0300126963881
-0.185216680169,-0.0149588715285,0.173612415791,-2.554718256,0.0209860689938,2.60134935379,-0.776898384094,0.0593725182116,-1.05574908957e-05,9.96044327621e-05,1.23734680528e-05,-0.00116663088556,9.27297442104e-05,2.72801462415e-05,-0.000357451965101,0.464426972611,-0.00504696804982,0.16710607906,0.00774464320847,0.930482983257,0.365021261567,0.0300152737518
-0.185212165117,-0.0149551592767,0.173613339663,-2.55470108986,0.020986251533,2.601354599,-0.776921033859,0.0593725182116,-0.000234024191741,0.000493901316077,5.57851162739e-05,-0.00023115274962,-8.26117830002e-05,-1.6485735614e-05,7.3475035606e-05,0.464435804277,-0.00504444063905,0.167111547839,0.00774813103309,0.930477605051,0.365034178455,0.0300240105212
-0.185215890408,-0.0149536607787,0.173615112901,-2.55469727516,0.0209853127599,2.60135388374,-0.776932537556,0.0593725182116,-0.000210029553273,0.00236605526879,0.000342239451129,-0.00031118944753,4.87700635858e-05,-2.96160687867e-05,0.000104539292806,0.464437238548,-0.00504535328,0.167112262371,0.00774875758079,0.930475692063,0.365038988225,0.0300246564794
-0.185218319297,-0.014956464991,0.173612877727,-2.55468726158,0.0209858138114,2.6013572216,-0.776949167252,0.0593725182116,-0.000576541759074,-0.000520338246133,0.000134808200528,0.000922042585444,3.10455106955e-05,-0.00225457292981,1.24070929814e-05,0.46444322201,-0.00504765087857,0.167117757477,0.00775221716461,0.930473340807,0.365044304371,0.0300319947206
-0.185214310884,-0.0149522405118,0.173612430692,-2.55459189415,0.0209856126457,2.60135316849,-0.776985049248,0.0593725182116,0.00044092425378,3.90912864532e-05,-5.84146364417e-05,0.00396582344547,0.00015518249711,0.000213951294427,-0.000388916087104,0.464487752354,-0.00504628542301,0.167152289291,0.00776875358409,0.93046474835,0.36506253073,0.0300723608522
-0.185216933489,-0.0149516910315,0.17361356318,-2.55452656746,0.0209849346429,2.60135412216,-0.776999890804,0.0593725182116,7.85427473602e-05,0.000547231175005,0.000315392127959,0.00389836332761,-5.65176997043e-05,-0.000283099041553,-0.00256400671788,0.464519409575,-0.00504729705214,0.16717739422,0.00778149088462,0.930461187109,0.365068837394,0.0301026798215
-0.185216575861,-0.0149524481967,0.173611193895,-2.55447530746,0.0209862906486,2.60135650635,-0.777012586594,0.0593725182116,0.000355889293132,-0.00020521057013,-0.000175709166797,0.00226494297385,0.000101530138636,-0.00302658462897,6.81966266711e-05,0.464544790404,-0.00504845188675,0.167197808765,0.00779165862348,0.930458601565,0.365073127583,0.0301279277562
-0.185215130448,-0.0149526102468,0.173611342907,-2.55437326431,0.0209850464016,2.60136389732,-0.777045428753,0.0593725182116,-0.000484552176204,0.000587949121837,0.000179676455446,0.00429169321433,0.000120522367069,-0.00049018318532,0.000397751311539,0.464595678853,-0.00504828613776,0.167238097202,0.00781310642802,0.93045043242,0.36508932093,0.030178396316
-0.18521822989,-0.0149504095316,0.173611655831,-2.5543255806,0.0209862235934,2.60135555267,-0.777062356472,0.0551698505878,-0.000206665237783,0.00151908781845,0.000101333484054,0.000612255593296,-0.000241650413955,0.0149053614587,-0.00343114789575,0.464616556628,-0.00504963138241,0.167254688469,0.0078198528455,0.930447433156,0.365095385039,0.0301957537126
-0.185214817524,-0.0149580668658,0.173615172505,-2.55426764488,0.0209862310439,2.60136246681,-0.777095079422,0.0551698505878,0.000138920353493,0.000396942079533,3.13498094329e-05,0.00425199652091,-0.000279174913885,0.0022626304999,-0.000137662602356,0.464647286939,-0.00504697050901,0.167281299778,0.00783453502796,0.930439078016,0.365113620692,0.0302288906814
-0.185236513615,-0.0149576282129,0.173601716757,-2.55418515205,0.0209884755313,2.60135197639,-0.777129113674,0.0551698505878,0.0023167966865,-0.000121953860798,-0.000130457003252,0.00662557408214,6.4988662416e-06,-0.00596917280927,-0.000800261856057,0.464684644236,-0.00506348060491,0.167311965661,0.00784826494677,0.930438483036,0.365112091133,0.0302620986813
-0.185240730643,-0.0149599201977,0.173600062728,-2.55411267281,0.0209862310439,2.60134315491,-0.77716845274,0.0551698505878,0.000393973285099,-0.00404573837295,0.000464039912913,0.000153663742822,-6.71689849696e-05,0.000215699721593,-0.00032180963899,0.464717322004,-0.00506686160722,0.16733948387,0.00786154639773,0.930431377032,0.365127489173,0.0302913363491
-0.185230895877,-0.014958139509,0.173608109355,-2.5541009903,0.0209862906486,2.60133981705,-0.777191579342,0.0551698505878,0.000341495528119,0.000401050987421,0.000357067183359,7.22435070202e-05,-0.000174359869561,-0.000259793800069,-0.000617331941612,0.464722886903,-0.00505773932265,0.167343441626,0.00786309951913,0.930422932485,0.36514866721,0.0302950308056
-0.185228601098,-0.0149528076872,0.173608705401,-2.55409455299,0.0209860596806,2.60133910179,-0.777212619781,0.0499506630003,-0.00100365909748,0.00426968280226,-4.32212582382e-05,0.000123215504573,0.000123522710055,-1.9673294446e-05,-0.000437568698544,0.464724820528,-0.00505725902253,0.167343089289,0.00786287383523,0.930418929657,0.365158864109,0.0302951183801
-0.185233414173,-0.0149535620585,0.173608198762,-2.55409264565,0.0209874790162,2.60133337975,-0.777261734009,0.0499506630003,0.000230805788306,0.00018645565433,-1.58064231073e-05,5.61858796573e-05,7.88002853369e-06,0.000119707205158,-1.97027893591e-05,0.464724729973,-0.00505925275778,0.167344001568,0.0078630781611,0.930411236041,0.365178550851,0.0302940511112
-0.185236901045,-0.0149530498311,0.173606321216,-2.55408978462,0.0209865830839,2.60133218765,-0.777279376984,0.0499506630003,-0.000939373159781,8.85994668351e-05,4.21173863288e-05,0.0036407513544,-6.36247350485e-05,0.000198093563085,-0.000238054519286,0.464725706457,-0.0050610602165,0.167344856483,0.00786357808031,0.930409123604,0.365183890183,0.0302944366004
-0.18523658812,-0.0149475578219,0.173606038094,-2.55409526825,0.0209880080074,2.60132908821,-0.777305960655,0.0499506630003,-0.000187977668247,-0.000295598641969,-0.000143716839375,-0.000284856389044,0.000148944207467,-0.000250380806392,-0.00452202558517,0.464721546481,-0.00506148101042,0.167339806412,0.00786075657325,0.930404408262,0.365196482538,0.0302881894151
-0.185232013464,-0.0149483801797,0.173608213663,-2.55408620834,0.020986109972,2.60132527351,-0.777366518974,0.0499506630003,0.000418164971052,0.000167980062542,-0.00116029486526,0.00017537867825,8.47250776133e-05,-0.000143322831718,-0.000167792037246,0.464725273164,-0.005058459825,0.167343298193,0.00786323158181,0.930391724691,0.365228544594,0.030290561467
-0.185227960348,-0.014949766919,0.173607438803,-2.5540895462,0.0209872033447,2.60132360458,-0.777399897575,0.0499506630003,0.000231991754845,0.000148828519741,0.000431813910836,-0.000778443471063,-7.29804160073e-05,0.000224070521654,-0.00344690564089,0.464723549984,-0.00505690879771,0.167342473578,0.0078628227621,0.930385250548,0.365245188533,0.0302888348962
-0.185232788324,-0.0149512561038,0.173609673977,-2.55408430099,0.0209855809808,2.60132551193,-0.777429938316,0.0499506630003,-0.000997503520921,-0.000139046940603,-0.000233131766436,0.000570350093767,1.62951073435e-05,-8.42467561597e-05,-0.00317433429882,0.464726715341,-0.00505826282054,0.167345374733,0.00786549086407,0.930379859048,0.365258563471,0.0302924648653
-0.185242220759,-0.0149627206847,0.173606857657,-2.5539932251,0.0209874995053,2.60132479668,-0.777496337891,0.0499506630003,0.000183994954568,0.00104155263398,-2.86906106339e-05,0.000600241532084,0.000130951506435,-0.000233772210777,-0.000163882563356,0.464772341577,-0.00506464293516,0.167385794861,0.00788620902764,0.930368664955,0.365282761395,0.0303390653985
-0.185239702463,-0.01495752763,0.173608109355,-2.55398631096,0.020986540243,2.60132360458,-0.777509510517,0.0499506630003,0.000421820703195,0.000507265038323,0.000239042259636,5.70901829633e-05,-5.07951772306e-05,-0.000582929467782,0.000331026618369,0.464774597765,-0.00506279460383,0.167385970526,0.00788628777665,0.930365413044,0.365291016253,0.0303393771516
-0.18523812294,-0.0149403978139,0.173609316349,-2.55398488045,0.0209873840213,2.60132288933,-0.777524769306,0.0499506630003,-0.000228110031458,0.00116674019955,-0.0027889914345,0.000214320985833,-6.75203482388e-05,-0.000165540797752,-0.000552669574972,0.46477236202,-0.005060950154,0.16737860914,0.00788185994217,0.930362500973,0.36529910056,0.0303324888913
-0.185244128108,-0.0149383870885,0.173606738448,-2.5539855957,0.0209881551564,2.60132002831,-0.777539134026,0.0499506630003,-2.98203704006e-05,-0.000680099707097,-3.42661624018e-05,-0.000701508834027,0.000102626356238,-9.45755309658e-05,-0.000260890490608,0.46477128232,-0.00506471429072,0.167377226329,0.00788084085182,0.93036175186,0.365301218742,0.030330220804
-0.185243666172,-0.014941024594,0.173607841134,-2.55398511887,0.0209866892546,2.60131049156,-0.777577340603,0.0492263585329,-0.000857389240991,-0.000833848142065,-0.00396843627095,0.00115844956599,0.000215506210225,0.000301254040096,-4.67455502076e-05,0.464769672481,-0.00506416412784,0.167377548274,0.00788061684593,0.930354236681,0.365320659851,0.0303266440315
-0.185254916549,-0.0149556072429,0.173604875803,-2.55391144753,0.0209865514189,2.60131812096,-0.777628481388,0.0492263585329,0.000351423223037,-0.000383725942811,-0.000143497090903,0.00273968302645,4.53372012998e-05,-0.000122568380903,-0.00262676458806,0.464810613203,-0.00507146579918,0.167414684964,0.00790137041862,0.930345599995,0.36533847868,0.0303715095946
-0.185236439109,-0.014957129024,0.173609063029,-2.55377554893,0.0209878496826,2.60130906105,-0.777722120285,0.0492263585329,-0.000384626793675,0.000272734585451,-0.000843357876875,0.00106132333167,4.85547461722e-05,2.19252706302e-05,-0.00232112174854,0.464873199159,-0.00506164700338,0.167465880269,0.0079258051273,0.930322898174,0.365390936987,0.0304294199445
-0.185241371393,-0.0149532305077,0.173609346151,-2.55377435684,0.0209867693484,2.60130786896,-0.777751207352,0.0492263585329,-0.000249113480095,-0.000322505133227,0.000446192978416,-0.000382724771043,-1.40187776196e-05,-3.51129529008e-05,2.78292936855e-05,0.464873194846,-0.00506394012648,0.167464679112,0.00792572311105,0.930319133927,0.365400643398,0.0304279715331
-0.185238450766,-0.0149526521564,0.173609375954,-2.55377674103,0.0209868773818,2.60130429268,-0.777791976929,0.0492263585329,3.01458439935e-05,0.00014587820624,7.45224042475e-06,0.000804049661383,-0.000103619429865,4.99655470776e-05,-0.00179614569061,0.464870869938,-0.00506229770426,0.167462884702,0.00792479093533,0.930310450982,0.365423067718,0.0304243939473
-0.185243874788,-0.0149508779868,0.173606395721,-2.55376958847,0.0209872368723,2.60130167007,-0.777873694897,0.0492263585329,-0.000405580125516,0.00011710934632,-8.04862720543e-05,-2.84208108496e-05,-6.54486648273e-05,8.02563081379e-05,-0.000179813141585,0.46487343437,-0.00506614417996,0.167464578555,0.00792641338306,0.930297060997,0.365457032355,0.0304254409618
-0.185244783759,-0.0149517701939,0.173609107733,-2.55376935005,0.0209875088185,2.60130047798,-0.777894973755,0.0492263585329,0.000824277754873,0.000614444492385,0.000515970867127,0.00041253582458,2.33772152569e-06,-0.000138745992444,-5.93605000176e-05,0.464873425858,-0.0050650043335,0.167464767918,0.00792650203037,0.930292577592,0.36546847055,0.0304251106934
-0.185240089893,-0.0149526754394,0.173609286547,-2.55377244949,0.0209867078811,2.60129857063,-0.777921617031,0.0492263585329,-0.000212199855014,7.72986095399e-05,0.000153962624609,0.000203122253879,0.000132644679979,-0.000152036576765,-0.00475502712652,0.46487189268,-0.00506326952172,0.167464242551,0.00792666319931,0.930287515677,0.365481486573,0.0304234916309
-0.185233458877,-0.014955076389,0.173608779907,-2.55377101898,0.0209874566644,2.60129737854,-0.777965009212,0.0492263585329,0.000260913308011,-0.000173425796675,0.000218646440771,0.000797311775386,-4.41134397988e-05,0.000218563291128,-0.000886542256922,0.464872576869,-0.00506028238604,0.167465508984,0.00792757048686,0.930278083737,0.365505407634,0.0304242866708
-0.185239851475,-0.0149536253884,0.173608914018,-2.55376911163,0.0209880806506,2.6012942791,-0.778030157089,0.0480903275311,0.000406285806093,-3.66076274076e-05,5.67917923036e-05,0.000116473122034,-1.34376514325e-05,-0.000238588982029,7.6445954619e-05,0.464872570232,-0.00506311146526,0.167465268556,0.00792786742226,0.930267451378,0.365532575728,0.0304229122687
-0.185238450766,-0.0149546796456,0.173608720303,-2.55376696587,0.0209862645715,2.6012942791,-0.778051197529,0.0480903275311,0.00158640439622,0.00017527017917,-0.000238100430579,-0.000213076593354,6.74314142088e-05,-0.000124122190755,-0.00231747585349,0.464873781752,-0.00506265945133,0.167466581401,0.00792930432765,0.930263057646,0.365543628669,0.0304240848128
-0.185239851475,-0.014954790473,0.17360958457,-2.55377054214,0.0209867917001,2.60129261017,-0.778068006039,0.0480903275311,5.43182104593e-05,0.000755574030336,-0.00019396028074,-0.000243738963036,-2.98732702504e-05,-0.00215032021515,8.14457598608e-05,0.464871715532,-0.00506286636089,0.167465077749,0.00792847112162,0.930260241274,0.365551013133,0.0304216918071
-0.185252100229,-0.014944489114,0.173604905605,-2.5537776947,0.0209869947284,2.6012814045,-0.778177857399,0.0480903275311,-0.000135059337481,-4.66458477604e-05,0.000132882792968,-6.80559824104e-05,2.81931643258e-05,0.000194796884898,-0.00337633956224,0.464864116781,-0.00507028944883,0.167456461929,0.00792404004614,0.930243713603,0.365594271667,0.0304084051036
-0.185241654515,-0.0149473482743,0.173608839512,-2.55378222466,0.0209852810949,2.60125660896,-0.778216183186,0.0483063682914,0.000675127084833,-0.0030442501884,0.000104896949779,0.000560929183848,-4.62971402158e-05,0.000137888186146,-0.00227837287821,0.464857183288,-0.00506356825205,0.167453497359,0.00791989473004,0.930234180953,0.365619661422,0.0303958339456
-0.185232535005,-0.0149496216327,0.173612877727,-2.55375909805,0.0209867674857,2.60096526146,-0.778247475624,0.0483063682914,-0.00018282396195,-0.00200115074404,-0.000406355975429,0.000690302695148,-1.62669562087e-06,-0.0158161651343,-0.000620964623522,0.464810424143,-0.00505578003478,0.167435431066,0.0078711539125,0.930229998447,0.365640783565,0.030282206055
-0.185241147876,-0.0149479908869,0.173610627651,-2.5537648201,0.0209861062467,2.60078501701,-0.778286874294,0.0483063682914,-0.000937707547564,-0.000383578008041,-0.000218225206481,-0.000734104658477,3.25707951561e-05,-0.00294813350774,-0.000313920027111,0.46476524309,-0.00505922189109,0.16741271659,0.00783159229447,0.930227071419,0.365656931909,0.030187242208
-0.185239717364,-0.0149456020445,0.173608019948,-2.55376815796,0.0209860093892,2.60076141357,-0.778412282467,0.0483063682914,-0.000858959800098,-0.000502980721649,-8.19019234655e-08,-0.000351797003532,2.24899813475e-05,-0.00266228523105,-0.0029271740932,0.464757917019,-0.00505988209152,0.167407956808,0.00782755931128,0.930204418311,0.36571582887,0.030172863095
-0.185245245695,-0.014947601594,0.173608124256,-2.55376601219,0.0209861863405,2.60073256493,-0.778450846672,0.0483063682914,-0.0009550274699,-0.0010463205399,0.000159548246302,-6.30699869362e-05,-7.34095920052e-07,-0.000265395909082,-0.000167634076206,0.46475339743,-0.00506189023794,0.16740676556,0.00782350265649,0.930199041102,0.365730507325,0.0301617710977
-0.185240879655,-0.0149430362508,0.173608511686,-2.55373167992,0.0209858976305,2.6006462574,-0.778494477272,0.0483063682914,0.000633158313576,8.66141126608e-05,0.000553758698516,0.00506358221173,0.000109665030323,-0.0158265139908,-0.00273762620054,0.464750863988,-0.00505909857376,0.167409215852,0.0078124645953,0.930190847836,0.365753715102,0.0301358851244
-0.185218960047,-0.0148955918849,0.173620119691,-2.55201911926,0.020985789597,2.59663796425,-0.778559982777,0.0483063682914,-0.000162409342011,0.000895931385458,0.00041756144492,0.043135818094,-0.000166189012816,-0.10892124474,0.000229042838328,0.464715386613,-0.0050215185385,0.167645035807,0.00733563678413,0.930200110192,0.365826582188,0.0290663874811
-0.18521989882,-0.0149798290804,0.173621490598,-2.55089521408,0.0209844727069,2.59409093857,-0.778568506241,0.0483063682914,-0.000196331515326,-0.0102424696088,-0.000545817136299,0.0646225064993,8.38671912788e-05,-0.157962113619,0.000103818318166,0.464727816522,-0.00501101480647,0.16786204383,0.00706982008483,0.930212803168,0.365847866412,0.0284516571223
-0.185242861509,-0.0164528340101,0.173611059785,-2.54361391068,0.02098403126,2.57902097702,-0.778586924076,0.049099624157,1.45089745729e-06,-0.0512258186936,-0.000220041474677,0.173854157329,-1.29510908664e-06,-0.356655389071,-0.000399958051275,0.465249152311,-0.00499727040839,0.16985291178,0.0058730296394,0.930271936053,0.36593490953,0.0255200741875
-0.185249701142,-0.017826186493,0.173609644175,-2.53941178322,0.0209842734039,2.5703458786,-0.778589725494,0.049099624157,0.000687505234964,-0.0733864381909,-0.00179034983739,0.207689151168,-7.62915442465e-06,-0.430902123451,-0.00202689878643,0.465626134059,-0.00499950371721,0.171256809963,0.00532550844149,0.930294641513,0.365984489466,0.0240597607344
-0.185242325068,-0.0196490772069,0.173616364598,-2.53485703468,0.0209830608219,2.56103229523,-0.778595089912,0.049099624157,-4.39453360741e-05,-0.110441833735,0.000563712033909,0.245376050472,-9.99244657578e-05,-0.505182921886,0.000225659299758,0.466095330967,-0.00500110255224,0.172951613625,0.00483887202616,0.930307152691,0.366048828049,0.0226592616204
-0.185243904591,-0.0236508026719,0.173617854714,-2.52693104744,0.0209828969091,2.5447010994,-0.77859634161,0.049099624157,0.00045418649097,-0.165297403932,0.000531175872311,0.292086929083,-0.000139323165058,-0.641486287117,-0.000296484213322,0.4669822098,-0.00503617509831,0.176297608381,0.00418840663523,0.930322991801,0.366142968627,0.0205161981284
-0.185239121318,-0.0265895500779,0.173621758819,-2.52192807198,0.020982330665,2.53389787674,-0.77859967947,0.049099624157,-8.35239407024e-05,-0.203702047467,0.000370222085621,0.329129546881,0.000452362495707,-0.698672294617,-0.000219909125008,0.467475243332,-0.00506066998548,0.178570545639,0.00379098393933,0.930328686638,0.366208893583,0.0191104475135
-0.185262158513,-0.0306239612401,0.173610925674,-2.51553273201,0.0209815576673,2.52077031136,-0.778599500656,0.049099624157,-0.00133798958268,-0.23241250217,-0.000352660514181,0.3704623878,-0.000226628981181,-0.757082223892,-0.000178483431228,0.468264714506,-0.00512275572936,0.18169147327,0.00349155523557,0.930334967165,0.366264647596,0.01774445036
-0.18527919054,-0.0354571938515,0.173611372709,-2.50805687904,0.0209804233164,2.50565266609,-0.778597533703,0.049099624157,0.000826224451885,-0.279160618782,0.00101317756344,0.416037231684,-0.000225672542001,-0.826590001583,-0.000114268936159,0.46921067166,-0.00518512496721,0.185445747453,0.00321830289117,0.930334098348,0.366336414864,0.0163014970428
-0.185312718153,-0.0446957498789,0.173604771495,-2.49548506737,0.0209804940969,2.47976994514,-0.778593063354,0.0495546944439,-0.00647783046588,-0.348719358444,0.000210181751754,0.468672096729,-0.000818090047687,-0.941805183887,-0.000195963672013,0.470747965176,-0.00531047199201,0.192302752594,0.00296535177083,0.930327036597,0.366446548854,0.0141328759443
-0.185361608863,-0.0519737750292,0.17361843586,-2.4853041172,0.0209758467972,2.46054244041,-0.778592288494,0.0495546944439,-0.00160350138322,-0.383542567492,0.000469841033919,0.525510013103,-0.000175885652425,-0.994771242142,-0.000107418876723,0.472229934337,-0.00540778522789,0.197990564305,0.00305035653074,0.930310713081,0.366526184346,0.0130854241842
-0.185361906886,-0.0580037124455,0.173621758819,-2.47717404366,0.0209769811481,2.44517397881,-0.77858710289,0.0495546944439,0.000446302961791,-0.418139606714,0.000376089126803,0.550172865391,0.000113729787699,-1.03675913811,-0.000125615973957,0.473368369241,-0.00546762536418,0.20267324646,0.003172951,0.930292235653,0.366598063313,0.0123348419039
-0.185389757156,-0.0648521855474,0.173615813255,-2.46804499626,0.0209772381932,2.42823553085,-0.778578698635,0.0495546944439,-0.00199925643392,-0.451959758997,-0.00100365828257,0.607214987278,-0.000509017263539,-1.06133544445,0.00100502825808,0.474647753275,-0.00554724175891,0.208039367536,0.00339536243575,0.930276729207,0.366657163134,0.011670604819
-0.185427218676,-0.0885683447123,0.173628091812,-2.43438005447,0.0209711547941,2.3723590374,-0.778547823429,0.0495546944439,-0.00128739653155,-0.50239944458,-0.000261365785263,0.758572220802,-0.00456747133285,-1.15465760231,-1.89478087123e-05,0.479909971174,-0.0057175972053,0.228077189164,0.00511264157473,0.930177754026,0.366890770259,0.0115917726862
-0.185464456677,-0.0977071374655,0.173621237278,-2.42076849937,0.0209711845964,2.35146737099,-0.778521895409,0.0495546944439,-0.00149659416638,-0.505889415741,-0.000116978430015,0.749537110329,0.00129432487302,-1.15526723862,0.00274952920154,0.482050483265,-0.00576667647272,0.23627217585,0.00602449611148,0.930140352739,0.366953699781,0.0121495495292
-0.185495197773,-0.1168005988,0.173640653491,-2.39008283615,0.0209743827581,2.30811786652,-0.777999520302,0.0495546944439,-0.000727772945538,-0.52177554369,-0.000791174650658,0.888102769852,0.00461410358548,-1.17490446568,0.0254513341933,0.48692039743,-0.00575509066182,0.254658976764,0.00841936682494,0.930106616031,0.366907148409,0.0144893481166
-0.185520216823,-0.132469713688,0.173638343811,-2.36293125153,0.0209701433778,2.27309465408,-0.77718603611,0.0495599471033,0.00104874686804,-0.526903033257,-0.00215416355059,0.94255053997,0.000563971698284,-1.15202248096,0.0387453958392,0.491150867167,-0.00567082714067,0.270948943321,0.0108729513979,0.93011524713,0.366686027563,0.0175716493053
-0.185510233045,-0.158749774098,0.173657357693,-2.31245970726,0.0209707226604,2.21498465538,-0.774332821369,0.0495599471033,-0.000534358201548,-0.481019347906,-0.000144699733937,1.00015628338,0.00132719660178,-1.08753359318,0.0817042514682,0.498670164961,-0.00528382489743,0.301161154732,0.0160402285898,0.930264197603,0.365664067006,0.0253184421086
-0.185453608632,-0.178418785334,0.17367862165,-2.27040553093,0.0209812559187,2.1721906662,-0.768595516682,0.0495599471033,0.00131037237588,-0.446704626083,0.000303048844216,1.00410020351,-0.00054859748343,-0.973188817501,0.19666364789,0.504447336749,-0.00476278241292,0.326345072539,0.0207912467482,0.930859473042,0.363248069216,0.0334545273874
-0.185374036431,-0.190059244633,0.173715651035,-2.24349665642,0.0209817513824,2.14693784714,-0.762277543545,0.0495599471033,0.00519142346457,-0.410152465105,0.000340398575645,0.99124276638,-0.000286382681224,-0.891566753387,0.262566149235,0.50783936565,-0.0043216301541,0.342431872827,0.0239272496848,0.931628818769,0.360489039649,0.0392795460708
-0.185313776135,-0.195640459657,0.173741281033,-2.22986125946,0.0209859274328,2.1346821785,-0.758169710636,0.0495711117983,0.00387852732092,-0.411014646292,0.00243483786471,0.972616076469,0.000161252450198,-0.85029822588,0.32022228837,0.50945690727,-0.0040629940335,0.350540942919,0.0255039028162,0.932151503324,0.358675949036,0.0423637706142
-0.185216873884,-0.205314591527,0.173873722553,-2.20616149902,0.0209920536727,2.11442279816,-0.749090015888,0.0495711117983,0.000971531204414,-0.363218426704,0.00714083993807,0.92900955677,-0.000226302945521,-0.770678520203,0.4127189219,0.512242905157,-0.00351889770941,0.365371738677,0.0284767026233,0.933380460734,0.354458810601,0.0484659076098
-0.185158193111,-0.210260525346,0.17399738729,-2.19321513176,0.020993039012,2.10402822495,-0.742816925049,0.0495711117983,0.00587320281193,-0.344503343105,0.0065481425263,0.918059825897,0.000337916426361,-0.722322523594,0.47611412406,0.513573982055,-0.0032092824886,0.372567126732,0.0299184332081,0.934153308953,0.351847763367,0.0516297765436
-0.184961646795,-0.217586010695,0.174252510071,-2.17409086227,0.0210063774139,2.08879232407,-0.731304228306,0.0495711117983,0.00885233096778,-0.318609088659,0.0126604950055,0.830579638481,-8.93926262506e-05,-0.650614619255,0.551457047462,0.515313001568,-0.00265837855819,0.383056072444,0.0319346774878,0.935542579406,0.347234450829,0.0562893803127
-0.184317007661,-0.231139183044,0.175000876188,-2.1365146637,0.0210388395935,2.0610127449,-0.700587809086,0.0495711117983,0.0166070032865,-0.24120362103,0.0210765562952,0.693014621735,-6.83625839883e-05,-0.499087005854,0.738399028778,0.518839675808,-0.00109917486186,0.406275582791,0.0361586328534,0.93966083721,0.333426240099,0.067505602613
-0.184026777744,-0.234430596232,0.175261169672,-2.12728953362,0.0210713986307,2.05434894562,-0.689773321152,0.0495711117983,0.0242064762861,-0.240753173828,0.021224481985,0.653782963753,0.00307006738149,-0.439052641392,0.79770308733,0.519606196894,-0.000557627380865,0.41226939692,0.0370724661007,0.941210497416,0.328286888409,0.070541834376
-0.183552488685,-0.238456785679,0.175610214472,-2.11682844162,0.0211245268583,2.04731583595,-0.675801217556,0.0495711117983,0.0282064154744,-0.220135867596,0.0178640689701,0.577407240868,-0.000297130056424,-0.397409617901,0.849628806114,0.520413330762,0.000136858371056,0.418819508503,0.0380857080082,0.943026202491,0.322102215631,0.0741702274049
-0.182459339499,-0.24428704381,0.176216617227,-2.10116505623,0.0211696606129,2.03630900383,-0.647194266319,0.0495711117983,0.0449257232249,-0.17965066433,0.0210541039705,0.44381031394,0.00271301250905,-0.301187902689,1.00301122665,0.521379121862,0.00143302735105,0.428488588816,0.0390837720239,0.94679360551,0.309416151434,0.0794730913646
-0.181541904807,-0.247489020228,0.176547661424,-2.09335970879,0.0211872663349,2.03086304665,-0.627804040909,0.0495789907873,0.0434520766139,-0.164342284203,0.015480495058,0.365471750498,-0.00056072109146,-0.278603047132,1.05055999756,0.521765304107,0.00230239025423,0.433472178578,0.0393790942286,0.949296799975,0.3008276682,0.0823868085923
-0.180747538805,-0.250083833933,0.176818579435,-2.08784890175,0.0212003029883,2.02650690079,-0.609403908253,0.0495789907873,0.0448889732361,-0.133979097009,0.0192670598626,0.290886431932,0.00142927153502,-0.231082469225,1.0978127718,0.521870308535,0.00302292979727,0.437099755488,0.0393504145207,0.951685776932,0.292598090358,0.0844516670714
-0.179988980293,-0.252056330442,0.177246242762,-2.08351302147,0.0212062224746,2.02275824547,-0.590158104897,0.0495789907873,0.0471828058362,-0.100001238286,0.0307080224156,0.214360758662,9.86051018117e-05,-0.211260154843,1.15360796452,0.521876380274,0.00377398406389,0.439873699722,0.039045439856,0.954161170374,0.284004438148,0.0859848438887
-0.178190976381,-0.255935758352,0.178782477975,-2.07780694962,0.0212353374809,2.01417446136,-0.52975320816,0.0495789907873,0.0339651554823,-0.0473982617259,0.0347462445498,0.0381657294929,-0.00018152652774,-0.147036507726,1.34172165394,0.520989639385,0.00572609429987,0.443692276319,0.0368669207724,0.961821081082,0.25668762144,0.087478584977
-0.177593305707,-0.256445199251,0.17939786613,-2.07760739326,0.0212413836271,2.01159334183,-0.506818830967,0.0495789907873,0.0384799912572,-0.0134643465281,0.0343625992537,-0.00596640491858,0.000976552080829,-0.158144786954,1.39127111435,0.520459996564,0.00637671641574,0.443712608872,0.0356800108571,0.964641005252,0.246233430443,0.0869699099443
-0.177073255181,-0.256452262402,0.179981440306,-2.07786536217,0.0212380029261,2.00859737396,-0.482590466738,0.0495789907873,0.0290181208402,0.0112810442224,0.035528793931,-0.0255875885487,-0.000140962773003,-0.191377997398,1.43563747406,0.519802706302,0.00694642569751,0.443188143029,0.034256026648,0.967575293448,0.235074989927,0.0858156451407
-0.176593884826,-0.255949765444,0.180760398507,-2.07876372337,0.0212433841079,2.00443792343,-0.451609760523,0.049593437463,0.0206961110234,0.047406733036,0.0363983176649,-0.0531784072518,3.66382300854e-05,-0.192328557372,1.49781799316,0.518826553869,0.00757168671154,0.441923780675,0.0322937025377,0.971216900178,0.220681060187,0.0836344364089
-0.175702258945,-0.252270281315,0.181840091944,-2.0830283165,0.0212488602847,1.99712228775,-0.381601780653,0.049593437463,0.0177467074245,0.096180818975,0.0132913375273,-0.122182808816,-0.000294105004286,-0.144520610571,1.59860777855,0.51679376271,0.0084223339555,0.436922130766,0.0276482182005,0.978822760596,0.187519682599,0.0773171889221
-0.175498306751,-0.249893262982,0.182007655501,-2.08550953865,0.0212479457259,1.99434638023,-0.351165235043,0.049593437463,0.00920411664993,0.152533605695,0.00308597297408,-0.133500948548,6.23379746685e-05,-0.137105226517,1.62324810028,0.515914363517,0.00850971380019,0.434102599434,0.0256159815291,0.981840300495,0.172778742356,0.0740334498725
-0.175424143672,-0.24684637785,0.182094022632,-2.08821868896,0.0212508812547,1.9916741848,-0.320177167654,0.049593437463,0.00140328810085,0.16446685791,-0.000246311654337,-0.150225713849,-0.000397394964239,-0.134342223406,1.64025533199,0.515054074646,0.00847312241149,0.430852720764,0.0235490277357,0.984711173137,0.157613974175,0.0703362185097
-0.175906971097,-0.236947357655,0.181727901101,-2.09611558914,0.0212495997548,1.9859970808,-0.239865317941,0.049593437463,-0.0195610392839,0.223539933562,-0.0194269157946,-0.175182372332,-0.000180060378625,-0.111719205976,1.62672269344,0.512959128542,0.00768762407202,0.421192366937,0.0184694586299,0.991102880732,0.117474548381,0.0597803402828
-0.176954820752,-0.22932779789,0.181127399206,-2.10171699524,0.0212508421391,1.98306035995,-0.190223425627,0.049593437463,-0.0440049991012,0.252796620131,-0.0277516450733,-0.187854066491,6.5553424065e-05,-0.0911848545074,1.58067512512,0.51159842739,0.00656446556832,0.413992388224,0.0154645637115,0.994354714126,0.0911495583647,0.0520702167687
-0.179869562387,-0.215989559889,0.178886756301,-2.11108827591,0.0212535336614,1.9794857502,-0.112454675138,0.0496072284877,-0.0782348737121,0.289447337389,-0.0570427812636,-0.179962515831,5.37853047717e-05,-0.0686927139759,1.46597111225,0.509549843254,0.00360798149143,0.40252140418,0.0115077518531,0.997853573427,0.050580809251,0.0399674752843
-0.181048125029,-0.211937949061,0.177926689386,-2.11357975006,0.0212539918721,1.97851538658,-0.0921126902103,0.0496072284877,-0.0882381275296,0.278664141893,-0.0785634145141,-0.177868232131,0.000138844843605,-0.0731016695499,1.42473125458,0.508975269123,0.00242545010912,0.399179909752,0.0105183780765,0.998507649708,0.0393388309064,0.0363908406021
-0.182658180594,-0.207009926438,0.17619857192,-2.11680579185,0.0212533473969,1.97718143463,-0.0669858530164,0.0496072284877,-0.0931503102183,0.274253219366,-0.109279103577,-0.172790229321,-0.000334988144459,-0.083458378911,1.37309515476,0.508158030271,0.000618288909117,0.39502486425,0.00935236476227,0.999133610371,0.0250960557518,0.0318551343747
-0.188946843147,-0.193456307054,0.169842451811,-2.1246612072,0.0212566647679,1.97347438335,-0.00356424460188,0.0496072284877,-0.161122843623,0.252416849136,-0.164268493652,-0.152034565806,6.31695074844e-05,-0.0833619982004,1.21002364159,0.506053846174,-0.0056853818522,0.384586644491,0.00673998525152,0.999707507617,-0.0114209696555,0.0202245634051
-0.192194581032,-0.188499987125,0.166374534369,-2.12731409073,0.0212551448494,1.97192454338,0.01907309331,0.0496072284877,-0.178436204791,0.268835216761,-0.190554171801,-0.129274904728,-0.00013338093413,-0.0779294371605,1.1563526392,0.505067399714,-0.00947841574067,0.380338386571,0.0057444889967,0.999483859855,-0.0276489460087,0.0153150324886
-0.195438280702,-0.184169322252,0.162683203816,-2.12941193581,0.0212599504739,1.9706350565,0.038047965616,0.0496288985014,-0.199350744486,0.237416192889,-0.239641547203,-0.118421494961,0.000242974754656,-0.0801466926932,1.09202754498,0.504311492718,-0.0130161937576,0.377112580109,0.00497808182401,0.999096347229,-0.0405933057365,0.0115711228928
-0.1993303895,-0.180123060942,0.158056020737,-2.13147306442,0.0212675239891,1.96928358078,0.0571911744773,0.0496288985014,-0.230564013124,0.226066380739,-0.268556177616,-0.104283496737,-0.000433465116657,-0.0667277127504,1.02215826511,0.503468206722,-0.0173306275517,0.374059080203,0.00421443040598,0.998478705742,-0.0543992375469,0.00795206950449
-0.211802050471,-0.170738115907,0.143818616867,-2.13571715355,0.0212770458311,1.96707749367,0.101777881384,0.0496288985014,-0.304558008909,0.16124728322,-0.353882730007,-0.0706674456596,-9.49725072132e-05,-0.0566905140877,0.858894050121,0.501455991891,-0.0307580024438,0.367373639011,0.0023583006476,0.995948655237,-0.089892381431,0.000272047383614
-0.217879280448,-0.167809575796,0.136549532413,-2.13686966896,0.0212769061327,1.96595561504,0.117535546422,0.0496288985014,-0.331516623497,0.148033425212,-0.402734905481,-0.0474217534065,0.000149343453813,-0.0603991039097,0.815588891506,0.500509894357,-0.0374197085307,0.36536510533,0.00159859942148,0.99453854068,-0.104333583625,-0.00224468470903
-0.223695322871,-0.165203332901,0.12944406271,-2.13740420341,0.0212783329189,1.96508848667,0.131037220359,0.0496288985014,-0.353615343571,0.149220257998,-0.448624998331,-0.0202290024608,-0.000213279563468,-0.0431422740221,0.771519064903,0.499714675816,-0.0438600095886,0.36382491897,0.000882549919755,0.993073575634,-0.117416596641,-0.00417576527155
-0.25187587738,-0.1589730829,0.0929563641548,-2.13673758507,0.0213216152042,1.96347677708,0.178392708302,0.0496288985014,-0.450921833515,0.0416016466916,-0.603460669518,0.0288745556027,0.0021613156423,0.000159895571414,0.583650827408,0.495850103207,-0.0760000999527,0.361245580339,-0.00240315101644,0.984965415116,-0.172573226713,-0.00747241660668
-0.256931900978,-0.158537775278,0.0862051695585,-2.13633680344,0.0213468875736,1.96347284317,0.184677302837,0.0496413744986,-0.470415681601,0.0353124439716,-0.616922855377,0.0385214872658,0.0063868612051,-0.000341525417753,0.559937119484,0.495046827399,-0.0818529239139,0.361267784418,-0.00298613652992,0.983370809173,-0.181431904042,-0.0074430199851
-0.266480922699,-0.15790297091,0.0735217928886,-2.13523054123,0.0214158073068,1.96348547935,0.195709139109,0.0496413744986,-0.49093824625,0.0270495563745,-0.664593279362,0.0709096416831,0.00315975188278,0.000947928405367,0.553389906883,0.493449889057,-0.0928652640284,0.361558425512,-0.00408152032989,0.980231989207,-0.197681656546,-0.00710991485533
-0.281625956297,-0.157429933548,0.0529204644263,-2.13261389732,0.0215119291097,1.96351575851,0.211637035012,0.0496413744986,-0.508823394775,0.011037087068,-0.717252910137,0.104098916054,0.00695830723271,0.00281603937037,0.488008141518,0.490597057204,-0.110560177731,0.362669236852,-0.00581825663357,0.974828152627,-0.222804226378,-0.00587342643514
-0.290814876556,-0.15736015141,0.0399997830391,-2.13041329384,0.0216238126159,1.96359539032,0.220044314861,0.0496413744986,-0.515660226345,0.000294588564429,-0.725501000881,0.138738498092,0.00532508688048,0.00901719648391,0.451419830322,0.488688362009,-0.121500687531,0.363732708136,-0.0069089690121,0.971333199878,-0.237575824907,-0.00466991170217
-0.298732995987,-0.1573536098,0.0288173928857,-2.12815070152,0.0216473024338,1.96378481388,0.226680383086,0.0496413744986,-0.526922464371,0.00108529487625,-0.754126906395,0.163196474314,0.00467903306708,0.0151112992316,0.434506952763,0.486963470972,-0.130977100252,0.364850208522,-0.0078012060292,0.968214911246,-0.249975480864,-0.00335938777542
-0.30992770195,-0.157378360629,0.0126569615677,-2.12431335449,0.0218248814344,1.96424686909,0.235777109861,0.0496413744986,-0.527154684067,-0.00216616527177,-0.763949394226,0.200684949756,0.0102357529104,0.0238677989691,0.427775502205,0.484380188242,-0.144555165904,0.36675374493,-0.0091181734324,0.963516395927,-0.267491828089,-0.0010655002329
-0.325706541538,-0.157382503152,-0.0107595631853,-2.11792349815,0.0225591491908,1.96549904346,0.248086929321,0.0496413744986,-0.512932479382,0.000500145542901,-0.782801032066,0.230799123645,0.0432585328817,0.0467441007495,0.379514694214,0.480394467296,-0.16399753168,0.369916810682,-0.0111459488386,0.956294353714,-0.292178171248,0.00296526824882
-0.334483534098,-0.157409608364,-0.0243638530374,-2.11391568184,0.0236242339015,1.96634817123,0.254025101662,0.0496485978365,-0.49780523777,-3.51240378222e-05,-0.792970955372,0.242640048265,0.0797724500299,0.05300982669,0.334118008614,0.477917764421,-0.175012915014,0.371909195537,-0.0125583136084,0.952001493772,-0.30578523803,0.00555270278098
-0.342876315117,-0.15742328763,-0.0377164036036,-2.10977172852,0.025229068473,1.96721768379,0.259462445974,0.0496485978365,-0.48589220643,-0.000863039342221,-0.772462129593,0.248413935304,0.111835300922,0.0542071275413,0.317679435015,0.475371229093,-0.185635019895,0.373957248495,-0.014156322734,0.947650746967,-0.31888849639,0.00823327751783
-0.351469099522,-0.157522380352,-0.0517045482993,-2.1055264473,0.0275230351835,1.96825885773,0.265113770962,0.0496485978365,-0.463721841574,-0.00496241077781,-0.767894387245,0.236926168203,0.132499173284,0.0715314894915,0.317299097776,0.472516735578,-0.19654894016,0.376108738313,-0.0160678339219,0.942885888636,-0.332541915919,0.0111310183053
-0.365803271532,-0.157937854528,-0.075644120574,-2.09755325317,0.0335934907198,1.97036683559,0.275083333254,0.0496485978365,-0.433417230844,-0.0152254505083,-0.704990923405,0.254413276911,0.263532012701,0.0458205007017,0.316931277514,0.467487323463,-0.214775787557,0.380289914313,-0.020189333733,0.934090555825,-0.356066959205,0.0168387817298
-0.372200340033,-0.158200487494,-0.0859847292304,-2.09384036064,0.0381202735007,1.97099542618,0.279611617327,0.0496485978365,-0.421831846237,-0.0221380610019,-0.675073683262,0.246079787612,0.343440115452,0.0467530190945,0.295651435852,0.465190162272,-0.222441498376,0.38225506257,-0.0228087600846,0.929868475462,-0.366669636227,0.0194359553084
-0.379847794771,-0.158709526062,-0.0982305705547,-2.08929252625,0.0454319901764,1.97184157372,0.2850061059,0.0496485978365,-0.390810787678,-0.0337644554675,-0.622140705585,0.23148240149,0.433986216784,0.0471979491413,0.267765641212,0.462200199537,-0.232161992765,0.385057073868,-0.0272206376624,0.92394888854,-0.380839301715,0.0232145257033
-0.391132861376,-0.159888699651,-0.116258434951,-2.08218765259,0.0613033436239,1.97313284874,0.292701631784,0.0496485978365,-0.30844771862,-0.0459463447332,-0.494608521461,0.202818125486,0.562778174877,0.0267724022269,0.226395502687,0.458658338459,-0.243584865966,0.38902259516,-0.0348658562183,0.915848902826,-0.398979883029,0.0286393415078
-0.396910756826,-0.161013647914,-0.125465974212,-2.07817792892,0.0734381601214,1.97374582291,0.297232478857,0.0496485978365,-0.263632059097,-0.0605963729322,-0.428502053022,0.201340943575,0.649388492107,0.0274835992604,0.224508702755,0.45696205178,-0.249340452875,0.391714452546,-0.0408310082082,0.910727179329,-0.409716686135,0.0322656222837
-0.400527596474,-0.161895915866,-0.131429240108,-2.0751760006,0.083777487278,1.97411322594,0.30061852932,0.0496531948447,-0.21472658217,-0.0664820745587,-0.367255955935,0.202837109566,0.720699489117,0.0220200940967,0.225278615952,0.456146773057,-0.252718842291,0.393789437784,-0.0458244452459,0.907010908883,-0.417139197129,0.0350174425368
-0.403642654419,-0.163166970015,-0.13710641861,-2.07174134254,0.0966552868485,1.97442030907,0.304457724094,0.0496531948447,-0.158368304372,-0.0780173689127,-0.303697705269,0.20063200593,0.780209541321,0.0136468820274,0.228221669793,0.455794228148,-0.255440932424,0.396344070663,-0.0519742883215,0.903021113579,-0.424719527741,0.0382735445972
-0.405934393406,-0.164898350835,-0.14232006669,-2.0678319931,0.112720258534,1.97464227676,0.309029400349,0.0496531948447,-0.0771223008633,-0.0901752263308,-0.21722368896,0.197399735451,0.824344992638,0.00635683350265,0.219773098826,0.456103516734,-0.257200548857,0.399469018305,-0.0595927549202,0.89871488185,-0.432422424839,0.0420845681305
-0.406715482473,-0.167487591505,-0.146656706929,-2.06183409691,0.137596726418,1.97476959229,0.315348505974,0.0496531948447,0.0144273294136,-0.0998613387346,-0.0631691142917,0.213552430272,0.882189035416,0.0023304130882,0.220348730683,0.45830753369,-0.256889770709,0.404526159067,-0.0716581658018,0.893285852512,-0.441153965312,0.0478400620906
-0.406202405691,-0.169361174107,-0.147067606449,-2.05796813965,0.153535112739,1.97478854656,0.319079130888,0.0496531948447,0.0573328621686,-0.102943517268,0.0132429897785,0.215764790773,0.893030881882,-3.18653219438e-05,0.202088341117,0.460529652896,-0.255113705361,0.407859062307,-0.0790416588166,0.890670788681,-0.444769743015,0.0513598844797
-0.404451966286,-0.171115845442,-0.146425202489,-2.05433058739,0.168874025345,1.97483193874,0.322350680828,0.0496531948447,0.145752951503,-0.101495921612,0.0658022165298,0.219328716397,0.905601799488,0.00681430241093,0.181185871363,0.463057105566,-0.252523170846,0.410866587766,-0.085720636729,0.888794757804,-0.446919418248,0.0543956267139
-0.401538521051,-0.172785252333,-0.144904345274,-2.05067324638,0.183237418532,1.97485184669,0.325106292963,0.0496531948447,0.216316029429,-0.10666026175,0.118689104915,0.237439706922,0.887011528015,0.00127910275478,0.16445967555,0.466129851356,-0.248973863788,0.414042795326,-0.0923534052268,0.887437942859,-0.447914401639,0.0574232931323
-0.386489897966,-0.178770780563,-0.13422870636,-2.03801488876,0.226737305522,1.97485423088,0.333751291037,0.0496564768255,0.378764152527,-0.119087912142,0.328753083944,0.266948312521,0.83081817627,-0.00368146784604,0.183843299747,0.478359059583,-0.232355023608,0.425227273328,-0.112490342663,0.885837388491,-0.445165387031,0.0668268046617
-0.378239810467,-0.181001797318,-0.12688459456,-2.03262805939,0.243254259229,1.97487235069,0.337201118469,0.0496564768255,0.446226269007,-0.111380435526,0.404347330332,0.273549199104,0.820817112923,-0.00218435632996,0.174000173807,0.48425651013,-0.223145950364,0.429859948008,-0.120133378268,0.886429591549,-0.441463272735,0.0701479091041
-0.354366183281,-0.186634644866,-0.104152485728,-2.01977467537,0.278419911861,1.97487485409,0.345955938101,0.0496564768255,0.577431738377,-0.113445013762,0.570218801498,0.28248167038,0.679316341877,0.00239142589271,0.194934278727,0.499025683027,-0.19645487882,0.441074614665,-0.136583057648,0.890153453758,-0.427858186413,0.076871770628
-0.343685179949,-0.188758835196,-0.0932371616364,-2.01484084129,0.290047287941,1.97489202023,0.349426537752,0.0496564768255,0.607662916183,-0.118305668235,0.627105653286,0.271435707808,0.611730575562,-0.000123489095131,0.201651722193,0.504828627331,-0.184314849514,0.445319974536,-0.142072804895,0.892517813713,-0.420712702633,0.0789182604508
-0.333102405071,-0.190650850534,-0.0822605639696,-2.01021671295,0.299722373486,1.97489261627,0.352970123291,0.0496564768255,0.650010585785,-0.105624519289,0.679728806019,0.265980511904,0.531990230083,-0.00137114443351,0.219731122255,0.510130675166,-0.172267589452,0.449194266996,-0.14668832269,0.895055297892,-0.413367635767,0.080534136094
-0.319773137569,-0.19279576838,-0.0678331553936,-2.00505614281,0.309646368027,1.97490823269,0.357231408358,0.0496564768255,0.676854550838,-0.107704564929,0.74461299181,0.251499414444,0.468329489231,0.00334896240383,0.201104804873,0.516219848878,-0.156823780243,0.453493897432,-0.151445601148,0.89863314562,-0.403494595064,0.0819439498459
-0.299656182528,-0.195774272084,-0.0453053638339,-1.99844360352,0.322139561176,1.97500193119,0.363277941942,0.0496571324766,0.721926450729,-0.0990526229143,0.833717644215,0.215884909034,0.395740300417,0.000465051067295,0.204714268446,0.524256841885,-0.132969877637,0.459097276729,-0.157461486386,0.904389068642,-0.387784887349,0.0831214391571
-0.28750282526,-0.197385087609,-0.0312388129532,-1.99497830868,0.328274160624,1.97514569759,0.366681039333,0.0496571324766,0.719640314579,-0.0867091044784,0.830327928066,0.195961043239,0.329027205706,0.0119942994788,0.194608166814,0.528478012625,-0.118278651527,0.462021444495,-0.160409869219,0.908061024852,-0.377807747089,0.0833975714279
-0.274359643459,-0.198884934187,-0.0156821738929,-1.99167907238,0.333580881357,1.97527229786,0.370189249516,0.0496571324766,0.729262709618,-0.0838967114687,0.882850527763,0.162640273571,0.272712230682,-0.00130389013793,0.204413041472,0.532684450173,-0.101301746867,0.464857838574,-0.163069269319,0.91242794053,-0.365996765628,0.0832468256098
-0.260596841574,-0.20041435957,0.00121195393149,-1.98898041248,0.3379753232,1.97539532185,0.374261289835,0.0496571324766,0.721214056015,-0.0791613683105,0.882154405117,0.123843125999,0.208048313856,0.0110875330865,0.220645442605,0.536000825193,-0.0850358246062,0.467035669887,-0.16500253775,0.916584511094,-0.354711945849,0.0826222228682
-0.22678245604,-0.203409001231,0.0446643084288,-1.98541247845,0.343589514494,1.97549593449,0.38593429327,0.0496571324766,0.70158213377,-0.0569174289703,0.941626727581,0.0242873448879,0.0308731533587,0.00239785062149,0.280432581902,0.541684255204,-0.0419134636775,0.470229902516,-0.167316826205,0.927532451256,-0.324782980603,0.07876957998
-0.2136785537,-0.204330384731,0.0626636743546,-1.9853066206,0.343730181456,1.9755012989,0.391391694546,0.0496571324766,0.667861819267,-0.0343816056848,0.950849592686,-0.00949315913022,-0.00261834287085,-0.00336573226377,0.313165485859,0.542757270266,-0.0238211882249,0.47047052184,-0.167042989169,0.932071270892,-0.312278850051,0.0763000998865
-0.201994866133,-0.204727083445,0.0795576125383,-1.98560583591,0.343584835529,1.97544682026,0.397165447474,0.0496571324766,0.637233376503,-0.0144564732909,0.936929881573,-0.0229960232973,-0.0161871872842,-0.003897867864,0.333732873201,0.543167762092,-0.00892976541352,0.470187887725,-0.166590998133,0.935631759922,-0.302310090246,0.0738190909417
-0.17348408699,-0.20482608676,0.123278521001,-1.98815011978,0.335831254721,1.97539293766,0.413811415434,0.049658447504,0.539857327938,0.00641030818224,0.881344079971,-0.0968326330185,-0.322562485933,-0.000565175607335,0.375410526991,0.54194523749,0.0297748913693,0.467515930768,-0.161475407048,0.945251426837,-0.275683456138,0.066513642816
-0.165645807981,-0.204716444016,0.136419326067,-1.98983383179,0.330211937428,1.97534990311,0.41990634799,0.049658447504,0.503478884697,0.00370170082897,0.857253432274,-0.126816079021,-0.426775425673,-0.00104599166662,0.426204949617,0.540859432789,0.0404384057069,0.465961323769,-0.158245331801,0.948120910158,-0.268156925594,0.0641639901202
-0.156546324492,-0.204697817564,0.152194321156,-1.99260401726,0.320518016815,1.97524774075,0.428696274757,0.049658447504,0.469080835581,-0.000324682740029,0.812367141247,-0.149386286736,-0.519365131855,-0.00934485066682,0.47032469511,0.539091654816,0.0525405810034,0.463610204649,-0.152908627034,0.951560507651,-0.259594494155,0.0613371857088
-0.147802889347,-0.204643636942,0.16757068038,-1.99617946148,0.30706563592,1.97500121593,0.439166754484,0.049658447504,0.424520343542,-0.00141377944965,0.751099050045,-0.193474009633,-0.741058707237,-0.00863654352725,0.547501683235,0.536889194939,0.0635359782231,0.460650675504,-0.145739187472,0.954976478455,-0.251698592269,0.0585476999847
-0.136707544327,-0.204607069492,0.187674626708,-2.00232601166,0.28208771348,1.97467672825,0.455196887255,0.049658447504,0.352335184813,0.00453289644793,0.626219987869,-0.225659579039,-0.958098173141,-0.0109749380499,0.570978045464,0.533263386971,0.076705635446,0.455597707617,-0.132264027145,0.959794969371,-0.241349856925,0.0552276212373
-0.130926132202,-0.204544514418,0.197721093893,-2.00637555122,0.264978408813,1.97451090813,0.465062886477,0.049658447504,0.316502988338,0.00428067427129,0.552863180637,-0.247665748,-1.05171978474,-0.008624994196,0.599036037922,0.531313742032,0.0819968609467,0.452677609875,-0.124041060616,0.962103669417,-0.236785274802,0.0538802181098
-0.126185685396,-0.204379424453,0.205988049507,-2.01057052612,0.247451841831,1.97431731224,0.474957823753,0.049658447504,0.28546077013,0.0135805346072,0.484420925379,-0.270613640547,-1.10945367813,-0.0110369184986,0.629177510738,0.529408223397,0.0859941557724,0.449544095135,-0.115191922972,0.964149799043,-0.23316931983,0.0527072468393
-0.121242441237,-0.20410862565,0.214435711503,-2.01578807831,0.225168913603,1.97392117977,0.487091094255,0.049658447504,0.236928328872,0.0191803406924,0.404188781977,-0.27233684063,-1.17191684246,-0.0254190005362,0.634591400623,0.527234634643,0.089317988579,0.445717934389,-0.104036889607,0.966292297849,-0.229768131911,0.0515957941075
-0.112837545574,-0.202817589045,0.229211434722,-2.02926850319,0.16050323844,1.97285425663,0.519018769264,0.0496617294848,0.107938028872,0.0367420129478,0.186510145664,-0.263273745775,-1.36115300655,-0.00246640737168,0.682229399681,0.522815826679,0.0903654609615,0.436046214511,-0.0724061551215,0.970258097147,-0.225298095821,0.0509641181028
-0.111039109528,-0.201870724559,0.232004627585,-2.03448367119,0.132808700204,1.97274899483,0.532378971577,0.0496617294848,0.0690775513649,0.0550407990813,0.108612753451,-0.255826115608,-1.40809237957,-0.00647381786257,0.658395528793,0.521695856101,0.0879313159867,0.432370713468,-0.0592205113784,0.971052343126,-0.225598960532,0.0515304438361
-0.11050144583,-0.200904250145,0.23309366405,-2.03794598579,0.113097518682,1.97267746925,0.541556537151,0.0496617294848,0.0189970787615,0.0817520841956,0.0536414533854,-0.241006150842,-1.42252361774,-0.00233868206851,0.666891813278,0.521145519598,0.0853318430958,0.429842039912,-0.04991811053,0.971365955695,-0.226372876045,0.0520738230086
-0.110768757761,-0.199081078172,0.233256265521,-2.04248738289,0.084443256259,1.97264540195,0.554901182652,0.0496617294848,-0.0396607741714,0.0972102209926,-0.0173149593174,-0.217979222536,-1.44844245911,-0.00106264266651,0.669078588486,0.520731560218,0.0802678234142,0.426369979799,-0.0365700484178,0.971387419325,-0.228580016254,0.0531063931973
-0.113143078983,-0.195825770497,0.231731981039,-2.04836297035,0.041072241962,1.97264075279,0.573713600636,0.0496617294848,-0.122757911682,0.121863439679,-0.0948118269444,-0.185204938054,-1.51337373257,0.00176694185939,0.632067859173,0.520676094948,0.0706878525291,0.421676840723,-0.0166166544224,0.970812757084,-0.232801385896,0.0552267317248
-0.116127215326,-0.193335175514,0.22922757268,-2.05193829536,0.0108744231984,1.97266817093,0.586096405983,0.0496656708419,-0.168512806296,0.130439430475,-0.146146893501,-0.168158173561,-1.51879572868,0.000538747466635,0.614938735962,0.520960360775,0.0621635575026,0.418629137896,-0.00220478971587,0.969885432916,-0.236769220078,0.0570764578115
-0.119400277734,-0.190907940269,0.226432487369,-2.05465555191,-0.0148963415995,1.97267270088,0.59659665823,0.0496656708419,-0.217718988657,0.146692320704,-0.186903625727,-0.151022031903,-1.53209209442,0.000451097992482,0.600301206112,0.521307805394,0.0549848441568,0.416425672889,0.00873909371889,0.968894329047,-0.240294512242,0.0585316535074
-0.123217873275,-0.188511505723,0.223196431994,-2.05698394775,-0.0392027311027,1.97270333767,0.606142044067,0.0496656708419,-0.255551278591,0.149639204144,-0.219494909048,-0.140857115388,-1.51054227352,0.00309007312171,0.574762880802,0.521737290517,0.047128972044,0.41438254692,0.0196439926256,0.967665532356,-0.244190258379,0.060072027188
-0.135944545269,-0.181278899312,0.211942106485,-2.06215667725,-0.101809777319,1.97276747227,0.628571748734,0.0496656708419,-0.341307163239,0.195902436972,-0.312138140202,-0.105396069586,-1.47823405266,0.000439034978626,0.502099812031,0.522974425801,0.0239144829552,0.409423956936,0.0475664902688,0.963518636166,-0.255546821728,0.0637580454564
-0.15385209024,-0.172350749373,0.194829344749,-2.06629443169,-0.167965486646,1.97299087048,0.649164438248,0.0496656708419,-0.418253481388,0.207369148731,-0.396668702364,-0.0634411647916,-1.33585739136,0.00946399476379,0.383616536856,0.523995504951,-0.00557303035572,0.404833547571,0.076791607944,0.957455677862,-0.269967432694,0.0670765149259
-0.161177232862,-0.168873995543,0.187573611736,-2.0672326088,-0.189794301987,1.9731618166,0.655635237694,0.0496656708419,-0.446179956198,0.198324784636,-0.448744058609,-0.042210880667,-1.23675405979,0.0141813904047,0.378476560116,0.524180348943,-0.0168593368326,0.40339820752,0.0863565145397,0.954908361646,-0.275830551359,0.067897569043
-0.182853400707,-0.159536644816,0.164729177952,-2.06812691689,-0.240251749754,1.97426140308,0.671997368336,0.0496656708419,-0.481151729822,0.198305994272,-0.52573466301,0.000601567211561,-0.877632856369,0.0513418056071,0.297370791435,0.523932252488,-0.0485457210215,0.400336977167,0.108097692783,0.946911200607,-0.294757884459,0.0692232346673
-0.193530187011,-0.155396580696,0.15266443789,-2.06807231903,-0.258017659187,1.97566103935,0.678175389767,0.0496689528227,-0.486067950726,0.179381802678,-0.567713975906,0.00404109805822,-0.723454654217,0.0873766317964,0.25059312582,0.523382798127,-0.0633602175214,0.399164946114,0.115518556698,0.942864970505,-0.304715401016,0.0693515286311
-0.201327055693,-0.152529060841,0.143391683698,-2.06794977188,-0.268596887589,1.97711479664,0.681722939014,0.0496689528227,-0.492677658796,0.1841789186,-0.589217126369,0.00807236414403,-0.638940513134,0.0939370691776,0.202809900045,0.522875748948,-0.0726762266126,0.398473262881,0.119327286589,0.940272733323,-0.311203051587,0.0692881376149
-0.216478914022,-0.147274702787,0.124873869121,-2.0670580864,-0.283827424049,1.9809576273,0.686552226543,0.0496689528227,-0.493116557598,0.155348718166,-0.617199599743,0.046519074589,-0.381891429424,0.137727707624,0.137184485793,0.52138490859,-0.0940438885162,0.397167304629,0.12569025068,0.934187465219,-0.326700211098,0.0690124080603
-0.224687591195,-0.144657343626,0.11420366168,-2.06598186493,-0.289460450411,1.98337769508,0.688279092312,0.0496689528227,-0.482728689909,0.150338515639,-0.639385223389,0.08042524755,-0.278240293264,0.135794773698,0.0679352656007,0.520460844452,-0.1048010079,0.396826191211,0.127618181409,0.93100513726,-0.334951242371,0.0689253152839
-0.240672141314,-0.139485731721,0.0920152962208,-2.06170845032,-0.29501748085,1.98766613007,0.688959300518,0.0496689528227,-0.441668152809,0.148263916373,-0.63759547472,0.163362666965,-0.0449546985328,0.118215054274,-8.82392050698e-05,0.518373105877,-0.125685003195,0.39686951906,0.128953445245,0.92470746403,-0.351549340696,0.0685578271736
-0.261008948088,-0.132742077112,0.0610548369586,-2.04965472221,-0.294409006834,1.99177646637,0.6886972785,0.0496728941798,-0.383044064045,0.128524377942,-0.602074503899,0.335910737514,0.0715581998229,0.0462347865105,-0.0227007176727,0.515612216437,-0.152772663907,0.399556600763,0.126985777765,0.91557482346,-0.375203397223,0.069424529421
-0.267348855734,-0.130521118641,0.0508519820869,-2.04329395294,-0.292808353901,1.99237203598,0.68785828352,0.0496728941798,-0.356209993362,0.131249204278,-0.587740540504,0.397442549467,0.12352848798,0.024612782523,-0.0682895407081,0.514906624547,-0.161439885421,0.401479169739,0.12569566585,0.91249188769,-0.382893804146,0.0703668168429
-0.273411870003,-0.128444358706,0.0403390489519,-2.03564763069,-0.289708584547,1.99257338047,0.686449289322,0.0496728941798,-0.321343749762,0.105458751321,-0.570621967316,0.446329176426,0.221494197845,0.00439214427024,-0.0804248973727,0.514295067194,-0.169982976206,0.404011250295,0.123718140992,0.909344673635,-0.39070709468,0.0716522991006
-0.279321908951,-0.126577377319,0.0295626223087,-2.02675318718,-0.284777671099,1.99256002903,0.684976518154,0.0496728941798,-0.294987857342,0.0917849838734,-0.545901954174,0.497307747602,0.288185894489,0.00915674027056,-0.0857920795679,0.513793591804,-0.178395799522,0.407180306388,0.120870518114,0.90600392187,-0.398949179418,0.0733945728748
-0.287375211716,-0.124416783452,0.0149326827377,-2.0105984211,-0.274011641741,1.99236762524,0.680899143219,0.0496728941798,-0.252548128366,0.0563389323652,-0.466234475374,0.59066671133,0.445687562227,-0.0125071620569,-0.189665049314,0.513865355299,-0.189504784543,0.413560846505,0.115012421003,0.901426835482,-0.410126649893,0.0774463298823
-0.298548698425,-0.122792497277,-0.00630993815139,-1.97686946392,-0.24598403275,1.99107086658,0.669871807098,0.0496728941798,-0.169438228011,-0.00498583354056,-0.34932628274,0.722533464432,0.623319923878,-0.0650790259242,-0.2251175493,0.516043246599,-0.204927688209,0.429383021717,0.0995890368096,0.89431458625,-0.42717683955,0.0883368099621
-0.303219944239,-0.122874647379,-0.0155258039013,-1.9534933567,-0.225595250726,1.98901081085,0.663009941578,0.0496728941798,-0.144713968039,-0.0133583778515,-0.261128813028,0.819711446762,0.728116214275,-0.0956223160028,-0.222512230277,0.518299378168,-0.209903625807,0.439375988253,0.0901792697477,0.891293620747,-0.433984608205,0.0955025677114
-0.305857956409,-0.123455330729,-0.0200923513621,-1.93673014641,-0.210424721241,1.98704242706,0.658422350883,0.049674205482,-0.123160474002,-0.0323082618415,-0.197548389435,0.877227544785,0.781875014305,-0.0939926803112,-0.23196606338,0.520337445315,-0.212404186442,0.447579203607,0.082502474039,0.889266076047,-0.43831611332,0.101381320998
-0.308054447174,-0.124113708735,-0.023311201483,-1.91907429695,-0.194439202547,1.98449075222,0.653929233551,0.049674205482,-0.092148385942,-0.0541751906276,-0.125611796975,0.909048318863,0.822393596172,-0.137045696378,-0.208030149341,0.522723497116,-0.213858711109,0.456281687739,0.0744266636179,0.887476978482,-0.441900717388,0.10755947216
-0.309231162071,-0.124937601388,-0.0249323416501,-1.90506780148,-0.181866168976,1.98239004612,0.650855064392,0.049674205482,-0.0591263175011,-0.0517084635794,-0.0994081497192,0.931365013123,0.850376367569,-0.147792443633,-0.207745864987,0.524794486858,-0.214199278094,0.463414656527,0.0679959495777,0.886231665017,-0.444148232975,0.112704629811
-0.309741765261,-0.12715357542,-0.0271573457867,-1.87568807602,-0.154987096786,1.97735476494,0.64450532198,0.049674205482,0.00637986464426,-0.0860851854086,-0.0357432290912,0.95245808363,0.884549081326,-0.180000662804,-0.191064581275,0.529386576869,-0.213026520758,0.478734479113,0.0541222204433,0.884184454628,-0.447228974246,0.123591584322
-0.309534817934,-0.128599599004,-0.0273443628103,-1.86139929295,-0.141628012061,1.97435283661,0.641625881195,0.049674205482,0.0258389171213,-0.124425157905,0.00398620218039,0.961299657822,0.890668570995,-0.198031067848,-0.195703476667,0.531632447762,-0.211581194074,0.486399756139,0.047183139518,0.8833951601,-0.448088545242,0.128854172428
-0.308735430241,-0.130791440606,-0.0271372962743,-1.84398841858,-0.125511363149,1.97024524212,0.638267815113,0.049674205482,0.0667222812772,-0.124812178314,0.0214049238712,0.949173629284,0.888387978077,-0.26305142045,-0.183392375708,0.53429082321,-0.209204906913,0.495997604247,0.0387217772689,0.882591947794,-0.448580074379,0.135307036757
-0.307076215744,-0.13349737227,-0.0263873431832,-1.82579314709,-0.108699500561,1.9651529789,0.635063230991,0.049674205482,0.0996359139681,-0.155039399862,0.0518109947443,0.949640214443,0.882253110409,-0.278654962778,-0.153829067945,0.536972891067,-0.205839925828,0.506231316892,0.0297935265169,0.881976147371,-0.448436421903,0.141898542727
-0.300820708275,-0.141950950027,-0.0225499030203,-1.7849830389,-0.0705613717437,1.95036554337,0.629364669323,0.0496761761606,0.176342204213,-0.244228959084,0.125366613269,0.841754555702,0.802770376205,-0.385113060474,-0.120952777565,0.542054853576,-0.195529284345,0.529244186718,0.00998393361658,0.881255342153,-0.446184023605,0.155592929622
-0.297524124384,-0.146372884512,-0.0202482528985,-1.76970219612,-0.0562234222889,1.94315898418,0.627257585526,0.0496761761606,0.198396191001,-0.241034582257,0.12748247385,0.790563166142,0.774269342422,-0.426846086979,-0.0962573811412,0.543748995901,-0.189534642878,0.539874613714,0.00115904861936,0.881393993468,-0.443997845193,0.161273674292
-0.293203294277,-0.151717334986,-0.0174696687609,-1.75425219536,-0.0413677208126,1.93429255486,0.625409305096,0.0496761761606,0.229190170765,-0.284443080425,0.152510076761,0.774106502533,0.713339447975,-0.452030003071,-0.0916310995817,0.544913223017,-0.182967063559,0.549831058958,-0.00714397207745,0.881818079776,-0.441345685036,0.166011517117
-0.281560570002,-0.167592778802,-0.00878113973886,-1.72347152233,-0.0106161730364,1.90989613533,0.620938718319,0.0496761761606,0.260849177837,-0.35528704524,0.213795483112,0.532743990421,0.576637387276,-0.542634606361,-0.084469281137,0.545333566825,-0.164800101535,0.572045208501,-0.0248461747637,0.884361016189,-0.432232886374,0.174536506937
-0.277784734964,-0.17285476625,-0.00549443159252,-1.71657371521,-0.00296701071784,1.90199506283,0.619980156422,0.0496761761606,0.276529282331,-0.387340754271,0.241504237056,0.456156849861,0.532131075859,-0.567724943161,-0.0598904304206,0.544925362988,-0.159375521028,0.577109445888,-0.0288751324482,0.885417804733,-0.429285629956,0.175827715033
-0.272005140781,-0.180877164006,-0.000640615879092,-1.70858633518,0.00748933199793,1.89023935795,0.618739902973,0.0496761761606,0.291529744864,-0.415160894394,0.23955886066,0.363628566265,0.504564166069,-0.589297235012,-0.0598875582218,0.544235431823,-0.153289375614,0.582083504579,-0.0330339553759,0.886717553507,-0.425938228116,0.176684361496
-0.2659496665,-0.18919415772,0.00418954947963,-1.70237958431,0.0169958248734,1.87827861309,0.617538690567,0.0496761761606,0.313295960426,-0.420234113932,0.261786192656,0.251658797264,0.450052022934,-0.617801964283,-0.0567557439208,0.542347399654,-0.141928453063,0.590226584548,-0.0400323638196,0.889400634304,-0.419463434083,0.177240934008
-0.251618862152,-0.207929447293,0.0165859330446,-1.69606781006,0.0338846929371,1.85078501701,0.615234613419,0.0496794581413,0.317296952009,-0.405938744545,0.303252756596,0.0301389917731,0.330435007811,-0.598795115948,-0.0554011948407,0.537698642136,-0.121091842117,0.599826942877,-0.0491034295343,0.895462689023,-0.406736863235,0.174070530348
-0.246151730418,-0.214776366949,0.0219721142203,-1.69619739056,0.0391553714871,1.84083020687,0.614627540112,0.0496794581413,0.32218977809,-0.38529497385,0.325753450394,-0.0351211279631,0.297514885664,-0.584440052509,-0.0191870834678,0.535801940852,-0.113188937479,0.601888205082,-0.051623452275,0.897996310699,-0.401767852255,0.171814544543
-0.239866152406,-0.221588373184,0.0280242953449,-1.69743144512,0.0442835986614,1.82979154587,0.614381551743,0.0496794581413,0.33754530549,-0.338189929724,0.313107132912,-0.0896731540561,0.254632651806,-0.571168363094,-0.0145983835682,0.533816556611,-0.10492134608,0.603099902438,-0.0537722328075,0.90076779814,-0.396596619534,0.16863286116
-0.223461210728,-0.235606521368,0.0441696681082,-1.70633709431,0.0548765361309,1.80569946766,0.613957643509,0.0496794581413,0.335580080748,-0.224902585149,0.35999250412,-0.283534109592,0.18605838716,-0.411908090115,-0.0119818933308,0.529121360152,-0.0830094420174,0.602124181634,-0.0575815199585,0.908640026679,-0.382284522964,0.157848704957
-0.217671513557,-0.239212080836,0.0503023341298,-1.71187376976,0.0580557920039,1.79917263985,0.613836526871,0.0496794581413,0.336844146252,-0.200589165092,0.3520578444,-0.354969114065,0.184680610895,-0.348298370838,-0.00467100553215,0.527831366919,-0.075341719909,0.600087463213,-0.0583405797895,0.911543462611,-0.377101180214,0.153230519419
-0.211533457041,-0.242162153125,0.0567224547267,-1.71895992756,0.06109194085,1.7936207056,0.613746523857,0.0496833994985,0.344965964556,-0.122275523841,0.365047425032,-0.42967441678,0.140349805355,-0.28746932745,-0.00663735205308,0.526713857779,-0.0674553250614,0.597033699772,-0.058847138009,0.914588140364,-0.371694824117,0.148015219683
-0.194871157408,-0.244609043002,0.0751696228981,-1.74507164955,0.0672614723444,1.78200769424,0.613671600819,0.0496833994985,0.336316972971,0.0310749486089,0.387424409389,-0.607664346695,0.107135608792,-0.180645093322,0.000672268914059,0.524531340455,-0.0464460770539,0.58273904398,-0.0578571512094,0.923259586547,-0.356949585512,0.129735419173
-0.184872701764,-0.241847813129,0.0869675129652,-1.76514947414,0.0697276368737,1.77710950375,0.613667368889,0.0496833994985,0.34350797534,0.144831836224,0.397709995508,-0.693321108818,0.0865226462483,-0.133497551084,0.000358134915587,0.523647885578,-0.0340576383117,0.56999192168,-0.0556305704604,0.928661264468,-0.347989858462,0.115743481885
-0.177059844136,-0.237211987376,0.0962206572294,-1.78290069103,0.0717540308833,1.77464413643,0.613668739796,0.0496833994985,0.316488564014,0.238989263773,0.391888409853,-0.799221694469,0.0799157693982,-0.0875254422426,-7.72082785261e-05,0.52314896708,-0.0245459137003,0.557917008339,-0.0534341038592,0.932815967466,-0.341079348883,0.10326686224
-0.161909580231,-0.219552487135,0.115975521505,-1.82060742378,0.0744249597192,1.77326917648,0.613673567772,0.0496833994985,0.316243857145,0.455341845751,0.40560901165,-0.780362844467,0.0307713262737,0.0144088109955,-0.000102219892142,0.522875377124,-0.00587860742627,0.52891382444,-0.0472028540615,0.940861832783,-0.326973006582,0.0750969695402
-0.157333537936,-0.211878880858,0.122013866901,-1.83221411705,0.0749877840281,1.77336788177,0.613682508469,0.0496833994985,0.299197763205,0.560748279095,0.40016695857,-0.79641699791,0.0462185405195,0.00416412297636,0.00334942946211,0.522847504003,-0.000364131488414,0.518955651021,-0.0449066238388,0.943163236269,-0.322674479689,0.0656329546161
-0.151914983988,-0.200822666287,0.129446700215,-1.84618377686,0.0756145790219,1.77371394634,0.613694489002,0.0496847145259,0.297380775213,0.644110441208,0.420581430197,-0.731891930103,0.0332500077784,0.0584540739655,0.001070434344,0.522841500255,0.00623884241949,0.506101795437,-0.0419023292863,0.945836044749,-0.317456380816,0.0534772589216
-0.13672323525,-0.161922082305,0.151114046574,-1.88236045837,0.0769365355372,1.7807444334,0.614173054695,0.0496847145259,0.299933344126,0.871993839741,0.422612041235,-0.663648486137,0.0178924016654,0.238182216883,0.0331239402294,0.523588611828,0.024862134429,0.468415914424,-0.0334880373696,0.952391058291,-0.302376811693,0.0199521147007
-0.131445065141,-0.145458519459,0.158849775791,-1.89405524731,0.077313542366,1.7856451273,0.614747107029,0.0496847145259,0.286741733551,0.93002063036,0.421602994204,-0.614031195641,0.0151168731973,0.301373362541,0.030906399712,0.524071126862,0.0310214224021,0.455322532705,-0.0308154283051,0.954199865214,-0.297439865964,0.00908583675678
-0.126863434911,-0.130193606019,0.165613889694,-1.90336346626,0.0776505917311,1.79130256176,0.615337073803,0.0496847145259,0.288867890835,0.983676612377,0.426034301519,-0.567602217197,0.0273977164179,0.386316180229,0.0356976464391,0.524772325402,0.0370679102334,0.442601969959,-0.0284600086136,0.955808650748,-0.292607297694,-0.000905589634578
-0.113700427115,-0.0803314819932,0.186628758907,-1.92695939541,0.0780972614884,1.81443238258,0.618830323219,0.0496847145259,0.270885437727,1.06566357613,0.430671691895,-0.410678356886,0.00172477203887,0.578003585339,0.124232791364,0.527452207801,0.0542976119825,0.407276486735,-0.0228344948368,0.959528050288,-0.279481388803,-0.0259742095357
-0.108426764607,-0.0599814206362,0.194815203547,-1.93422961235,0.0781385228038,1.82609391212,0.621792793274,0.0496873408556,0.276641011238,1.07488238811,0.426894694567,-0.363656520844,0.000886071356945,0.634789824486,0.185051158071,0.528813276394,0.0611898479416,0.394154439581,-0.0212631443015,0.96060721552,-0.274996523481,-0.0340377430333
-0.103831678629,-0.0418328642845,0.202003777027,-1.93989527225,0.0781478211284,1.83729314804,0.625163674355,0.0496873408556,0.265906631947,1.05081832409,0.423397541046,-0.305715978146,0.000638487108517,0.678022623062,0.209017366171,0.530000035024,0.066932190639,0.383523064112,-0.0202000365532,0.961352877946,-0.271629645023,-0.0401240355105
-0.0991840735078,-0.0240049995482,0.209075555205,-1.94460427761,0.0781658068299,1.84893262386,0.629233181477,0.0496873408556,0.271857082844,1.04275882244,0.404175311327,-0.253178268671,-0.000245407951297,0.694491267204,0.251743137836,0.53137037484,0.073439871843,0.372233759452,-0.0193187051744,0.962062165043,-0.268209135689,-0.046119816211
-0.0863115340471,0.0224569700658,0.229044675827,-1.95295214653,0.0781902819872,1.88452744484,0.643330335617,0.0496873408556,0.26591911912,0.90611821413,0.404660731554,-0.111807577312,0.000669083499815,0.76485812664,0.316839873791,0.535588025843,0.0915196910365,0.34609162651,-0.018890094255,0.963669265813,-0.260299649323,-0.0568225546774
-0.0812706202269,0.0385442115366,0.236756056547,-1.95461714268,0.0781852006912,1.89905762672,0.649617195129,0.0496873408556,0.264831453562,0.792467415333,0.39521381259,-0.0606976151466,-0.000247883959673,0.760699093342,0.351115316153,0.537213725941,0.0982132590521,0.338338644724,-0.0193899835294,0.964206817357,-0.257816363625,-0.0588214607152
-0.077270835638,0.0501332879066,0.242710933089,-1.95523786545,0.0781943649054,1.9104309082,0.655222952366,0.0496873408556,0.271983504295,0.733587920666,0.399743050337,-0.022595487535,0.000272061908618,0.75192040205,0.393685728312,0.538608802258,0.103802211976,0.332733022504,-0.0200624423636,0.964594192126,-0.256102053253,-0.0597267187805
-0.0716804265976,0.0644372403622,0.250868827105,-1.95534515381,0.0781947523355,1.92591166496,0.663885891438,0.0496873408556,0.259718537331,0.621788918972,0.386135339737,0.0123157119378,-0.0039548878558,0.732351601124,0.427602469921,0.540527990108,0.11161057124,0.326204706815,-0.0213086111767,0.965064786527,-0.254167885689,-0.0599548703066
-0.059448223561,0.0867785140872,0.268988758326,-1.95407819748,0.0782007128,1.95996320248,0.684683799744,0.0496899671853,0.266726285219,0.334809780121,0.370235979557,0.0541624315083,7.13334447937e-05,0.688171625137,0.442446827888,0.544657587559,0.129163978638,0.317396814029,-0.0255825669758,0.96613853584,-0.250674278742,-0.0555361819131
-0.0546755604446,0.0918391644955,0.275549441576,-1.95285344124,0.0781920850277,1.97186970711,0.692742645741,0.0496899671853,0.262650996447,0.229582279921,0.360481053591,0.0837308764458,0.000150304782437,0.638769745827,0.458585768938,0.546120007249,0.135813285997,0.316171992965,-0.027633714731,0.966570820198,-0.249463924538,-0.0523925319009
-0.0503724515438,0.0949106812477,0.281612485647,-1.95126867294,0.0781996846199,1.9823641777,0.700794696808,0.0496899671853,0.251418679953,0.142488181591,0.352757573128,0.106851235032,0.000313258002279,0.585719347,0.481848359108,0.54746459152,0.141948573689,0.316094742633,-0.0297613764542,0.966903788686,-0.248659201888,-0.048784474026
-0.0380764715374,0.0959777906537,0.298856496811,-1.94328188896,0.0781631395221,2.00722956657,0.725235104561,0.0496899671853,0.243710517883,-0.0675831362605,0.342479705811,0.244989931583,-0.00494961487129,0.416633307934,0.483862072229,0.551062693966,0.159998459442,0.321581057365,-0.0368983010035,0.967726585953,-0.246755376885,-0.035433795942
-0.0344707146287,0.0943639948964,0.303735464811,-1.93933236599,0.0780671909451,2.01314711571,0.73259550333,0.0496899671853,0.237293064594,-0.15288323164,0.318149089813,0.269106805325,-0.00727181648836,0.373038709164,0.502875030041,0.552141442668,0.164827134098,0.324670108585,-0.0391672935169,0.967902857311,-0.246318413604,-0.0309389841647
-0.0299049373716,0.0907998755574,0.309705883265,-1.93400466442,0.0777701064944,2.02018809319,0.742254137993,0.0496912784874,0.24019870162,-0.193076521158,0.316519707441,0.284614861012,-0.0153263946995,0.374586284161,0.507727622986,0.553552769683,0.171287851968,0.329809314397,-0.0424037332799,0.968068777932,-0.245885085147,-0.0241927508309
-0.0251806899905,0.0864752680063,0.315454721451,-1.92779576778,0.0766876339912,2.0272538662,0.752665519714,0.0496912784874,0.230330094695,-0.253965735435,0.27007740736,0.305509269238,-0.0819079875946,0.342108547688,0.519796609879,0.555143533778,0.177699137028,0.335824473586,-0.0457541638434,0.968138524334,-0.245640565332,-0.0165851303584
-0.0187542587519,0.0767393931746,0.322937995195,-1.91913807392,0.072695478797,2.03595519066,0.76718211174,0.0496912784874,0.209369286895,-0.383310824633,0.245110094547,0.306460738182,-0.197799026966,0.276320487261,0.481626927853,0.557064800132,0.185893812639,0.346214448284,-0.0498139550048,0.968239614218,-0.244975719641,-0.00418519121861
-0.0151633005589,0.0697736591101,0.327140957117,-1.91353464127,0.0687862709165,2.04067754745,0.775713562965,0.0496912784874,0.185464456677,-0.400039345026,0.221796631813,0.308548986912,-0.244286671281,0.241933360696,0.471313923597,0.558219360059,0.190322104285,0.353261644043,-0.0519024675917,0.968279935523,-0.244383645713,0.00409068735662
-0.0124632911757,0.0631692931056,0.330377876759,-1.90900039673,0.0645604282618,2.04397988319,0.782861351967,0.0496912784874,0.164060667157,-0.465048909187,0.193793147802,0.288425773382,-0.298339337111,0.191124081612,0.465294390917,0.559046138889,0.193535252594,0.359473059046,-0.0532333133535,0.968261897147,-0.243942625595,0.0112742180845
-0.00573116447777,0.0376341231167,0.33761075139,-1.89586341381,0.0437830388546,2.0505464077,0.804000198841,0.0496912784874,0.0986535772681,-0.555433630943,0.099530659616,0.230323314667,-0.525457680225,0.0768683478236,0.377087295055,0.561094203457,0.199712321404,0.380818596162,-0.0540803871086,0.967967108868,-0.242518455543,0.0360525490558
-0.00454017380252,0.0287320483476,0.338847696781,-1.89238262177,0.0352445505559,2.05139708519,0.809591054916,0.0496912784874,0.0574814602733,-0.585995078087,0.0600311234593,0.217402279377,-0.571261882782,0.0391923636198,0.354905366898,0.561600752331,0.200161968112,0.387601888875,-0.0532145884307,0.967785151386,-0.242109996548,0.0440778583753
-0.00371003057808,0.0172745343298,0.339735388756,-1.88822889328,0.0231115687639,2.05176258087,0.81649941206,0.0496912784874,0.0269478298724,-0.571760773659,0.0311396624893,0.194510444999,-0.668585896492,0.00264574913308,0.34645435214,0.562255906367,0.199721379582,0.396118739411,-0.0513724216521,0.967406811819,-0.241938974822,0.0543182004032
-0.0035562061239,0.00691327964887,0.339934438467,-1.88506042957,0.0105591444299,2.05175900459,0.822504818439,0.0496919378638,-0.00321147032082,-0.588208258152,-0.00213933712803,0.165997624397,-0.716153621674,-0.00673418259248,0.327291667461,0.562862707324,0.198354019426,0.403519622285,-0.0488338231804,0.966955459946,-0.2419934126,0.0636520553044
-0.00630350131541,-0.0204780697823,0.337335973978,-1.87870883942,-0.0276075620204,2.05119562149,0.836776256561,0.0496919378638,-0.0882212147117,-0.542551457882,-0.0929610207677,0.110563486814,-0.849604427814,-0.030024504289,0.272437334061,0.564958535664,0.190280519328,0.422212557537,-0.039282988216,0.964977837514,-0.243704481826,0.0887848251372
-0.0108199054375,-0.0383076407015,0.332328975201,-1.87565088272,-0.058068331331,2.04938411713,0.845058202744,0.0496919378638,-0.159657120705,-0.46381637454,-0.18062518537,0.0807243660092,-0.882326066494,-0.0730411931872,0.227990284562,0.566767061576,0.181217523219,0.433293045019,-0.0304722890695,0.963047323161,-0.246241102019,0.104769329097
