imanlab/tactile_prediction_flat_dataset/train/data_sample_2021-11-24-16-01-54/robot_state.csv
position_panda_joint1,position_panda_joint2,position_panda_joint3,position_panda_joint4,position_panda_joint5,position_panda_joint6,position_panda_joint7,position_panda_finger,velocity_panda_joint1,velocity_panda_joint2,velocity_panda_joint3,velocity_panda_joint4,velocity_panda_joint5,velocity_panda_joint6,velocity_panda_joint7,ee_state_position_x,ee_state_position_y,ee_state_position_z,ee_state_orientation_x,ee_state_orientation_y,ee_state_orientation_z,ee_state_orientation_w
0.0784108266234,-0.133902460337,-0.0963438004255,-2.41262745857,0.026172529906,2.26463723183,-0.818200528622,0.0713862329721,-9.10093804123e-05,-0.000254095211858,-2.97907463391e-05,-0.000260464614257,4.78618603665e-05,0.00010805085185,0.000249675504165,0.469829959709,-0.00401983272774,0.249728393238,-0.0180108158142,0.923933431335,0.382129052768,-0.000108112781154
0.0784101709723,-0.133894950151,-0.0963438972831,-2.41262722015,0.0261738467962,2.2646381855,-0.818204462528,0.0713862329721,-0.000374348514015,0.000450831255876,-0.000260656466708,8.87605274329e-05,0.000107189778646,6.74447510391e-05,0.000376755022444,0.469829645158,-0.00402009912096,0.249725065478,-0.0180121973672,0.92393298974,0.382130054564,-0.000110894693463
0.0784089714289,-0.133888319135,-0.0963448956609,-2.41262817383,0.026173338294,2.26463842392,-0.818204283714,0.0713862329721,0.000194650347112,0.000821994966827,-0.000114839567686,-0.000266365736024,1.29660429593e-05,2.28752396652e-05,2.09189493035e-05,0.469828888636,-0.00402137987864,0.249721925459,-0.018013129879,0.923933452273,0.382128891348,-0.000114033212931
0.0784103125334,-0.133895173669,-0.0963454917073,-2.41263914108,0.0261734053493,2.26463842392,-0.818203508854,0.0713862329721,0.000174499611603,-0.000315928715281,-7.54852735554e-05,0.000211463076994,9.33663686737e-05,4.35480324086e-05,0.000710274325684,0.469824851588,-0.00402065898489,0.249720053785,-0.0180144315565,0.923933362716,0.382129045876,-0.000116178538657
0.0784077495337,-0.133911192417,-0.0963452756405,-2.41263246536,0.0261743925512,2.26463699341,-0.818204641342,0.0713868886232,-0.000643701059744,-0.00045253225835,-0.000142722565215,0.000300043466268,3.46836786775e-05,-0.000199810659979,-0.00505417073146,0.469828580334,-0.00402161853128,0.249730306052,-0.0180112596156,0.923933709267,0.38212836045,-0.000105972359594
0.0784063339233,-0.133925721049,-0.0963454470038,-2.41263127327,0.0261742155999,2.26463866234,-0.818203628063,0.0713868886232,0.000160574447364,-0.000765524921007,0.000219060326344,-0.000130900516524,3.19597893395e-05,-3.0144567063e-05,0.000124986952869,0.469830632014,-0.00402231861943,0.249737758797,-0.0180083850214,0.923934189482,0.382127337021,-9.77756303932e-05
0.0784111693501,-0.133904740214,-0.0963463187218,-2.41264176369,0.0261738616973,2.26463770866,-0.818206369877,0.0713868886232,-4.26458573202e-05,-0.00153218384366,-0.000601606152486,-6.39057689114e-05,-3.28794267261e-05,2.55863233178e-05,-0.000164530036272,0.469824421319,-0.00402047875193,0.249723340432,-0.0180138373057,0.923932843666,0.382130329815,-0.000113045827781
0.0784127041698,-0.133903056383,-0.096344910562,-2.41263985634,0.0261734481901,2.26463842392,-0.818207144737,0.0713868886232,0.00059030711418,0.00072900444502,0.000275204773061,0.000705847749487,6.35281467112e-05,0.00010141828534,-0.000306215079036,0.469825227284,-0.0040192060384,0.249723439172,-0.018013335727,0.923932099735,0.38213215225,-0.000112757694464
0.078411065042,-0.133905172348,-0.0963438823819,-2.41263365746,0.0261733941734,2.26463890076,-0.818207144737,0.0713868886232,0.000412657536799,0.000200015798328,-5.97794896748e-05,4.86854844439e-07,-9.72039852059e-05,0.000114021459012,0.000104501552414,0.469828031057,-0.00401958330646,0.249727140983,-0.018011593582,0.923932231396,0.382131917207,-0.000108714800802
0.0784158110619,-0.133899107575,-0.0963437259197,-2.41263771057,0.0261738523841,2.26463913918,-0.818209409714,0.0713868886232,-0.000127845749375,0.00132511195261,0.000267165596597,0.000201013186597,8.6298729002e-05,9.83300124062e-05,-0.00565847242251,0.469825950674,-0.00401722251211,0.249722582053,-0.0180134365422,0.923930910947,0.382135021615,-0.000113306191183
0.0784150138497,-0.133900567889,-0.0963399857283,-2.41263794899,0.0261744037271,2.26463842392,-0.81820833683,0.0713868886232,-0.000649425433949,-0.00025081235799,-0.000351022172254,-7.84400472185e-05,7.47522062738e-05,-5.113860243e-05,-0.000822883273941,0.469825834432,-0.00401581542138,0.249723124915,-0.0180133617031,0.923930622977,0.382135721469,-0.000113075279599
0.0784104838967,-0.133897259831,-0.096343331039,-2.41263842583,0.0261733364314,2.26463866234,-0.818207979202,0.0713862329721,-0.000295189733151,0.000150686930283,-0.000326408335241,-2.48710148298e-05,4.33145942225e-05,0.00014525980805,4.01076613343e-05,0.469825524126,-0.00401889554271,0.249721711033,-0.0180134429818,0.923931659683,0.382133210641,-0.000114525577328
0.0784069523215,-0.133900105953,-0.0963445082307,-2.41263628006,0.0261735636741,2.26463913918,-0.818209171295,0.0713862329721,0.000280052685412,-0.000366434192983,0.000302549975459,-0.000310967676342,3.01945347019e-05,-0.000127809704281,-0.000213036604691,0.46982657574,-0.0040217838357,0.249723659185,-0.0180129471165,0.923932765549,0.382130560926,-0.000112118711018
0.0784073546529,-0.133897185326,-0.0963438823819,-2.41264104843,0.0261732917279,2.26463913918,-0.818210124969,0.0713862329721,0.000437468494056,0.0044790036045,-0.000167752587004,-0.000607240479439,6.35920951026e-05,-0.000128008323372,-0.000237260654103,0.469824394582,-0.00402130032279,0.249720244075,-0.0180142113329,0.923932345946,0.382131514782,-0.000115749962362
0.0784082859755,-0.133899465203,-0.0963425040245,-2.41264462471,0.0261734165251,2.26463842392,-0.818210721016,0.0713862329721,-5.24760580447e-05,0.000202827301109,0.00023473460169,2.53211164818e-05,0.000116655188322,4.97971996083e-05,0.000179074224434,0.469822980635,-0.00402015542019,0.249719720788,-0.0180146747659,0.923931793692,0.382132827916,-0.000116656558458
0.0784097611904,-0.1339109689,-0.0963435471058,-2.4126431942,0.0261745490134,2.26463866234,-0.818210542202,0.0713862329721,-0.000198140071006,-0.00061410618946,8.00596244517e-05,0.00156633369625,-1.04845430542e-05,0.000153201966896,-0.000419916788815,0.469824576043,-0.00401975491206,0.249725739062,-0.0180130285016,0.923931873229,0.382132715122,-0.000110232421945
0.0784093663096,-0.13392367959,-0.0963445752859,-2.41263985634,0.0261736046523,2.26463866234,-0.818208575249,0.0713862329721,-7.25566205801e-05,-0.000750991515815,-0.000683024933096,-0.000232283287914,0.00012541533215,-1.34666261147e-05,0.000105352417449,0.469826980616,-0.00402047227075,0.249733114808,-0.0180101381652,0.923932407598,0.382131561418,-0.000102785560737
0.0784119218588,-0.133924916387,-0.0963431671262,-2.41263604164,0.0261732414365,2.26463937759,-0.818213701248,0.0713862329721,-0.000405741942814,0.000871907104738,-2.92553268082e-05,-1.76629655471e-05,-0.000159644463565,8.29074488138e-05,-0.000163691569469,0.469828810212,-0.0040187191072,0.249735401017,-0.0180088243275,0.92393064634,0.382135882434,-0.000100196018039
0.0784089937806,-0.13391174376,-0.0963444188237,-2.41263604164,0.0261724237353,2.26463866234,-0.818212509155,0.0713862329721,5.73090146645e-05,0.00128141662572,0.00319460663013,1.54254230438e-05,-6.39101417619e-05,0.000126848215587,0.000159979783348,0.469827538343,-0.00402083386085,0.24972916495,-0.0180107980364,0.923931576905,0.382133537676,-0.000106857953088
0.0784077718854,-0.133897215128,-0.096344538033,-2.41263914108,0.0261737443507,2.2646381855,-0.818212032318,0.0713862329721,-0.000194112129975,0.000742342963349,0.000283332541585,-0.000153188200784,2.6828944101e-05,0.00103822280653,-0.000282899156446,0.469824964316,-0.00402136544013,0.249720995583,-0.0180142245086,0.923932077096,0.382132164365,-0.000115192942061
0.0784113258123,-0.133888870478,-0.0963443145156,-2.41263985634,0.0261735357344,2.26463866234,-0.818212389946,0.0713862329721,0.000437282636994,-0.000159141083714,-0.00363833387382,0.000286671565846,-3.54530784534e-05,-0.000333508040057,0.000509326753672,0.469824234156,-0.00401933498255,0.249716952743,-0.0180153642797,0.923931114487,0.382134436784,-0.000119325062326
0.0784108862281,-0.133889526129,-0.0963458418846,-2.41263699532,0.0261749401689,2.26463890076,-0.818213939667,0.0713862329721,-0.000377241522074,-0.000140767573612,-0.000369515328202,-0.00010520118667,7.70898041083e-05,9.63774582488e-05,-0.000313126482069,0.469825368156,-0.00402044529541,0.249718377144,-0.0180153375229,0.923931518869,0.382133460941,-0.000117328587869
0.0784096121788,-0.133894860744,-0.0963453054428,-2.41263270378,0.0261737536639,2.26464033127,-0.818212151527,0.0713862329721,-0.000460105628008,0.000415711227106,-2.70058135357e-05,-0.000437565206084,0.000104140744952,0.00239968649112,0.000165549499798,0.469827866906,-0.00402096636275,0.249722839176,-0.0180129159275,0.923931881057,0.382132700879,-0.000112374205129
0.0784104913473,-0.133894100785,-0.0963438972831,-2.41263651848,0.0261728521436,2.26463913918,-0.818213164806,0.0713862329721,1.59143360179e-06,5.05661919306e-05,0.000235846309806,-0.000548138399608,7.06272476236e-05,0.000134315836476,8.48990821396e-05,0.469825994542,-0.0040199592724,0.249720746555,-0.018013633317,0.923931131048,0.382134479608,-0.000115206470527
0.0784140750766,-0.133908420801,-0.0963453948498,-2.4126393795,0.0261741802096,2.26463842392,-0.81821334362,0.0713862329721,0.000300780375255,-0.00043308295426,7.87358840171e-06,0.000382987840567,-7.25630961824e-05,0.000141755605,-0.000121343895444,0.469826113029,-0.00401867299227,0.249726623223,-0.0180124234668,0.923930757668,0.382135441115,-0.000109372493003
0.0784129649401,-0.13392649591,-0.096343241632,-2.4126329422,0.0261744651943,2.26463866234,-0.818216323853,0.0713862329721,-0.000514992629178,4.43423414254e-05,-0.000764214550145,-0.000171231542481,-2.14044139284e-05,-3.76836542273e-05,-1.10610353659e-05,0.469830054871,-0.00401814690786,0.249737416731,-0.0180085449406,0.923930106209,0.382137202062,-9.81450357105e-05
0.0784124135971,-0.13392175734,-0.096343703568,-2.41263437271,0.0261739809066,2.26463866234,-0.818216562271,0.0713862329721,0.000440066913143,0.00127128954045,5.90994277445e-05,-0.000269303040113,-8.50645956234e-05,1.94840213226e-05,-0.00026526270085,0.469829072552,-0.00401868319036,0.249734579292,-0.0180094205368,0.923930195326,0.382136944559,-0.000101107861491
0.078409396112,-0.133909747005,-0.0963447019458,-2.41263365746,0.0261721704155,2.26463961601,-0.818217098713,0.0713862329721,-8.21379671834e-06,0.00100044766441,9.34214913286e-05,-0.00017181300791,3.47899367625e-05,-4.82460127387e-05,0.00032131455373,0.469828552875,-0.00402085447472,0.24972933383,-0.0180103644178,0.923930660578,0.382135773785,-0.000106272346857
0.0784134045243,-0.133898302913,-0.0963430330157,-2.4126329422,0.0261734351516,2.26464033127,-0.818217396736,0.0713862329721,0.00053978007054,0.000225362324272,0.00165865500458,0.000797352811787,-4.26791702921e-05,0.000163332864759,4.66717465315e-05,0.469828080619,-0.00401816193758,0.249724359038,-0.0180121764865,0.923929686404,0.382138042404,-0.000110949537944
0.0784179642797,-0.133906304836,-0.0963445007801,-2.41263246536,0.0261734817177,2.26463961601,-0.818217337132,0.0713862329721,0.000248816504609,-0.00129083998036,-0.00355871696956,-3.64937950508e-05,-5.14662860951e-05,-1.98361067305e-05,0.000166369893122,0.469829417292,-0.00401701584528,0.24972882414,-0.018011006979,0.92392933796,0.382138941276,-0.00010642820375
0.0784180760384,-0.133908197284,-0.0963442102075,-2.41263318062,0.0261724404991,2.26464056969,-0.818219184875,0.0713862329721,-0.000409198692068,0.000127930819872,-0.000698381743859,0.000125928156194,-0.000121538956591,-7.80050686444e-05,-0.00357738882303,0.469828866637,-0.00401654850653,0.249728897891,-0.0180103745725,0.923928551299,0.382140873063,-0.000106388938407
0.0784206166863,-0.133904829621,-0.0963433608413,-2.41263628006,0.0261732060462,2.26463961601,-0.818219304085,0.0713862329721,-0.000116505667393,-5.15574902238e-06,-3.3024156437e-05,-0.00014073899365,9.10921589821e-05,7.66013617977e-05,0.000114765913168,0.469827131948,-0.00401485654927,0.249725915483,-0.0180119215219,0.923927960844,0.382142226777,-0.000109775901293
0.0784126743674,-0.13390532136,-0.0963441804051,-2.41263628006,0.0261736381799,2.26464033127,-0.818220794201,0.0713862329721,0.000213441468077,0.000297037564451,0.000618433230557,0.000132177650812,-5.7891549659e-05,0.000120080665511,-0.000319124723319,0.469827295957,-0.00401891635191,0.249726203309,-0.0180119016882,0.923929403056,0.382138740982,-0.000109041173462
0.078417994082,-0.133907720447,-0.0963436961174,-2.41263508797,0.0261730253696,2.26463985443,-0.818221151829,0.0713862329721,-0.00045299588237,-0.000150399966515,-0.00241189496592,-0.000521196750924,3.89391607314e-05,-4.53785214631e-05,-0.000206999131478,0.46982789713,-0.00401625981188,0.249727798903,-0.0180111474274,0.923928153622,0.382141797754,-0.000107723411687
0.0784181877971,-0.133911624551,-0.0963442027569,-2.41263318062,0.026173396036,2.26464176178,-0.818221569061,0.0713862329721,-0.000246511306614,0.000326130713802,5.54106409254e-05,-0.000463287287857,0.000112949113827,6.17975601926e-05,0.000410247943364,0.469829417641,-0.00401637552516,0.249730606539,-0.0180099335086,0.923928190899,0.382141765858,-0.000104050040756
0.0784157663584,-0.133907049894,-0.0963438749313,-2.41263604164,0.0261721331626,2.26464152336,-0.818221449852,0.0713862329721,-0.000459845061414,0.000456067500636,0.00197441759519,0.000161144402227,-2.05670748983e-05,1.82023668458e-05,-0.000320672726957,0.469827807082,-0.00401749726525,0.249727211952,-0.0180107950587,0.923928460085,0.382141073377,-0.000107828532169
0.0784175172448,-0.133906111121,-0.0963437408209,-2.4126355648,0.0261739660054,2.26464319229,-0.818222820759,0.0713862329721,-0.000154833687702,-0.000140238757012,0.00017032265896,0.000104246973933,-0.000322171166772,5.83615146752e-05,0.00590792903677,0.46982830536,-0.00401643771034,0.2497271263,-0.0180111331043,0.923928066616,0.382142008986,-0.000107023270742
0.0784195065498,-0.133901685476,-0.0963429287076,-2.41263532639,0.026172824204,2.26464605331,-0.818224906921,0.0713862329721,-5.24151873833e-05,-5.62170826015e-05,0.00302320369519,-0.000572939112317,5.70814518142e-05,0.000280489242868,-0.000259889173321,0.469828672287,-0.00401532304021,0.24972539971,-0.0180107262854,0.923927023384,0.382144550186,-0.000107913813894
0.0784164518118,-0.133900254965,-0.0963442772627,-2.41263484955,0.0261720288545,2.26464962959,-0.818230330944,0.0713862329721,-0.0005665657809,-0.00102465832606,-4.27800332545e-05,0.000301556254271,-1.86186741757e-06,-0.000138514093123,5.80709493079e-05,0.469829512975,-0.00401751231597,0.249725227614,-0.0180099211005,0.923926756822,0.382145232937,-0.0001067528602
0.0784165561199,-0.133899092674,-0.0963441431522,-2.41263389587,0.0261743124574,2.26465582848,-0.818234980106,0.0713862329721,-0.000409859640058,-0.000585231406149,-0.00363128981553,0.000173185952008,-1.40949814522e-05,0.000481281866087,-8.62089145812e-05,0.469831270978,-0.00401731724959,0.249725981831,-0.0180093118011,0.92392606,0.382146947307,-0.000103385058599
0.0784183219075,-0.133900791407,-0.0963428467512,-2.41263508797,0.0261737704277,2.26466488838,-0.818257629871,0.0713862329721,-0.00144490296952,4.89800768264e-05,-0.000424256228143,0.00036787163117,9.93525009108e-06,-9.79915930657e-05,8.32014120533e-05,0.469832839646,-0.00401593887103,0.249726681903,-0.0180072530586,0.923921218612,0.382158750359,-9.92075798638e-05
0.0784158781171,-0.133903697133,-0.0963451191783,-2.41263341904,0.0261740703136,2.2646677494,-0.818301141262,0.0713862329721,0.000149430794409,-0.00208192924038,-0.000243918620981,-0.000162387193996,0.000198915935471,-0.00219244346954,-0.00392323220149,0.469834370616,-0.0040181176756,0.249728990573,-0.0180061331018,0.923913855529,0.382176604917,-9.5231177766e-05
0.0784166380763,-0.133907049894,-0.096343152225,-2.41263628006,0.0261733867228,2.26466727257,-0.818558692932,0.0713862329721,0.000658154778648,-0.00063609960489,0.0014603312593,-0.000616175471805,1.82385138032e-05,4.7381825425e-05,-0.00953454244882,0.46983338863,-0.00401688061405,0.249729297452,-0.0180059313102,0.923864023933,0.382297060872,-9.30171874583e-05
0.078425988555,-0.133916541934,-0.0963419526815,-2.41263484955,0.0261737927794,2.26466917992,-0.818613052368,0.0713862329721,-0.000505644129589,0.00123985228129,-0.000210969315958,-0.000276368838968,3.93099326175e-05,-0.000190462102182,9.67132800724e-05,0.469835223931,-0.00401187226483,0.249734525083,-0.0180038549459,0.923851677442,0.382326995498,-8.65475668164e-05
0.0784201323986,-0.133908450603,-0.0963430330157,-2.41263651848,0.0261742603034,2.26467108727,-0.818631768227,0.0713862329721,-0.000435067486251,2.1236426619e-05,0.000177996698767,-8.47295668791e-05,-8.27605799714e-06,-6.12950898358e-05,9.96142989607e-06,0.469834265275,-0.00401511397918,0.249730177315,-0.0180052753488,0.923849490974,0.38233221114,-8.99674292346e-05
0.0784170404077,-0.133898496628,-0.0963436812162,-2.41263365746,0.026172824204,2.26466989517,-0.818655371666,0.0713862329721,0.000311863172101,0.000591497984715,-0.000101682868262,8.46012626425e-05,0.000150086489157,9.64159244177e-06,-0.00263558886945,0.469834320899,-0.00401711049595,0.249726638711,-0.0180060291306,0.923845529327,0.382341747295,-9.38911548469e-05
0.0784165486693,-0.133892163634,-0.0963449254632,-2.41263866425,0.0261749457568,2.26467084885,-0.818678677082,0.0713862329721,0.000246962648816,-0.000348429224687,-0.000233966376982,-0.000108854750579,0.00013335152471,-0.000108343017928,-0.0012128520757,0.469831965707,-0.00401765821816,0.24972160309,-0.0180086287545,0.923841648777,0.382351000152,-9.81887906542e-05
0.0784211605787,-0.133900478482,-0.0963425263762,-2.41263413429,0.0261723808944,2.26467323303,-0.818717241287,0.0633138269186,0.000980078126304,-0.000143683762872,0.00024791029864,-0.000330472190399,0.000108699459815,-1.9421113393e-05,-0.00107231072616,0.469834736438,-0.00401450665239,0.249727222922,-0.0180052104351,0.923832373559,0.382373572898,-9.16150341261e-05
0.0784219354391,-0.133908286691,-0.0963428393006,-2.41263532639,0.0261743739247,2.2646727562,-0.818728387356,0.0633138269186,-0.00027508859057,-0.000163117525517,-0.00132465548813,-1.2120323845e-05,1.84901218745e-05,-2.58761538134e-05,-0.00264881877229,0.46983511314,-0.00401419917359,0.249730755967,-0.0180047501037,0.923830666052,0.382377720843,-8.78736591335e-05
0.0784241333604,-0.133908212185,-0.0963422730565,-2.41263246536,0.0261729806662,2.26467394829,-0.818743765354,0.0633138269186,0.00022190643358,-0.000307099631755,0.000289853604045,0.000147597675095,0.000163995253388,1.2018790585e-05,0.000475753156934,0.469836604467,-0.00401293029699,0.249732121964,-0.0180033938265,0.923826741616,0.382387266494,-8.59799269572e-05
0.0784224495292,-0.133906453848,-0.0963438227773,-2.41263723373,0.0261737350374,2.26467514038,-0.818791925907,0.0633138269186,0.000200186070288,-7.63566204114e-05,0.000314452190651,3.71251844626e-05,7.92005230323e-05,5.64484289498e-05,0.000296291720588,0.469834703643,-0.00401448887205,0.249729271959,-0.0180047615927,0.92381854139,0.382407012328,-8.80361615528e-05
0.0784244462848,-0.133905947208,-0.0963437184691,-2.41263413429,0.0261736419052,2.26467657089,-0.818813085556,0.0565810278058,-0.000414987385739,0.000627023167908,-0.000159636329045,-0.000177441121195,-0.000153923523612,9.17246434256e-05,-0.00128703168593,0.469836247044,-0.0040135704151,0.249730488975,-0.0180038888015,0.923814101155,0.38241778041,-8.60491857155e-05
0.0784215331078,-0.133906558156,-0.0963431820273,-2.41263532639,0.026173401624,2.26467776299,-0.818828642368,0.0565810278058,0.000255833001575,5.28012897121e-05,0.000153598564793,-0.000336157390848,-1.72458754832e-07,-6.96819770383e-05,-3.47153800249e-05,0.469836064538,-0.00401471559206,0.249730365262,-0.0180036679276,0.923811558602,0.382423932936,-8.56492420069e-05
0.0784252807498,-0.133905246854,-0.096343010664,-2.41263484955,0.0261736344546,2.26467776299,-0.818841278553,0.0565810278058,-3.61480051652e-05,0.000184478893061,0.000313397060381,-0.000197587971343,6.3683022745e-05,3.52131173713e-05,-9.46203217609e-05,0.46983616667,-0.00401286535741,0.249729958312,-0.0180038464914,0.923808423029,0.382431498898,-8.59434021109e-05
0.0784244909883,-0.133905768394,-0.0963418185711,-2.41263651848,0.0261733401567,2.26467728615,-0.818852901459,0.0565810278058,-0.000487448793137,-0.000189485843293,-0.000391869893065,-8.73541648616e-05,-8.82268650457e-05,-3.60589838238e-05,-0.000353906449163,0.469835357759,-0.00401277049157,0.249729496184,-0.0180044155907,0.923806532545,0.382436038647,-8.64422706931e-05
0.0784246698022,-0.133901208639,-0.0963426828384,-2.41263723373,0.0261734891683,2.26467680931,-0.818881928921,0.0565810278058,-0.000497903267387,7.60437396821e-05,-0.000150686857523,0.000305345427478,6.7157241574e-05,0.000197098474018,-0.00226476392709,0.469834649001,-0.00401300645814,0.249726963381,-0.0180050720748,0.923800677906,0.382450149214,-8.90515096758e-05
0.0784217789769,-0.133904352784,-0.096343241632,-2.41263437271,0.0261724665761,2.26467752457,-0.81889218092,0.0565810278058,7.81315829954e-05,-0.000229481767747,0.000399923184887,-0.000386335450457,5.46022565686e-05,0.00409514876083,-0.000860016793013,0.469836167947,-0.00401450345381,0.24972961136,-0.0180035934005,0.923799008331,0.382454252333,-8.59464389299e-05
0.0784214287996,-0.133906573057,-0.0963422805071,-2.41263508797,0.0261725708842,2.26467752457,-0.818903148174,0.0565810278058,-0.000131572567625,-0.000685916398652,0.000168311875314,-0.000470227270853,-3.37078963639e-05,-6.07607798884e-05,0.000199003101443,0.469836111198,-0.00401444824969,0.249730456448,-0.0180033227135,0.923797063091,0.382458963855,-8.51235923203e-05
0.0784251466393,-0.133901417255,-0.0963415950537,-2.41263437271,0.0261740125716,2.26467943192,-0.818921327591,0.0565810278058,-0.000398333446356,-0.000163110671565,-7.28443046683e-05,0.00038687302731,-2.22611542995e-05,9.80455588433e-05,-5.07801223648e-06,0.469836418046,-0.00401229065896,0.249728521185,-0.0180040438312,0.923792933995,0.38246890303,-8.60479845987e-05
0.0784236416221,-0.133903086185,-0.0963423103094,-2.41263604164,0.0261735841632,2.26467895508,-0.818945467472,0.0565810278058,8.61237131176e-05,7.64192154747e-05,0.000160495299497,4.24346471846e-05,6.67937056278e-05,6.03811604378e-05,-0.0027457352262,0.469835760714,-0.0040133342447,0.249728538858,-0.0180041135144,0.923788681011,0.382479171996,-8.60506016602e-05
0.0784251019359,-0.133906841278,-0.096340842545,-2.41263628006,0.0261724703014,2.26467990875,-0.818954944611,0.0565810278058,2.85795013042e-05,-5.62030072615e-05,-0.000111381647002,-0.000491660845,9.11691240617e-05,0.000141256445204,-3.24436223309e-06,0.469836193932,-0.0040120880048,0.249730278646,-0.0180029011451,0.923786185081,0.382485257777,-8.40823341732e-05
0.0784238129854,-0.133906170726,-0.0963427424431,-2.41263508797,0.0261739697307,2.26468324661,-0.818979382515,0.0565810278058,1.61637744895e-05,-9.53064445639e-05,-7.84179719631e-05,6.77465141052e-05,2.27471173275e-05,1.29315631057e-05,-4.48181090178e-05,0.469837349762,-0.00401344287988,0.249730755102,-0.0180027236037,0.923782317761,0.382494606921,-8.18177471118e-05
0.0784251913428,-0.133903115988,-0.0963411182165,-2.41263508797,0.0261720363051,2.26468443871,-0.818992257118,0.0565810278058,-9.96086164378e-05,0.00120578228962,-0.000172295433003,0.000272498378763,-1.80332644959e-05,-0.000108338543214,0.000191859711776,0.46983736455,-0.00401230562646,0.249729427915,-0.0180021698348,0.923779068504,0.382502480089,-8.29682639018e-05
0.0784290730953,-0.133903190494,-0.0963419377804,-2.41263484955,0.026172561571,2.26468491554,-0.819003403187,0.0521419607103,0.000268218049314,0.000256504135905,-0.000192360515939,-0.000377971853595,-0.00010569596634,6.81620367686e-05,4.96085203849e-06,0.469837586395,-0.00401080294768,0.249729603141,-0.0180022483959,0.923776414257,0.382508886698,-8.24363856841e-05
0.0784293860197,-0.133902832866,-0.096343010664,-2.41263127327,0.0261731017381,2.26469111443,-0.819016933441,0.0521419607103,-4.89013691549e-05,0.000472526153317,-0.000147188125993,-0.000171483130543,-7.8001539805e-05,-3.21617403642e-06,-0.000130581465783,0.469840375749,-0.00401119377866,0.249731494522,-0.0180005675181,0.92377408291,0.38251459701,-7.79113660799e-05
0.0784291103482,-0.133902877569,-0.0963428989053,-2.41263270378,0.0261734798551,2.26469826698,-0.819032251835,0.0521419607103,0.000153577158926,0.000188057631021,-0.000117822499305,-0.000452868029242,-3.16219156957e-05,0.000102920799691,-0.00168122979812,0.469841371769,-0.00401128555343,0.249731507754,-0.0179994921916,0.923771272668,0.382521434846,-7.50957402258e-05
0.078428208828,-0.133902430534,-0.0963430181146,-2.41263270378,0.0261720474809,2.26470470428,-0.819043874741,0.0521419607103,-0.000449338520411,-0.000295775505947,9.67984233284e-05,2.20974961849e-05,3.00220053759e-05,-1.49373836393e-05,-0.00326470797881,0.469842741687,-0.00401199275283,0.249731837542,-0.0179977370015,0.923769118836,0.382526719299,-7.24815848221e-05
0.0784261599183,-0.133909985423,-0.0963435843587,-2.41263246536,0.0261725280434,2.26472139359,-0.819090723991,0.0521419607103,0.000214454819798,-0.000103297039459,-8.52968005347e-05,0.000273395475233,-5.19995628565e-05,0.000218352666707,-0.00181478459854,0.469846868495,-0.00401321522809,0.249736574264,-0.0179935426985,0.923760953121,0.382546637505,-6.10375214051e-05
0.0784281864762,-0.133913323283,-0.0963410809636,-2.41262936592,0.0261724833399,2.26472640038,-0.819101989269,0.0521419607103,0.00059079611674,0.000470158614917,1.89027923625e-05,-5.58524561711e-06,5.95636120124e-05,-1.11987083073e-05,-9.00128143257e-05,0.469849791138,-0.0040112674869,0.249740220611,-0.017990934289,0.923757838474,0.382554282107,-5.53643494786e-05
0.0784284472466,-0.133911713958,-0.0963414907455,-2.41262817383,0.0261732153594,2.26473402977,-0.819114983082,0.0521419607103,0.000132413086249,0.000934511714149,-0.000479338050354,0.000360222591553,3.60487611033e-05,-2.69691572612e-05,0.000139820040204,0.469851823981,-0.00401135307256,0.249740626327,-0.0179896502866,0.923755520962,0.382559939051,-5.18715216169e-05
0.0784311816096,-0.133898720145,-0.096342779696,-2.41262769699,0.0261734463274,2.26474905014,-0.819143116474,0.051727604121,-0.000101814926893,-1.88208832697e-05,-0.000114681184641,-0.000102231366327,0.000107137355371,0.000112756606541,-8.68029965204e-05,0.4698542508,-0.00401087347853,0.24973601456,-0.0179886199993,0.923749995492,0.382573329561,-5.06923913709e-05
0.0784297510982,-0.133900463581,-0.0963418260217,-2.41262531281,0.0261739138514,2.26475334167,-0.819150388241,0.051727604121,0.000638210447505,-0.000222147675231,-0.000136479720823,6.60066725686e-05,2.19094290514e-05,-0.000239754343056,-0.000151521380758,0.469856311742,-0.00401112223653,0.249738226217,-0.0179870915765,0.923748786844,0.382576320285,-4.66950800733e-05
0.0784300342202,-0.133901670575,-0.0963423475623,-2.4126226902,0.0261744111776,2.26475954056,-0.819158732891,0.051727604121,-0.00397752923891,0.000377728458261,-0.000186895034858,0.000295362056931,-1.09358870759e-05,0.00283626839519,-0.0002330403222,0.469858844844,-0.00401125916496,0.249740442877,-0.0179853081516,0.923747340098,0.382579897901,-4.1932999821e-05
0.0784326717257,-0.133903115988,-0.096341714263,-2.41262221336,0.0261732134968,2.26476740837,-0.819169282913,0.051727604121,0.00035931772436,0.000512238650117,0.00125075387768,-0.000539108528756,0.000132813671371,0.000137080191053,-0.000554954458494,0.469860899577,-0.00400994347895,0.249741989762,-0.0179829036304,0.923744609294,0.382586604898,-3.75772661089e-05
0.0784292593598,-0.133902445436,-0.0963418483734,-2.41262221336,0.0261744912714,2.26478004456,-0.819176673889,0.051727604121,-0.000480552291265,-8.66832124302e-05,0.000426434533438,0.000417341012508,-2.03585095733e-05,0.000164412122103,-0.000186908815522,0.469863615287,-0.00401159900696,0.249742749751,-0.0179808496264,0.923744107408,0.382587913745,-3.18480329825e-05
0.0784305483103,-0.1339019835,-0.0963409021497,-2.4126226902,0.026173774153,2.26478648186,-0.819185853004,0.051727604121,-7.04751801095e-05,-0.000136425471283,0.000115829861898,-0.000200936628971,-8.29009586596e-05,0.000121213139209,-0.00107978377491,0.469864806385,-0.00401070674724,0.249742876045,-0.0179793737741,0.923741883711,0.382593352288,-2.94234169294e-05
0.0784339830279,-0.133900940418,-0.096341073513,-2.41262507439,0.0261724367738,2.26479101181,-0.819192111492,0.051727604121,0.000244654976996,-4.27018894698e-05,0.000199207512196,-0.00045305484673,0.000102332916867,-0.000132097819005,-0.000360600359272,0.469864753438,-0.00400934412257,0.249741740175,-0.017978615874,0.923739928625,0.382598108293,-2.91255257557e-05
0.0784307420254,-0.133910611272,-0.0963407680392,-2.41262125969,0.0261740759015,2.26481127739,-0.819204866886,0.0517374537885,-0.000181854265975,-0.00107651017606,1.65103319887e-05,-0.000632223905995,8.42834124342e-05,0.00128944439348,-8.85753252078e-05,0.469871564358,-0.00401073740537,0.249749631463,-0.0179727247643,0.923738380321,0.382602124138,-1.3168722587e-05
0.0784275010228,-0.133907690644,-0.0963440835476,-2.41262078285,0.0261727795005,2.26481723785,-0.819211423397,0.0517374537885,8.8249471446e-05,0.000435048394138,0.000535245519131,-0.000293524324661,-3.63705439668e-05,0.000100326498796,0.000173032778548,0.469872793839,-0.00401399881273,0.249748951276,-0.0179716053511,0.9237382606,0.38260246582,-1.16385110111e-05
0.0784303843975,-0.133900120854,-0.0963424816728,-2.41262316704,0.02617415227,2.26482415199,-0.819214940071,0.0517374537885,0.000346086162608,0.00067237240728,0.000432091503171,-0.000156326364959,-9.19714966585e-06,1.4545797967e-05,8.97505160538e-05,0.46987274061,-0.00401185286435,0.249744981662,-0.0179721984218,0.92373694045,0.382605625214,-1.3015337108e-05
0.0784368738532,-0.133896425366,-0.0963415876031,-2.41262292862,0.0261723175645,2.26483106613,-0.819221735001,0.0517374537885,-0.000150164371007,-0.000690901884809,-0.000670336303301,-0.000245496426942,-2.77260533039e-05,0.000441872922238,-0.000532650097739,0.469874075904,-0.00400870070319,0.249743937936,-0.0179705933754,0.923734063411,0.382612646696,-1.18209383394e-05
0.0784331262112,-0.133907303214,-0.0963410809636,-2.41261935234,0.0261731743813,2.26484847069,-0.819232463837,0.0517374537885,-0.000230921141338,-0.000105694132799,-0.000284003093839,-0.000186209523235,3.19864120684e-05,0.000151280968566,0.000284787267447,0.469880256149,-0.00401028793125,0.249752047924,-0.0179648681566,0.923732849191,0.382615847176,3.15862331046e-06
0.0784325301647,-0.133905440569,-0.0963419079781,-2.41261839867,0.026172991842,2.26485562325,-0.819237232208,0.0517374537885,0.000225892610615,0.00112520973198,-0.00028089992702,-0.00013395154383,1.47882428791e-05,0.00179741345346,-3.9018013922e-05,0.469882056902,-0.00401106194513,0.249752186704,-0.0179634753458,0.923732236053,0.382617392805,6.01038680672e-06
0.0784367397428,-0.133903726935,-0.0963422805071,-2.41262125969,0.0261729862541,2.2648627758,-0.819243133068,0.0517374537885,0.000169946884853,0.000381296878913,0.00115389400162,-0.000295025703963,3.93257614633e-05,-0.000127284860355,0.000333687610691,0.469882338439,-0.00400930292956,0.24975075777,-0.0179628522243,0.923730412029,0.382621825651,7.16421729739e-06
0.0784367620945,-0.133898705244,-0.0963419154286,-2.41262149811,0.0261725690216,2.26486778259,-0.819250583649,0.0517374537885,0.000212487313547,3.83561418857e-05,-0.000589515722822,0.000275371334283,0.000246037117904,0.000281230401015,-0.00192290870473,0.469882926622,-0.00400925440039,0.249748728952,-0.0179624710051,0.923728900267,0.382625493245,6.93810936568e-06
0.0784342885017,-0.133904486895,-0.0963409021497,-2.41261935234,0.0261729452759,2.26488804817,-0.81926125288,0.0517374537885,1.81790201168e-05,0.000355003488949,-0.00018908790662,0.000481182039948,-0.00011638396245,-7.37968002795e-05,-0.000240973356995,0.46988873649,-0.00401011128216,0.249754081627,-0.0179570258535,0.923727320041,0.382629563304,2.00401229354e-05
0.0784322246909,-0.13391110301,-0.0963417515159,-2.41261816025,0.0261741764843,2.26489067078,-0.819268584251,0.0516369827092,0.000150043575559,0.000170136321685,-0.000121681383462,-0.000701595039573,-0.000135938884341,0.000118263262266,0.00032446149271,0.469890340515,-0.00401132804955,0.249757913547,-0.0179557080712,0.923726632725,0.382631284122,2.52240677749e-05
0.0784360989928,-0.133909970522,-0.0963423028588,-2.41262292862,0.0261709913611,2.26490092278,-0.819276928902,0.0516369827092,0.000112459427328,0.000941060774494,-0.000177775218617,0.000170010898728,5.36252046004e-05,0.00276356446557,-0.00223040441051,0.469890561135,-0.00401016794316,0.249756186265,-0.0179536328797,0.923724079709,0.382637544681,2.67330749198e-05
0.0784371942282,-0.133910924196,-0.0963424369693,-2.41261100769,0.0261721219867,2.26490712166,-0.819283008575,0.0516369827092,-8.46749389893e-05,-0.00267481058836,-0.000207309232792,3.15897013934e-05,4.99498783029e-05,0.00201427261345,-0.000158592752996,0.469896996419,-0.00400979927379,0.249762571824,-0.0179500433376,0.923723016366,0.382640279336,3.59490288056e-05
0.0784366056323,-0.133905977011,-0.0963423848152,-2.41262364388,0.026172792539,2.26491522789,-0.819293916225,0.0516369827092,-1.36108847073e-05,-0.000410228647524,-0.00418460741639,0.000323215674143,-1.17186355055e-05,1.37703718792e-05,0.000475084205391,0.469893094844,-0.00400992971704,0.249755226975,-0.0179520686859,0.92372105483,0.382644919981,3.14433593245e-05
0.0784335210919,-0.133904755116,-0.0963432192802,-2.41261720657,0.0261727627367,2.2649230957,-0.81929987669,0.0516369827092,-0.000740469142329,-0.00110840285197,-0.000211356746149,-0.00286971381865,0.000140907010064,1.25900796775e-05,-0.000290237308946,0.469897330154,-0.00401193092711,0.249758085345,-0.0179493904828,0.923720727396,0.382645835516,3.74966994189e-05
0.0784315690398,-0.133903637528,-0.096342779696,-2.41261744499,0.0261737331748,2.2649307251,-0.81930321455,0.0516369827092,0.000146525038872,-9.07365465537e-05,0.000650957110338,0.00222521391697,-3.80940145988e-05,-9.22204126255e-05,-0.000249433069257,0.469898817191,-0.00401262249181,0.249758111829,-0.0179483440698,0.923720543745,0.382646327633,4.05115234742e-05
0.0784345716238,-0.133904948831,-0.0963403880596,-2.41261744499,0.0261733029038,2.26493859291,-0.819310903549,0.0486839525402,2.00518879865e-05,-0.000467338511953,0.000194569147425,-0.00322100985795,2.00242266146e-05,0.00103908579331,-0.00102373980917,0.469900679348,-0.0040102447717,0.249759403628,-0.0179462116173,0.923718047445,0.382652453284,4.46212593881e-05
0.0784399881959,-0.133905529976,-0.0963409096003,-2.41261768341,0.0261729266495,2.2649538517,-0.819333314896,0.0486839525402,-0.000162512995303,0.000210693120607,-1.33362327688e-05,-7.38854359952e-05,0.000126387065393,0.00228003249504,-0.00284684333019,0.469904005968,-0.00400812877278,0.249760861512,-0.017942914095,0.923712875885,0.382665090848,5.1843002035e-05
0.0784364566207,-0.133909717202,-0.0963431224227,-2.41261792183,0.0261734146625,2.26496434212,-0.819355249405,0.0486839525402,-0.000445747573394,-0.000696861243341,8.66921400302e-05,-6.52978123981e-05,6.12281728536e-05,-1.02993990367e-05,-0.000168612386915,0.469906541745,-0.00401081719567,0.249763597621,-0.0179404548469,0.92370989405,0.382672402887,5.88673247359e-05
0.0784328728914,-0.133908629417,-0.0963415801525,-2.41261863708,0.0261738244444,2.26496577263,-0.819365084171,0.0486839525402,-0.000242835725658,-0.000205655640457,0.000107884545287,-0.000396210700274,3.74777846446e-05,-0.000163525794051,-0.000151928848936,0.469906469612,-0.0040117670901,0.249762911839,-0.0179405146225,0.923708463907,0.38267585221,5.88108215444e-05
0.0784396380186,-0.133905053139,-0.0963416472077,-2.41261744499,0.0261734761298,2.26496934891,-0.819385588169,0.0486839525402,3.87904474337e-05,0.000143678727909,0.000265700859018,-0.000202167633688,8.4220097051e-05,-9.34215204325e-05,-0.000446286110673,0.469907470815,-0.00400873251593,0.249762051656,-0.0179399721687,0.923703246911,0.382688470173,5.93567142744e-05
0.0784406587481,-0.133906140924,-0.0963416472077,-2.41261816025,0.0261723678559,2.26497220993,-0.819396674633,0.0486839525402,-0.000246104958933,-0.00046743339044,7.57661182433e-05,-3.0975734262e-05,5.97666876274e-05,-0.000116282943054,-8.92020034371e-05,0.46990786634,-0.00400848009164,0.249762485332,-0.0179387824583,0.923700613874,0.382694881073,6.07867052959e-05
0.0784414708614,-0.133909344673,-0.0963413640857,-2.41261911392,0.0261734314263,2.26497364044,-0.819411873817,0.0486839525402,-0.000157855654834,0.000486481527332,0.000563731184229,-0.00012912346574,8.2398100858e-06,0.00280291005038,5.13377272e-05,0.469908100097,-0.00400774284305,0.24976370787,-0.0179387191273,0.923697828482,0.382701606679,6.27888928204e-05
0.0784377232194,-0.133910685778,-0.0963429883122,-2.41261649132,0.0261730644852,2.26497769356,-0.819438874722,0.0486839525402,-0.000303674198221,0.000852912839036,0.000183905416634,-0.000261755514657,-3.54233088729e-05,5.1995019021e-05,-0.00292676384561,0.469910133771,-0.00401048042883,0.24976572742,-0.0179371550392,0.923693378142,0.382712420598,6.66930949407e-05
0.0784361287951,-0.133903980255,-0.0963435545564,-2.41261863708,0.0261741429567,2.26498150826,-0.819470822811,0.0486839525402,-0.000102870202682,0.000981351593509,-0.000686154991854,-0.000170986910234,-9.78097014013e-05,9.3481328804e-05,-0.000299120903946,0.469909551163,-0.00401129114683,0.249762058821,-0.0179382115276,0.923688123547,0.382725053362,6.47882748676e-05
0.0784360766411,-0.133905813098,-0.0963422954082,-2.41261839867,0.0261732209474,2.26498270035,-0.819484472275,0.0486839525402,-5.54071921215e-05,-0.000519756809808,0.00018045953766,-8.19055712782e-05,-5.59176587558e-05,0.000131039036205,-0.00130199280102,0.469910065055,-0.00401084965367,0.249763123888,-0.0179372312281,0.92368518274,0.38273219647,6.62558968836e-05
0.0784378349781,-0.13390339911,-0.0963416695595,-2.41261744499,0.0261732991785,2.26498413086,-0.81949877739,0.0449928306043,0.000412075110944,-0.000170603801962,0.000368906912627,-7.86898453953e-05,4.74469561595e-05,0.000109590495413,-0.0015828985488,0.469910578327,-0.00400977245092,0.249762528843,-0.0179371057332,0.923682013547,0.382739850779,6.63026575217e-05
0.0784419998527,-0.133909717202,-0.0963401719928,-2.41261816025,0.0261734072119,2.26498866081,-0.819525897503,0.0449928306043,0.000419039308326,0.000220635702135,-5.93440017838e-05,-1.53963082994e-05,6.1692451709e-05,-1.74431602318e-06,-0.00153537839651,0.469911832463,-0.00400711883712,0.249765571372,-0.0179352762563,0.923675779981,0.382754979004,7.12181520144e-05
0.0784384459257,-0.133905053139,-0.0963420942426,-2.4126188755,0.026174640283,2.26499152184,-0.819543421268,0.0449928306043,-0.000408784399042,0.000383165461244,0.000390471308492,3.93364061892e-05,1.89486763702e-05,-0.000120301272545,0.00055156822782,0.469911764841,-0.00400957571052,0.249763316674,-0.0179361003915,0.923673634172,0.382760118825,7.04096128251e-05
0.0784376114607,-0.133905977011,-0.096343100071,-2.4126200676,0.0261730272323,2.26499247551,-0.819557189941,0.0449928306043,-9.85526057775e-05,-0.000551061239094,-1.05781573438e-05,0.000169048274984,9.558039892e-06,0.00240639760159,-5.31368641532e-05,0.46991155146,-0.00401059451145,0.249763305869,-0.017935496772,0.923671160972,0.382766115318,7.06495827406e-05
0.0784379094839,-0.133904591203,-0.0963418856263,-2.41261839867,0.0261736419052,2.26499676704,-0.819573163986,0.0449928306043,-0.000257301609963,-0.000308522983687,-0.000297829188639,0.00195981701836,0.000200990631129,0.000502442475408,-0.00245282589458,0.469913069974,-0.00400990752618,0.249763747367,-0.0179346280287,0.923667923545,0.382773967897,7.29080802898e-05
0.0784412547946,-0.133908927441,-0.09634116292,-2.4126162529,0.0261724665761,2.26499915123,-0.819603741169,0.0449928306043,0.000156506896019,-0.000426403363235,0.00024384293647,0.000304999761283,-1.72783184098e-05,3.68336986867e-05,-0.000746791134588,0.469914840798,-0.00400816143687,0.249766901933,-0.0179325788165,0.923661174377,0.382790349024,7.70812802025e-05
0.0784429460764,-0.133905872703,-0.0963416397572,-2.41261696815,0.0261732134968,2.26500177383,-0.819614827633,0.0449928306043,-0.000220326168346,3.99025739171e-05,0.000149880623212,-0.00029127477319,-2.4854674848e-05,-1.78791087819e-05,-3.34020369337e-05,0.469914694936,-0.00400763826946,0.249765237677,-0.0179329545478,0.923658849941,0.382795940277,7.65245160132e-05
0.0784409865737,-0.133906543255,-0.0963417366147,-2.41261720657,0.0261734928936,2.26500320435,-0.819632768631,0.0449928306043,1.09618554234e-06,-0.000769754697103,6.52039670967e-05,8.99632141227e-05,-5.41434092156e-05,-0.000121656856209,-0.00010949762509,0.469915193873,-0.0040085485513,0.249765996769,-0.0179324254184,0.92365570097,0.382803562918,7.800672947e-05
0.0784395411611,-0.1339071244,-0.0963424891233,-2.41261577606,0.0261720716953,2.26500511169,-0.819639742374,0.0449928306043,-0.000212886923691,1.64432765359e-06,5.81841777603e-05,-0.000669562374242,0.000116324496048,-3.44701365975e-05,-0.000266245740931,0.469916182184,-0.00400969277585,0.249766759242,-0.0179314738155,0.923654856726,0.382805644238,7.94720885766e-05
0.0784379541874,-0.133906021714,-0.0963424742222,-2.4126188755,0.0261732749641,2.26500725746,-0.819656014442,0.0449928306043,6.80827870383e-05,0.000384963786928,0.0019230262842,-0.000667404790875,6.19247612121e-06,-3.25714136125e-05,0.000110499859147,0.469915298796,-0.00401028771265,0.249765096206,-0.0179322370589,0.92365219164,0.382812039021,7.88471882743e-05
0.0784458965063,-0.133910834789,-0.0963405296206,-2.4126162529,0.0261729732156,2.2650077343,-0.819677293301,0.0449928306043,0.00195152312517,-0.000650085974485,0.000111830384412,-0.000419200427132,4.49788931292e-05,-7.93988292571e-05,0.000341504346579,0.469916814731,-0.00400556202284,0.24976859305,-0.0179305238861,0.923646062267,0.382826907126,8.26794966126e-05
0.0784447938204,-0.133910447359,-0.0963411405683,-2.41261839867,0.026172677055,2.265011549,-0.819686770439,0.0449928306043,-0.000302936939988,-0.000298815924907,0.000183804964763,-0.000258052023128,0.000137644528877,-4.66339552077e-05,-1.18350726552e-05,0.469916836172,-0.00400655542127,0.249767741874,-0.0179302749685,0.923644699587,0.382830206389,8.32062075892e-05
0.0784385204315,-0.133900165558,-0.0963415950537,-2.41261696815,0.0261728074402,2.26501393318,-0.819721996784,0.0449888892472,0.00014628576173,-0.000107946558273,8.60416621435e-05,-5.98619008088e-05,6.8189263402e-05,-0.000230055724387,0.000160597526701,0.469917063419,-0.00400980482499,0.249763743646,-0.0179311592987,0.923639285364,0.382843228054,8.04646857407e-05
0.0784464851022,-0.133900210261,-0.096338622272,-2.41261768341,0.0261727385223,2.2650141716,-0.81973528862,0.0449888892472,0.000643085280899,-0.00312754302286,0.000710146327037,5.15549400006e-05,1.69704562722e-05,-3.42364146491e-05,0.000405387690989,0.469916874325,-0.00400471152076,0.249763493084,-0.0179310326899,0.923634647496,0.382854423065,8.02158510241e-05
0.0784491971135,-0.13390634954,-0.0963393747807,-2.4126188755,0.0261743646115,2.26501727104,-0.819751739502,0.0449888892472,-0.000565406866372,-0.00066757661989,3.53955801984e-05,-5.19734494446e-05,4.36689060734e-06,-0.000108335603727,0.000722669996321,0.469917593677,-0.00400357422008,0.249766118968,-0.0179302953121,0.923631325089,0.382862471895,8.43929733533e-05
0.0784350931644,-0.13391546905,-0.0963419154286,-2.41261649132,0.0261726044118,2.26501774788,-0.819775164127,0.0449888892472,-0.000121158642287,0.000316626625136,-0.000238564491156,-0.000306317087961,-3.96842551709e-05,-4.20142641815e-05,-0.00316322920844,0.469919350798,-0.00401152907612,0.249771433927,-0.0179278550199,0.923629814954,0.382866227933,9.01802437502e-05
0.0784414187074,-0.133911564946,-0.0963400527835,-2.41261768341,0.0261744633317,2.26501727104,-0.819816172123,0.0439966656268,0.000370283116354,0.000622193794698,-5.9435977164e-05,0.000374591327272,-0.000130047526909,-1.1950375665e-05,0.000296557467664,0.469918477893,-0.00400750747184,0.249769070007,-0.0179293255831,0.923620617958,0.382888345719,8.81015227539e-05
0.0784398764372,-0.133899241686,-0.0963409841061,-2.41261601448,0.0261730868369,2.26502180099,-0.819865882397,0.0439966656268,-0.000345647829818,0.000203601288376,-0.000464662298327,-0.000209864403587,-1.87014393305e-05,-6.17158075329e-05,-9.32215771172e-05,0.469919115931,-0.00400895737046,0.24976439227,-0.017929536935,0.923611452733,0.38291044447,8.53458063175e-05
0.0784338265657,-0.133899107575,-0.0963423624635,-2.41261720657,0.0261739194393,2.26502203941,-0.81989389658,0.0439966656268,-9.6419811598e-05,5.71261225559e-05,-0.000182757517905,-3.8341677282e-05,-3.92202855437e-05,-0.000167775957379,-0.000372900976799,0.469918643975,-0.0040123222736,0.249763832494,-0.0179301230793,0.923607604038,0.382919700268,8.53176696004e-05
0.0784391090274,-0.133904501796,-0.0963395386934,-2.41261410713,0.0261733736843,2.26502251625,-0.819921135902,0.0439966656268,0.000370780384401,-3.28438873112e-05,-0.000165315781487,0.000448421982583,-5.11761390953e-05,-0.000212215818465,-2.81076627289e-05,0.46992049165,-0.00400862558374,0.249767744747,-0.0179282013215,0.923600787616,0.382936230169,8.95499776237e-05
0.0784546658397,-0.133910447359,-0.0963335037231,-2.41261601448,0.0261718835682,2.26502346992,-0.819954931736,0.0439966656268,9.06314471649e-06,-0.00206820224412,-8.13988954178e-05,-0.000397424184484,3.33364332619e-05,-3.865169856e-05,-0.00402747979388,0.469920503808,-0.00399868537585,0.249769816088,-0.0179265595308,0.923590021212,0.382962272889,9.16924998999e-05
0.0784514844418,-0.133910730481,-0.0963347256184,-2.41261529922,0.0261730328202,2.26502227783,-0.819973170757,0.0439966656268,-0.000213182822336,0.000287066737656,-0.00027139816666,-0.000465238059405,-0.000149227082147,-0.000126121740323,-2.3005894036e-05,0.469920654979,-0.00400174295128,0.249769846782,-0.0179271413982,0.923585137686,0.382974022951,9.20591887031e-05
0.0784397572279,-0.133909627795,-0.0963376313448,-2.41262030602,0.0261735618114,2.26502346992,-0.82002133131,0.0439966656268,-0.000683655613102,-0.000297997961752,0.000449444749393,0.000364253530279,6.20113059995e-05,-0.000114785361802,-0.00353584601544,0.469918614682,-0.00400733187721,0.24976757021,-0.0179283867213,0.923581127048,0.382983637005,9.04431587283e-05
0.0784409493208,-0.133905097842,-0.0963401123881,-2.41261649132,0.0261730141938,2.26502799988,-0.820128023624,0.0439966656268,0.000656865769997,-0.000194597581867,0.00024083138851,-0.000246773270192,1.7998907424e-05,-4.67879981443e-05,0.000188085308764,0.469920779945,-0.0040080845803,0.249767458503,-0.017927350454,0.923560912887,0.383032428548,9.30352300241e-05
0.0784532874823,-0.133907452226,-0.0963355377316,-2.41261696815,0.0261732991785,2.26502752304,-0.820170521736,0.0439966656268,0.000837217550725,-0.000427466613473,0.000133148438181,0.000454296241514,-5.65988048038e-05,-0.000172094543814,-0.00470889126882,0.469920748795,-0.00400014873342,0.249768341213,-0.0179269880449,0.923549575101,0.383059781623,9.3897708783e-05
0.0784578919411,-0.133905634284,-0.0963321849704,-2.41261363029,0.0261734090745,2.26502895355,-0.820223808289,0.0439966656268,-7.42381380405e-05,0.000357106269803,-4.31523803854e-05,-0.000174353597686,9.81022094493e-06,8.62844171934e-05,-0.00308099063113,0.46992230722,-0.00399651654918,0.24976906566,-0.0179261313018,0.923537886604,0.38308800082,9.55690903962e-05
0.07845261693,-0.133917555213,-0.0963347107172,-2.41262030602,0.0261733848602,2.2650308609,-0.820360422134,0.0440189950168,-0.000262230430963,-0.00017835329345,0.00385881122202,0.000470877217595,-8.75341429492e-05,7.89952537161e-05,-0.00377305457368,0.469920963752,-0.00400000506419,0.249771923023,-0.0179253669743,0.923513187484,0.383147573875,0.000100385400642
0.0784518793225,-0.133919268847,-0.0963354632258,-2.41261792183,0.0261735320091,2.26503181458,-0.820387482643,0.0440189950168,-1.08935837488e-05,0.000744747871067,-0.000204948097235,-0.000161307150847,-0.000120058430184,-7.61955959661e-07,0.000194329826627,0.469922280789,-0.00400070566245,0.249773828008,-0.0179245265936,0.923508314981,0.383159356634,0.000103021020443
0.0784502997994,-0.133910357952,-0.096336312592,-2.4126188755,0.0261722374707,2.26503205299,-0.820453286171,0.0440189950168,-0.000351762893843,0.00100363919046,-0.000684478553012,-0.000183474781807,5.50103650312e-05,-4.48574355687e-05,-0.00395952630788,0.469921420192,-0.00400166879226,0.249769815049,-0.0179254232621,0.923496721825,0.383187256782,9.95099460383e-05
0.078451409936,-0.133901104331,-0.096334464848,-2.41261529922,0.0261718872935,2.26503252983,-0.820515573025,0.0440189950168,0.000327213463606,0.000717244518455,0.000124514728668,0.000172167012352,1.57957802003e-05,4.0014681872e-05,-0.0049538994208,0.469921995818,-0.00400081486387,0.249766512093,-0.0179260227436,0.923483506315,0.383219077798,9.67849192895e-05
0.0784580633044,-0.133897587657,-0.0963335484266,-2.41261959076,0.0261721704155,2.26503205299,-0.820587575436,0.0440189950168,9.72647467279e-05,4.98180015711e-05,0.00398004287854,-0.000467426230898,-1.61860516528e-05,2.05841497518e-05,-0.00486207241192,0.469919883308,-0.00399720457089,0.249762985513,-0.0179275597044,0.923468283347,0.38325568905,9.35308584713e-05
0.0784647092223,-0.133902519941,-0.0963312834501,-2.41261720657,0.0261727981269,2.26503300667,-0.820619463921,0.0440189950168,0.000213899911614,-0.000179276947165,-0.00013128563296,-0.000286407710519,-7.2820832429e-05,0.00378552172333,-0.000770559825469,0.469921639192,-0.00399267002912,0.249766942086,-0.0179260398472,0.923459404872,0.383277151288,9.81454202343e-05
0.0784680619836,-0.133910953999,-0.0963296890259,-2.41261386871,0.0261742863804,2.26503300667,-0.820659995079,0.0440189950168,-0.00033002733835,-0.000688955653459,-0.000103136451798,-1.46905686051e-05,-4.43317139798e-06,-5.78784674872e-05,-0.000587612797972,0.469923599393,-0.00399050845592,0.249771813852,-0.0179246432159,0.923452020794,0.383295005686,0.000103711770758
0.0784638077021,-0.133911877871,-0.096330024302,-2.41261768341,0.026174582541,2.26503276825,-0.820733904839,0.0440189950168,0.00174762622919,0.000323912128806,-7.74147556513e-05,-0.000275332480669,-1.33604889925e-05,-0.000132370754727,-0.000369649991626,0.469922352265,-0.00399255139087,0.249771108985,-0.0179251878561,0.923439625311,0.383324842644,0.000103638390519
0.0784555822611,-0.133910402656,-0.096332937479,-2.4126200676,0.0261738877743,2.26503324509,-0.820875763893,0.0440189950168,-0.000385974213714,0.000544867769349,3.47215791408e-05,0.00156213750597,-3.09221322823e-05,-7.05214333721e-05,-0.000884279317688,0.469921014359,-0.00399782326597,0.249768890535,-0.0179259705895,0.923413608523,0.383387475393,0.000102796765539
0.0784570947289,-0.133916705847,-0.0963317677379,-2.41261434555,0.0261730905622,2.26503276825,-0.820930242538,0.0440189950168,0.00122787558939,-0.000275487662293,-0.000135919472086,0.000535806932021,7.95195501269e-06,-1.93759224203e-05,-0.00573049392551,0.469923771566,-0.00399669517489,0.249774265659,-0.0179235954999,0.923402566942,0.383414178137,0.000108516807647
0.078464999795,-0.1339186728,-0.0963310077786,-2.41259908676,0.0261723846197,2.26503443718,-0.820995390415,0.0440189950168,0.000348055240465,0.000648879795335,0.000259896070929,5.57143284823e-05,7.2261565947e-05,8.46518669277e-05,-0.0093375518918,0.469929206381,-0.00399311665936,0.24978039797,-0.0179202009031,0.923389926765,0.383444775453,0.000115799420294
0.0784659460187,-0.133923307061,-0.0963297486305,-2.41225671768,0.0261739902198,2.2650244236,-0.821080565453,0.0440189950168,-0.000121737146401,-0.00123858905863,0.000547715462744,0.0147451739758,0.000112410707516,-0.000176964196726,-2.69381471298e-05,0.470068157598,-0.00399584142936,0.249930512361,-0.0178531150852,0.923372615472,0.38348951009,0.000273153634433
0.0784715265036,-0.134018436074,-0.096326559782,-2.41174769402,0.0261727999896,2.26500082016,-0.821119964123,0.0440189950168,0.00121351901907,-0.000365098676411,0.00266314391047,0.0250520873815,-6.02602085564e-05,-0.000400579534471,-0.000248988362728,0.470278033411,-0.00399737687816,0.250192158449,-0.0177410595874,0.923364239344,0.383514593333,0.000541007570115
0.0784703493118,-0.13405559957,-0.0963261947036,-2.41127562523,0.0261719655246,2.26498603821,-0.821155786514,0.0440189950168,8.39760323288e-05,-0.00210369960405,0.000703294528648,0.0372416861355,6.44753090455e-05,-0.00100261042826,-0.00399886863306,0.470469856816,-0.00400334232028,0.250411593067,-0.0176438263183,0.923358378047,0.383532801863,0.000768545358459
0.0784679278731,-0.134126067162,-0.0963244959712,-2.4104013443,0.0261701848358,2.26492118835,-0.82120424509,0.0440189950168,2.62784978986e-05,-0.00799846835434,-5.17099215358e-05,0.0549316629767,-4.11324890592e-06,-0.00415203208104,-0.00253575551324,0.470816724933,-0.00401367172519,0.2508158385,-0.0174710996486,0.923350402712,0.383558883593,0.00117345159563
0.0784672424197,-0.134503304958,-0.0963251292706,-2.40622615814,0.0261671748012,2.26394557953,-0.821291208267,0.0440189950168,0.000577361963224,-0.0106631647795,-1.78298741957e-05,0.125190079212,-0.000148614737554,-0.0301395691931,-0.000187516227015,0.472325145352,-0.00405418838078,0.252712751477,-0.0167803289671,0.923334290929,0.38361991217,0.00282319402198
0.0784761682153,-0.134807899594,-0.0963220372796,-2.40366339684,0.0261663552374,2.26324391365,-0.821326971054,0.0440189950168,-6.77613525113e-06,-0.019492726773,-5.94339835516e-05,0.158330976963,-0.000128947183839,-0.0457817874849,-0.00016141794913,0.473230185957,-0.004071448129,0.253905921356,-0.0163663974207,0.923323323994,0.383655523305,0.00382354874723
0.078475445509,-0.135200753808,-0.0963203758001,-2.40065479279,0.0261650569737,2.26224279404,-0.821347475052,0.0440189950168,-8.03419898148e-05,-0.0256996229291,-0.000151838074089,0.192535325885,-1.21389496144e-06,-0.0780110135674,-0.00103389052674,0.47425231628,-0.00409594642047,0.255311078037,-0.0159117050996,0.923314834059,0.383682409317,0.0049338941024
0.0784771293402,-0.135820224881,-0.096318744123,-2.3963201046,0.0261632986367,2.26017212868,-0.821387767792,0.0440189950168,-0.000443226104835,-0.0330998934805,0.000702112040017,0.233209684491,-0.00539126619697,-0.129427164793,-0.00724132033065,0.475583527097,-0.00412360853478,0.257311629067,-0.015378465668,0.923295489013,0.383731141025,0.006273264893
0.0784714743495,-0.136865988374,-0.096319027245,-2.39056301117,0.0261634774506,2.25681996346,-0.821434378624,0.0440189950168,-0.000292195851216,-0.0570170097053,-0.00322030275129,0.292144566774,-9.03688487597e-06,-0.16737754643,0.00016109381977,0.477221798708,-0.00415769345349,0.260030902779,-0.0147611970849,0.923267790109,0.383792297339,0.00788460486484
0.0784714221954,-0.137963369489,-0.096319437027,-2.3851351738,0.0261586382985,2.25331377983,-0.821455597878,0.0440189950168,0.000511989637744,-0.0666976645589,0.000281753775198,0.34399241209,0.000157725720783,-0.246921285987,-0.00221338006668,0.478856841129,-0.00418604675441,0.262953619621,-0.0141731529333,0.92323666995,0.38385374283,0.00945921735735
0.0784751847386,-0.142676487565,-0.0963142886758,-2.36609125137,0.0261527895927,2.23737740517,-0.8214802742,0.0440189950168,-0.000264579575742,-0.132350414991,-0.000228207049076,0.452530622482,0.000265145819867,-0.425006866455,0.000359364174074,0.482946172252,-0.00423168442818,0.271889485559,-0.0129945022364,0.923131123485,0.384045149722,0.0130151612597
0.0784746333957,-0.14497217536,-0.0963147655129,-2.35828733444,0.0261511951685,2.23038101196,-0.821483016014,0.0440189950168,0.000114889859105,-0.141146570444,0.000122247598483,0.514065563679,-0.000319019862218,-0.454939126968,-0.000292753014946,0.484553164223,-0.0042484849692,0.275847898498,-0.012526824479,0.923081651179,0.384126438414,0.014499066164
0.0784747153521,-0.146983057261,-0.0963154360652,-2.35089087486,0.0261483751237,2.22368478775,-0.821482121944,0.0440189950168,-0.000523567723576,-0.166353672743,0.000545715971384,0.548824727535,-0.000345006876159,-0.510150194168,-5.80894557061e-05,0.486439527421,-0.00427026485009,0.280637454256,-0.0120021122234,0.923019533527,0.384225147294,0.0161841249409
0.0784841999412,-0.153901085258,-0.0963063761592,-2.33017969131,0.0261455215514,2.20394802094,-0.821483135223,0.0440189950168,-1.39010908242e-05,-0.208007603884,5.36308252777e-05,0.630822181702,0.00061709509464,-0.598803758621,1.54009285325e-05,0.489791077021,-0.00429333252654,0.290450836618,-0.0109887225717,0.922877861873,0.384437010585,0.0195929736682
0.0784788802266,-0.157487586141,-0.0963039621711,-2.31990408897,0.0261430423707,2.1940305233,-0.821481466293,0.0440196506679,-0.000495465181302,-0.235372111201,-0.000522655202076,0.640071451664,-0.000245189236011,-0.632418870926,-0.000320932245813,0.491740695231,-0.00431781796679,0.296676863276,-0.0103616026888,0.922784985694,0.384563139349,0.021718630341
0.0784742683172,-0.161915704608,-0.09630382061,-2.30792617798,0.02614287287,2.18205666542,-0.821478247643,0.0440196506679,0.000544157868717,-0.261326611042,-9.70983383013e-05,0.697306334972,-0.000806809926871,-0.678163170815,0.0013670551125,0.493397833554,-0.0043388880758,0.302531409531,-0.00981694830357,0.922694307224,0.384682061884,0.0236337447339
0.0784851387143,-0.166352599859,-0.0963022708893,-2.29582595825,0.0261449571699,2.1702466011,-0.821477413177,0.0440196506679,6.54908217257e-05,-0.273040294647,2.89059644274e-05,0.706568002701,4.48646387667e-05,-0.707584679127,0.000205392047064,0.495236704689,-0.0043611149801,0.309200069555,-0.00914689519429,0.922582184369,0.384820889598,0.0259100367743
0.0784801095724,-0.18090647459,-0.0962956473231,-2.25964951515,0.0261496361345,2.13497805595,-0.821459054947,0.0440196506679,-0.00281170755625,-0.318614929914,-0.00079022772843,0.753524184227,0.00174301548395,-0.709697067738,0.000204587820917,0.500127239667,-0.00446800824465,0.329985353307,-0.00692145378098,0.92220080399,0.385209324711,0.0333398625583
0.0784682482481,-0.187038183212,-0.0962988957763,-2.24572372437,0.0261423438787,2.12209653854,-0.821450352669,0.0440196506679,0.00181089516263,-0.349963992834,0.000549661868718,0.757141053677,-0.000691886001732,-0.718545794487,0.000113004432933,0.501890781578,-0.00453581320439,0.338397890759,-0.00583058541981,0.922023686204,0.385339813555,0.0367634890077
0.0785215646029,-0.192726626992,-0.0962763056159,-2.23276591301,0.0261531751603,2.10995697975,-0.821439385414,0.0440196506679,-0.000587287300732,-0.337671726942,-0.000369268847862,0.794356644154,0.00103453872725,-0.701998472214,0.00206658034585,0.503358189177,-0.00455555767853,0.346239274105,-0.00485389527764,0.921834717901,0.385496333648,0.0398719073989
0.078491255641,-0.199530467391,-0.0962809771299,-2.21704912186,0.0261421501637,2.09616613388,-0.821418404579,0.0440196506679,-0.000289572199108,-0.337502270937,-0.000185491517186,0.763713896275,-0.00129546702374,-0.689077854156,0.00164034520276,0.505153215521,-0.00466343971623,0.355843521287,-0.0034795833249,0.921604945505,0.385609583037,0.044016656765
0.0785364955664,-0.209712907672,-0.0962639078498,-2.19469404221,0.0261501614004,2.07619214058,-0.821278989315,0.0440196506679,-0.00113787490409,-0.354263156652,0.000290274823783,0.788535356522,-0.00171024736483,-0.677636563778,0.0140696037561,0.507264780397,-0.00476868053316,0.369801958009,-0.00152673397206,0.921241867306,0.385761965145,0.0499879679013
0.0785202234983,-0.215232014656,-0.0962628349662,-2.18264842033,0.0261486321688,2.06519317627,-0.821186363697,0.0440196506679,0.000213507693843,-0.339343518019,0.000989460386336,0.75083553791,0.000143575962284,-0.675557613373,0.00222977390513,0.508123573526,-0.00485137380125,0.376883511312,-0.000574725514784,0.921059711307,0.38580839598,0.0529203096353
0.0785412192345,-0.221327438951,-0.0962365716696,-2.16896629333,0.02615089342,2.05327701569,-0.821171998978,0.0440196506679,0.000149894491187,-0.328435480595,0.00515289232135,0.751187384129,-0.000442086602561,-0.656597316265,6.64356339257e-05,0.509189164347,-0.00493295334479,0.385923290356,0.000733500756736,0.92077592818,0.385928458593,0.0568364019854
0.0785223245621,-0.227957800031,-0.0962259098887,-2.15450334549,0.0261538289487,2.04010891914,-0.821151554585,0.0440196506679,-0.000832124438602,-0.331585049629,-2.78325969703e-05,0.723925113678,0.00174098915886,-0.648009419441,0.00196620030329,0.509957939124,-0.00504592313032,0.395045900986,0.0019652861889,0.920493036046,0.386026077655,0.0606017763121
0.078547783196,-0.237421900034,-0.0961933583021,-2.13323926926,0.0261496715248,2.02114748955,-0.821122407913,0.0440196506679,0.000543765549082,-0.313144892454,0.00292689818889,0.662082672119,-0.00187223276589,-0.624802708626,-1.69705454027e-05,0.510865144548,-0.00519340525563,0.408401637003,0.00382231461303,0.920035686314,0.386186643737,0.0661785592232
0.0785420015454,-0.242387637496,-0.0961802154779,-2.12268018723,0.0261520538479,2.01146769524,-0.821110486984,0.0440209619701,-0.000706631690264,-0.29832303524,-5.21464753547e-05,0.646168172359,-0.000759960734285,-0.587809026241,-0.000448372215033,0.511096823184,-0.00528162779098,0.415154762009,0.0047327895815,0.919797956308,0.386257454442,0.0689528740882
0.0785400047898,-0.246917292476,-0.0961738675833,-2.11249947548,0.0261506866664,2.0021905899,-0.821094334126,0.0440209619701,0.000427077611675,-0.282728403807,-0.000274498132057,0.62235301733,0.00030267846887,-0.575856983662,-9.67983942246e-05,0.511257052197,-0.00536604396129,0.421160035778,0.00553446603743,0.919583882959,0.386316169526,0.0713769481909
0.0785246938467,-0.25212135911,-0.0961782187223,-2.10139393806,0.0261539090425,1.99158406258,-0.821086287498,0.0440209619701,-0.000990500673652,-0.270189404488,0.00279448647052,0.57522892952,-8.04564624559e-05,-0.531103789806,0.00116165878717,0.51121631385,-0.00548209622187,0.428607172452,0.00645351910051,0.919320218546,0.386389286477,0.0742428908466
0.0785262286663,-0.259727090597,-0.0961767062545,-2.084867239,0.0261516049504,1.97613239288,-0.821077823639,0.0440209619701,-0.000141598371556,-0.225053399801,-0.000575162179302,0.484741747379,-8.13087171991e-05,-0.464510470629,0.000630891649053,0.511043486926,-0.00563685026325,0.438781690162,0.00776325340489,0.918933980866,0.386493771707,0.0782472671644
0.0785273686051,-0.263613790274,-0.0961692258716,-2.07723760605,0.0261561591178,1.96831893921,-0.821074068546,0.0440209619701,-5.57909625059e-05,-0.234703421593,0.000419033953222,0.429425209761,0.000207332108403,-0.448383361101,0.000391323643271,0.510686901786,-0.00571090209871,0.444039491121,0.00834120038789,0.918737575774,0.386562365081,0.0801325702939
0.0785510092974,-0.267616271973,-0.0961537286639,-2.06944084167,0.0261564273387,1.96040356159,-0.821070671082,0.0440209619701,-0.000379924778827,-0.180829718709,0.00128685031086,0.380802094936,-0.000197457280592,-0.387045055628,-7.36039946787e-05,0.510289945899,-0.00576977326717,0.449122103334,0.0089156652569,0.918535631155,0.386640860263,0.0819856698911
0.0785280838609,-0.270357966423,-0.0961574167013,-2.0638833046,0.0261566285044,1.95445382595,-0.821068882942,0.0440209619701,-0.00170760869514,-0.169082015753,-0.000845323957037,0.325567960739,-1.79087019205e-05,-0.36078992486,0.0019655704964,0.509923455362,-0.00583705378671,0.452650265002,0.00924587668761,0.918414157868,0.386680752397,0.0831140409245
0.078518114984,-0.273730516434,-0.0961573421955,-2.05802631378,0.0261536799371,1.94765269756,-0.821066141129,0.0440209619701,0.00108394213021,-0.16393995285,0.000373819231754,0.265959888697,9.64252030826e-05,-0.328056484461,-0.000344079075148,0.509340825911,-0.00589971951558,0.456547810102,0.00956291825931,0.918278178203,0.386741557692,0.0842894137221
0.0785139277577,-0.277334034443,-0.0961589664221,-2.05232644081,0.0261555518955,1.93964612484,-0.821063637733,0.0440209619701,-0.00096260063583,-0.102647215128,-4.62467651232e-05,0.173682108521,-0.000198453475605,-0.269049495459,-0.000462847849121,0.508388905914,-0.00595047852881,0.460439136569,0.00963338871197,0.918173656935,0.386840921287,0.084961372586
0.0785114243627,-0.279201775789,-0.0961571037769,-2.04956889153,0.0261553749442,1.93491828442,-0.821061611176,0.0440209619701,0.00133072887547,-0.0969916135073,0.000677070114762,0.12168713659,0.000153294487973,-0.232370913029,-0.000373391521862,0.507774997126,-0.00596429163358,0.462118976554,0.00951856743897,0.918147896104,0.386907962832,0.0849474292268
0.0785240903497,-0.280582010746,-0.0961541160941,-2.0480260849,0.0261551477015,1.93125581741,-0.821060955524,0.0440209619701,-0.00052260258235,-0.0694044604897,-0.000508044438902,0.0805201753974,-0.000145538535435,-0.23227840662,-0.000247527408646,0.507161531704,-0.00595820346963,0.463163674709,0.00929716788226,0.918148028873,0.38698057032,0.0846392203558
0.0785112604499,-0.281511306763,-0.0961537584662,-2.04677057266,0.026151355356,1.92662346363,-0.821059167385,0.0440209619701,0.000317559053656,-0.0272728279233,-0.000131275039166,0.0382131226361,0.000140034695505,-0.213933855295,0.000283379718894,0.506351382683,-0.00594799963837,0.463714384437,0.00875182698748,0.918213657498,0.387075298667,0.0835451826947
0.0785121768713,-0.281859457493,-0.0961564183235,-2.04643034935,0.0261507052928,1.92145693302,-0.821056187153,0.0440209619701,-0.000625024433248,0.00738837756217,-0.000310296134558,-0.00796707253903,-0.000186428878806,-0.183100089431,-0.000189787999261,0.505365899877,-0.00590708380079,0.463467823405,0.00786002192003,0.918342671277,0.38720185571,0.0816068672601
0.0785098224878,-0.281407147646,-0.0961557626724,-2.04671883583,0.0261445790529,1.91738724709,-0.821054399014,0.0440209619701,0.000692658533808,0.040286026895,0.00032820427441,-0.0146616315469,0.000207969686016,-0.19971960783,-0.000247008079896,0.504503777327,-0.00585687268799,0.46257410677,0.00686315495702,0.918499968154,0.387323008439,0.0793195588719
0.0785052552819,-0.280345410109,-0.0961572378874,-2.04709839821,0.0261452272534,1.91372704506,-0.821054160595,0.0440209619701,-0.000545439892448,0.0757322981954,-0.000359794677934,-0.0271700136364,-8.96100682439e-05,-0.209222003818,1.16402961794e-05,0.503820652338,-0.00580588883212,0.461410376827,0.00587260178669,0.918661172964,0.38742904777,0.0769798315281
0.0784885957837,-0.279117792845,-0.0961554422975,-2.04763674736,0.0261440575123,1.9106720686,-0.821054577827,0.0440209619701,-0.000688974803779,0.0718789324164,0.000532299629413,-0.040912874043,8.57817503856e-05,-0.18141245842,7.85687225289e-05,0.503246658202,-0.00576171470707,0.460158604731,0.00494906797217,0.918812795451,0.387516422538,0.0747634642507
0.0784223824739,-0.274110764265,-0.0961486548185,-2.05042123795,0.0261362120509,1.9031983614,-0.821052253246,0.0440209619701,-0.00617333222181,0.117546528578,0.000105996630737,-0.0704342797399,0.000392786198063,-0.132392346859,0.000119731361337,0.501801619095,-0.00562479261471,0.455476936975,0.00214131933229,0.919267486834,0.387732659085,0.0678681601441
0.0783321633935,-0.272147238255,-0.0961427763104,-2.05161905289,0.0261181015521,1.9012055397,-0.8210490942,0.0440209619701,-0.00278662447818,0.133742764592,-3.6828500015e-05,-0.0764174684882,0.000230403617024,-0.123162716627,-0.00363587378524,0.501354128683,-0.00561192307264,0.453552151808,0.00113639650092,0.91943912365,0.387765483296,0.0653325045433
0.0782284364104,-0.269508242607,-0.0961449369788,-2.05295467377,0.0259025879204,1.89920389652,-0.821050345898,0.0440216213465,-0.00977931078523,0.143709212542,0.00182672566734,-0.0790170878172,-0.0282886009663,-0.10487242043,-5.49163523829e-05,0.500955459108,-0.00564351211521,0.451207263326,9.49042000425e-05,0.919623885466,0.387818125114,0.0623618616546
0.0777020081878,-0.262351185083,-0.0961389765143,-2.05694460869,0.0221628807485,1.89424991608,-0.821046054363,0.0440216213465,-0.0127969076857,0.151335686445,-0.000153627654072,-0.0852878317237,-0.143598854542,-0.0972468629479,0.00048362382222,0.499907524824,-0.00639285761461,0.445174899774,-0.00113857679634,0.919963856969,0.388218623389,0.0543277613113
0.0773813426495,-0.259742379189,-0.0961395800114,-2.05841970444,0.0190129205585,1.89275610447,-0.821044921875,0.0440216213465,-0.0242809113115,0.151399940252,0.000331331539201,-0.0836107730865,-0.213719770312,-0.0854033902287,0.000432962260675,0.499552331251,-0.00705988494635,0.44295001383,-0.000757914977792,0.920017832169,0.388526124152,0.0511279237721
0.076926022768,-0.257269650698,-0.0961275026202,-2.05968666077,0.0151766967028,1.89138460159,-0.82104498148,0.0440216213465,-0.031626407057,0.151962608099,0.00155999825802,-0.0765947699547,-0.270188450813,-0.0879244804382,-0.000478195550386,0.499240308708,-0.00791851706999,0.44091138947,1.56809443588e-05,0.920044548205,0.388861306283,0.0480095118728
0.0761746540666,-0.254125237465,-0.096130028367,-2.06122994423,0.00859976839274,1.88988399506,-0.821042954922,0.0440216213465,-0.0400978066027,0.147739946842,-0.000656001968309,-0.072097286582,-0.355697453022,-0.0547718070447,-0.000156967216753,0.498903348585,-0.00933468830575,0.43849485131,0.00169968460859,0.920019284703,0.389385192365,0.0440544946063
0.0747812539339,-0.249960258603,-0.0962552949786,-2.06310033798,-0.00362194958143,1.8885743618,-0.821043670177,0.0440216213465,-0.0625806897879,0.150172472,-0.0048147761263,-0.0593506470323,-0.507973253727,-0.045161370188,0.000487529789098,0.498571493427,-0.0123092816861,0.435182554006,0.00588434619983,0.91985858676,0.390354624542,0.0380633894245
0.0733846798539,-0.247281238437,-0.0962588042021,-2.06420350075,-0.0145386960357,1.88760817051,-0.821041941643,0.0440209619701,-0.0782317966223,0.134190171957,0.00147094659042,-0.0574099160731,-0.628509998322,-0.0555100403726,-0.000229843746638,0.498336020304,-0.0149356229603,0.4331771456,0.00985062521982,0.91965196067,0.391159757533,0.0337235850444
0.0719495043159,-0.245142072439,-0.0962928906083,-2.06506276131,-0.025195159018,1.88689780235,-0.821044385433,0.0440209619701,-0.0978942066431,0.141820251942,-0.00223045772873,-0.049866694957,-0.691934287548,-0.0357157438993,-0.00030556882848,0.49814797206,-0.0175616211329,0.431609950245,0.0138796702967,0.919420364581,0.391891266284,0.0299129242635
0.0702168047428,-0.242853417993,-0.0964432507753,-2.06583547592,-0.0376067720354,1.88641095161,-0.821043729782,0.0440209619701,-0.111046396196,0.121475480497,-0.0130846174434,-0.0436880961061,-0.773265898228,-0.0203741006553,-8.75401310623e-05,0.498014888463,-0.0209130307217,0.429976397024,0.0190020684071,0.919114837153,0.392698584298,0.0255863067459
0.063938818872,-0.237825080752,-0.0977500900626,-2.06768655777,-0.0786860585213,1.88532042503,-0.82104331255,0.0440209619701,-0.157571077347,0.09165058285,-0.0450879111886,-0.0329307690263,-0.937673151493,-0.0147826876491,5.86421483604e-05,0.497552857379,-0.0318656641437,0.426775815659,0.0351651792552,0.918118456646,0.39449437709,0.0140034231457
0.0609263181686,-0.236182272434,-0.0987786799669,-2.06825470924,-0.0973953977227,1.88507115841,-0.821044564247,0.0440209619701,-0.165451154113,0.0754032284021,-0.0605017319322,-0.0268576256931,-1.02683532238,-0.00682859169319,-0.000219754161662,0.497348280129,-0.0372453240427,0.425853663972,0.0427953989063,0.917625030282,0.395031081335,0.00912699807086
0.0581242777407,-0.235048383474,-0.0998288691044,-2.06867146492,-0.114122718573,1.8849824667,-0.821043431759,0.0440209619701,-0.177258044481,0.0693186074495,-0.0737426280975,-0.0254466980696,-1.06118535995,-0.00103408843279,0.000414316222304,0.497157836745,-0.0421743406639,0.425301923076,0.0496853692375,0.917159365013,0.395379622363,0.00500171521436
0.0483766682446,-0.232572108507,-0.10503808409,-2.06936120987,-0.168853506446,1.88491797447,-0.821047365665,0.0440209619701,-0.216915592551,0.0302825905383,-0.136870488524,-0.00391478464007,-1.12254500389,-0.00172323943116,-0.000131508539198,0.496373663697,-0.0594647205154,0.424757634465,0.0722919532265,0.915666566961,0.39530916113,-0.00769925039231
0.0448489747941,-0.232151195407,-0.107463508844,-2.06932663918,-0.187274798751,1.88493299484,-0.821047186852,0.0440209619701,-0.227515026927,0.0235598385334,-0.165611162782,0.00511277886108,-1.1403927803,3.01518921333e-05,-2.21671562031e-05,0.496026147809,-0.0657361361207,0.425010326565,0.0799093565084,0.915206976329,0.39480777422,-0.0117263087339
0.0359611734748,-0.231813073158,-0.114651434124,-2.06928420067,-0.230072259903,1.88496208191,-0.821051299572,0.0440209619701,-0.258687376976,-0.0020870459266,-0.219115182757,-0.000146581965964,-1.13210368156,2.74001922662e-05,-0.000202654278837,0.494819879309,-0.0813874897542,0.426067489277,0.0974087744341,0.914325123216,0.392529662732,-0.0210134070461
0.017895443365,-0.231845125556,-0.130632176995,-2.06786036491,-0.302568107843,1.88529539108,-0.821061551571,0.0440209619701,-0.303044050932,-0.000498944893479,-0.298777639866,0.0511150807142,-1.10603809357,0.0103530585766,6.68399370625e-05,0.491718543137,-0.111145191168,0.429386341485,0.126595980007,0.913359791136,0.385235361299,-0.0366205661661
0.0123395901173,-0.231826543808,-0.136371418834,-2.06683540344,-0.322666943073,1.88547217846,-0.821067810059,0.0440209619701,-0.319041728973,-0.00252054142766,-0.337787479162,0.0621227286756,-1.13242256641,0.00663695763797,-0.000885164539795,0.490525846227,-0.120809433523,0.430788897511,0.135007592223,0.913277634678,0.382106920673,-0.0411243588842
-0.00916464906186,-0.231777876616,-0.159602612257,-2.06085801125,-0.391350746155,1.8871742487,-0.821099698544,0.0440235882998,-0.349900394678,0.00554253067821,-0.418539077044,0.124705269933,-1.00607383251,0.0409027785063,0.00021492925589,0.485301501606,-0.156631119295,0.437293218552,0.163266442177,0.913629465174,0.368129150395,-0.0557332713452
-0.0168739780784,-0.231719270349,-0.168904170394,-2.05795788765,-0.413167476654,1.88798451424,-0.821121990681,0.0440235882998,-0.351926088333,0.00231773685664,-0.424775451422,0.141277089715,-0.970793783665,0.0402242690325,-0.00373808434233,0.483524819473,-0.166625558354,0.439360311021,0.170192300935,0.913982165422,0.363530971315,-0.0592993639781
-0.0232905596495,-0.231699481606,-0.17669518292,-2.05530023575,-0.430115431547,1.88875377178,-0.821276426315,0.0440235882998,-0.360979706049,0.00853585358709,-0.440683990717,0.151270315051,-0.91950827837,0.0493706613779,-0.0168506707996,0.481623957697,-0.176565812191,0.441551493465,0.176784982216,0.914393926822,0.358759909998,-0.0626270174315
-0.0404993146658,-0.231644421816,-0.198832795024,-2.04693555832,-0.469782471657,1.89255535603,-0.82173615694,0.0440235882998,-0.359062373638,0.00141043122858,-0.489613115788,0.197123080492,-0.734754860401,0.0934694707394,-0.00812047161162,0.476136790127,-0.20276002046,0.44788864959,0.192416603056,0.916127468944,0.344755661258,-0.0694970879009
-0.0465993918478,-0.231658533216,-0.207352012396,-2.04345965385,-0.481796771288,1.89430069923,-0.822002589703,0.0440235882998,-0.347362786531,-0.00122520141304,-0.501296699047,0.202815085649,-0.678406536579,0.118588633835,-0.0232477672398,0.473963450908,-0.212012212941,0.450300437983,0.197204925937,0.917018650481,0.339276441607,-0.0712636492731
-0.052480507642,-0.231672078371,-0.21577501297,-2.03996777534,-0.492780387402,1.89659643173,-0.822450220585,0.0440235882998,-0.343299329281,-0.000183087569894,-0.498340725899,0.208679720759,-0.605661332607,0.154406741261,-0.0375096835196,0.471708173309,-0.221432290747,0.452851290295,0.201950355316,0.917943282261,0.333638606885,-0.0726736831071
-0.0694086849689,-0.231778815389,-0.241255924106,-2.02933692932,-0.51807820797,1.90538203716,-0.825558364391,0.0440235882998,-0.324410170317,-0.00292180664837,-0.519934296608,0.211745455861,-0.42245015502,0.178667679429,-0.0666391029954,0.465246894122,-0.246002489201,0.459665116366,0.212477857845,0.920850989184,0.318352080433,-0.0744215574301
-0.0749992653728,-0.23184376955,-0.250342339277,-2.02551198006,-0.525278449059,1.90865063667,-0.826799035072,0.0440255589783,-0.304907470942,0.000307585956762,-0.499039590359,0.215550392866,-0.38419008255,0.186341270804,-0.0763513147831,0.462908133111,-0.25395367463,0.461921101129,0.215484407356,0.921918415894,0.313150388212,-0.0746306818018
-0.0792016461492,-0.231880187988,-0.257410734892,-2.02247262001,-0.530246973038,1.911429286,-0.828032612801,0.0440255589783,-0.294328898191,-0.00414793146774,-0.512773275375,0.218855753541,-0.334888398647,0.198760777712,-0.0948786512017,0.460865696476,-0.260768621393,0.463911126749,0.217950667945,0.922838602858,0.308713870516,-0.074579925259
-0.0963922962546,-0.232786282897,-0.291811108589,-2.00868368149,-0.547602176666,1.92583680153,-0.83673208952,0.0440255589783,-0.220330387354,-0.0283397249877,-0.491164058447,0.181794762611,-0.204879358411,0.210631132126,-0.14305844903,0.45143768444,-0.288904828583,0.472331478457,0.226653790381,0.926747122013,0.29067718983,-0.0726264562122
-0.100281514227,-0.233253225684,-0.300795674324,-2.00527977943,-0.551161110401,1.92963790894,-0.839291274548,0.0440255589783,-0.185186982155,-0.0230057798326,-0.456190347672,0.176325336099,-0.153458669782,0.201203122735,-0.121923796833,0.44883912486,-0.295766364893,0.474461381981,0.228595020674,0.927702061898,0.286260471129,-0.071889799184
-0.103488206863,-0.233757525682,-0.308940172195,-2.00241327286,-0.553774654865,1.93323171139,-0.841533124447,0.0440255589783,-0.163836196065,-0.0325799770653,-0.458942890167,0.148085296154,-0.13232383132,0.205180391669,-0.131367623806,0.4464975385,-0.301713401685,0.476281600739,0.230137225402,0.92858983629,0.282334983258,-0.0710262651112
-0.106165610254,-0.234459683299,-0.317055881023,-1.99990236759,-0.556135356426,1.93706345558,-0.843974947929,0.0440255589783,-0.138055190444,-0.0394716262817,-0.442771404982,0.129375725985,-0.114908568561,0.21757568419,-0.139494284987,0.444224810389,-0.307321546742,0.47801494869,0.231601790055,0.929374720961,0.278782740224,-0.0700244408759
-0.109744638205,-0.235957160592,-0.329152107239,-1.99645256996,-0.558506011963,1.94344460964,-0.847680270672,0.0440255589783,-0.109742589295,-0.0536143742502,-0.404234975576,0.103503040969,-0.0428450442851,0.219935894012,-0.11781103164,0.440807406672,-0.315525452921,0.480715836468,0.233616494581,0.930617595773,0.273463831141,-0.0677625017177
-0.111637540162,-0.236939400434,-0.336222499609,-1.99468898773,-0.558992087841,1.94712901115,-0.849554896355,0.0440255589783,-0.0962069034576,-0.0555408969522,-0.373012691736,0.0912649929523,-0.0102849379182,0.192616805434,-0.0961218699813,0.438954535888,-0.31966385326,0.482005178678,0.234339988403,0.9314039257,0.270499296683,-0.0663447601951
-0.113025702536,-0.238009676337,-0.341962307692,-1.99334931374,-0.559015572071,1.95012319088,-0.851106524467,0.0440255589783,-0.0802881270647,-0.0697701945901,-0.34579795599,0.0823489427567,-0.000456027133623,0.182518109679,-0.0936105102301,0.43734159001,-0.323088123746,0.483168432424,0.234871276369,0.932100215052,0.267973004827,-0.0649241172873
-0.114417262375,-0.239402294159,-0.348512172699,-1.99204778671,-0.55901402235,1.95373046398,-0.852955877781,0.0440255589783,-0.0569931343198,-0.0668705552816,-0.315151244402,0.0512264408171,-0.000575113110244,0.180666819215,-0.0902125388384,0.435512628522,-0.326876391073,0.48447336317,0.235491772649,0.93284189112,0.265242212143,-0.0632155025944
-0.116513833404,-0.242389678955,-0.360255599022,-1.99065625668,-0.557867765427,1.96155047417,-0.856968998909,0.0440255589783,-0.0425177849829,-0.0721726417542,-0.225054219365,0.0150756686926,0.0911865234375,0.159271687269,-0.080520004034,0.432478370681,-0.333113499383,0.486567433747,0.236363301361,0.934052327603,0.261026560736,-0.0595296005792
-0.117204375565,-0.243717730045,-0.364622414112,-1.99048292637,-0.555148124695,1.96455323696,-0.858438849449,0.0440255589783,-0.0201830938458,-0.0586820393801,-0.193254455924,0.00484825810418,0.16883379221,0.125653326511,-0.0608657673001,0.431336134886,-0.335178442796,0.487154593852,0.235820641618,0.934851996671,0.259139933474,-0.0573311771379
-0.117458738387,-0.244793593884,-0.367805480957,-1.99048066139,-0.551332473755,1.9667788744,-0.859358727932,0.0440262183547,-0.0108807384968,-0.0503726266325,-0.145480424166,-0.00105457834434,0.244840428233,0.104969114065,-0.0467365607619,0.430698565461,-0.336220453298,0.487410465157,0.234773518148,0.935650738999,0.257669199282,-0.0551876183004
-0.117583312094,-0.246051222086,-0.371471434832,-1.99051880836,-0.541768491268,1.96997368336,-0.861047387123,0.0440262183547,0.000299807783449,-0.0328544043005,-0.099992364645,0.000941603095271,0.399061203003,0.0939531773329,-0.0620374977589,0.430422717259,-0.336628673359,0.487395553812,0.231860779033,0.93712567635,0.255804860811,-0.0509893983397
-0.117559462786,-0.24656227231,-0.372888624668,-1.99049270153,-0.533586025238,1.97136902809,-0.862134814262,0.0440262183547,0.00186042534187,-0.0257115662098,-0.0572212897241,0.000650526897516,0.50650203228,0.0715599879622,-0.0651712566614,0.430624065833,-0.336131635634,0.487129504362,0.229174115278,0.938219267073,0.254796547573,-0.0479849018983
-0.117511406541,-0.246823430061,-0.373493611813,-1.99052000046,-0.525410652161,1.97246646881,-0.863005042076,0.0440262183547,0.00683740433306,-0.0139810582623,-0.0250580925494,-0.0026323699858,0.582407355309,0.0662725046277,-0.0554268024862,0.43107684524,-0.335247319076,0.486752890856,0.226462696272,0.939215845136,0.254067215463,-0.0451452450996
-0.117319948971,-0.246960416436,-0.373703181744,-1.99056720734,-0.514524400234,1.97373139858,-0.864059388638,0.0440262183547,0.0143847120926,-0.00189141684677,-0.00247603561729,0.000257171603153,0.638704240322,0.0643714815378,-0.0511756911874,0.431914986046,-0.333739918364,0.486183283806,0.222841223499,0.94043807568,0.253373615443,-0.041470780134
-0.116686977446,-0.246954143047,-0.373663336039,-1.99057340622,-0.501121759415,1.975009799,-0.864834368229,0.0440262183547,0.0439954213798,0.00380009389482,0.00440297042951,0.000509848818183,0.699419617653,0.0613285712898,-0.0245774369687,0.433159426085,-0.33157498174,0.48544215241,0.218345559292,0.941895200897,0.252566961885,-0.0369942795138
-0.114261969924,-0.246833965182,-0.373291939497,-1.99063253403,-0.477711111307,1.97682964802,-0.865471124649,0.0440262183547,0.106064602733,0.00898228026927,0.0166396256536,-0.00255271187052,0.793113172054,0.0499014034867,-0.0197082627565,0.435801707692,-0.327052053305,0.484111794412,0.210394900931,0.944255390507,0.251524920258,-0.0291711730471
-0.112368546426,-0.246716156602,-0.372915029526,-1.99071002007,-0.464798957109,1.97749269009,-0.865883052349,0.0440262183547,0.124994508922,0.00312315765768,0.0299586132169,-0.00305317668244,0.822176575661,0.0454030521214,-0.024060131982,0.437428928998,-0.324209869076,0.483337628905,0.205902195671,0.945428828283,0.251286141519,-0.0249778149192
-0.110008500516,-0.246607884765,-0.372080355883,-1.99084091187,-0.449614405632,1.97824287415,-0.866505086422,0.0440262183547,0.137118667364,0.00263202446513,0.0597816593945,-0.00742280203849,0.851503908634,0.0468513928354,-0.0363283641636,0.439489023541,-0.320608750633,0.482475934703,0.200631965181,0.946675156231,0.251298731605,-0.0200477007264
-0.107371173799,-0.246449589729,-0.370698183775,-1.99092912674,-0.434225946665,1.97892701626,-0.867196500301,0.0440262183547,0.153389036655,0.0124368146062,0.0884739086032,-0.00595658645034,0.850139915943,0.0276597291231,-0.040576312691,0.44181085704,-0.316589499702,0.481664845339,0.195318886665,0.947776333643,0.251682098788,-0.0150557210248
-0.103641562164,-0.246246367693,-0.368470340967,-1.99099898338,-0.415690630674,1.97937870026,-0.867875397205,0.0440262183547,0.183581486344,0.00881748646498,0.114244692028,-0.000900986022316,0.835285425186,0.00883609801531,-0.0265727043152,0.444865609536,-0.311206105607,0.480737886978,0.188859911294,0.94893022495,0.252547615893,-0.00911391667769
-0.099957883358,-0.24612814188,-0.366002738476,-1.99100971222,-0.400206893682,1.97951054573,-0.86819678545,0.0440262183547,0.20294970274,0.0088048055768,0.147787064314,-0.00331937335432,0.790694415569,0.00580870080739,-0.0168887674809,0.447699627946,-0.306140104789,0.480058862164,0.183457269365,0.949725899447,0.253667263983,-0.00413099367315
-0.0891880393028,-0.245807856321,-0.35599821806,-1.99100005627,-0.363498806953,1.97952389717,-0.868672907352,0.0440268740058,0.251413553953,0.00303978240117,0.250940442085,-0.000665833300445,0.717814981937,-0.000422205572249,-0.00395133951679,0.456022429144,-0.291099026725,0.478797601511,0.170865298509,0.950601794174,0.259037504826,0.0078006064799
-0.0847918018699,-0.245742827654,-0.351460367441,-1.9910248518,-0.351633578539,1.97950482368,-0.868690311909,0.0440268740058,0.264505058527,0.0046623297967,0.286873459816,-0.00026559989783,0.674911618233,-0.0033813402988,-0.000154904264491,0.459247402643,-0.285133690637,0.478504735838,0.166860996933,0.950531544975,0.261742942148,0.0117397460009
-0.0800997018814,-0.245627969503,-0.346224337816,-1.99101793766,-0.340474009514,1.97945439816,-0.868691265583,0.0440268740058,0.287071824074,0.0115913217887,0.330062091351,0.00179399363697,0.639842152596,-0.0105229075998,5.60799708182e-05,0.462649438142,-0.278765970304,0.478285848742,0.163149963701,0.950221959332,0.264992564375,0.0154679624613
-0.0741646140814,-0.24558056891,-0.339195638895,-1.9909940958,-0.328118652105,1.9792932272,-0.868692874908,0.0440268740058,0.310488134623,0.00108761980664,0.375932753086,-0.000310352974338,0.587310433388,-0.00779682816938,-0.000314579432597,0.466827607847,-0.270718422634,0.47816108045,0.159106785378,0.949562246276,0.269500030522,0.0196546312771
-0.0638667866588,-0.245484501123,-0.325971871614,-1.99100017548,-0.310707867146,1.97863912582,-0.868671655655,0.0440268740058,0.34227207303,0.0051006199792,0.455157190561,0.00066585210152,0.541845321655,-0.0311300586909,0.000167821795912,0.473760990188,-0.256695708646,0.478096612323,0.153494269249,0.947810905206,0.278285528982,0.025517862934
-0.0585253611207,-0.245400175452,-0.318929314613,-1.99097561836,-0.3027767241,1.9780279398,-0.868639230728,0.044028185308,0.371403187513,0.00478934915736,0.491399258375,0.000388235901482,0.513763725758,-0.0461481884122,2.69395331998e-05,0.477154288187,-0.249422386365,0.478078330056,0.150902870153,0.946744733083,0.283043852746,0.028087564342
-0.052387047559,-0.245310798287,-0.310745239258,-1.99096238613,-0.294764488935,1.97712934017,-0.86849296093,0.044028185308,0.387959450483,0.0102801686153,0.523750662804,0.00148752215318,0.485298007727,-0.0660549476743,0.012763065286,0.480854495247,-0.241124544614,0.478070215605,0.148266888637,0.945394101769,0.288633393535,0.0306216573438
-0.0441038347781,-0.245200186968,-0.299647718668,-1.99096465111,-0.285857111216,1.97547662258,-0.867976844311,0.044028185308,0.420630633831,0.00865591410547,0.579699397087,-0.00362467905506,0.410504698753,-0.0940825343132,0.036487787962,0.485470701184,-0.230093465449,0.478058592377,0.145280248015,0.943402696838,0.296270807914,0.0332957835386
-0.0217531230301,-0.24461774528,-0.269207507372,-1.99089753628,-0.268150061369,1.96876573563,-0.864272177219,0.044028185308,0.496406048536,0.0183534603566,0.687294483185,-0.00204585120082,0.333788007498,-0.169588550925,0.127964287996,0.496201619501,-0.200596035915,0.477803711974,0.138917398087,0.9375397219,0.316708576379,0.0376417813489
-0.0134078981355,-0.244285300374,-0.257916271687,-1.99095249176,-0.262964963913,1.96591234207,-0.861997902393,0.044028185308,0.5367795825,0.027932997793,0.718986570835,0.000604496512096,0.319127589464,-0.194178089499,0.157249316573,0.499643203808,-0.189701213323,0.477577999836,0.136912070961,0.935283745343,0.32404940338,0.0386184460643
-0.00359022361226,-0.24373960495,-0.244640320539,-1.99087667465,-0.257367730141,1.96201205254,-0.858589887619,0.044028185308,0.548145890236,0.0300398394465,0.754492342472,0.00506631424651,0.297069013119,-0.232761606574,0.225331932306,0.503317887985,-0.176895435539,0.477232805759,0.134602554795,0.932664241917,0.332368723546,0.0393776000357
0.0244763921946,-0.241622269154,-0.20602183044,-1.99074864388,-0.244374498725,1.94986021519,-0.844147384167,0.044028185308,0.614166915417,0.0625577569008,0.8506103158,0.00966955162585,0.235355943441,-0.288957864046,0.381911933422,0.511956009145,-0.140049579782,0.475780790973,0.128811848452,0.925252894751,0.35455808256,0.0400394084273
0.0350219793618,-0.240504935384,-0.19134324789,-1.99057292938,-0.24043366313,1.94477701187,-0.837189018726,0.044028185308,0.626680493355,0.0741230994463,0.88653242588,0.00621128221974,0.219772160053,-0.301744282246,0.442226499319,0.514494530959,-0.126171781094,0.475057499322,0.126885551751,0.922516862157,0.362333472401,0.0397133510676
0.0465265288949,-0.239100769162,-0.175185799599,-1.99049961567,-0.23649674654,1.93938338757,-0.82871735096,0.044028185308,0.6403901577,0.0900199636817,0.90677601099,0.000732654996682,0.219731494784,-0.30063983798,0.500135302544,0.516889543961,-0.110963135429,0.474114924968,0.124928432481,0.91955006181,0.370519620071,0.0391890470376
0.0593793839216,-0.237232849002,-0.156945094466,-1.99047398567,-0.232325613499,1.93338656425,-0.817851185799,0.044028185308,0.654463231564,0.102866508067,0.930634140968,0.00327467080206,0.195528790355,-0.301282644272,0.581736266613,0.519095893839,-0.0938630959822,0.472855177356,0.122806936852,0.916354211778,0.379128735553,0.0384033380982
0.0786411687732,-0.233977109194,-0.129403755069,-1.99043095112,-0.226998344064,1.9243824482,-0.799512267113,0.044028185308,0.666109085083,0.120944350958,0.942610740662,0.00225380761549,0.153717949986,-0.308538794518,0.666453778744,0.521433387727,-0.0682363968711,0.47068768323,0.120015876294,0.911680728806,0.391257125832,0.0367736227082
0.0894186943769,-0.231851100922,-0.113980419934,-1.99040019512,-0.224727749825,1.91960704327,-0.78839558363,0.044028185308,0.67587864399,0.135954752564,0.981386125088,0.00187116279267,0.138820171356,-0.286337584257,0.715374410152,0.522296162664,-0.0539989802659,0.469334965442,0.118806842573,0.909077346131,0.397731774272,0.0356755984197
0.100878745317,-0.22941634059,-0.0972799807787,-1.99041247368,-0.222213745117,1.91489851475,-0.775655210018,0.0440288446844,0.679999768734,0.146224424243,0.984665870667,-0.00166130298749,0.151980891824,-0.268637448549,0.773925960064,0.522890631998,-0.0386750819603,0.467796908216,0.117563231566,0.906367991916,0.404324609216,0.0346057780468
0.114246971905,-0.226255759597,-0.0776680335402,-1.99039506912,-0.219483703375,1.90965330601,-0.759643495083,0.0440288446844,0.669389367104,0.169214069843,0.992825865746,0.00184669543523,0.130046248436,-0.251577168703,0.823950469494,0.523125527151,-0.0207736203114,0.465846726144,0.116249980107,0.903319376886,0.411570980218,0.0333072572867
0.146021857858,-0.217629060149,-0.0303190089762,-1.99042224884,-0.21424497664,1.89927017689,-0.716700792313,0.0440288446844,0.651683866978,0.202713549137,0.982275426388,0.00500366138294,0.0823349803686,-0.171760514379,0.955543398857,0.521813587105,0.0218862100733,0.460695943662,0.114052235682,0.896474827776,0.427075395031,0.0305217518318
0.155619800091,-0.214665979147,-0.0156967416406,-1.99043571949,-0.213103458285,1.89678573608,-0.702101826668,0.0440288446844,0.635100662708,0.198508277535,0.966448664665,-0.00146704504732,0.0794448778033,-0.159813478589,0.996327638626,0.520982197832,0.0339840780263,0.459102482845,0.113709364977,0.89467600989,0.430968312654,0.0298551638228
0.168054044247,-0.210749134421,0.00343218096532,-1.99049568176,-0.211483538151,1.89381122589,-0.681969344616,0.0440288446844,0.62080347538,0.201985791326,0.965136945248,-0.00122743414249,0.0902664214373,-0.143502831459,1.01542329788,0.519308109012,0.0516964964428,0.456700890811,0.113188707521,0.892260601447,0.43613818346,0.0290313657488
0.185841858387,-0.204557284713,0.0314014479518,-1.9905050993,-0.208978280425,1.88974380493,-0.650528132915,0.0440288446844,0.573944985867,0.203326314688,0.907447636127,-0.00276424316689,0.0670370012522,-0.114841587842,1.08480381966,0.516133738442,0.0760409716537,0.453100938914,0.112411302715,0.88938494848,0.442243277121,0.027910498992
0.205478668213,-0.19790636003,0.0633756294847,-1.99068462849,-0.207845315337,1.88591527939,-0.610628128052,0.0440301559865,0.524333000183,0.177520319819,0.872804582119,-0.00832028593868,0.0110309850425,-0.105816833675,1.12112402916,0.511355659665,0.102993785226,0.449172343469,0.11247788016,0.886860083952,0.44731582197,0.0271380370709
0.21337659657,-0.195061728358,0.0766200497746,-1.99080991745,-0.207498788834,1.88432562351,-0.592632889748,0.0440301559865,0.479093402624,0.167281225324,0.796362757683,-0.0127324387431,0.0317715220153,-0.0955446511507,1.12578809261,0.508998356817,0.113919056372,0.447447315331,0.112553133709,0.886172080545,0.44867778913,0.0268156105638
0.223034963012,-0.191756412387,0.0934102609754,-1.99114894867,-0.206659898162,1.88265132904,-0.568665862083,0.0440301559865,0.432174414396,0.149460092187,0.781358122826,-0.0165386386216,0.044146027416,-0.0676902085543,1.1545239687,0.505690615208,0.127576567531,0.44532341487,0.112509510464,0.885661319331,0.449702225259,0.0267122774402
0.233965292573,-0.188206478953,0.1131721735,-1.99177742004,-0.205374196172,1.88079595566,-0.537811040878,0.0440301559865,0.387072622776,0.115413159132,0.687701523304,-0.0285172332078,0.0429532378912,-0.0645842701197,1.13957321644,0.501476171699,0.142773443283,0.442940047821,0.112343368331,0.885760312905,0.449541566091,0.0268331083412
0.240784063935,-0.186303600669,0.125595569611,-1.99241471291,-0.204644620419,1.87963700294,-0.516421556473,0.0440301559865,0.341701805592,0.0902565792203,0.635954916477,-0.0342646576464,0.0385474413633,-0.0693171694875,1.10876381397,0.498239451805,0.153069508042,0.441340189334,0.11227697199,0.88629780547,0.448483294362,0.0270705731344
0.245631664991,-0.185184195638,0.134736984968,-1.99303543568,-0.204071596265,1.87872970104,-0.499696910381,0.0440301559865,0.302071243525,0.0707072168589,0.592833936214,-0.039986230433,0.0374857112765,-0.0645501688123,1.1197937727,0.49549403325,0.160977874175,0.440150980075,0.112226636729,0.887050682927,0.446987514325,0.0273574420812
0.251585155725,-0.184062436223,0.146207690239,-1.99391055107,-0.203195169568,1.8774086237,-0.476685881615,0.0440301559865,0.254684597254,0.042323667556,0.496416300535,-0.0439402014017,0.0384759940207,-0.0642538145185,1.07466292381,0.492705453699,0.168391111081,0.439072761634,0.112120111447,0.888179899216,0.444743932185,0.027719698696
0.258733063936,-0.183673337102,0.159113496542,-1.99519944191,-0.202528283,1.87546730042,-0.445369511843,0.0440308116376,0.204776570201,-0.00559927895665,0.364929825068,-0.0388209596276,0.0118765681982,-0.0761108100414,1.00500094891,0.488306272836,0.178770794029,0.437830062728,0.11215247478,0.890891886087,0.43922061979,0.0286132230033
0.261844813824,-0.183788180351,0.164362624288,-1.99573898315,-0.202357798815,1.87427186966,-0.429766178131,0.0440308116376,0.18522708118,-0.0108493231237,0.292759329081,-0.0275451820344,0.0134807350114,-0.0702956020832,0.957946658134,0.486564146811,0.182459526892,0.437481242546,0.11220224458,0.892406097921,0.436095604961,0.029028188242
0.264640957117,-0.184096097946,0.168657675385,-1.99613428116,-0.202148854733,1.87313354015,-0.413834601641,0.0440308116376,0.139056265354,-0.0285351034254,0.216029390693,-0.0235853120685,0.00856066029519,-0.0629041790962,0.906381368637,0.4849199573,0.185796522493,0.437285869322,0.112190147556,0.894357683347,0.43204131893,0.0296311228413
0.266725838184,-0.18480540812,0.171938538551,-1.99638545513,-0.20194208622,1.87191462517,-0.398190647364,0.0440308116376,0.085489988327,-0.048046849668,0.153869450092,-0.00626232754439,0.0142271481454,-0.0694941654801,0.838073730469,0.483554125821,0.188269395072,0.437369689527,0.112157895064,0.896608219388,0.427307936933,0.0303683093087
0.267564207315,-0.187325820327,0.174969777465,-1.99645197392,-0.201555907726,1.87015664577,-0.361919343472,0.0440308116376,-0.0337139070034,-0.067054964602,-0.0221999883652,0.00146280531771,1.30186381284e-05,-0.0177819691598,0.662767469883,0.482202219696,0.18994233445,0.438419950129,0.111873930942,0.903491018067,0.412439491499,0.0328917828267
0.266400247812,-0.188602536917,0.174121558666,-1.99639618397,-0.201486721635,1.86981773376,-0.350333631039,0.0440308116376,-0.0862516090274,-0.0688043683767,-0.0742365941405,0.00155174674001,0.00339287589304,-0.0154306897894,0.624334037304,0.482399197919,0.188903532641,0.439078383999,0.11171371576,0.906297667473,0.406194136756,0.0339250141924
0.264334708452,-0.189877733588,0.172379657626,-1.99637341499,-0.201418638229,1.86960685253,-0.340137094259,0.0440308116376,-0.14080388844,-0.0790854394436,-0.125268742442,-0.000546661613043,0.000493222556543,-0.00422829343006,0.575303196907,0.482948178616,0.186999557612,0.439741128102,0.111513482394,0.909144190639,0.399759661963,0.0348395783237
0.259470909834,-0.192182824016,0.167380079627,-1.99637079239,-0.201403796673,1.86926996708,-0.326085448265,0.0440308116376,-0.203547552228,-0.0838379338384,-0.236608102918,0.00252516497858,5.73081379116e-05,-0.00894217099994,0.431806951761,0.484477730193,0.182072782151,0.440946454393,0.111143542334,0.913903040994,0.388746944138,0.0361131245301
0.254981458187,-0.193781688809,0.162048876286,-1.99628937244,-0.201399639249,1.86910152435,-0.318369656801,0.0440308116376,-0.252097606659,-0.0726270154119,-0.30271756649,0.00670572835952,7.21401374904e-05,-0.00270357402042,0.357647627592,0.486069655941,0.177193257828,0.441844943795,0.110792026107,0.917317436858,0.380655249329,0.0368161354207
0.25069385767,-0.195095464587,0.156889036298,-1.99621617794,-0.201396241784,1.8690674305,-0.31302562356,0.0440308116376,-0.285605967045,-0.0869247242808,-0.346724063158,0.0012457810808,-0.000142933771713,-1.54390891112e-05,0.311555534601,0.487600566968,0.172503895264,0.442601799908,0.110463654113,0.920143144385,0.37381948363,0.0373278488893
0.245085626841,-0.196680098772,0.149920612574,-1.99616289139,-0.201395198703,1.86904132366,-0.30798754096,0.0440308116376,-0.333884030581,-0.0877705290914,-0.41734957695,0.00465026544407,-5.93007316638e-05,0.00041756167775,0.256115347147,0.489463061919,0.166614626072,0.443452500943,0.110065713822,0.923260663588,0.366125512511,0.0377808745736
0.237640544772,-0.198173120618,0.140654936433,-1.99591434002,-0.201390445232,1.86901652813,-0.304099649191,0.0440308116376,-0.38594982028,-0.0697927847505,-0.471681982279,0.0142497383058,-0.000194851541892,-0.0031821699813,0.132264018059,0.49219135335,0.157910069292,0.444465090148,0.109478268025,0.927229569145,0.356104314236,0.0380729825524
0.226544424891,-0.200000032783,0.126706644893,-1.99536502361,-0.201389819384,1.86887979507,-0.302698016167,0.0440334416926,-0.441370874643,-0.0644028261304,-0.558226883411,0.0278829298913,-0.00100568647031,-0.00325375772081,0.00504901120439,0.495901431635,0.145358680047,0.4457600192,0.108682450287,0.931959449728,0.343787291083,0.0380789605399
0.218246549368,-0.200816065073,0.116027221084,-1.99477267265,-0.201389074326,1.86887037754,-0.302717328072,0.0440334416926,-0.479416191578,-0.0341692492366,-0.623665809631,0.0383777394891,-0.000100573604868,0.000380137586035,-0.00125307845883,0.498773376206,0.135263592797,0.446571065325,0.108005861672,0.935443839475,0.334433036056,0.0378695275051
0.210780471563,-0.201219916344,0.106416739523,-1.99414920807,-0.201390221715,1.86886465549,-0.302793651819,0.0440334416926,-0.497701078653,-0.0288223475218,-0.645487308502,0.0444427989423,-0.000208315075724,0.000525406037923,-0.00607412355021,0.500962355566,0.127207948535,0.447093521285,0.107449144321,0.938138672204,0.327012041077,0.0375983746675
0.199586957693,-0.201711803675,0.091900229454,-1.99314379692,-0.201390981674,1.86887121201,-0.303524941206,0.0440334416926,-0.557429254055,-0.0091511067003,-0.725666880608,0.052362523973,0.000732804590371,0.000867637922056,-0.0773085579276,0.504550977217,0.1128972857,0.447958422217,0.106459548087,0.942638450681,0.314206006105,0.0370634770955
0.180394411087,-0.201657921076,0.0665868967772,-1.99142563343,-0.201386928558,1.86888957024,-0.307516515255,0.0440334416926,-0.606629669666,0.00405024271458,-0.789292514324,0.0430594272912,-0.000274381949566,-0.000697031093296,-0.173686251044,0.509234157008,0.0914109895623,0.44875106984,0.10495530672,0.9486437775,0.296281259143,0.0357320888263
