imanlab/tactile_prediction_flat_dataset/test/data_sample_2021-11-25-13-39-20/robot_state.csv
position_panda_joint1,position_panda_joint2,position_panda_joint3,position_panda_joint4,position_panda_joint5,position_panda_joint6,position_panda_joint7,position_panda_finger,velocity_panda_joint1,velocity_panda_joint2,velocity_panda_joint3,velocity_panda_joint4,velocity_panda_joint5,velocity_panda_joint6,velocity_panda_joint7,ee_state_position_x,ee_state_position_y,ee_state_position_z,ee_state_orientation_x,ee_state_orientation_y,ee_state_orientation_z,ee_state_orientation_w
-0.020346077159,0.0230871997774,0.00699499482289,-2.50078034401,0.0719007253647,2.5265250206,-0.816047370434,0.0565311200917,0.000495932355989,-8.8996021077e-05,-0.00010791693785,-7.48123711674e-05,-2.86190497718e-05,0.000306757690851,6.54393734294e-05,0.46814017654,-0.00230889250979,0.163074782031,-0.0185568125702,0.931395649214,0.363407878036,0.0096178583526
-0.0203431975096,0.0230833757669,0.00699696969241,-2.50078225136,0.0719000399113,2.52653598785,-0.816065728664,0.0565311200917,0.000301197520457,-0.00049546698574,7.4490904808e-05,5.83568544243e-06,0.000186025659787,5.9545665863e-05,-0.000428383180406,0.468142303235,-0.00230686344127,0.163076816842,-0.0185538596939,0.931391362333,0.363418859797,0.00962374615148
-0.0203394405544,0.02307398431,0.00699752336368,-2.50077819824,0.0718991309404,2.5265712738,-0.816126644611,0.0565304644406,-0.000276219536318,-0.000562690664083,8.15872990643e-05,4.47421871286e-06,9.3265043688e-05,2.10805337701e-05,-0.0033678743057,0.468153560063,-0.00230563692112,0.163085858313,-0.018543217811,0.931379439299,0.363449360271,0.00964631164375
-0.0203397218138,0.0230764597654,0.00699733849615,-2.50077819824,0.0718980878592,2.52657914162,-0.816136598587,0.0565304644406,0.000448503647931,0.00069930171594,5.24177230545e-05,-0.000218714892981,3.82926060638e-07,-0.000138566945679,-0.000180663279025,0.468155183625,-0.00230629307577,0.163086484955,-0.0185415750829,0.931378012225,0.363453023084,0.0096492503921
-0.0203396938741,0.0230851136148,0.00699715688825,-2.50078201294,0.0718988478184,2.52658700943,-0.816149711609,0.0565304644406,0.00284947594628,-9.03409672901e-05,-0.000155343048391,-0.000177942463779,0.000104138183815,-2.56875155173e-05,-0.000273806392215,0.468153251895,-0.0023061861399,0.16308059322,-0.0185424896863,0.931375443354,0.363459627205,0.00964669218722
-0.0203418899328,0.0230854786932,0.00699684675783,-2.5007815361,0.0718978866935,2.52659344673,-0.816167056561,0.0565304644406,-0.00218626018614,-0.000351966329617,-0.000242363763391,5.39093198313e-05,-8.51849836181e-06,1.91189210454e-05,-7.1930604463e-05,0.468154814604,-0.00230753965563,0.163081168599,-0.0185407341421,0.93137263121,0.363466842473,0.00964972110059
-0.0203424803913,0.0230757854879,0.00699713872746,-2.50078082085,0.0718984901905,2.52660608292,-0.816197574139,0.0565304644406,-0.000681206525769,0.000544879178051,-1.34150141093e-05,6.53005117783e-05,4.48546124971e-05,6.09770977462e-05,-0.0013153658947,0.468159589296,-0.00230824080908,0.163087043162,-0.0185360536971,0.931367117756,0.36348091825,0.0096606639873
-0.0203404687345,0.023077474907,0.00699772452936,-2.5007789135,0.0718986541033,2.52661347389,-0.816213965416,0.0565304644406,0.000393199647078,-0.000536921084858,0.000926565146074,-0.000845450267661,-1.27658413476e-05,7.52249034122e-05,-0.00019364374748,0.4681614982,-0.00230697826178,0.163087462091,-0.0185344574701,0.931363733536,0.363489580414,0.00966407547554
-0.0203404929489,0.0230777598917,0.00699734361842,-2.50077915192,0.0718992203474,2.52661967278,-0.816227316856,0.0565304644406,-0.00328053277917,0.000264703063294,8.62850647536e-05,0.000121384902741,0.00013109514839,4.37078051618e-05,8.70540025062e-05,0.468163007349,-0.00230713035357,0.163088001646,-0.0185332536021,0.931361568959,0.363495112176,0.00966692745411
-0.0203415509313,0.0230871662498,0.00699522998184,-2.50077819824,0.0718995705247,2.52662754059,-0.816240668297,0.0565304644406,0.000258508458501,-0.000343594700098,0.000310363713652,-7.55477594794e-05,-6.14626696915e-05,-6.75053379382e-05,-8.55802427395e-05,0.4681635802,-0.00230873073185,0.163084654102,-0.0185331729592,0.931359835424,0.363499562426,0.00966676053942
-0.0203384477645,0.0230864603072,0.00699721323326,-2.5007827282,0.0718998014927,2.52663326263,-0.816258966923,0.0565304644406,8.84996916284e-05,0.000599971797783,-6.25666507403e-06,8.06448297226e-05,-0.000104326260043,7.33590713935e-05,-0.00258278194815,0.468162768545,-0.00230641343828,0.163083776396,-0.0185326786943,0.931355655385,0.363510271793,0.00966772921842
-0.0203367769718,0.0230723172426,0.00699610030279,-2.50077915192,0.0718992948532,2.52664327621,-0.816279411316,0.0565304644406,0.00123480695765,0.000341830338584,0.00046597167966,0.000527956988662,3.34909673256e-05,-6.39324280201e-05,-0.001390939462,0.468169084102,-0.00230645065723,0.16309263268,-0.0185269096261,0.931351717857,0.363520312682,0.00968055867128
-0.0203395858407,0.0230733677745,0.00699554849416,-2.50077962875,0.0718995034695,2.52664804459,-0.816290974617,0.0565304644406,-0.000305139546981,0.000265094073256,-3.34694013873e-05,-0.000259118300164,4.8389123549e-05,-5.41403460375e-05,-0.00043664718396,0.468169707581,-0.00230810067077,0.163092381739,-0.0185261528903,0.931350280311,0.363523991491,0.0096821650445
-0.0203383807093,0.0230857189745,0.00699729751796,-2.5007815361,0.0718972533941,2.52665662766,-0.816314578056,0.0565304644406,-0.00034758890979,0.000639809761196,-3.17161675412e-06,-0.00370476394892,6.22161041974e-06,4.98924164276e-05,-0.000417166767875,0.468168514077,-0.0023069108296,0.16308686292,-0.0185263783102,0.931345362282,0.363536649896,0.00967953153587
-0.0203387849033,0.0230830311775,0.00699572451413,-2.50078058243,0.0718983337283,2.52666044235,-0.816328704357,0.0565304644406,0.000127671853988,-4.12389417761e-05,0.000253525853623,0.000338207610184,-4.09370295529e-06,0.000152296226588,-1.32826371555e-05,0.468170305324,-0.00230790729921,0.163088588912,-0.0185250313833,0.931343169678,0.363542241722,0.00968306123828
-0.0203398577869,0.0230771880597,0.00699681183323,-2.50078201294,0.0718974024057,2.52666258812,-0.816337704659,0.0565304644406,0.000269742915407,7.11156826583e-05,-1.27600678752e-05,0.000169470411493,-4.98493536725e-05,-6.21744220553e-06,-0.00179509364534,0.468171070044,-0.00230799950267,0.163090970369,-0.0185234439805,0.931341384779,0.363546815729,0.00968604564919
-0.0203355886042,0.0230787824839,0.00699761370197,-2.50077915192,0.0718976557255,2.52666783333,-0.816342234612,0.0565304644406,2.90151615445e-06,-0.000607370573562,-2.22373437282e-05,-1.82430048881e-05,5.84383451496e-05,0.000115357033792,-0.000811657111626,0.468173339938,-0.00230572359542,0.163091770265,-0.018522162454,0.931339687593,0.36355114935,0.00968903006433
-0.0203355252743,0.0230892617255,0.0069984360598,-2.50078368187,0.071896545589,2.52667427063,-0.81636095047,0.0565304644406,-0.000100301032944,-0.000631650967989,3.16022633342e-05,-0.000103669241071,7.14303969289e-05,-1.22146493595e-05,-0.000356758304406,0.468170769093,-0.00230542536439,0.163085716433,-0.0185232638093,0.931336057922,0.363560497932,0.00968503692728
-0.0203385856003,0.023083453998,0.00699522579089,-2.50078129768,0.0718992725015,2.52667737007,-0.816367387772,0.0565304644406,-0.000309709896101,-0.000292916229228,-0.000469185353722,0.000988028710708,5.64387155464e-05,2.44972416112e-05,-0.000341922248481,0.468173581074,-0.0023083210842,0.163089616559,-0.0185216644039,0.93133638994,0.363559579481,0.00969064358149
-0.0203421972692,0.0230768918991,0.00699335848913,-2.50078105927,0.0718978941441,2.52668166161,-0.816380083561,0.0565304644406,-0.000326734560076,0.000429101928603,-0.000195509041077,-0.00012710984447,5.72796234337e-05,-0.000184013799299,-0.00126025127247,0.468175911599,-0.0023107315062,0.163093425674,-0.018518863174,0.931334805445,0.36356363829,0.00969600289485
-0.0203283876181,0.0230827443302,0.00700245425105,-2.50078177452,0.0718963369727,2.52669000626,-0.816398322582,0.0565304644406,-6.96821589372e-05,-0.000327361718519,-9.78669413598e-05,2.56756939052e-05,4.84672964376e-05,-0.00010231557826,-0.00127998169046,0.468176255179,-0.00230053907723,0.163090878274,-0.0185181393952,0.93132722043,0.363583097847,0.00969626961583
-0.0203320086002,0.0230851452798,0.0069992756471,-2.50077986717,0.0718982890248,2.52669024467,-0.816404402256,0.0565304644406,-0.000574431964196,0.000150021834997,0.000275514204986,-4.8583780881e-05,1.76904941327e-05,-4.41310803581e-05,0.000113995156426,0.468176850327,-0.00230334995864,0.163090596342,-0.0185186071963,0.93132758491,0.363582131985,0.00969658490301
-0.0203361455351,0.0230819359422,0.00699824141338,-2.50078248978,0.0718974322081,2.52669239044,-0.816414535046,0.0565304644406,-0.000157783535542,0.000325452449033,0.000154258697876,-0.000633924268186,9.81737975962e-05,2.69068059424e-05,0.000315348850563,0.468176542604,-0.00230614449376,0.163091198301,-0.0185177150637,0.931326614184,0.363584632681,0.00969775763759
-0.0203397981822,0.0230778977275,0.00699656782672,-2.50078010559,0.0718974247575,2.52669525146,-0.81642383337,0.0565304644406,0.000244344701059,-0.000223975337576,0.000411374930991,6.14401506027e-05,-1.50741925609e-05,-5.27663287357e-05,-8.0230878666e-05,0.468178993561,-0.0023087299339,0.163094243127,-0.0185157892837,0.931325871084,0.363586517147,0.00970214565176
-0.0203338656574,0.0230860095471,0.00699761882424,-2.50078129768,0.071897238493,2.52670145035,-0.816453874111,0.0565304644406,-0.000400678341975,0.000281793880276,8.26891628094e-05,1.69777717929e-06,-3.77872020181e-05,9.03004402062e-05,-0.00020849579596,0.468178405746,-0.00230555111268,0.163090541621,-0.0185160829965,0.93131917803,0.363603680766,0.00970084132256
-0.0203343648463,0.0230839066207,0.00699814874679,-2.50078082085,0.0718971788883,2.52670407295,-0.816463768482,0.0565304644406,0.000465909921331,-0.000138276722282,7.74720756453e-05,0.00072121375706,-6.79773293086e-05,0.000330800918164,-0.000165893608937,0.468179565384,-0.00230559925198,0.163091937957,-0.0185149698111,0.931317361952,0.363608323332,0.00970330394782
-0.0203358437866,0.0230856835842,0.00699675036594,-2.50078105927,0.0718971714377,2.52670526505,-0.816480815411,0.0565304644406,-0.000240792040131,-0.000469951075502,0.000169135571923,-0.000101637764601,-6.50815418339e-05,4.25677990279e-06,0.000314344943035,0.468179380706,-0.00230699238872,0.16309129021,-0.0185149869769,0.93131470723,0.363615122861,0.0097032708998
-0.0203352980316,0.0230818428099,0.00699593639001,-2.50078225136,0.0718963518739,2.52670621872,-0.816508173943,0.0565304644406,-0.000286943133688,0.000135662470711,0.000127092760522,-9.83476638794e-05,-1.45569347296e-05,-2.11651658901e-05,8.67388807819e-05,0.468179680945,-0.0023071646878,0.163092549956,-0.01851391015,0.931309747234,0.363627837895,0.00970489725168
-0.0203366018832,0.0230757966638,0.00699818180874,-2.50077724457,0.0718960091472,2.52671194077,-0.816543638706,0.0565304644406,0.000243743241299,0.000178778704139,-0.000141756885569,0.00146048946772,9.5514646091e-05,-0.00138620147482,-0.00312620191835,0.468184379213,-0.00230689858517,0.16309777965,-0.0185103488183,0.93130304641,0.363644967462,0.00971288110588
-0.0203352887183,0.0230807773769,0.00699721742421,-2.50078344345,0.0718973651528,2.52671408653,-0.816562771797,0.0565304644406,-0.000419118470745,0.00321060884744,0.000445920915809,-0.000143726661918,-8.4982611952e-06,-0.000206921686186,-0.000879716593772,0.468181007533,-0.00230664944431,0.163093294694,-0.0185122628492,0.931299757689,0.363653395902,0.00970900543013
-0.0203334875405,0.0230817869306,0.00699811521918,-2.50078320503,0.0718957856297,2.52671480179,-0.816577076912,0.0565304644406,-3.68034452549e-05,0.000771290506236,-0.000151162777911,0.000222802336793,4.61471390736e-05,3.44457475876e-05,0.00022401555907,0.468181107461,-0.00230548009254,0.163092972007,-0.0185117931279,0.93129644614,0.363661903239,0.00970889998971
-0.0203358307481,0.0230799932033,0.00699672335759,-2.50077915192,0.0718976855278,2.52671670914,-0.816607952118,0.0565304644406,-7.58875830797e-05,0.000201359798666,-0.000148965627886,0.000796513515525,9.94476977212e-06,0.000175971872522,-9.37349032029e-05,0.46818378792,-0.00230720062849,0.163095517878,-0.0185105974423,0.93129176184,0.363673850296,0.00971300196846
-0.0203369855881,0.0230778921396,0.00699718482792,-2.5007815361,0.0718959718943,2.52671790123,-0.81664276123,0.0565304644406,-9.88077517832e-05,0.000312854041113,0.000472878833534,-8.910503675e-05,2.85979740511e-06,2.37279509747e-05,-0.00022455008002,0.468183242819,-0.00230763135838,0.163095700692,-0.0185097672573,0.931285318831,0.363690377003,0.00971353725819
-0.0203342400491,0.0230800081044,0.00700035691261,-2.50078082085,0.0718972086906,2.52672076225,-0.816701292992,0.0565304644406,-0.000168324026163,-0.000294378842227,0.00015245762188,0.00034029406379,0.0044431425631,3.64522638847e-05,-0.00478073395789,0.468183871984,-0.00230483459019,0.163095236703,-0.0185095278842,0.931273790986,0.363719872169,0.00971482751885
-0.0203377567232,0.0230814516544,0.0069979345426,-2.50078248978,0.071897238493,2.52672195435,-0.81674349308,0.0565304644406,-0.000534329446964,-6.3085972215e-06,0.000460528710391,0.000360634468962,6.98871008353e-05,-4.98257177242e-05,-0.00353138940409,0.46818306535,-0.00230763002006,0.163094034304,-0.0185096099438,0.931267219732,0.363736705056,0.00971436415887
-0.0203355457634,0.0230804029852,0.00699714943767,-2.50077962875,0.0718959718943,2.52672481537,-0.81677788496,0.0565304644406,0.00117806927301,0.000195311367861,-7.93847211753e-05,0.000119504416944,-5.61561646464e-05,8.52066586958e-05,-0.000398146221414,0.468185249904,-0.00230711199603,0.163095857401,-0.0185077530994,0.931260516073,0.363753875364,0.00971761905525
-0.0203306693584,0.0230826195329,0.00699951965362,-2.50078034401,0.071896366775,2.52672672272,-0.816802620888,0.0565304644406,-0.000244644936174,-1.26497625388e-05,-0.00023824062373,-0.000980170210823,-8.16548708826e-05,0.000126849889057,-0.00375757063739,0.4681845487,-0.00230382452827,0.16309426718,-0.0185080966764,0.931254588169,0.363769055021,0.00971682382902
-0.0203337036073,0.0230840444565,0.00699930870906,-2.5007827282,0.071896545589,2.5267264843,-0.816819131374,0.0565304644406,7.70242841099e-05,0.000795039522927,-0.000218937362661,-0.00266727502458,0.000159692033776,8.6832071247e-05,6.56509973851e-06,0.468183507097,-0.00230519890306,0.163093128864,-0.018508667719,0.931252405197,0.363774645018,0.00971567599633
-0.0203358549625,0.0230781119317,0.00699787121266,-2.5007815361,0.0718975290656,2.52672982216,-0.816841423512,0.0565304644406,-0.000148398321471,0.000206234719371,-0.000179487789865,-8.8786429842e-05,-6.01914252911e-05,-0.000158605369506,-0.000564139569178,0.468185814867,-0.00230692433001,0.163096653843,-0.0185067099905,0.931249122126,0.363783011598,0.00972082206861
-0.0203356314451,0.0230742413551,0.00699790660292,-2.5007827282,0.0718962326646,2.526730299,-0.816874086857,0.0546891689301,-0.000319460057653,0.00138755340595,0.000213412786252,0.000548107840586,0.00015040357539,1.81815426004e-06,0.000201343165827,0.468185995022,-0.00230688818401,0.163098053859,-0.0185055913891,0.931242937637,0.363798857048,0.00972242176048
-0.0203340686858,0.0230781622231,0.00699732173234,-2.50078010559,0.0718967840075,2.52673196793,-0.816909730434,0.0546891689301,0.000217064152821,0.000367669970728,6.7030387072e-06,-0.000215771011426,0.00201367400587,-4.89674239361e-05,-0.00132777821273,0.46818696623,-0.00230643861044,0.163097359261,-0.0185054605358,0.931236366614,0.363815669171,0.00972296126375
-0.0203330330551,0.0230831839144,0.00699685560539,-2.50077986717,0.0718962028623,2.52673268318,-0.816952586174,0.0546891689301,9.55442592385e-05,0.0014248349471,-0.000157466434757,-0.000125607009977,0.000150307649164,2.86212762148e-05,-0.00580511568114,0.468186383511,-0.00230620337399,0.163095160387,-0.0185058586807,0.931228408818,0.363836059142,0.00972139691692
-0.0203342717141,0.023084230721,0.00699759973213,-2.50078177452,0.0718955546618,2.52673625946,-0.817033290863,0.0546891689301,0.000743284414057,-5.92359174334e-05,-0.000601871288382,5.45588118257e-05,8.76099147717e-05,0.000166148485732,-0.00252555427141,0.468186169488,-0.00230670140273,0.163094325213,-0.0185049861131,0.931213578901,0.363874026371,0.00972258076016
-0.0203348677605,0.0230763498694,0.00699701812118,-2.5007827282,0.0718971639872,2.52673816681,-0.81705313921,0.0546891689301,0.000253508362221,-0.000184406511835,3.23482854583e-05,2.10607704503e-05,-5.94273042225e-05,0.000120326018077,-0.00199590926059,0.468187355502,-0.00230704497232,0.163097763353,-0.0185036691304,0.931210557092,0.363881714834,0.00972676120028
-0.0203358922154,0.0230736099184,0.00699742697179,-2.50077795982,0.0718962028623,2.52674078941,-0.817078173161,0.0546891689301,-0.00023118678655,-6.83819016558e-05,9.74908180069e-05,-0.0003151173878,-0.000102654987131,-0.000106463587144,-0.00037164016976,0.468190694832,-0.00230747525937,0.163101079846,-0.0185013094147,0.931205950572,0.363893495231,0.00973154571163
-0.0203330423683,0.0230909530073,0.00699754524976,-2.50078320503,0.071896366775,2.52674460411,-0.817120075226,0.0546891689301,0.000365334184607,0.000604565779213,-0.000128337924252,0.000419330986915,-5.12068145326e-05,5.4675154388e-05,-0.000318765989505,0.46818604996,-0.00230605627002,0.163091313228,-0.0185046505555,0.93119792858,0.363914075865,0.00972320873757
-0.0203304421157,0.0230870228261,0.00699990056455,-2.50078296661,0.0718957781792,2.5267457962,-0.817132771015,0.0546891689301,-3.17640515277e-05,-0.00100023322739,0.00382077344693,6.20370246907e-06,7.21189499018e-05,-9.44702060224e-06,-0.00302197714336,0.468187102165,-0.00230379741029,0.163093347604,-0.0185034291341,0.931194616814,0.36392254595,0.00972568559627
-0.0203334614635,0.0230784602463,0.00699829915538,-2.50078201294,0.0718971639872,2.52674674988,-0.817149400711,0.0546891689301,-3.73186667275e-05,-0.00081301125465,0.000189099329873,-0.0004325453192,-0.000149476400111,-4.059832645e-05,-0.000402398174629,0.468189064254,-0.00230593933459,0.163097372463,-0.018501838313,0.931192631246,0.363927580332,0.00973043944401
-0.0203378628939,0.0230744220316,0.00699729472399,-2.5007789135,0.0718966424465,2.52674913406,-0.817167699337,0.0546891689301,-5.54005091544e-05,-0.000524732575286,0.000564160756767,-0.000414908980019,-2.06930781133e-05,-0.000103154066892,0.000215498861508,0.468191663984,-0.00230860862015,0.163100971196,-0.0184996486647,0.931190042015,0.363934189927,0.00973518045212
-0.0203354712576,0.0230805259198,0.00699871918187,-2.50078082085,0.0718962326646,2.52675175667,-0.817185997963,0.0546891689301,0.000243441958446,0.00577249191701,6.11707582721e-05,7.61821356718e-05,8.66259870236e-05,-0.000347940367647,-0.00258089415729,0.468190530948,-0.00230683711095,0.163097728086,-0.0185003188205,0.931186106434,0.363944284779,0.00973296712034
-0.0203311927617,0.0230868048966,0.00699902419001,-2.50078177452,0.0718961209059,2.52675199509,-0.817226469517,0.0547114983201,-0.000117656942166,-0.000575184007175,0.000136211572681,0.000111389650556,2.49133790931e-05,0.000177452573553,-0.00199649529532,0.468189065025,-0.00230467279337,0.163094448614,-0.0185014479389,0.931177926079,0.363965234804,0.00973005376033
-0.0203362498432,0.0230742897838,0.00699674710631,-2.50077867508,0.0718961060047,2.52675557137,-0.81725949049,0.0547114983201,0.000273203826509,-0.00027209718246,-0.000181196606718,-0.000671171816066,-9.47890293901e-05,3.03294946207e-05,-4.50389234175e-05,0.468193453206,-0.00230824891805,0.163101795641,-0.018497475535,0.931173188753,0.363977310775,0.00973924394626
-0.0203343313187,0.0230780187994,0.0069977408275,-2.50077819824,0.071895852685,2.52675580978,-0.817293226719,0.0547114983201,-0.000243591552135,-0.000498545996379,9.13643380045e-05,-0.000148123901454,-9.38404991757e-05,2.86952799797e-05,-0.00313058425672,0.468193108295,-0.00230689025125,0.163100251008,-0.018497841897,0.931166498625,0.363994437561,0.009738110329
-0.020331511274,0.023085122928,0.00699943257496,-2.50078225136,0.0718949437141,2.5267560482,-0.81731146574,0.0547114983201,0.000224798073759,-0.000119440046547,0.00019745042664,0.000267468130914,-0.000298916333122,7.8564917203e-05,-0.0028341000434,0.468189999315,-0.00230477444615,0.163095410795,-0.0184996243097,0.9311622809,0.364005270835,0.00973308885038
-0.0203326884657,0.0230888035148,0.00699779065326,-2.50078082085,0.0718963742256,2.52675819397,-0.817328631878,0.0547114983201,-0.00068443256896,-0.00187156919856,5.74839395995e-05,0.000179159789695,-7.02723991708e-05,3.59037512681e-05,-0.000266209652182,0.46819053307,-0.0023060612298,0.163094421499,-0.0184998615655,0.931159892289,0.364011361661,0.00973336426806
-0.0203341078013,0.0230741593987,0.00699869962409,-2.50077915192,0.0718960165977,2.52676153183,-0.81736767292,0.0547114983201,-0.000449459213996,-0.000204297466553,-0.000114207403385,6.8896333687e-06,-0.000121448552818,9.16105273063e-05,-0.00277241063304,0.46819455338,-0.00230644241412,0.163102202608,-0.0184957488417,0.931152763018,0.364029556516,0.00974273400749
-0.0203373972327,0.0230809617788,0.00699651101604,-2.50078129768,0.071895994246,2.52676272392,-0.817398011684,0.0547114983201,-0.000390022789361,-7.40653995308e-05,0.000291672971798,-0.000385663792258,8.71727024787e-05,7.80476038926e-05,-0.00298186019063,0.468192606625,-0.00230900238415,0.163098310964,-0.0184969949704,0.931148281134,0.364041044938,0.00973945601879
-0.0203324761242,0.0230854768306,0.00699938926846,-2.50078105927,0.0718956887722,2.52676558495,-0.817439615726,0.0547114983201,0.000446581805591,-9.80034019449e-05,0.000296654150588,-0.000419639167376,-0.000133430410642,9.36373035074e-05,-0.0021590096876,0.468192595818,-0.00230539794657,0.163096539876,-0.0184969845771,0.931139274031,0.364064093626,0.00973906236547
-0.020330850035,0.0230828411877,0.0069995331578,-2.50078129768,0.0718958079815,2.52676606178,-0.817473530769,0.0517407357693,0.000131515975227,0.000237744417973,7.17053044355e-05,9.03532636585e-05,6.44853353151e-05,5.1653238188e-05,-0.000416573195253,0.46819276599,-0.00230502787671,0.1630975643,-0.0184964105884,0.931133526318,0.36407878778,0.00974037659006
-0.0203312560916,0.0230801086873,0.00699790939689,-2.50078177452,0.0718952640891,2.52676820755,-0.817493975163,0.0517407357693,0.00027271968429,-0.000354601652361,-0.000132517248858,0.00117404700723,3.32238123519e-05,0.000183528798516,0.000302453583572,0.468193731001,-0.00230561307262,0.163099012611,-0.0184951333393,0.93112935254,0.364089460963,0.00974284256398
-0.0203343816102,0.023076299578,0.00699788192287,-2.50077867508,0.0718963742256,2.52676987648,-0.817528903484,0.0517407357693,0.000108436273877,-0.0003922758915,0.000456952751847,0.000322667794535,0.000978978117928,0.000258882093476,-0.000354562391294,0.468196238683,-0.00230709492992,0.16310211857,-0.0184935691285,0.931123699889,0.36410387775,0.0097472712941
-0.020334597677,0.0230795815587,0.00699635781348,-2.50077986717,0.0718963742256,2.52677226067,-0.817543625832,0.0517407357693,-0.000283091765596,-1.82455241884e-05,6.32336668787e-05,0.000110669032438,0.00017298363673,0.00157547998242,-0.00269161909819,0.46819648195,-0.00230814356976,0.16310123403,-0.0184932580239,0.931121976019,0.364108297361,0.00974744372148
-0.0203360598534,0.0230813212693,0.00699639087543,-2.50077915192,0.0718963369727,2.5267765522,-0.817602038383,0.0441982634366,0.000145349986269,-0.000433211942436,3.7289235479e-05,-4.37250309915e-05,-0.000180512070074,-4.34263383795e-05,-0.00022076399182,0.468196726602,-0.00230861044233,0.163100395027,-0.0184926181218,0.931110785199,0.364136911955,0.00974873318155
-0.0203342549503,0.0230797119439,0.00699578970671,-2.50077986717,0.0718963071704,2.52677559853,-0.81761521101,0.0441982634366,0.000240621709963,0.000311066774884,0.000129608553834,0.000291302683763,9.05481356313e-05,0.00105497986078,-0.000363187951734,0.468196435674,-0.00230792256069,0.163100649383,-0.0184927240692,0.931108147039,0.364143655065,0.00974863247501
-0.0203310344368,0.0230823773891,0.00699903722852,-2.50078105927,0.0718957930803,2.52677536011,-0.817630767822,0.0441982634366,3.79094526579e-05,0.00044475129107,0.000239505141508,-0.000401655124733,-0.000565890280996,-4.80398966829e-06,-0.00323485257104,0.468195256385,-0.00230508399869,0.163098854086,-0.0184933865864,0.931104309409,0.364153486466,0.00974667288404
-0.0203312337399,0.0230822600424,0.00699913827702,-2.50078105927,0.0718956366181,2.52677607536,-0.817650079727,0.0441982634366,-0.000290375523036,2.84298894258e-05,0.000377342686988,4.69473889098e-05,-0.00558028975502,-3.3215903386e-05,0.000133579684189,0.468195431428,-0.00230515240071,0.163098971833,-0.0184930753946,0.931100790501,0.364162485222,0.0097472115183
-0.0203360561281,0.0230811908841,0.0069972621277,-2.50078368187,0.0718963295221,2.52677559853,-0.817657649517,0.0441982634366,-0.000384203420253,-0.000311064824928,-0.000231040365179,-0.000465922028525,-0.000157682647114,-0.000106429302832,2.81128359347e-05,0.468193903631,-0.00230875795685,0.163098360041,-0.0184936399036,0.931100723617,0.364162652795,0.00974626889722
-0.0203357115388,0.023078577593,0.00699578085914,-2.50078105927,0.0718956366181,2.52677798271,-0.817681610584,0.0441982634366,-0.000313816242851,0.00138568261173,-0.000184050513781,-0.000301208492601,2.32243055507e-05,-8.4685976617e-05,-0.000113405796583,0.468196512715,-0.00230867224792,0.163101021429,-0.0184916704902,0.93109647707,0.364173503268,0.00975026730101
-0.020329574123,0.0230844914913,0.00699818460271,-2.50078105927,0.0718956589699,2.52677798271,-0.817703902721,0.0441982634366,-0.000183421856491,0.000706099148374,-0.000117063696962,-0.000144335092045,5.58305546292e-05,2.67594496108e-05,0.000268458767096,0.468195226331,-0.00230493438156,0.163097653031,-0.018493021587,0.931090857999,0.364187886123,0.00974708108169
-0.0203287787735,0.0230850037187,0.00699921324849,-2.50078320503,0.0718958079815,2.5267791748,-0.817704737186,0.0441982634366,-0.000206428507227,-0.000230257253861,7.55825967644e-05,-0.00010282482981,2.64907102974e-05,-1.12592197183e-05,-2.3753307687e-05,0.468194609341,-0.00230399505495,0.163097149465,-0.0184931301641,0.93109043543,0.364188967092,0.00974685185536
-0.0203316695988,0.0230830274522,0.00699719274417,-2.50078058243,0.0718958303332,2.52677941322,-0.81771916151,0.0441982634366,0.000267918221653,0.000105152146716,0.0007234509103,-0.000185818891623,7.30612664483e-05,0.000107806328742,0.000229249999393,0.468195949611,-0.00230663428829,0.163098830147,-0.0184922203217,0.931088927981,0.364192813579,0.00974885639013
-0.0203346144408,0.0230773221701,0.00699778366834,-2.50077939034,0.0718961581588,2.5267803669,-0.817726790905,0.0365881547332,0.000172092026332,-0.00142605369911,-0.000164517899975,0.000239738554228,0.000100510093034,7.30833125999e-05,3.72980175598e-05,0.468198176429,-0.00230768950527,0.163102421906,-0.0184905186235,0.931087770785,0.364195740715,0.00975325304067
-0.0203335359693,0.0230818931013,0.0069975014776,-2.50078129768,0.0718961060047,2.52678203583,-0.817752838135,0.0365881547332,-0.00029325223295,0.000352290866431,-0.000140462521813,-0.00051888555754,-0.000115578099212,-4.61039326183e-06,-0.000934587558731,0.468196670513,-0.00230709285815,0.163099580451,-0.0184913543022,0.931082883378,0.36420825347,0.0097509941234
-0.0203316770494,0.0230825766921,0.00699795689434,-2.50077986717,0.071896225214,2.52678132057,-0.817754626274,0.0365881547332,-0.000240163732087,0.000426508311648,-1.4174671378e-05,6.1169230321e-05,-8.55082034832e-05,-6.13440060988e-05,-0.000235973362578,0.468197096476,-0.00230599416496,0.163099738951,-0.0184914086624,0.931082147284,0.364210131557,0.00975102920669
-0.0203326698393,0.0230856928974,0.00699885375798,-2.50078248978,0.0718958601356,2.52678370476,-0.817762851715,0.0365881547332,0.000154379624291,0.000223344031838,0.000380147539545,-9.7104231827e-05,0.000156827620231,4.45953992312e-05,0.000214158164454,0.468195816359,-0.00230607393038,0.163097497505,-0.0184918589569,0.931080649594,0.364213978635,0.0097494900471
-0.0203313268721,0.0230785943568,0.00699933012947,-2.50077986717,0.0718962922692,2.52678346634,-0.81777125597,0.0365881547332,-0.000199023328605,0.000436439004261,0.000231147394516,5.17701664648e-05,0.00061183120124,1.71712545125e-05,-2.29737615882e-05,0.468198245094,-0.0023052338444,0.163101793111,-0.0184901439522,0.931078803067,0.364218665721,0.0097539879556
-0.0203325133771,0.0230818204582,0.00699742976576,-2.50078105927,0.0718953832984,2.52678537369,-0.817785680294,0.0320499315858,-0.000339214806445,0.00042756338371,0.000506684475113,-6.9348308898e-05,-4.89088743052e-05,-1.59421288117e-05,-4.4168423301e-06,0.468197338682,-0.00230662349338,0.163099709599,-0.0184903536008,0.931076477944,0.364224637373,0.00975255138252
-0.0203330684453,0.0230828430504,0.00699741160497,-2.50077986717,0.0718958377838,2.52678561211,-0.817790806293,0.0320499315858,0.000692353409249,0.000150769381435,0.000298830622341,0.000423628545832,-7.56869339966e-05,9.94821166387e-05,-0.000211731574382,0.46819798084,-0.0023070064269,0.163099992198,-0.0184902423751,0.931075871814,0.364226176518,0.0097531475277
-0.0203319638968,0.0230824872851,0.00699837040156,-2.50078201294,0.0718956887722,2.52678608894,-0.817797899246,0.0320499315858,0.000503121060319,0.000144021701999,-0.000387593987398,-0.00313861202449,-1.35659493026e-05,8.19048636913e-06,9.55969007919e-05,0.468197111214,-0.00230604132796,0.16309938868,-0.0184904220223,0.931074192937,0.364230474654,0.00975256669692
-0.020331190899,0.0230781324208,0.00699936365709,-2.50077962875,0.071896135807,2.52678656578,-0.817808747292,0.0320499315858,-0.000578979961574,-0.000351205468178,-0.000355880998541,0.000204572614166,-3.9637030568e-05,0.000160809649969,-0.00097417779034,0.468199157652,-0.0023055403181,0.163102496598,-0.0184890532038,0.931072031612,0.364235972806,0.00975616011006
-0.0203324370086,0.0230807811022,0.00699795223773,-2.50078034401,0.0718956366181,2.52678751945,-0.817814707756,0.0320499315858,5.94604571234e-05,0.00390224019065,-0.000208205485251,0.00058574299328,4.36659684055e-05,-9.85767037491e-05,9.6592681075e-05,0.468198518162,-0.00230650758424,0.163100945092,-0.0184893686174,0.931071275742,0.364237921956,0.00975492852328
-0.0203352514654,0.0230808593333,0.00699674105272,-2.50078082085,0.0718955397606,2.52678751945,-0.817820072174,0.0320499315858,-0.000591823132709,-0.000104712722532,-0.000497577304486,-0.000552634359337,-5.33784304935e-06,0.000163027551025,0.000347647699527,0.468198264384,-0.00230839885732,0.163100727604,-0.0184893890979,0.93107102089,0.364238577375,0.00975474175665
-0.020334744826,0.0230816956609,0.00699541391805,-2.50078058243,0.0718955621123,2.52678799629,-0.817824959755,0.0320499315858,-0.000421766919317,-0.0001433808211,0.000117563315143,-0.000398398202378,1.51717649715e-05,9.54456991167e-05,-0.000136703311,0.468198339732,-0.00230879476196,0.163100468232,-0.0184893657326,0.931070288033,0.364240452189,0.00975473066197
-0.0203314498067,0.023078488186,0.00699724210426,-2.50077986717,0.071896828711,2.5267894268,-0.817837715149,0.0320499315858,-2.90308635158e-05,0.000939756748267,0.00019916742167,0.000207552395295,8.94211334526e-05,0.000130398315378,0.000245969975367,0.468199559452,-0.00230636395999,0.163102369964,-0.0184886258228,0.931067199314,0.364248313136,0.00975741461396
-0.0203323606402,0.0230786278844,0.00699754245579,-2.5007789135,0.0718959420919,2.52678966522,-0.817841231823,0.0320499315858,-2.85987480311e-05,-0.000361326325219,0.000110948632937,-0.000241224770434,-1.95059674297e-05,-4.43978842668e-06,-3.44712971128e-05,0.468200044301,-0.00230670710213,0.163102684538,-0.0184881704688,0.931066540082,0.364250010054,0.00975783545175
-0.0203344672918,0.023081170395,0.00699791125953,-2.50078129768,0.071896366775,2.52678966522,-0.81784760952,0.0320499315858,5.41612171219e-05,-0.000575648155063,0.000160783965839,0.000153741450049,-8.38560154079e-05,-0.000118103307614,0.000167589314515,0.468198456474,-0.00230747200885,0.163100593072,-0.0184891830426,0.931065778936,0.36425196187,0.0097556836071
-0.0203337278217,0.0230823233724,0.00699697062373,-2.50077939034,0.0718953236938,2.52678990364,-0.81784838438,0.0320499315858,-8.43818561407e-05,5.93758898049e-07,-0.000286403752398,-0.000560317072086,-9.36725919018e-05,-0.00330926058814,-3.50689297193e-05,0.46819923089,-0.00230763942078,0.163100793603,-0.018488702996,0.931065522575,0.36425263237,0.00975602533605
-0.0203321687877,0.0230812560767,0.00699660507962,-2.50077986717,0.0718953236938,2.5267906189,-0.817855119705,0.0320499315858,-0.000227328229812,-0.000920858466998,-8.67025155458e-05,-0.00275750178844,4.31649459642e-05,0.000142391741974,0.000333964329911,0.468199168703,-0.00230725036687,0.163100828497,-0.0184885627127,0.931064151223,0.364256139253,0.00975623167849
-0.0203299019486,0.0230796784163,0.00699795363471,-2.50078058243,0.0718955770135,2.5267906189,-0.817858338356,0.0320499315858,-2.14277838495e-06,-0.000102811653051,-0.000169980135979,6.89461558068e-07,6.22409352218e-05,0.000283424131339,-0.000942601531278,0.468199271456,-0.00230538569337,0.163101644621,-0.018488319263,0.931062865594,0.364259414528,0.00975709875829
-0.020329836756,0.0230788402259,0.00699773058295,-2.5007789135,0.0718956589699,2.52679109573,-0.817863821983,0.0320499315858,6.04207380093e-05,0.000657645286992,-1.82060048246e-05,0.0038985775318,-6.28681809758e-05,7.92483260739e-05,0.000281350890873,0.468200351674,-0.00230548948265,0.163102783325,-0.0184877187969,0.931061941484,0.364261766558,0.0097586106685
-0.020328765735,0.0230802614242,0.00699631031603,-2.50078225136,0.0718961507082,2.5267906189,-0.817867636681,0.0306026358157,-0.000172236032085,0.00052722718101,5.45567345398e-05,-0.00309956236742,0.000150052292156,-0.000121808079712,-0.000471187289804,0.468198365828,-0.00230558535296,0.163100741165,-0.0184888314934,0.931061357422,0.364263267342,0.00975620698413
-0.0203315429389,0.0230809077621,0.00699685420841,-2.50078177452,0.0718952640891,2.52679181099,-0.817876756191,0.0306026358157,0.000229346595006,-0.000304738234263,-9.16466524359e-05,6.17998448433e-05,8.49254138302e-05,0.00013855972793,-2.44178554567e-05,0.468198738087,-0.00230670104023,0.163100722357,-0.0184883251459,0.931059981113,0.36426679845,0.00975667126873
-0.020330933854,0.0230805817991,0.00699812080711,-2.5007827282,0.0718959346414,2.52679300308,-0.817880511284,0.0306026358157,7.29954699636e-05,-0.000361012353096,-0.000179067210411,8.99465812836e-05,5.99035411142e-05,-1.81801249255e-06,0.00022027704108,0.46819859895,-0.00230579973138,0.16310062106,-0.0184883673359,0.931059058334,0.36426914559,0.00975701918995
-0.0203316193074,0.0230761598796,0.00699782185256,-2.5007789135,0.0718955174088,2.52679491043,-0.817885696888,0.0306026358157,7.32634143787e-05,-1.58007842401e-05,-0.000249997887295,0.000433446490206,-0.000273226381978,0.000220350470045,5.2696253988e-05,0.468201607782,-0.00230636156123,0.163104302151,-0.0184862479263,0.931058201228,0.364271318605,0.00976169507244
-0.0203307997435,0.0230768006295,0.0069981161505,-2.50078082085,0.0718932002783,2.52679562569,-0.817891299725,0.0306026358157,-5.79535953875e-05,0.000134101355798,0.000196924520424,-0.000201112634386,3.30153779942e-05,2.7301141472e-06,0.000186741308426,0.468200722536,-0.00230582722951,0.163103328689,-0.0184859386699,0.93105653448,0.364275623784,0.00976059813203
-0.0203324425966,0.0230822488666,0.00699773011729,-2.50078248978,0.0718949437141,2.52680253983,-0.817904472351,0.0306026358157,0.000959110679105,0.000191109749721,1.38882187457e-05,-0.000904423883185,6.81475430611e-05,-0.000116342234833,-0.000102984173282,0.468200502029,-0.00230692527992,0.163100770583,-0.0184861976561,0.931054937567,0.364279687181,0.00976078481862
-0.0203316807747,0.0230848025531,0.00699760904536,-2.50078678131,0.0718957409263,2.5268034935,-0.817906200886,0.0306026358157,-0.000251251185546,-0.000203049217816,0.000356426520739,-0.000166926023667,-5.28467062395e-05,-2.46806321229e-05,-8.16054380266e-05,0.468198204209,-0.00230656424171,0.163098037085,-0.0184874939563,0.931054655632,0.364280412542,0.00975815122714
-0.0203324202448,0.0230798646808,0.00699701998383,-2.50077843666,0.0718957707286,2.52680420876,-0.81791394949,0.0306026358157,0.000328196561895,0.000338709069183,6.97597279213e-05,0.000279226049315,-0.000200610244065,2.28074841289e-05,-0.00113702146336,0.468203233626,-0.00230727219007,0.16310356965,-0.0184847798354,0.931053430457,0.364283506097,0.00976470273933
-0.0203325822949,0.0230774506927,0.00699632428586,-2.50078058243,0.0718936100602,2.52680802345,-0.817921519279,0.0266724862158,0.000145500263898,-0.000513870443683,-0.000109891865577,5.23650378454e-05,-0.000166354409885,0.00166433886625,-0.000174418382812,0.468203426589,-0.00230786206894,0.163104219567,-0.018483281217,0.931051910658,0.364287421848,0.00976636794742
-0.0203341860324,0.0230767428875,0.0069962372072,-2.50077033043,0.0718937143683,2.52681446075,-0.817926704884,0.0266724862158,0.000298662111163,-0.0019944163505,5.22450136486e-05,0.000203245421289,-8.84181426954e-05,-0.000255974940956,0.00025645250571,0.468210011822,-0.00230871353759,0.163108954046,-0.0184798112301,0.931051194123,0.364289216365,0.00977430425616
-0.0203289259225,0.0230820849538,0.00699803093448,-2.50077939034,0.0718954205513,2.52681255341,-0.817930936813,0.0266724862158,0.000584108463954,0.000848924100865,7.86912132753e-05,-0.00092834822135,6.35621399852e-05,5.85899542784e-05,-0.000449225015473,0.468202633672,-0.00230514668399,0.163101133701,-0.0184841786656,0.93104933225,0.364293998958,0.00976514535734
-0.0203319899738,0.0230812430382,0.00699712336063,-2.50077915192,0.071894697845,2.52681493759,-0.817941188812,0.0266724862158,6.80120210745e-05,-7.66822922742e-05,8.23450682219e-05,-0.000515055202413,-5.62612658541e-05,0.00016570148,-0.000148456369061,0.468204989512,-0.00230727907463,0.163103598627,-0.0184824572751,0.931048264594,0.364296719705,0.0097686983155
-0.0203318875283,0.023070236668,0.0069967075251,-2.50076675415,0.0718956291676,2.52682423592,-0.817945361137,0.0266724862158,3.69568479073e-05,-0.000660250312649,-0.000305501220282,-0.000102148143924,9.5557741588e-05,-6.18476633463e-06,-0.000154700333951,0.468214887849,-0.00230767623462,0.163114266183,-0.0184762326983,0.931047616225,0.364298285507,0.00978386474039
-0.020331569016,0.0230875536799,0.00699722440913,-2.5007827282,0.0718943998218,2.5268239975,-0.817953109741,0.0266724862158,0.00202364102006,-0.000103637605207,0.000269902055152,3.24635075231e-05,-5.93376498728e-05,1.54116369231e-05,0.00017171438958,0.468204162375,-0.0023071813009,0.163100090261,-0.0184822570137,0.931046032845,0.364302444602,0.00976828750479
-0.0203313194215,0.0230845119804,0.00699809100479,-2.50078082085,0.071893773973,2.52682423592,-0.817956030369,0.0266724862158,0.000861976761371,0.000391746259993,2.49765289482e-05,0.000186809338629,9.03996697161e-05,4.19304633397e-05,-0.000706131453626,0.468205797166,-0.00230641007678,0.163102185648,-0.0184812753526,0.931045079363,0.364304867227,0.00977067325093
-0.0203299932182,0.0230831522495,0.0069963093847,-2.50078725815,0.0718951523304,2.52682328224,-0.817958950996,0.0254688169807,0.000214586310904,-0.000685578968842,0.00018582426128,-0.000133078312501,-5.26466028532e-05,-8.27533949632e-05,0.000288967188681,0.468202566581,-0.00230680638715,0.163100374981,-0.0184825846785,0.931044954656,0.364305190368,0.00976803094219
-0.0203336644918,0.0230754241347,0.00699654174969,-2.50078010559,0.071894146502,2.52682375908,-0.817961215973,0.0254688169807,6.42807572149e-05,-0.000227469878155,-0.000111712754006,0.000924358784687,-9.66427032836e-05,-0.00381024531089,-0.00152360962238,0.46820743227,-0.00230855272441,0.163106739494,-0.0184793632066,0.93104495599,0.364305161768,0.00977506285521
-0.02033133246,0.0230813790113,0.00699828518555,-2.50077152252,0.0718959420919,2.52683353424,-0.817965626717,0.0254688169807,8.91432864591e-05,0.000437525712186,0.000352798117092,-0.000197734872927,-0.000181401104783,-0.000107716434286,-7.99577974249e-05,0.468212721492,-0.00230676573605,0.163108067307,-0.018477275455,0.931043687432,0.364308352503,0.00978091851233
-0.0203295238316,0.0230855196714,0.00699787214398,-2.50078010559,0.0718952417374,2.52683329582,-0.817969322205,0.0254688169807,-0.00228269235231,0.000187331956113,-0.000176646761247,-0.000977689167485,4.57901187474e-05,-3.2269203075e-05,2.88259143417e-05,0.468207242143,-0.00230602219338,0.163102175479,-0.0184798032315,0.931042708159,0.364310905377,0.00977427053468
-0.0203300267458,0.0230864603072,0.00699759833515,-2.50078821182,0.0718951150775,2.52683162689,-0.817972838879,0.0254688169807,-0.000242970272666,-0.000117056137242,0.00035461911466,0.000282109540422,-0.0002195994457,0.000167720339959,0.000370527792256,0.468203365322,-0.00230636013925,0.163099202381,-0.0184815446665,0.931042239143,0.364312131685,0.0097699452133
-0.020331505686,0.0230790711939,0.00699780927971,-2.50077676773,0.0718950256705,2.52683377266,-0.817974030972,0.0254688169807,0.000151010084664,-0.000812389887869,-0.000218944536755,4.32221131632e-05,-0.000177801848622,-0.00020050497551,3.30114125973e-05,0.468210622399,-0.00230709960914,0.163107181685,-0.0184774784456,0.93104215854,0.364312283879,0.00977963757017
-0.0203327089548,0.023080509156,0.00699728075415,-2.5007853508,0.0718931108713,2.52683377266,-0.81797927618,0.0254688169807,0.000377001269953,-0.00105676206294,-0.000334544776706,-0.00033920770511,-1.20451595649e-05,-4.82641917188e-05,0.000276636477793,0.468206213587,-0.00230795542201,0.163103255984,-0.0184788248604,0.931041292022,0.364314558871,0.00977483816182
-0.020332287997,0.0230772662908,0.00699749216437,-2.50077700615,0.0718942657113,2.52683973312,-0.817983984947,0.0254688169807,-0.000452517910162,-0.000635018630419,-0.000353478477336,0.00151615578216,7.26516882423e-05,-0.000300104060443,-0.000142602511914,0.46821210754,-0.00230777722723,0.163108461013,-0.0184756367422,0.931040449815,0.364316652153,0.00978306206786
-0.0203341562301,0.0230781715363,0.00699444441125,-2.50076675415,0.0718948766589,2.52683806419,-0.81798440218,0.0254688169807,-0.000188936537597,0.000118432202726,0.000140577103593,0.000286129070446,1.53137661982e-05,-0.000258804298937,0.000386675295886,0.468216541249,-0.00231008865465,0.163111770413,-0.0184743411874,0.931041307238,0.364314427707,0.00978674525835
-0.0203273035586,0.0230847094208,0.00699923047796,-2.50078940392,0.0718944519758,2.52683806419,-0.817989468575,0.0254688169807,0.000435700174421,-7.79827605584e-05,0.000522324407939,-0.00136670994107,-0.000216811793507,-0.000142299046274,1.0784299775e-05,0.468204496927,-0.00230447401606,0.163100138142,-0.0184798307877,0.931038340697,0.364322095457,0.00977314954381
-0.0203254073858,0.0230835359544,0.00700107170269,-2.50079250336,0.0718937590718,2.52683830261,-0.817992091179,0.0254688169807,-0.000670386129059,-0.000131026172312,-0.000668890250381,0.00125915522221,5.70429729123e-05,9.1709625849e-05,0.00460955500603,0.468203750597,-0.00230333851888,0.163099997532,-0.0184797817728,0.931037293937,0.364324780991,0.00977285036511
-0.0203359071165,0.0230786781758,0.00699487701058,-2.50078177452,0.07189386338,2.52684235573,-0.81799697876,0.0254688169807,0.000314112723572,-0.000398877687985,-0.000733565946575,0.000158455426572,-9.65057770372e-05,0.000544018635992,0.000316985067911,0.468210438361,-0.00231142062358,0.163106756179,-0.0184756517874,0.931039359589,0.364319457899,0.00978230385227
-0.0203332155943,0.0230763927102,0.00699628191069,-2.50078487396,0.0718945935369,2.52684307098,-0.818003177643,0.0254688169807,0.00287878210656,-0.000490176898893,8.00049601821e-05,-0.000219661553274,-8.44503374537e-05,1.28086712721e-05,0.000279441737803,0.46820917294,-0.0023087815871,0.16310618787,-0.0184762024499,0.931037434728,0.364324369047,0.00978155819687
-0.0203299149871,0.0230787955225,0.00699602719396,-2.50078964233,0.0718944966793,2.5268433094,-0.818005144596,0.0227305162698,0.00325809442438,-0.00019774195971,-0.000226970631047,-0.000348522764398,-4.38298447989e-05,-4.28741004725e-05,0.000363185798051,0.468206516163,-0.00230732696212,0.163103279284,-0.0184774866192,0.93103654245,0.364326670911,0.0097783259741
-0.0203274656087,0.0230847708881,0.00699978414923,-2.50079202652,0.0718952715397,2.52684426308,-0.818007111549,0.0227305162698,0.000553716439754,-0.000163506731042,-0.000205035030376,-0.0014638651628,-1.42656308526e-05,2.51017336268e-05,-0.00423370907083,0.46820457309,-0.00230434719605,0.16309966625,-0.0184791407847,0.931035206449,0.36433009144,0.00977496111431
-0.0203294418752,0.0230850558728,0.00699718901888,-2.50079631805,0.0718941614032,2.52684569359,-0.81801122427,0.0227305162698,7.27476872271e-05,-0.000416857830714,0.000117853734992,0.000398686446715,-6.3524399593e-05,-2.2355121132e-07,-0.00019341261941,0.468202744926,-0.00230655644457,0.163098032191,-0.0184793324715,0.931035158083,0.364330246469,0.00977342714904
-0.0203325320035,0.0230800490826,0.00699792988598,-2.50079655647,0.0718934237957,2.52684545517,-0.818011462688,0.0227305162698,-0.00166157085914,-0.000273631303571,0.000459130678792,-0.000249580072705,-6.18202248006e-05,-0.000140340445796,-0.000355054042302,0.46820341982,-0.00230770467559,0.163100263308,-0.0184782697808,0.931035413713,0.364329592518,0.0097754621094
-0.0203314237297,0.0230762176216,0.00699703581631,-2.50080132484,0.0718928053975,2.52685451508,-0.818017661572,0.0227305162698,-9.7164818726e-05,-0.00074155832408,-0.000363710918464,0.00109047454316,2.68720191343e-06,-0.000105021055788,0.000239706758293,0.468203736578,-0.00230779942902,0.163101051036,-0.0184762821001,0.931034192494,0.364332716736,0.00977909029233
-0.0203340407461,0.0230765454471,0.00699830800295,-2.50080394745,0.07189322263,2.52687048912,-0.818018555641,0.0226852074265,-0.000352742965333,0.00557484384626,-0.000215746928006,-0.00164462870453,-0.00169282895513,0.00803380087018,-0.000805038784165,0.468205893079,-0.00230869363392,0.163101316883,-0.0184735142983,0.931034402348,0.364332161956,0.00978500701956
-0.0203348379582,0.0230951402336,0.00699523417279,-2.50080776215,0.0718906149268,2.52718162537,-0.81802791357,0.0226852074265,-0.000286476046313,-0.00296657532454,-0.000145416226587,0.00121443253011,0.00118986505549,0.00695903319865,8.59395222506e-05,0.46826869713,-0.00231661269088,0.163118646645,-0.0184100546745,0.931034182528,0.364332425661,0.00991484484994
-0.0203363094479,0.0230792257935,0.00699473312125,-2.50079226494,0.0718911364675,2.52732419968,-0.818027198315,0.0226852074265,2.08133715205e-05,0.00109312089626,-0.000165193036082,0.00250534689985,0.000458570284536,0.00450828205794,-0.000548259704374,0.468312989211,-0.00232068575414,0.163145836483,-0.0183713326236,0.931035047969,0.36432987823,0.0099986551276
-0.0203272905201,0.0230847932398,0.00699976878241,-2.50082826614,0.0718910619617,2.52761316299,-0.818035423756,0.0226852074265,0.000308722519549,0.000100224257039,-0.00038983655395,-0.000681900593918,-0.000167897494975,0.000981086748652,3.15675570164e-05,0.468354625487,-0.00231919618337,0.163153887669,-0.0183192591962,0.931032141635,0.364336996899,0.0101048681354
-0.0203293133527,0.0230930950493,0.00699819391593,-2.50082612038,0.071891143918,2.52766132355,-0.81804060936,0.0226852074265,-0.000482541479869,0.00156694918405,-6.1619146436e-05,0.000673579517752,-0.000167800288182,0.00757674360648,-0.000381286954507,0.468364742234,-0.0023218033744,0.163155072781,-0.0183100420718,0.931032049619,0.364337168646,0.010123841681
-0.0203334279358,0.0230917185545,0.00699639273807,-2.50082468987,0.0718910172582,2.52772498131,-0.818041324615,0.0226852074265,0.000211274775211,0.000275079044513,-0.000319159560604,-9.64268256212e-05,-0.000174684537342,0.00196338351816,-0.000573582539801,0.468379527436,-0.00232583826338,0.16316189085,-0.0182957236046,0.931033169928,0.364334188614,0.0101538998871
-0.0203353445977,0.0230643078685,0.00699391169474,-2.50081777573,0.0718915984035,2.52797484398,-0.818047702312,0.0226852074265,-0.00315480167046,0.000138448551297,-0.000195740940399,-0.000197313333047,0.0019415380666,0.00932628288865,-0.000129686071887,0.468441969994,-0.00233286913973,0.163199465182,-0.0182354708561,0.931033516305,0.36433271321,0.0102826499477
-0.0203331951052,0.0230704918504,0.00699601601809,-2.50082325935,0.0718915686011,2.52815079689,-0.81805062294,0.0226852074265,0.000528594537172,0.000610778166447,-0.000166938043549,-0.000903230451513,-0.000132062414195,0.00362104992382,-0.0056821340695,0.46847661879,-0.00233423069368,0.16321007595,-0.0181998444543,0.931032811986,0.364334198766,0.0103566385407
-0.0203281808645,0.0230847392231,0.0069981762208,-2.5008354187,0.0718913078308,2.5282022953,-0.818055391312,0.0226852074265,-0.00016786622291,0.00406245328486,-0.00020553143986,-0.000700920820236,0.000153600180056,0.000609010807239,-2.36005434999e-05,0.468478381663,-0.00233127680357,0.163200853058,-0.0181945862648,0.931030727547,0.364339532423,0.0103656255633
-0.0203248206526,0.0230935662985,0.00699981953949,-2.50084042549,0.0718915238976,2.52821469307,-0.818054139614,0.0226852074265,0.000298968167044,0.00152584328316,0.000110616951133,0.000483841518871,1.30951439132e-05,0.000716531882063,0.00252877431922,0.468478348725,-0.00232956318905,0.163198427442,-0.0181938217859,0.931030345451,0.36434051363,0.0103667985134
-0.0203274823725,0.0230863802135,0.00700000906363,-2.50084900856,0.0718918070197,2.52828478813,-0.818066298962,0.0226852074265,0.00026709085796,5.17893968208e-05,0.0039891647175,-0.000324886001181,-1.35214859256e-05,-9.16253629839e-05,8.04619558039e-05,0.468490685169,-0.0023320357048,0.163204754196,-0.01817897778,0.931028844956,0.364344201612,0.010397935548
-0.0203278511763,0.0230890028179,0.00699835456908,-2.50085377693,0.0718912929296,2.52830076218,-0.818068146706,0.0226852074265,-0.000384877232136,0.000207370496355,0.000177401903784,-0.000808779732324,2.23756487685e-05,0.00343520147726,0.000365622283425,0.468491406945,-0.00233328775017,0.163203133807,-0.0181767672838,0.931028889985,0.364344089605,0.0104016920879
-0.0203278027475,0.0230853687972,0.00699788844213,-2.50085306168,0.07189206779,2.52832484245,-0.818070054054,0.0187524296343,0.000368928536773,0.000656985270325,5.17804292031e-05,-0.00128199299797,-0.000992603600025,0.00372109701857,-0.00031327502802,0.468497685353,-0.00233369233808,0.163207162419,-0.0181708003451,0.931028635752,0.364344659193,0.010414913656
-0.0203255154192,0.0230838395655,0.00699991546571,-2.50085520744,0.0718915387988,2.52835321426,-0.818075418472,0.0187524296343,-0.00196590763517,0.000540955283213,-0.000354608229827,-0.00034101473284,7.42854244891e-05,-0.000119013871881,-0.000323109561577,0.468503030303,-0.0023324702575,0.163209659543,-0.0181648233932,0.93102703274,0.364348703593,0.010427145938
-0.020321117714,0.0230891834944,0.00700161093846,-2.50085639954,0.0718917697668,2.52837467194,-0.818077325821,0.0187524296343,-0.000138268733281,0.000146602251334,0.000419898657128,0.000240672976361,4.98892368341e-05,0.00148948200513,-0.000207804507227,0.468506237005,-0.00232998724025,0.163208607089,-0.0181615548467,0.931025706679,0.364352064404,0.0104338045342
-0.0203190837055,0.0230897311121,0.00700184702873,-2.50085711479,0.0718908980489,2.52839183807,-0.818079650402,0.0187524296343,-0.000348216446582,-0.000150706546265,-7.73485808168e-05,-1.93740197574e-06,-2.92835848086e-05,0.00233214069158,-0.000631635833997,0.468509540184,-0.00232929658635,0.163209599082,-0.0181578723961,0.931024803645,0.364354353171,0.0104408658134
-0.0203209389001,0.0230876076967,0.0069986958988,-2.50086259842,0.0718914866447,2.52840805054,-0.818080723286,0.0187524296343,-0.000340477126883,0.000293096964015,0.000253745092778,-0.00201809196733,6.60552177578e-06,0.000180833405466,-3.72746726498e-05,0.468510770682,-0.00233190885384,0.163209954705,-0.018155099443,0.931025671696,0.364352105094,0.0104467317934
-0.0203229822218,0.0230838656425,0.00700070895255,-2.5008687973,0.0718915462494,2.5284307003,-0.818085491657,0.0187524296343,-0.000468980608275,0.000216948334128,-0.000167905061971,0.000312006624881,6.76747440593e-05,0.000623494677711,0.000183688200195,0.468513342436,-0.00233232465304,0.163211367968,-0.018150687802,0.931024898457,0.36435403867,0.0104558680198
-0.0203240588307,0.0230903066695,0.00699953176081,-2.50086832047,0.0718914419413,2.52843952179,-0.818087279797,0.0184391997755,0.000155153800733,0.000901372171938,-0.000845858827233,0.000564839923754,-3.36280390911e-05,-7.7134653111e-05,-0.00011909026216,0.468514395988,-0.00233354288269,0.16320931262,-0.0181498724058,0.9310250255,0.364353718886,0.0104571144255
-0.0203218385577,0.023091269657,0.00700136739761,-2.50087666512,0.0718910619617,2.52844905853,-0.818090379238,0.0184391997755,0.000229901648709,-0.000308919989038,-0.000690610555466,0.000650557456538,4.22597622673e-05,0.000153104265337,9.23261438857e-07,0.468512281705,-0.00233178373134,0.163206545863,-0.0181495006367,0.931023743536,0.36435701461,0.0104570639707
-0.0203196145594,0.0230904798955,0.00700224842876,-2.50089001656,0.0718901976943,2.52849078178,-0.818099856377,0.0184391997755,-9.04140779312e-06,-0.00229180860333,-6.50049260003e-05,-0.000443941360572,2.08239021049e-06,-0.000189867510926,0.000294863246381,0.468515051428,-0.00233109835022,0.163205555696,-0.0181426329502,0.931021518302,0.364362670193,0.0104700326185
-0.0203294157982,0.0230822451413,0.00699576921761,-2.50089001656,0.0718918219209,2.52850484848,-0.818103969097,0.0184391997755,-0.000134697445901,0.000101637415355,-0.000495412503369,0.000187594690942,0.000147187442053,1.83530046343e-05,4.89673293487e-05,0.46851970472,-0.00233990311663,0.1632108167,-0.0181381573,0.931024490175,0.364354986675,0.0104809023196
-0.0203232560307,0.0230898503214,0.00699908146635,-2.50089168549,0.0718918666244,2.52851605415,-0.818106949329,0.0184391997755,0.000554871861823,7.20069692761e-06,0.00021011622448,0.00025108968839,1.29978334371e-05,0.000584799563512,-0.000534395687282,0.468520136859,-0.00233410870262,0.163207657665,-0.0181375140451,0.931021542954,0.364362525918,0.010481723643
-0.0203138310462,0.0230922754854,0.00700290082023,-2.50088453293,0.071891695261,2.52852725983,-0.81810760498,0.0184391997755,4.56397501694e-05,0.000319596205372,0.000319448095979,-0.000583136745263,8.94499316928e-06,-0.000145086014527,0.000277857034234,0.468525367921,-0.00232873774671,0.163210028445,-0.018134488839,0.931019240495,0.364368367854,0.0104883904657
-0.0203093569726,0.0230915118009,0.00700521888211,-2.50089097023,0.071891091764,2.5285384655,-0.818110227585,0.0185134038329,-0.000360618520062,-0.000323500542436,-0.000493078085128,-0.000754231703468,1.20322156363e-05,0.000223332099267,-0.000116150258691,0.468524838535,-0.00232575754876,0.163208940553,-0.0181330308089,0.931017501352,0.364372817099,0.0104907204234
-0.0203080978245,0.0230851527303,0.00700520025566,-2.50089907646,0.0718909725547,2.52854466438,-0.818114042282,0.0185134038329,-0.000399522512453,-0.000438842893345,-0.000155195666593,0.000158867347636,3.79620337299e-06,0.000155121553689,-0.0012790748151,0.468523349556,-0.00232527244174,0.163209398724,-0.0181319600961,0.931016591195,0.36437513867,0.0104927092051
-0.020316131413,0.0230864435434,0.00699920766056,-2.50090122223,0.071891233325,2.52855443954,-0.818115830421,0.0185134038329,0.000438749411842,0.00253286887892,-0.000184970151167,-0.000342511426425,-0.00131885323208,-0.000186617326108,0.000391496345401,0.468524190019,-0.00233202415979,0.163208847506,-0.0181304298397,0.931018906213,0.364369214164,0.0104956773056
-0.0203144438565,0.0230904147029,0.00700063956901,-2.50090813637,0.0718908756971,2.52856183052,-0.818118274212,0.0185134038329,2.21522823267e-05,0.00315072876401,-1.49185852933e-05,-0.00149966427125,1.86981505976e-05,-4.8699646868e-05,-0.000143895318615,0.468521787381,-0.0023306613092,0.163205023126,-0.0181308269222,0.931017918941,0.364371767193,0.0104939355445
-0.0203173663467,0.0230890996754,0.00699966866523,-2.50090718269,0.0718917697668,2.52856731415,-0.81811773777,0.0185134038329,-0.000188410893315,0.00019851748948,8.00533598522e-05,0.000169636550709,4.80459566461e-05,0.000142282704473,-0.000144554433064,0.468523661018,-0.00233255823543,0.163206488371,-0.0181294231164,0.931018859309,0.36436932904,0.0104975886709
-0.0203175321221,0.0230869650841,0.00699868472293,-2.50090312958,0.0718918964267,2.52858018875,-0.818119943142,0.0185134038329,0.000343526393408,0.00339036132209,-0.00143774261232,-0.000101898775029,-0.000115621791338,0.000164010896697,-0.000294204655802,0.468528786853,-0.00233337759297,0.163210164999,-0.0181254851254,0.931018692758,0.36436969942,0.010506300691
-0.0203062221408,0.0230877418071,0.00700191128999,-2.50091075897,0.0718916729093,2.52858948708,-0.818123221397,0.0185134038329,0.00052762136329,0.000252414756687,-1.58233033289e-05,-0.000162545911735,3.85135826946e-05,0.00013413214765,-0.000104895676486,0.468527023299,-0.00232669489111,0.163207735933,-0.018125104491,0.931015485569,0.364377907606,0.0105064908708
-0.0202977713197,0.0230862181634,0.00700349500403,-2.50090909004,0.0718914121389,2.52859544754,-0.818122208118,0.0185134038329,0.000119455791719,-9.5098897873e-05,-0.000148847815581,-0.00230135535821,-1.29165380258e-06,7.08639563527e-05,0.00019575197075,0.468529410354,-0.00232213328559,0.163209609952,-0.0181232215303,0.931013806146,0.364382175726,0.0105105329923
-0.020293680951,0.0230841618031,0.00700213620439,-2.50091218948,0.0718915015459,2.52860116959,-0.818124711514,0.0185134038329,-0.000155647183419,-0.000610158545896,-4.41045012849e-05,-7.7209668234e-05,-4.61097297375e-05,-6.29181668046e-05,-0.000257143517956,0.468529513293,-0.00232095186513,0.163209906709,-0.0181221902147,0.93101288809,0.364384512156,0.0105126313281
-0.0202938187867,0.0230868738145,0.00700058974326,-2.50091481209,0.0718908160925,2.52860617638,-0.818128287792,0.0185134038329,-0.000156428504852,0.000453574815765,-0.000372809765395,-6.25567772659e-05,2.48788201134e-05,0.000129018531879,-0.00014510814799,0.46852886834,-0.00232185460871,0.16320808499,-0.0181219013183,0.931012487711,0.364385556613,0.0105123848284
-0.0202820375562,0.0230897460133,0.00699906796217,-2.50091528893,0.0718910396099,2.5286257267,-0.818130552769,0.0185134038329,-5.99660052103e-06,-0.000308349670377,0.000547687464859,-0.00138954131398,5.65015470784e-05,0.00242985854857,-7.85955926403e-05,0.468532434046,-0.00231740805721,0.163208292461,-0.0181184187795,0.931010314118,0.364391074928,0.010519605694
-0.0202624071389,0.0230885893106,0.00700045842677,-2.50091552734,0.071891784668,2.52863121033,-0.818133831024,0.0185225959867,0.00213045906276,-0.000677340023685,0.000437418348156,0.000751085113734,-0.00013603043044,2.44671482506e-05,0.000315129727824,0.468533761385,-0.00230762258043,0.163209232176,-0.0181173666942,0.93100600525,0.36440205439,0.0105224356852
-0.0202286764979,0.0230870991945,0.00700286310166,-2.50091528893,0.0718913972378,2.52863812447,-0.818132221699,0.0185225959867,0.00344197079539,-0.000434023881098,-0.000199364410946,4.9410241445e-06,0.000108857144369,0.000361379323294,-0.000224300500122,0.46853571782,-0.00229084449248,0.163210633156,-0.0181156703604,0.930999670599,0.36441822034,0.010525977375
-0.0201616045088,0.0230865832418,0.00700173201039,-2.5009200573,0.0718909502029,2.52864360809,-0.818135797977,0.0185225959867,0.00349535513669,-0.000331060116878,0.000522541638929,-2.61282857537e-05,-1.89174056686e-06,1.52040993271e-05,-1.33624353111e-05,0.4685348416,-0.00226005459411,0.163209553871,-0.0181154877836,0.930986977796,0.364450658163,0.0105258598914
-0.0200963206589,0.0230881366879,0.00700430991128,-2.50091838837,0.0718903392553,2.52865552902,-0.818138062954,0.0185225959867,0.00700653996319,0.00403433060274,0.000233642495004,0.00347254308872,-0.000104149527033,0.00275321071967,-0.0057283337228,0.4685381326,-0.00222851839956,0.163210514288,-0.0181131175171,0.930974145657,0.364483415793,0.0105306404432
-0.0200525019318,0.0230895038694,0.00700093666092,-2.5009226799,0.071889847517,2.52866840363,-0.818136870861,0.0185225959867,-0.000236222505919,-0.000436222384451,-0.000232250982663,-0.000225904266699,4.55930821772e-05,1.03682623376e-05,-9.68061522144e-06,0.468538717019,-0.0022098246835,0.163209388288,-0.0181114709577,0.930966989624,0.364501696019,0.01053338189
-0.0200579762459,0.0230872035027,0.00699701113626,-2.50092506409,0.0718903765082,2.52867293358,-0.818140566349,0.0185225959867,-0.000548579031602,-0.000980597338639,-0.0034164050594,0.000319388520438,0.00013717294496,0.00249357358553,-0.000366368651157,0.468539243862,-0.00221517040423,0.163210619263,-0.0181101870161,0.930968358994,0.364498175207,0.0105363956739
-0.020066568628,0.0230808146298,0.0069885966368,-2.50092816353,0.071891464293,2.52867436409,-0.81814289093,0.0185225959867,0.000121807432151,-0.00014046166325,-0.000108655680378,0.000168620768818,1.83744541573e-05,0.000191094906768,0.0001880825439,0.468538900318,-0.00222227210717,0.163211988899,-0.0181094981123,0.930970920008,0.364491616384,0.0105381900132
-0.02005340904,0.0230861008167,0.0069930460304,-2.50092220306,0.0718908384442,2.52868056297,-0.818144381046,0.0185311324894,-0.000660819292534,-0.000298660248518,-0.000490932434332,-0.000168483631569,-1.52266084115e-05,0.000109891450847,9.7696458397e-05,0.468542158278,-0.00221417347245,0.163212242339,-0.0181082045411,0.930967384389,0.364500633037,0.0105408885587
-0.0200500078499,0.0230904631317,0.00699421111494,-2.50091981888,0.0718912631273,2.52868247032,-0.81814712286,0.0185311324894,0.000480535207316,0.000367154600099,0.000253729202086,0.000269154290436,-0.000186379489605,0.000191682818695,3.41323284374e-05,0.468542998515,-0.00221204399876,0.163211271943,-0.0181083148554,0.930966128866,0.364503834593,0.0105408770344
-0.0200353264809,0.0230844598264,0.00699869543314,-2.50092053413,0.071890220046,2.52868199348,-0.818147003651,0.0185311324894,0.00386719848029,-0.000898103986401,-0.000251910329098,-0.000299138220726,1.06273273559e-06,-0.000144139601616,-0.000331808754709,0.468543606326,-0.00220310979807,0.16321376965,-0.0181072764337,0.930962479038,0.364513151557,0.0105428264671
-0.0200227778405,0.0230612177402,0.00699640158564,-2.50092434883,0.0718900933862,2.52868127823,-0.818148970604,0.0185311324894,0.00222830078565,-0.00149153417442,-6.73311878927e-05,-0.000150128587848,0.00566673558205,-0.00182309874799,-0.00417817058042,0.46854557231,-0.00219836138186,0.163223149475,-0.0181036826419,0.930960132824,0.364519075032,0.0105513690945
-0.0200113505125,0.0229436587542,0.00699683697894,-2.5009458065,0.0718901976943,2.52867531776,-0.818148076534,0.0185311324894,0.00149616540875,-0.00858539715409,-0.000176453933818,-0.00191727979109,-0.000102681246062,-0.000490607868414,3.14839198836e-05,0.468553872548,-0.00219294342832,0.163269569501,-0.0180865878854,0.930957640968,0.36452508243,0.0105929233635
-0.0199910625815,0.02259834297,0.00699690915644,-2.50095748901,0.0718902796507,2.52864718437,-0.818147361279,0.0185311324894,0.0003298711963,-0.0160136464983,-0.000454350694781,-0.000533486541826,-0.000122747616842,0.000268500647508,-0.000116764509585,0.468600710565,-0.00218395149357,0.163424436772,-0.0180288341145,0.930952271414,0.364537527015,0.0107340845478
-0.0199832674116,0.0222126562148,0.00699551217258,-2.5009560585,0.0718894079328,2.52860832214,-0.818147301674,0.0185311324894,-0.000468740210636,-0.0298828650266,2.14178271563e-05,0.00152416294441,5.24834103999e-05,-0.00547953741625,9.2847731139e-05,0.468661988815,-0.00218162700577,0.163614987565,-0.0179583814164,0.930948739472,0.364544916579,0.0109061676385
-0.0199794862419,0.0216229446232,0.00699716759846,-2.50093507767,0.0718882009387,2.52845406532,-0.81814801693,0.0185311324894,0.000632220180705,-0.0429946184158,0.000543354195543,0.00564545765519,-0.000123640245874,-0.0173349492252,-8.34486127133e-05,0.468734653564,-0.00217822273939,0.163872859587,-0.0178788503475,0.930943883307,0.364555152308,0.0111073603339
-0.0199769102037,0.0208642948419,0.00699569145218,-2.50079321861,0.0718879550695,2.52809691429,-0.818143963814,0.0185311324894,9.61094337981e-05,-0.0519022941589,-0.000191391591216,0.0120783010498,-0.000199194255401,-0.0317274518311,-0.000326266570482,0.468870865634,-0.00217333768225,0.164306309308,-0.0177716039168,0.930937575661,0.364567607126,0.0113956059442
-0.0199115984142,0.0157904475927,0.00699959881604,-2.49935936928,0.0718833804131,2.52359199524,-0.81812608242,0.0185403265059,0.000896828540135,-0.150126516819,-0.00031046566437,0.0468214377761,0.000260120781604,-0.163498356938,0.0001178914099,0.469426789119,-0.0020781667285,0.166849576702,-0.0175072176843,0.930878642666,0.364699676698,0.0123529534049
-0.0199016854167,0.0129875522107,0.00699758902192,-2.49840664864,0.0718802288175,2.52035331726,-0.81811863184,0.0185403265059,0.00128957233392,-0.192475929856,0.0016086982796,0.0705499053001,9.67844753177e-05,-0.245249763131,7.33365668566e-05,0.469643746668,-0.00202647023763,0.168262010829,-0.0174912429686,0.930848065241,0.364769336331,0.0126200956614
-0.0199077930301,0.00898910313845,0.00699044438079,-2.49667859077,0.0718752592802,2.51486063004,-0.818111777306,0.0185403265059,-0.00138194893952,-0.230857506394,-0.000843672663905,0.107901632786,0.00020610797219,-0.343318015337,-0.000404115300626,0.469918574572,-0.00195455418436,0.1702137358,-0.0175768163473,0.930806315236,0.364866364246,0.0127747786639
-0.0199033692479,-0.00636847037822,0.00698910048231,-2.48840022087,0.0718694105744,2.49028468132,-0.818093597889,0.0185403265059,0.000445157522336,-0.362068533897,0.000733992259484,0.220010027289,-8.12286816654e-05,-0.640025854111,0.000132116896566,0.470937390744,-0.00158077957824,0.178444877754,-0.0183492732788,0.930607517132,0.365341082051,0.0126034391455
-0.0198892690241,-0.0117422752082,0.00699812639505,-2.48505163193,0.0718648284674,2.48071169853,-0.81808924675,0.0185403265059,0.00224029063247,-0.404443085194,0.000673129747156,0.261634856462,-0.00110707909334,-0.729003489017,0.00627155369148,0.471275520793,-0.00141181697542,0.181662150354,-0.0187673716867,0.930519975934,0.365553330091,0.0122931969264
-0.0198786221445,-0.0201930720359,0.00699674338102,-2.47969508171,0.0718584284186,2.46603488922,-0.818080186844,0.0185403265059,-0.000107564854261,-0.467381417751,-0.000170213214005,0.307958483696,-0.00117138237692,-0.822181761265,-0.000115813221782,0.471846557987,-0.00118480939779,0.186489321109,-0.0192801486035,0.930395950281,0.365850262086,0.0120514308991
-0.0198721457273,-0.0293949134648,0.00699686026201,-2.47340869904,0.0718562677503,2.44958949089,-0.818067371845,0.0185403265059,0.00117887707893,-0.499991744757,7.37394584576e-05,0.344071567059,-0.000776309636422,-0.907869279385,0.00108158960938,0.472461628209,-0.00094555810367,0.191597759577,-0.0198211358504,0.930263638433,0.366166129547,0.01179198204
-0.0198494885117,-0.0463690571487,0.00700001977384,-2.46106290817,0.0718406438828,2.41981220245,-0.818015575409,0.0185475498438,-0.00141376687679,-0.587063014507,-0.000889163988177,0.438839048147,0.00127316475846,-1.02388298512,0.00628771539778,0.473904528922,-0.000490496988271,0.201956236916,-0.0205909098706,0.929998152864,0.36679457598,0.0118822900203
-0.0198538657278,-0.0565940998495,0.00699204020202,-2.45309352875,0.0718376487494,2.40191197395,-0.817711770535,0.0185475498438,0.00269094994292,-0.603716552258,0.00141216174234,0.485466212034,-0.00157654250506,-1.06266212463,0.0183850768954,0.474877602047,-0.000232572610803,0.208470437473,-0.0209401820254,0.929886964285,0.36704638285,0.0121940539325
-0.0198287796229,-0.068434342742,0.0070090983063,-2.44346690178,0.0718228816986,2.38101792336,-0.817375302315,0.0185475498438,0.000809481600299,-0.65318441391,-0.000633081595879,0.536954581738,0.000366282270988,-1.11269152164,0.0111882137135,0.476000778858,9.28133373524e-05,0.216216054725,-0.0212915500708,0.92973668534,0.367391001881,0.0126576952462
-0.0198450591415,-0.0798476412892,0.00699868379161,-2.43387365341,0.0718122497201,2.36185383797,-0.817209243774,0.0185475498438,-0.000474034895888,-0.678451657295,-0.000338975223713,0.580716013908,0.000757878471632,-1.14331662655,0.0142965959385,0.477280610176,0.000355428527447,0.223954643888,-0.0213534289705,0.9295726062,0.367765392176,0.0136900283388
-0.0198369212449,-0.107788823545,0.00700015900657,-2.40863370895,0.0717143341899,2.31488537788,-0.816802501678,0.0185475498438,-0.00098348595202,-0.726050853729,-0.000875282858033,0.688287079334,-0.00399330211803,-1.19946074486,0.0149042615667,0.48047296802,0.00101987495833,0.243868646588,-0.0211178291122,0.929115496185,0.368795735064,0.0169746141383
-0.0198035296053,-0.124552443624,0.00701469322667,-2.39265084267,0.0716242194176,2.28729248047,-0.816444814205,0.0185475498438,0.000883743690792,-0.744656264782,0.000186415709322,0.69920372963,-0.00650650262833,-1.19425499439,0.0160948112607,0.482368877987,0.00142115113464,0.256389610337,-0.020652133327,0.928829162376,0.369413807081,0.019578440478
-0.0198096539825,-0.137312561274,0.00700837327167,-2.38012981415,0.0716128051281,2.26711273193,-0.816167831421,0.0185475498438,-0.00152115628589,-0.748196303844,-0.000425748585258,0.751551151276,-0.000703379570041,-1.18743526936,0.0153210777789,0.483869723942,0.00169364614944,0.266230548631,-0.0200609176404,0.928614450173,0.369843687696,0.0220999744133
-0.0198075007647,-0.175686463714,0.00701015489176,-2.34091258049,0.071581877768,2.20739459991,-0.815794408321,0.0185541175306,0.00165017193649,-0.744424283504,-0.00316246994771,0.772041559219,0.0048418296501,-1.14269864559,0.0104022854939,0.487737395672,0.00251547309557,0.297004204648,-0.0176969703931,0.927787895541,0.371412267481,0.0308117733239
-0.0198027957231,-0.189379647374,0.00701351603493,-2.32669687271,0.0715754926205,2.18732833862,-0.815647542477,0.0185541175306,-0.000656521471683,-0.758949935436,-0.00216078106314,0.766173958778,0.00106050819159,-1.10324156284,0.00538999401033,0.488914972208,0.0027930146094,0.308334286983,-0.0165220244054,0.927457265608,0.371960669014,0.0345731625662
-0.0198037866503,-0.200563386083,0.00701583456248,-2.31508588791,0.0715598016977,2.17085719109,-0.815563857555,0.0185541175306,-0.000334092561388,-0.733229279518,2.29829693126e-05,0.751122534275,0.00109420996159,-1.09834980965,0.00178112112917,0.489638602703,0.00301838097585,0.317623553679,-0.0155637205345,0.927167473821,0.372430365233,0.0376014471563
-0.0198120791465,-0.237322241068,0.00701452977955,-2.27745580673,0.0715483948588,2.11908078194,-0.815465152264,0.0185541175306,-0.00122619757894,-0.717970728874,0.00035244008177,0.71144592762,-0.000866358343046,-0.972836732864,0.00247007212602,0.490938104942,0.00372846874768,0.348361056246,-0.0119624071756,0.926089100462,0.374002393182,0.0483537837018
-0.0198195800185,-0.251528710127,0.00701143685728,-2.26377725601,0.0715441182256,2.10010814667,-0.815447628498,0.0185541175306,0.000267100025667,-0.695530474186,-0.00153049023356,0.646839141846,0.000223361173994,-0.938901722431,-0.000119129690574,0.490820383453,0.00398904539199,0.359995117088,-0.0104914764674,0.925639402153,0.374590761296,0.0525679306988
-0.0198345035315,-0.262003213167,0.00699647050351,-2.25417661667,0.0715381428599,2.08650636673,-0.815435051918,0.0185541175306,-0.00166017620359,-0.686565279961,-0.00183267588727,0.635011017323,-0.00440374668688,-0.879192054272,-3.28992173309e-05,0.490477222938,0.00416653822258,0.368389379603,-0.00941001873402,0.925305293895,0.375003557063,0.0556228056749
-0.0198862794787,-0.274191379547,0.00696745933965,-2.24341368675,0.0715209767222,2.07105731964,-0.815421402454,0.0185541175306,0.0013318391284,-0.665187954903,-0.00158679147717,0.562451660633,-0.000620983482804,-0.837109386921,0.000652825576253,0.489841274815,0.00434550853363,0.378002833214,-0.00813793202559,0.924915604747,0.375453841339,0.0591549732838
-0.0199357159436,-0.287313759327,0.00690534291789,-2.23308205605,0.0714864656329,2.05499315262,-0.81541633606,0.0185606833547,-0.00560627086088,-0.651548862457,-0.00112701545004,0.489664375782,-0.000221196300117,-0.77061855793,0.000243027869146,0.488700371572,0.00451980947676,0.387790794535,-0.00687842875796,0.924509841643,0.375914282751,0.0626313949282
-0.0201911907643,-0.303669005632,0.00677126180381,-2.22163558006,0.0712285786867,2.03625631332,-0.815407454967,0.0185606833547,-0.0144385090098,-0.598856806755,-0.00880340579897,0.382925927639,-0.02881494537,-0.680685997009,-0.000468505895697,0.486787210257,0.00456449474683,0.399806817683,-0.00515280231517,0.924022820042,0.376388345401,0.066985743252
-0.0205199718475,-0.315388470888,0.00659932708368,-2.2146654129,0.0705467909575,2.02333593369,-0.815401613712,0.0185606833547,-0.019544923678,-0.570808231831,-0.011199330911,0.306940883398,-0.0499322377145,-0.615121603012,9.71539629973e-05,0.485158571409,0.00441160806854,0.407131840017,-0.00393853887905,0.923733797795,0.376667872906,0.0694382598136
-0.0209055524319,-0.324307858944,0.0064110038802,-2.2103998661,0.0694595351815,2.01384925842,-0.815401613712,0.0185606833547,-0.026711512357,-0.543338894844,-0.0156657211483,0.238958239555,-0.0792508795857,-0.568967759609,1.26630320665e-05,0.483578662111,0.00410587445629,0.412510039622,-0.00285169184674,0.923530059932,0.376888766681,0.0709855864806
-0.0217086281627,-0.334995985031,0.00612381659448,-2.20596909523,0.0674140676856,2.00261306763,-0.815401732922,0.0185606833547,-0.0492665246129,-0.477162688971,-0.0118413381279,0.186509460211,-0.119455724955,-0.50335508585,0.000115732073027,0.481457087833,0.003423151858,0.418595954324,-0.00132316888255,0.923343093591,0.377077079065,0.0724476146411
-0.0236929617822,-0.348145961761,0.00555420806631,-2.20178127289,0.0627518594265,1.98888671398,-0.815400719643,0.0185606833547,-0.080264955759,-0.399039238691,-0.0281021539122,0.0977077633142,-0.184673145413,-0.426581054926,0.000315786310239,0.478441273882,0.00164821920577,0.425396235917,0.0012786542376,0.92327836573,0.377068837947,0.0733110875033
-0.0252349935472,-0.35436502099,0.00500068580732,-2.20050001144,0.0592309311032,1.98208618164,-0.815404176712,0.0185705330223,-0.0984553843737,-0.335071951151,-0.0397772826254,0.053899474442,-0.231674000621,-0.382276535034,-0.000121561730339,0.476742234797,0.000171491880321,0.428194293234,0.00286931935879,0.923383259396,0.376859349904,0.0730215950706
-0.0274148564786,-0.36027738452,0.00400095945224,-2.19987010956,0.054107427597,1.97493171692,-0.815409183502,0.0185705330223,-0.123065695167,-0.258553147316,-0.0570739842951,0.0144056333229,-0.290335148573,-0.342850536108,-0.00262389611453,0.474816312641,-0.00208309301002,0.430452037429,0.0048585518823,0.923655077614,0.376397735485,0.0718500972559
-0.0303957704455,-0.365056335926,0.00243704998866,-2.1997859478,0.0467967800796,1.96787381172,-0.815424144268,0.0185705330223,-0.152071118355,-0.173458144069,-0.0889971852303,-0.0036788766738,-0.372892528772,-0.305517822504,-0.00022483545763,0.472854189168,-0.00535499726556,0.431885286159,0.00743195002522,0.924126354853,0.375628151989,0.069561034356
-0.0335199609399,-0.367617815733,0.000546465220395,-2.19986724854,0.0392152629793,1.96210277081,-0.815460443497,0.0185705330223,-0.174481242895,-0.100536741316,-0.112046971917,-0.00453939894214,-0.417954325676,-0.307798951864,-0.00145105784759,0.471307518822,-0.00891928494071,0.432337873482,0.00986593391663,0.924713715222,0.374640185217,0.0667228561369
-0.0394706241786,-0.36834448576,-0.00368190952577,-2.20000386238,0.0253215972334,1.95374083519,-0.815908253193,0.0185705330223,-0.221948444843,0.0146084250882,-0.179767668247,-0.0112826852128,-0.507380545139,-0.257444262505,-0.0282528363168,0.46931106725,-0.0156900699884,0.431629631437,0.0137284989359,0.925904564411,0.372554741043,0.0609526909223
-0.0435964204371,-0.36769926548,-0.00702901883051,-2.20036792755,0.0163217801601,1.94957435131,-0.816605985165,0.0185705330223,-0.256613224745,0.0696266517043,-0.208616882563,-0.0265930760652,-0.538966298103,-0.226098224521,-0.0470851175487,0.468148074338,-0.0209534867561,0.430591503991,0.0163547109379,0.926827526451,0.37080704266,0.0567925738099
-0.0479889437556,-0.366054713726,-0.0104827443138,-2.20087623596,0.00747719686478,1.94630420208,-0.817551255226,0.0185705330223,-0.282490342855,0.133829846978,-0.221694409847,-0.0360587053001,-0.565638959408,-0.186501801014,-0.0622722022235,0.467243355456,-0.0261033215332,0.429172696163,0.0186962182612,0.927724845854,0.369045594967,0.0527485575934
-0.0541341640055,-0.362773805857,-0.0155559647828,-2.20169520378,-0.00421535084024,1.94286870956,-0.819027543068,0.0185705330223,-0.326040267944,0.176839694381,-0.280083715916,-0.0433321334422,-0.600179851055,-0.165207609534,-0.0813556686044,0.466246599117,-0.0329252006668,0.426947871132,0.0214711146016,0.928927835245,0.36657199655,0.0475083063674
-0.0644352510571,-0.356686115265,-0.0252152532339,-2.20296120644,-0.022741721943,1.93845069408,-0.822850525379,0.0185705330223,-0.379998147488,0.256184339523,-0.372766554356,-0.0370208844543,-0.649941325188,-0.139011844993,-0.19577793777,0.464513428997,-0.0457504290005,0.42284169337,0.0259873842922,0.9310348368,0.361959048768,0.0385283690552
-0.0720542296767,-0.351267755032,-0.0328716188669,-2.20366382599,-0.0350140742958,1.93615412712,-0.827484846115,0.0185705330223,-0.419286936522,0.304445385933,-0.422424137592,-0.0381435677409,-0.63697040081,-0.106224000454,-0.268299788237,0.463518618231,-0.0539436069981,0.420053689112,0.0282888045797,0.932177225777,0.359374739572,0.033093194476
-0.0787793546915,-0.346261322498,-0.0399190932512,-2.20427632332,-0.0449928790331,1.93470704556,-0.83230817318,0.0185764431953,-0.438731253147,0.323330104351,-0.469405293465,-0.0400640591979,-0.616180181503,-0.0852146074176,-0.329847723246,0.462400008446,-0.0630299519918,0.416904838497,0.0304090807097,0.933365312902,0.35658760528,0.0273817444205
-0.0860210880637,-0.340939313173,-0.048062607646,-2.20484972,-0.0548510961235,1.93335986137,-0.838037908077,0.0185764431953,-0.459242880344,0.346645832062,-0.541137814522,-0.0306678209454,-0.619724988937,-0.0804273486137,-0.386360436678,0.461204477959,-0.0718274504864,0.413978665388,0.0319864250021,0.934507793555,0.353803451303,0.0222524140795
-0.110747009516,-0.321713685989,-0.0778029114008,-2.20567011833,-0.0824900045991,1.93110787868,-0.861697852612,0.0185764431953,-0.545467913151,0.405162900686,-0.684207499027,-0.00314374943264,-0.514555335045,-0.0231124050915,-0.579503715038,0.456668196018,-0.101621820545,0.404219158666,0.0346949608329,0.938122786056,0.344492375893,0.00684840227283
-0.120790243149,-0.314035266638,-0.0906789377332,-2.20560860634,-0.0914503484964,1.93095183372,-0.872602045536,0.0185764431953,-0.567200183868,0.437639325857,-0.726263344288,0.00389312184416,-0.486506849527,0.00495717069134,-0.63294261694,0.454488535109,-0.113641833448,0.400532881701,0.0348712036965,0.939550643061,0.340626041779,0.00157722093665
-0.131198525429,-0.30590608716,-0.104200214148,-2.20539093018,-0.099765829742,1.93097686768,-0.884449481964,0.0185764431953,-0.57542437315,0.455432236195,-0.764159798622,0.0214344169945,-0.43385502696,2.24174800678e-06,-0.682451963425,0.452130315712,-0.125279037181,0.396909050075,0.0346157544938,0.940907486479,0.336873253135,-0.00335595557743
-0.14297388494,-0.296658366919,-0.120528198779,-2.20473957062,-0.10770624131,1.93097162247,-0.898894608021,0.0185764431953,-0.596822500229,0.456053286791,-0.857579350471,0.0394864678383,-0.367395371199,-0.00032039108919,-0.758804380894,0.448918011006,-0.139345343865,0.392672712622,0.0335802387328,0.942572964913,0.33219131019,-0.00880377774252
-0.160126045346,-0.283197522163,-0.145004078746,-2.20267939568,-0.116954274476,1.93106496334,-0.921647906303,0.0185764431953,-0.617655515671,0.506306827068,-0.905714392662,0.102926924825,-0.297469466925,0.00786784011871,-0.863105535507,0.443493200055,-0.160441815398,0.386761686135,0.0311031876622,0.945012518471,0.325162092465,-0.0159230952604
-0.171575278044,-0.273990958929,-0.161945357919,-2.20044159889,-0.121971644461,1.93130481243,-0.937808036804,0.0185889191926,-0.632715523243,0.50617814064,-0.962734639645,0.138114348054,-0.255977630615,0.0104987164959,-0.91918939352,0.439671233931,-0.174091681848,0.383220089017,0.0291324983938,0.946559826981,0.320593589814,-0.0198882211771
-0.18275372684,-0.264986425638,-0.179104372859,-2.19758462906,-0.126399114728,1.93173062801,-0.954602837563,0.0185889191926,-0.620273590088,0.510818600655,-0.963585197926,0.186028853059,-0.234095990658,0.0264946222305,-0.955726146698,0.435639848133,-0.18760136614,0.38004407634,0.027156452349,0.948012257966,0.316215858865,-0.0232984148131
-0.193425476551,-0.256176143885,-0.195866703987,-2.19407463074,-0.130446612835,1.93230044842,-0.971031546593,0.0185889191926,-0.624976217747,0.523167133331,-1.00036871433,0.231888771057,-0.237952068448,0.0401501655579,-0.978323757648,0.432058937501,-0.199104973574,0.377579291357,0.0255743238002,0.949228234715,0.312475281639,-0.0259019388377
-0.213235348463,-0.239202857018,-0.228293910623,-2.1852915287,-0.137008458376,1.93358194828,-1.00330531597,0.0185889191926,-0.618240177631,0.530138015747,-1.01960384846,0.310440957546,-0.17558246851,0.0404933691025,-1.03633916378,0.423343539625,-0.225377014331,0.37279007198,0.0221923972307,0.951898986588,0.304050970943,-0.0308029803158
-0.222030296922,-0.23145763576,-0.243155062199,-2.18034362793,-0.139275193214,1.93428575993,-1.01843595505,0.0185889191926,-0.595617294312,0.542533218861,-1.03264188766,0.379638493061,-0.140698924661,0.0546714253724,-1.0406473875,0.41945603008,-0.236514986707,0.371166640992,0.0208575307789,0.952997891146,0.300524495861,-0.032326613779
-0.232369527221,-0.221953108907,-0.261320501566,-2.17339634895,-0.141504466534,1.93544101715,-1.03673362732,0.0185889191926,-0.569666087627,0.538976430893,-1.01801073551,0.414057821035,-0.123141974211,0.0731419995427,-1.03640568256,0.414720600966,-0.24996299453,0.3695871732,0.0195021876449,0.954344559764,0.296164548704,-0.0336553964216
-0.243501931429,-0.211521416903,-0.28143787384,-2.16471743584,-0.143923506141,1.93698251247,-1.05710530281,0.0185889191926,-0.551908731461,0.514488399029,-1.00723099709,0.447313815355,-0.117120884359,0.0747567415237,-1.00808489323,0.4093380492,-0.264816118144,0.368345486052,0.0185450423738,0.955773761174,0.291456495216,-0.0347233342533
-0.256874650717,-0.198825210333,-0.306278496981,-2.15312671661,-0.146372169256,1.93881607056,-1.08227479458,0.0185889191926,-0.524199187756,0.492167204618,-0.970471382141,0.498255938292,-0.0836801752448,0.0910222381353,-0.995534002781,0.402285477637,-0.282943338384,0.367275428812,0.0176953192657,0.957507621573,0.285644697444,-0.035681042862
-0.268752455711,-0.187490522861,-0.328605026007,-2.14088702202,-0.148716464639,1.9408531189,-1.10591769218,0.0185994263738,-0.470421075821,0.446521908045,-0.901511073112,0.507924795151,-0.109390832484,0.0802523940802,-0.964584946632,0.395771331953,-0.299450772384,0.36722921463,0.0179765959464,0.958897069662,0.280883154511,-0.0360264485535
-0.275544077158,-0.181117147207,-0.341590553522,-2.13349151611,-0.150404438376,1.9418399334,-1.11966538429,0.0185994263738,-0.451598733664,0.425661683083,-0.878951728344,0.495210707188,-0.113995075226,0.0695901811123,-0.920511722565,0.391695806402,-0.309029859415,0.367422081349,0.018415283662,0.959662885369,0.278187342939,-0.0363294053509
-0.282712578773,-0.174575895071,-0.355424165726,-2.12527751923,-0.151903495193,1.94303941727,-1.13441109657,0.0185994263738,-0.420773386955,0.377577453852,-0.797180891037,0.514525532722,-0.0741210132837,0.089140355587,-0.890335202217,0.387244433212,-0.319195419808,0.367911648466,0.0191072460402,0.960475552221,0.275314334451,-0.0363819140808
-0.302470624447,-0.158741369843,-0.391691416502,-2.10059428215,-0.155838504434,1.94558930397,-1.17758750916,0.0185994263738,-0.342485815287,0.221591860056,-0.583105146885,0.438819855452,-0.0862181037664,0.0417249277234,-0.772313654423,0.374493978804,-0.346490115554,0.371273636121,0.0225525939233,0.962140890581,0.269248195288,-0.035800784976
-0.307767003775,-0.15562094748,-0.400362342596,-2.09371161461,-0.15700507164,1.94615769386,-1.18954455853,0.0185994263738,-0.31798183918,0.174316853285,-0.494321554899,0.398386627436,-0.0631093606353,0.0291398577392,-0.71605181694,0.371301673567,-0.352979424864,0.372763238564,0.0239557259416,0.962381070732,0.268321844105,-0.0353862340421
-0.314060240984,-0.152570322156,-0.409471333027,-2.08571958542,-0.15789745748,1.94659256935,-1.20399689674,0.0185994263738,-0.281896799803,0.117156289518,-0.3871768713,0.357230722904,-0.033760484308,0.0145030794665,-0.66733199358,0.367279349243,-0.360941515732,0.374985227925,0.0258285832829,0.962532572775,0.267703969933,-0.0346195725892
-0.318081021309,-0.151350304484,-0.414867013693,-2.0807697773,-0.158388271928,1.94669342041,-1.21373605728,0.0185994263738,-0.24937748909,0.0458712279797,-0.332967936993,0.305913895369,-0.0342567078769,0.00711554707959,-0.631749212742,0.364829368997,-0.36551902517,0.376607082147,0.027061657578,0.962506963544,0.267757399832,-0.0339703745427
-0.324309974909,-0.151141956449,-0.422984540462,-2.07212591171,-0.159658417106,1.94686591625,-1.23262643814,0.0186040233821,-0.155132219195,-0.0140564115718,-0.207924589515,0.258409649134,-0.0556221492589,0.00247208005749,-0.567704796791,0.361058561889,-0.372735460857,0.380387065716,0.0299898027797,0.961910910557,0.269782420829,-0.0323335272321
-0.326351851225,-0.151544958353,-0.425526976585,-2.06844830513,-0.160351857543,1.94686567783,-1.24097371101,0.0186040233821,-0.11457696557,-0.044874150306,-0.141409426928,0.230109930038,-0.0421398729086,-4.90066740895e-05,-0.545360267162,0.359922102341,-0.375244827408,0.38225471835,0.0314775041599,0.961397685511,0.27152723035,-0.0315692872219
-0.328118562698,-0.152883455157,-0.427589327097,-2.06438660622,-0.161092802882,1.94687116146,-1.25115501881,0.0186040233821,-0.0698747038841,-0.0826051235199,-0.0779550150037,0.197819828987,-0.0340945422649,0.000505733478349,-0.518275260925,0.359066169115,-0.377546583671,0.384760839114,0.0334328288438,0.960531410219,0.274476863803,-0.030399126073
-0.328811198473,-0.154394939542,-0.428414821625,-2.06126189232,-0.161734431982,1.94687056541,-1.25971293449,0.0186040233821,-0.0171286109835,-0.09467202425,-0.0195129215717,0.174794718623,-0.0414758771658,-0.000389957509469,-0.488726109266,0.358897613622,-0.378798270489,0.386943705071,0.0351596433842,0.959554540558,0.27777004322,-0.0293715159964
-0.328051865101,-0.158144384623,-0.427781671286,-2.05689930916,-0.162842214108,1.94687414169,-1.27366709709,0.0186066497117,0.053663764149,-0.129735916853,0.0517671406269,0.11631475389,-0.0202537029982,0.000373326533008,-0.421846300364,0.359861712315,-0.379267817788,0.390828015298,0.0382505769973,0.957375880769,0.284983691269,-0.0274337690359
-0.326908767223,-0.160381317139,-0.426455110312,-2.05512499809,-0.163062527776,1.94684493542,-1.28066980839,0.0186066497117,0.0842753127217,-0.133637100458,0.0988350734115,0.0973625332117,-0.00987693760544,-0.00117873342242,-0.402124464512,0.36094565439,-0.378715313056,0.392776354664,0.0397282742287,0.95602340768,0.289392363233,-0.0263242851194
-0.325304210186,-0.16255658865,-0.424540668726,-2.05371260643,-0.163146078587,1.94681954384,-1.28708481789,0.0186066497117,0.114612653852,-0.130951553583,0.130381315947,0.0863155275583,-0.00142869213596,-0.00477799586952,-0.3994987607,0.362375271479,-0.377684212564,0.39454501742,0.0410661394162,0.954585703669,0.294008065222,-0.025277733656
-0.322884619236,-0.164897203445,-0.421820253134,-2.05221438408,-0.16314829886,1.94673728943,-1.29435825348,0.0186066497117,0.14048923552,-0.119235403836,0.149176046252,0.069472938776,0.000107081563328,-0.00771987251937,-0.375984102488,0.364408729414,-0.376045950173,0.396460906601,0.0425139319868,0.952758316082,0.299767673963,-0.0241557045251
-0.315900832415,-0.169425219297,-0.41429194808,-2.04966449738,-0.163160786033,1.94628119469,-1.30853831768,0.0186066497117,0.191337868571,-0.101862005889,0.214325606823,0.0502918846905,-0.000304292479996,-0.0158900935203,-0.322326540947,0.369887762973,-0.371030860471,0.400070786725,0.045265035821,0.948384544044,0.313090172827,-0.0221895587655
-0.30680540204,-0.172998189926,-0.404364705086,-2.04805445671,-0.163162633777,1.94577562809,-1.32154786587,0.0186066497117,0.206174686551,-0.0619921907783,0.249327749014,0.0264585204422,-1.32606428451e-05,-0.0141944820061,-0.285969763994,0.376979324554,-0.363872456137,0.402931448098,0.0475939201899,0.943136789357,0.32831908992,-0.0208420297554
-0.303488761187,-0.173863574862,-0.400286197662,-2.04763841629,-0.163158878684,1.94553732872,-1.32607531548,0.0186066497117,0.212773397565,-0.0456005185843,0.263426989317,0.0288398824632,0.00013803128968,-0.0126199377701,-0.286075055599,0.37946138323,-0.361253828806,0.40362985737,0.0481980176564,0.941287473435,0.333511207307,-0.0206183834634
-0.296781688929,-0.17464672029,-0.392345786095,-2.04694080353,-0.163159072399,1.94517111778,-1.33424091339,0.0186066497117,0.220157489181,-0.00563383614644,0.249241039157,0.0228703077883,7.85673764767e-05,-0.0112674226984,-0.240432068706,0.384700906613,-0.355678797436,0.404620462444,0.0491941589506,0.937419417528,0.34410011647,-0.0204909711342
-0.293402850628,-0.174671024084,-0.388671696186,-2.04666256905,-0.163156077266,1.94502735138,-1.33773624897,0.0186066497117,0.224964216352,0.00495533039793,0.245158493519,0.0142241315916,0.000102255115053,-0.00582973193377,-0.217671498656,0.387215212085,-0.352967483077,0.404898928074,0.0495498311001,0.935588882511,0.348992417375,-0.0205560078652
-0.288627117872,-0.174575477839,-0.383668512106,-2.04652118683,-0.163155794144,1.9449583292,-1.34222710133,0.0186059940606,0.224827945232,0.00375895714387,0.231622695923,0.00139668374322,-3.2119172829e-05,-0.00430050911382,-0.214339032769,0.390658717702,-0.349153244525,0.405111563517,0.0499514412719,0.933067197656,0.355614292141,-0.0207106997143
-0.285108238459,-0.174371287227,-0.380092889071,-2.04654979706,-0.163155302405,1.94492673874,-1.34538054466,0.0186059940606,0.21593080461,0.0198341663927,0.219158470631,-0.00222692801617,0.00017400435172,-0.00364604219794,-0.188082545996,0.393123027322,-0.346346611908,0.4051356761,0.050150518412,0.931225862108,0.360370036413,-0.0208987029242
-0.27569398284,-0.173042684793,-0.369427889585,-2.04660534859,-0.163153380156,1.9442255497,-1.35409903526,0.0186059940606,0.178332030773,0.0310473889112,0.199709296227,0.00207405840047,9.36395226745e-05,-0.0179768279195,-0.163618445396,0.399804766895,-0.338411980926,0.404817666955,0.0502794345906,0.926034353536,0.373434101244,-0.0218935204816
-0.273075133562,-0.172501608729,-0.36654484272,-2.04660272598,-0.163151904941,1.94411587715,-1.35647106171,0.0186059940606,0.166804090142,0.0369271934032,0.181193932891,-0.00182537001092,3.13399032166e-05,-0.00147473497782,-0.144983187318,0.401801034523,-0.336033879439,0.404648984985,0.0503001488974,0.924448212835,0.37732097807,-0.0222323187854
-0.27004429698,-0.171706244349,-0.363302111626,-2.04664373398,-0.16315177083,1.94408810139,-1.35922408104,0.0186059940606,0.155755326152,0.041191291064,0.158222690225,-0.000770216400269,2.2206824724e-05,-0.000775148742832,-0.146365463734,0.403937910327,-0.333492594986,0.404365041172,0.0502851752321,0.922726966368,0.381488476128,-0.0226470517428
-0.26346629858,-0.169600069523,-0.356591075659,-2.04667329788,-0.163150042295,1.94399642944,-1.36671996117,0.0186059940606,0.102187402546,0.0430773608387,0.108676053584,-0.00154263561126,0.000152785345563,-0.000820209330413,-0.134280636907,0.408444724402,-0.328080441574,0.403574077036,0.0501006820359,0.918692701088,0.391064189394,-0.0237158613976
-0.26196834445,-0.168972060084,-0.355033308268,-2.04673910141,-0.163150176406,1.94395840168,-1.36870491505,0.0186059940606,0.0904545262456,0.0394453220069,0.0858174413443,-0.00144117511809,-6.83496109559e-05,-0.00244171428494,-0.113531023264,0.409465950987,-0.326818382567,0.403291707585,0.0499789610316,0.917698587945,0.393386882223,-0.0240450767264
-0.261625915766,-0.168820738792,-0.35470700264,-2.04675579071,-0.163149818778,1.94394791126,-1.36914908886,0.0186059940606,0.0684322342277,0.0373168177903,0.0707979053259,0.000223060356802,-6.84193291818e-05,-0.00465760147199,-0.0999583229423,0.410340040195,-0.325735088388,0.402994042563,0.0498284719606,0.916825758164,0.395415768321,-0.0243725746071
-0.259594410658,-0.167702436447,-0.35274887085,-2.04683542252,-0.163149863482,1.94383573532,-1.37247443199,0.0186079628766,0.0504732951522,0.0376978814602,0.0500605106354,-0.00294841150753,9.23578918446e-05,-0.00635862257332,-0.118922911584,0.411024882411,-0.324888390422,0.402702390885,0.0496557406905,0.916023895965,0.397271262876,-0.0246996520573
-0.25870642066,-0.166724100709,-0.351593315601,-2.04687309265,-0.163150072098,1.94374072552,-1.37590253353,0.0186079628766,0.0109112886712,0.0282232575119,0.0251131784171,-0.00308176851831,-8.02679933258e-05,-0.000669524713885,-0.0993102043867,0.411710414007,-0.324061932878,0.402258591883,0.0493651196877,0.914956832009,0.399727569343,-0.0251982242718
-0.258529156446,-0.16603769362,-0.351166009903,-2.04688978195,-0.163151010871,1.9437032938,-1.37782180309,0.0186079628766,5.21271758771e-05,0.0277051329613,0.00590493669733,-0.00110162817873,-0.00449935672805,-0.0026683122851,-0.0773429274559,0.411957504894,-0.323796891342,0.401916892617,0.0491310961265,0.914418270311,0.400964410021,-0.0255519841103
-0.258854150772,-0.165283665061,-0.351302325726,-2.04693126678,-0.163150891662,1.94364666939,-1.38031184673,0.0186079628766,-0.0202222224325,0.0206940677017,-0.0138781759888,-0.00257284473628,0.00139011628926,-0.00130711356178,-0.0831643640995,0.411839774246,-0.323987993702,0.401523592116,0.0488090092225,0.914007533856,0.40191429641,-0.0259385175773
-0.259328216314,-0.164990141988,-0.351629346609,-2.0469892025,-0.163151502609,1.94360256195,-1.38197636604,0.0186079628766,-0.0267132893205,0.0124116027728,-0.0219040419906,-0.00243954826146,-4.40719595645e-05,-0.00157928362023,-0.0674485564232,0.411580486539,-0.324310423124,0.40133852891,0.0486220523408,0.913833039246,0.402321522649,-0.0261240215564
-0.260204702616,-0.164796769619,-0.35239008069,-2.04705691338,-0.163151621819,1.94350731373,-1.38382232189,0.0186079628766,-0.0329646542668,0.00329287280329,-0.0256144031882,-0.000936865224503,-6.66459091008e-05,-0.00455870293081,-0.0626388713717,0.411031953961,-0.324969841635,0.401177032665,0.0483996760955,0.913792534926,0.402429559824,-0.0262892283435
-0.260833948851,-0.16477945447,-0.352995574474,-2.047082901,-0.163152426481,1.94346916676,-1.38498270512,0.0186079628766,-0.0369773805141,0.000499257002957,-0.0353792719543,-0.000769328908063,-2.50304474321e-05,-0.000302209577058,-0.0633752122521,0.410620222484,-0.325472303985,0.401131547405,0.0482976227065,0.91380891369,0.402401277721,-0.0263404683143
-0.261467546225,-0.164800599217,-0.353675127029,-2.04708003998,-0.163152605295,1.94344723225,-1.3859847784,0.0186079628766,-0.0419304333627,-0.002091065282,-0.0407271459699,0.00121220469009,-7.02185861883e-05,-0.00255993660539,-0.0607172511518,0.410162081482,-0.326046080594,0.401117971068,0.048218914778,0.913877455318,0.402253822303,-0.0263589651128
-0.262230634689,-0.1648337394,-0.35440415144,-2.04705309868,-0.16315202415,1.94344115257,-1.38711106777,0.0186079628766,-0.0459190905094,-0.00262244278565,-0.0398102402687,0.00369183928706,3.05123940052e-05,6.5024534706e-05,-0.0615320689976,0.409704696262,-0.326631368422,0.401121176681,0.0481608652118,0.913948622052,0.40209861526,-0.0263657087405
-0.264505803585,-0.164874836802,-0.356449246407,-2.04705476761,-0.163154006004,1.94342982769,-1.38886117935,0.0186086203903,-0.0524374507368,0.00068248907337,-0.0402298495173,-0.000211346763535,0.000108857238956,0.000144371908391,-0.0280278865248,0.408256725071,-0.32844574229,0.40106698549,0.0479541028566,0.914481835943,0.400907309726,-0.0263951593654
-0.265533000231,-0.16486735642,-0.357320398092,-2.04706811905,-0.163154557347,1.94342327118,-1.38950705528,0.0186086203903,-0.05279006809,8.79082363099e-05,-0.0406416580081,-0.000558682193514,-4.08367486671e-05,-0.000332767114742,-0.0386447459459,0.407661368481,-0.329183422372,0.401027766863,0.047858914118,0.914720559518,0.400372178188,-0.0264185720414
-0.266330748796,-0.164859890938,-0.358025759459,-2.04707407951,-0.163153991103,1.94340670109,-1.3902027607,0.0186086203903,-0.0492308065295,-9.7110067145e-05,-0.0418820828199,-3.94080707338e-05,4.38058623331e-06,0.000106752537249,-0.0485310219228,0.407163511035,-0.329796765256,0.400995223071,0.0477730943455,0.914883578233,0.400008140347,-0.0264434693932
