imanlab/tactile_prediction_flat_dataset/train/data_sample_2021-11-24-16-26-21/robot_state.csv
position_panda_joint1,position_panda_joint2,position_panda_joint3,position_panda_joint4,position_panda_joint5,position_panda_joint6,position_panda_joint7,position_panda_finger,velocity_panda_joint1,velocity_panda_joint2,velocity_panda_joint3,velocity_panda_joint4,velocity_panda_joint5,velocity_panda_joint6,velocity_panda_joint7,ee_state_position_x,ee_state_position_y,ee_state_position_z,ee_state_orientation_x,ee_state_orientation_y,ee_state_orientation_z,ee_state_orientation_w
0.558512270451,0.044831186533,-0.569933235645,-2.53087902069,-0.0911444947124,2.59815478325,-0.710288226604,0.0697406232357,-0.000140888296301,0.000113083951874,5.72867611481e-05,-0.000888568640221,-1.66657446243e-06,-3.46019951394e-05,0.000151666565216,0.466312562268,-0.0129530104909,0.151626173635,0.0389146271635,0.924770290742,0.378530342551,0.000583613055303
0.558508813381,0.0448332466185,-0.569934487343,-2.5308816433,-0.0911435857415,2.59815526009,-0.710287094116,0.0697406232357,-0.000238021821133,-1.91894796444e-05,0.000337133795256,0.000338438549079,-3.17246963277e-06,-0.00259755621664,-0.000106553816295,0.466310994222,-0.0129553773109,0.151624454102,0.0389141728283,0.924771535647,0.37852735091,0.000581641204498
0.558509945869,0.0448295325041,-0.569933831692,-2.53087759018,-0.0911434814334,2.59815502167,-0.710289120674,0.0697406232357,0.000316404330079,-0.000237190557527,8.39036292746e-05,-0.000582927023061,3.17213489325e-05,-1.17764075185e-05,-0.000244811351877,0.466313537354,-0.0129541688873,0.151627374787,0.0389145685948,0.924770851816,0.378528975343,0.000585227163122
0.558512985706,0.0448279455304,-0.569931983948,-2.53087377548,-0.0911441743374,2.59815573692,-0.710287690163,0.0697406232357,0.00363894528709,0.00030759719084,-9.48652086663e-05,-0.000431532011135,0.000345732696587,-1.54579556693e-05,-0.000252160651144,0.466315878174,-0.0129517227412,0.151629457693,0.0389154158793,0.924770069123,0.378530795869,0.000588152503388
0.558510005474,0.0448278486729,-0.569933712482,-2.53087925911,-0.0911423638463,2.59815526009,-0.710288345814,0.0697406232357,0.00044110554154,0.000620335398708,4.74196676805e-05,-0.00022259587422,0.0029345122166,-0.00123799382709,-0.00072495668428,0.466313021955,-0.0129538816654,0.151627426117,0.0389138626412,0.924771176548,0.37852825411,0.000585528603203
0.558511376381,0.0448303446174,-0.569933950901,-2.5308804512,-0.0911431089044,2.59815454483,-0.710289299488,0.0697406232357,0.000150566571392,-0.000422844954301,0.000302777712932,-0.000108836269646,6.1327322328e-05,-6.05934874329e-05,0.00023320899345,0.466311912112,-0.0129536424708,0.151625950873,0.038913917018,0.924770645355,0.378529549634,0.000583342542538
0.558513641357,0.0448329672217,-0.569932043552,-2.53088140488,-0.0911434590816,2.5981554985,-0.710288286209,0.0697399675846,0.000224766961765,0.000560004438739,-7.76427332312e-05,0.000496148597449,-5.48668197098e-07,-0.000154863213538,-0.000285408343188,0.46631130558,-0.0129520625133,0.151624694395,0.0389141523076,0.924769968491,0.378531180867,0.00058216955194
0.558511078358,0.0448279380798,-0.569932639599,-2.53087592125,-0.0911423489451,2.5981566906,-0.710287034512,0.0697399675846,-0.000436119211372,0.000692274945322,-0.000270353077212,-0.000247917341767,0.00104476511478,0.00550780957565,-0.000337473727996,0.466314989642,-0.0129528400763,0.151628754004,0.0389147162911,0.924770985812,0.378528628867,0.000587764734319
0.558507680893,0.0448296293616,-0.569934666157,-2.53087449074,-0.0911420434713,2.59815716743,-0.710288345814,0.0697399675846,0.00033608826925,0.000228241944569,3.57219360012e-05,-0.000127787730889,0.00484551303089,-0.00232292409055,-0.000440260628238,0.466315477121,-0.0129555182489,0.151628695977,0.0389151842339,0.924771783644,0.378526631661,0.000587723552725
0.558508515358,0.044829621911,-0.569934904575,-2.53087925911,-0.0911430418491,2.59815502167,-0.710287153721,0.0697399675846,-5.73780671402e-05,-8.7902371888e-05,-5.14381172252e-05,-8.95151169971e-05,-6.21938015684e-05,-0.00142210174818,0.000167856589542,0.466312669862,-0.0129553411198,0.15162673047,0.0389141679317,0.924771778991,0.378526752576,0.000584451281219
0.55851149559,0.0448301397264,-0.569932937622,-2.53087949753,-0.0911423936486,2.5981554985,-0.710289597511,0.0697399675846,0.000531053694431,0.000467198115075,0.000604594533797,-1.28694027808e-05,-8.12107828096e-06,-1.02627427623e-05,-0.000271332828561,0.466312629229,-0.0129530376481,0.151626460536,0.038914037563,0.92477048172,0.378529935355,0.000584417463048
0.558511674404,0.0448317974806,-0.569934546947,-2.53087759018,-0.091142386198,2.59815716743,-0.710289418697,0.0697399675846,0.000174323300598,-0.000870542833582,0.000136498580105,0.000478216214105,-0.000113869005872,-3.13344717142e-05,0.000381856254535,0.466314378311,-0.0129533431288,0.151627547571,0.0389149860642,0.924770736324,0.378529213818,0.000585720722111
0.558513939381,0.0448284484446,-0.569934129715,-2.53087663651,-0.0911431834102,2.5981554985,-0.710287511349,0.0697399675846,-7.59085451136e-05,-0.000540873210412,0.000372185313608,-0.00026286317734,3.32539420924e-05,-0.000191029699636,-0.00055372226052,0.466314326725,-0.0129523186316,0.151628197899,0.0389146694741,0.924770507129,0.378529805001,0.000586559929753
0.558511853218,0.0448297597468,-0.56993407011,-2.53087854385,-0.0911429151893,2.59815621376,-0.710288703442,0.0697399675846,-8.15515450086e-05,-0.000349839479895,0.000389745924622,0.000119215466839,0.00296836905181,-1.28120946101e-05,-0.000849780160934,0.466313309479,-0.012953370904,0.151627044241,0.0389144566281,0.924770697857,0.378529362815,0.000585338203516
0.558507323265,0.0448311418295,-0.569935142994,-2.53087878227,-0.091143168509,2.59815835953,-0.710286080837,0.0697399675846,0.000102363650512,-0.000558511354029,0.000397911091568,0.000596665719058,2.78022762359e-05,-1.36001572173e-05,0.000363870436558,0.466313675254,-0.0129558801279,0.151626961443,0.0389150063727,0.924772149538,0.378525758841,0.000585912660597
0.558511674404,0.0448286496103,-0.569933891296,-2.53087425232,-0.0911431834102,2.59815764427,-0.710288286209,0.0697399675846,0.000185846074601,0.000425846519647,-0.00010111740994,0.000219249734073,3.20985272992e-05,-9.87168618849e-07,-0.000657328404486,0.466315847171,-0.0129532919907,0.151628938667,0.0389155670093,0.924770627856,0.378529415135,0.000588268183979
0.558515369892,0.0448286682367,-0.569931149483,-2.53087735176,-0.0911432728171,2.59815979004,-0.710288286209,0.0697406232357,0.000433983630501,0.000117316223623,0.000318248261465,0.000183047130122,5.95467972744e-05,7.52967534936e-05,0.000630918773822,0.466314954812,-0.0129503970316,0.151628344503,0.0389151513208,0.924769522785,0.378532157474,0.000588359614825
0.55851238966,0.0448296070099,-0.569931268692,-2.53087973595,-0.0911432951689,2.5981593132,-0.710287988186,0.0697406232357,0.000229682322242,0.000351768510882,0.000563273380976,-0.000444241217338,7.12931796443e-05,0.000110474327812,-0.000312868651235,0.466313444536,-0.0129517349328,0.151626918221,0.0389147320813,0.92477010728,0.378530775721,0.000586364208539
0.558507740498,0.0448292419314,-0.56993418932,-2.53087687492,-0.0911426544189,2.5981593132,-0.710287988186,0.0697406232357,-0.000236127409153,-0.000603137013968,0.000159932154929,0.000466144527309,2.54586611845e-05,-7.91219354142e-05,-0.000120368946227,0.466314827689,-0.0129552140956,0.151628156247,0.0389151664782,0.924771634992,0.378526996554,0.000587788671155
0.558511197567,0.044830661267,-0.56993073225,-2.53087425232,-0.0911400690675,2.59815907478,-0.710288405418,0.0697406232357,0.000764101161622,-0.000221875729039,0.000571544049308,0.000282031251118,-3.83093247365e-05,0.000180377013749,0.000244484108407,0.466315867772,-0.0129514548545,0.151628441521,0.0389149845944,0.924770466501,0.378529868978,0.000588418314458
0.558513462543,0.0448309034109,-0.569931507111,-2.5308740139,-0.0911421850324,2.5981593132,-0.710287988186,0.0697406232357,-0.000396930990973,-0.000541594228707,-0.000306320958771,-0.000163215663633,9.12846444407e-05,0.000153724598931,-0.000126209939481,0.466316082269,-0.0129514095727,0.151628542444,0.0389156858756,0.924770095189,0.378530703909,0.00058848784699
0.558507800102,0.0448304712772,-0.569934248924,-2.53087711334,-0.0911429524422,2.59816002846,-0.710288763046,0.0697406232357,0.000404239166528,-0.000119365482533,0.00027933169622,0.000427456805483,-1.66715071828e-05,-5.32394842594e-05,0.00021092982206,0.466314676071,-0.0129553296392,0.151627658151,0.0389154117442,0.924771417369,0.378527503662,0.000587368351083
0.558509111404,0.0448294915259,-0.569933235645,-2.53087639809,-0.0911420509219,2.59816026688,-0.710287332535,0.0697406232357,0.000373832881451,-0.000133661742439,0.000642223865725,-0.00041758856969,-2.53917296504e-05,0.000200287802727,0.000304076645989,0.466315255207,-0.0129541033694,0.151628312946,0.0389152609099,0.924771405079,0.378527547512,0.000588451141227
0.558510899544,0.0448305495083,-0.569932579994,-2.53088021278,-0.091140717268,2.59815979004,-0.710287690163,0.0697406232357,0.000533887243364,-6.6299806349e-05,0.000486905715661,-0.000480506278109,-4.25978541898e-05,0.000218483095523,0.000239024317125,0.466313129739,-0.0129530346545,0.151626427126,0.0389141916795,0.924771116478,0.378528366129,0.000586116306114
0.558506846428,0.0448289997876,-0.569935977459,-2.53087854385,-0.0911428928375,2.59816074371,-0.710288643837,0.0697399675846,2.98007744277e-05,9.90218832158e-05,8.06976167951e-05,-0.000566976319533,9.97468378046e-05,0.000193696832866,8.15725579741e-05,0.466314322267,-0.0129564378395,0.151627784484,0.0389151467643,0.924771968904,0.378526182887,0.000587735612458
0.558507740498,0.0448288321495,-0.569934010506,-2.53088116646,-0.091139473021,2.59816360474,-0.710290908813,0.0697399675846,-0.000213472361793,-0.000227053882554,-4.35554866272e-05,-0.00253119622357,1.15237899081e-05,-0.00369629124179,0.00036373391049,0.466313689157,-0.0129548949207,0.151627108991,0.0389141926066,0.924771558417,0.378527282947,0.000588306671506
0.558510601521,0.0448315702379,-0.569935083389,-2.53087711334,-0.091141320765,2.59816861153,-0.710289657116,0.0697399675846,-0.000350757938577,-0.000511180609465,0.000202349969186,0.000137014649226,1.46068214235e-05,0.000107809224573,0.000209882142371,0.466316488206,-0.0129542092276,0.151628192078,0.0389164556001,0.92477103808,0.378528316737,0.000591375005376
0.558512508869,0.0448313578963,-0.569933772087,-2.53087544441,-0.0911417156458,2.59817409515,-0.710291087627,0.0697399675846,2.76663213299e-05,-0.000501944276039,0.000175707798917,0.000353832350811,-1.11523218038e-06,3.98008887714e-05,-5.27994779986e-05,0.466318461299,-0.0129526441812,0.151629238765,0.0389177187009,0.924770007041,0.378530700803,0.000594543315228
0.558508634567,0.0448299795389,-0.569934666157,-2.53087735176,-0.0911410078406,2.59817934036,-0.710290789604,0.0697399675846,9.86892773653e-05,5.25572431798e-05,0.00091892038472,0.000331001006998,-3.53744253516e-05,-0.00293399882503,5.41470253665e-05,0.466318802541,-0.01295461046,0.151629563042,0.0389179078592,0.924771040918,0.378528151953,0.000596815634857
0.558509945869,0.0448284707963,-0.569934904575,-2.53087663651,-0.0911398902535,2.59818267822,-0.710292339325,0.0697399675846,0.000297653023154,8.0721320046e-06,-0.000740479037631,-0.000393114314647,-1.54712870426e-05,-0.000192370222067,-0.00013341086742,0.466320120353,-0.0129538515202,0.151630726675,0.0389181779073,0.924770702218,0.378528947299,0.000599571650234
0.558510780334,0.0448290705681,-0.569932758808,-2.53087759018,-0.0911406874657,2.59818482399,-0.710292220116,0.0697399675846,2.08504352486e-05,-0.000609523209278,0.000348145025782,-0.000131506938487,-7.47814920032e-05,-0.000272497098194,0.000135898793815,0.466320050996,-0.0129524938461,0.151630316628,0.0389185296849,0.924769998694,0.378530629476,0.000599827812786
0.558508455753,0.0448284931481,-0.569933891296,-2.53088068962,-0.0911395698786,2.59818601608,-0.710291266441,0.0697399675846,-4.57937039755e-06,-0.000406014180044,-4.85408818349e-05,0.000107305771962,7.09095838829e-05,-0.000124965008581,0.000133456400363,0.466318822462,-0.0129540014898,0.151629509445,0.0389178187021,0.92477102808,0.378528188535,0.000599315030993
0.558506727219,0.044829569757,-0.569933712482,-2.53087997437,-0.0911391153932,2.59818983078,-0.710293352604,0.0688186660409,-0.00144249584991,0.000628264911938,1.25915012177e-05,-8.75201585586e-05,-3.4337233501e-06,0.000143428624142,-0.00047948944848,0.466319811363,-0.0129547262821,0.151629709966,0.0389185370395,0.924770940028,0.378528327291,0.000600895698495
0.558509111404,0.0448288172483,-0.569935977459,-2.53087759018,-0.0911402627826,2.59818983078,-0.710291028023,0.0688186660409,0.000427070684964,-0.000135340451379,0.00175607111305,0.000162565062055,9.55454379437e-05,-0.00555866211653,0.000607091060374,0.466321119639,-0.0129546476814,0.151630918596,0.038919267323,0.924771156219,0.378527721791,0.000602307774252
0.558512210846,0.0448304265738,-0.569933772087,-2.53087854385,-0.0911407247186,2.59819126129,-0.710292220116,0.0688186660409,-2.42735695792e-05,-0.000466046534711,-0.000430898624472,0.000274047255516,8.03765215096e-05,4.00528224418e-05,-0.000181588839041,0.466320769717,-0.0129523050943,0.151630047834,0.0389195075385,0.924769820532,0.378530961099,0.000601780265787
0.55850893259,0.0448311977088,-0.569934487343,-2.53087878227,-0.0911413654685,2.59819507599,-0.710290968418,0.0688186660409,-3.83327169402e-05,-0.000706324470229,-0.000460335722892,-0.000378404860385,-1.64292869158e-05,0.000397035124479,2.16660682781e-05,0.466321309192,-0.0129541905895,0.151630025728,0.0389203029478,0.924770648153,0.378528855473,0.000602985156401
0.558508694172,0.044827491045,-0.569933950901,-2.53087639809,-0.0911392346025,2.5982105732,-0.710296869278,0.0688186660409,0.000174701563083,-0.00022628348961,-0.00030131964013,0.00181643047836,-1.96197470359e-05,7.85826341598e-05,-0.000323073763866,0.466326071916,-0.0129531914208,0.151633484009,0.0389222354491,0.924769710043,0.378530932684,0.000612911199417
0.558508694172,0.044829826802,-0.569934129715,-2.53087687492,-0.0911382734776,2.59821581841,-0.710295975208,0.0688186660409,-0.000206191994948,0.000132484856294,0.000230245714192,-0.000229331228184,0.000238361142692,-0.000122934550745,-0.000244197464781,0.466326947011,-0.0129535607316,0.151633021451,0.0389231522417,0.924769828895,0.37853054514,0.000614706693105
0.558508276939,0.0448292829096,-0.569935023785,-2.53087878227,-0.0911365747452,2.59822177887,-0.710297048092,0.0688186660409,0.000118237017887,0.000626704713795,-8.62478118506e-05,-0.000140325821121,2.38044012804e-05,-6.94304908393e-05,-0.000388680375181,0.466327253168,-0.0129538482963,0.151633032556,0.0389232144641,0.924770178466,0.378529681281,0.000616821376133
0.558509171009,0.0448295362294,-0.569933593273,-2.53087925911,-0.0911391228437,2.59822750092,-0.710296094418,0.0688186660409,0.00028743504663,0.000174817236257,0.000205795062357,0.0003558571334,-9.51662514126e-05,-7.45728830225e-05,0.000491262122523,0.466328329447,-0.0129527299295,0.151633505091,0.0389246245348,0.924769444827,0.378531324897,0.000619091814099
0.558510124683,0.0448285341263,-0.569933176041,-2.53087902069,-0.0911371707916,2.59823226929,-0.710296392441,0.0688186660409,-0.00219618412666,-0.000562368251849,2.58132831732e-06,0.00024114313419,6.51637819828e-05,0.000220576461288,-0.000426589598646,0.466329641203,-0.0129518165431,0.151634418204,0.0389248511657,0.9247694075,0.378531387742,0.000622166471252
0.558506906033,0.0448271855712,-0.56993407011,-2.53087759018,-0.091138087213,2.59823393822,-0.710298776627,0.0688186660409,-0.00338718574494,6.36326221866e-05,-0.000560624117497,-5.98240694671e-06,-0.00547535112128,0.000137908849865,0.000165251403814,0.466330868532,-0.0129536047953,0.1516356431,0.0389255253493,0.924769563133,0.378530935066,0.000624067305627
0.558506071568,0.0448296926916,-0.569935798645,-2.53087592125,-0.0911375582218,2.59823560715,-0.710294783115,0.0688186660409,-0.000893623335287,0.000729299790692,0.00029555693618,-0.000508832163177,-0.0040901042521,4.92676153954e-05,-0.000322683132254,0.46633164075,-0.0129549909294,0.151635463974,0.0389262330938,0.924770836824,0.378527749901,0.000624478972794
0.558508455753,0.0448299646378,-0.56993496418,-2.53087830544,-0.0911371335387,2.59823989868,-0.710296750069,0.0654230415821,0.000552909099497,0.00281755952165,-0.00101513613481,-0.000232101680012,-0.000148773076944,0.00821437966079,1.82567036973e-05,0.466331383435,-0.0129534126979,0.151634861364,0.0389263480299,0.924769882104,0.378530069097,0.000625343908884
0.558510482311,0.0448306873441,-0.56993407011,-2.53087973595,-0.0911372080445,2.59824442863,-0.71029728651,0.0654230415821,0.000617996265646,0.000215377149289,-0.000222053742618,0.000731664418709,-0.00126307655592,8.34430175018e-05,-0.000530395947862,0.466331186551,-0.012952088468,0.151634103509,0.0389267895567,0.924769133596,0.378531851183,0.000626039939772
0.558510184288,0.0448279082775,-0.569934129715,-2.53087663651,-0.0911378338933,2.59824872017,-0.710299313068,0.0654230415821,-1.02371068351e-05,0.00021562204347,8.42514273245e-05,-0.000305116176605,-0.000127245206386,0.000152808221173,0.000317481986713,0.466334458943,-0.012951848788,0.151637097341,0.0389280456856,0.924768692063,0.37853279206,0.000631234368231
0.558509171009,0.0448299758136,-0.56993496418,-2.53087592125,-0.091138266027,2.59824991226,-0.710296750069,0.0654230415821,-0.00033853619243,0.000104792889033,-2.89304207399e-05,0.000152041509864,-0.000627638248261,4.48265745945e-05,-0.000464137468953,0.466334732364,-0.0129529031066,0.151636682108,0.0389286719417,0.924769412985,0.378530966662,0.000631085355403
0.558504521847,0.0448308438063,-0.569935262203,-2.53088116646,-0.0911367759109,2.59825491905,-0.710296809673,0.0654230415821,0.000334523210768,0.000220493850065,0.000205282442039,0.000530975696165,-0.000606296292972,6.53910756228e-05,0.000383793463698,0.466333020131,-0.0129551523917,0.151634860585,0.0389281600797,0.92477054369,0.378528257624,0.000630665249137
0.558506429195,0.0448297634721,-0.569934785366,-2.53087639809,-0.0911371409893,2.59825730324,-0.710296630859,0.0654230415821,0.00019721321587,-6.72063251841e-05,-0.000405306607718,0.000581589702051,0.000741103489418,-7.66399807617e-06,0.000510072219186,0.466336087038,-0.0129538800856,0.151637272259,0.0389294500286,0.924770020519,0.378529396634,0.000634535834307
0.558510780334,0.0448283143342,-0.569933950901,-2.53087615967,-0.0911381244659,2.59825897217,-0.710297584534,0.0654230415821,0.000203647898161,-0.000145963014802,-0.000236983469222,0.00038554877392,-3.60885314876e-05,0.00223692413419,-1.61957595992e-05,0.466336853796,-0.0129513182325,0.151638073033,0.0389298590662,0.924768684373,0.378532616157,0.000636132744911
0.558511435986,0.0448294170201,-0.569932818413,-2.53087735176,-0.0911371260881,2.59825992584,-0.710297942162,0.0654230415821,0.000100081757409,-0.000100331708381,-0.000430300773587,-0.000474034139188,2.96703856293e-05,0.000165763078257,0.000377480406314,0.466336316552,-0.0129505295512,0.151637274272,0.0389296010148,0.924768431248,0.378533261959,0.000635614406036
0.558503329754,0.044831097126,-0.569933116436,-2.53087735176,-0.0911382138729,2.59826588631,-0.710297703743,0.058059182018,-0.000431750289863,-0.000227802855079,0.000447966740467,0.000462930620415,-8.08644472272e-06,-3.62541650247e-05,0.000598716491368,0.466337239121,-0.0129545273933,0.15163718446,0.0389309608386,0.924769788349,0.378529803737,0.000637347417312
0.558507919312,0.0448277704418,-0.569934785366,-2.53087568283,-0.0911376550794,2.59826850891,-0.71029818058,0.058059182018,0.000222067072173,-0.00353022059426,7.37646332709e-05,-6.74657931086e-05,0.000178680784302,-2.23711253966e-06,-0.000534537539352,0.466339185032,-0.0129527740183,0.151639360721,0.0389313172351,0.924769229458,0.378531126134,0.000641106215594
0.5585090518,0.0448313951492,-0.569933056831,-2.5308778286,-0.0911378934979,2.59826922417,-0.710297107697,0.058059182018,-0.000165620600455,5.50487311557e-05,1.72756208485e-05,-0.000176530098543,3.52891984221e-05,0.000307356298435,-0.000381665216992,0.466337751524,-0.0129517786421,0.151637201404,0.0389313388603,0.924768817531,0.3785321343,0.000638718523807
0.558505535126,0.0448300018907,-0.569935441017,-2.53087902069,-0.0911368057132,2.59827423096,-0.710297167301,0.058059182018,-3.4614247852e-05,-0.00158905342687,0.000210679761949,-0.000330993294483,-8.27127369121e-05,0.00116320094094,0.0001364252239,0.466338387913,-0.0129542694457,0.151637791537,0.0389315683059,0.924770060578,0.378529069632,0.000641228635662
0.558502793312,0.0448309592903,-0.569934606552,-2.53087711334,-0.0911374688148,2.59827589989,-0.710297524929,0.058059182018,-0.000122519253637,-0.00108732143417,0.000253447826253,-0.00041264644824,0.000130087486468,4.61715826532e-05,-0.000150634397869,0.466339516695,-0.0129552285394,0.151638277018,0.0389324284355,0.924770201297,0.37852863554,0.000642314300874
0.558503448963,0.0448304340243,-0.569936454296,-2.53087878227,-0.0911360308528,2.59827804565,-0.710297465324,0.058059182018,0.000381706777262,-8.76240010257e-05,0.000161931617185,0.000337681936799,7.49469836592e-05,-0.000143017285154,-7.6142452599e-05,0.466339224518,-0.0129556523154,0.151638078105,0.0389320872708,0.924770666293,0.378527533538,0.000642947673653
0.558506965637,0.0448299646378,-0.569935560226,-2.53087830544,-0.0911366418004,2.59828233719,-0.710296809673,0.058059182018,0.000414606387494,-0.000130590982735,9.47392036323e-05,0.000122425743029,1.70960106516e-06,0.000115308794193,-0.000116303490358,0.466340512972,-0.0129534753327,0.15163883003,0.0389329468366,0.924769799606,0.378529558214,0.000645467670497
0.558509111404,0.0448307208717,-0.569931864738,-2.5308816433,-0.0911372825503,2.59829235077,-0.710297942162,0.0564608573914,-0.000141549753607,-0.000194502077647,-0.00019479932962,8.20751520223e-05,-0.00557244615629,0.00115423521493,0.000223195311264,0.466340838522,-0.0129505933054,0.151638064599,0.038934062811,0.924768190117,0.378533370929,0.000648132866661
0.55850815773,0.0448300652206,-0.569934010506,-2.53087925911,-0.0911367237568,2.59829473495,-0.710296392441,0.0564608573914,-0.000534224323928,-0.000297427992336,-0.000250291835982,-3.50640439137e-05,-4.24633690272e-05,7.80668997322e-05,0.000264049333055,0.466342729716,-0.0129519413108,0.15163957634,0.0389347138937,0.924769190652,0.378530854864,0.000650902661656
0.558506011963,0.0448298193514,-0.569935441017,-2.53087639809,-0.091137342155,2.59829902649,-0.710297703743,0.0564608573914,0.000234748760704,-0.000193041050807,-0.000409020314692,0.00050168990856,0.000194335923879,-1.04336213553e-05,0.00018662349612,0.466345068709,-0.0129535171731,0.151641155203,0.0389361118532,0.924769445444,0.378530082871,0.000654225135957
0.558504283428,0.0448288172483,-0.569935083389,-2.53087806702,-0.0911362618208,2.59830951691,-0.710297644138,0.0564608573914,0.000231981815887,-0.000674675917253,-0.000185471042641,4.3352265493e-05,-0.00554593699053,0.00253669917583,0.000245331757469,0.466346639061,-0.0129538017635,0.151641896438,0.0389370880399,0.924769782497,0.378529150733,0.000659001431631
0.558507323265,0.0448324121535,-0.56993407011,-2.53086781502,-0.0911372825503,2.59865522385,-0.71029740572,0.0564608573914,0.000198861976969,-0.00056121009402,0.000126945931697,0.00444532837719,-7.40436371416e-05,0.00237796944566,0.00021714149625,0.466425775021,-0.0129449566697,0.151676605235,0.038994233568,0.924764310361,0.378536309732,0.000825790066025
0.558509588242,0.0448310635984,-0.569933831692,-2.53086328506,-0.0911365821958,2.59868907928,-0.710296809673,0.053093470633,-1.29004238261e-05,-0.000431297172327,-0.000423991237767,-0.00154071254656,-3.52477727574e-05,0.00219722883776,0.000426326849265,0.466435552907,-0.0129429007957,0.151681974852,0.0390001705454,0.924763617027,0.378537350151,0.000844715789743
0.5585090518,0.0448325499892,-0.569933652878,-2.53088641167,-0.0911358892918,2.59874176979,-0.710296452045,0.053093470633,-0.000420711003244,-6.60647783661e-05,-6.76179624861e-05,-0.000985677470453,-0.000113117042929,0.0010016473243,6.94733535056e-05,0.466435252962,-0.0129421539231,0.151677714055,0.0390039549292,0.924763288855,0.378537731231,0.000858372967883
0.558504402637,0.0448314659297,-0.569934606552,-2.53087759018,-0.0911357924342,2.59882616997,-0.710298359394,0.053093470633,-5.43609858141e-05,-8.37232873891e-05,-4.91162609251e-05,-0.000669096014462,2.45145456574e-05,0.000224019036978,0.000632150564343,0.46645791386,-0.0129428527356,0.151689319716,0.0390189130501,0.924762866824,0.378537117243,0.00090284051364
0.558503389359,0.0448314547539,-0.569935917854,-2.53088450432,-0.0911363512278,2.5988445282,-0.710297763348,0.053093470633,0.000113011192298,-0.000553839374334,-0.000296157755656,-0.000141388591146,0.000100311939605,0.000144668447319,-0.000595867226366,0.466458435138,-0.0129436026704,0.151688484717,0.0390206363347,0.924763120141,0.378536307743,0.000908278979002
0.558501422405,0.0448325537145,-0.569937348366,-2.53087973595,-0.0911367684603,2.59885716438,-0.710295796394,0.053093470633,2.67651430477e-05,0.000381607736927,0.00394759746268,0.000506571435835,0.000142731019878,0.00426819408312,6.14005621173e-05,0.466463311104,-0.0129450341603,0.151691031164,0.0390237866207,0.924763862271,0.378534151694,0.000915859980965
0.558507025242,0.0448317416012,-0.569935441017,-2.53087329865,-0.0911366194487,2.59890270233,-0.710297882557,0.053093470633,1.83051924978e-05,-0.000106176034024,0.00113382167183,-0.000469044200145,-1.69363613622e-06,0.00204430753365,-0.000163972450537,0.466475827789,-0.012941016898,0.151697769395,0.0390313390507,0.924761817929,0.37853831024,0.000939168273289
0.55851238966,0.0448338165879,-0.569931268692,-2.53088378906,-0.0911374464631,2.59895920753,-0.710296928883,0.053093470633,7.30026076781e-05,-0.00023466318089,0.000104997452581,-9.59372046054e-05,-7.22181403034e-06,0.00257754605263,-0.000358731485903,0.466483317462,-0.0129350505912,0.151698507041,0.0390392534924,0.924758986133,0.378544354828,0.000961958129102
0.558506786823,0.0448319874704,-0.569933116436,-2.53087854385,-0.0911360159516,2.59897828102,-0.710298061371,0.053093470633,0.000147447164636,-7.94040170149e-05,-0.000199586371309,0.000195456173969,3.06457186525e-05,0.000282493769191,0.000175013294211,0.466490212177,-0.0129378871942,0.151702971465,0.0390428256659,0.92476016351,0.37854107859,0.00097429535917
0.558503985405,0.0448320135474,-0.569934785366,-2.5308740139,-0.0911353677511,2.59900689125,-0.710297942162,0.053093470633,-4.70567101729e-05,0.000324075575918,-6.4254636527e-05,6.46587650408e-05,0.00013370544184,-2.06002678169e-05,0.00262771989219,0.466498564529,-0.0129393413562,0.151707340881,0.0390481083711,0.924760741466,0.378539081243,0.000989914796953
0.55850738287,0.0448311306536,-0.569934308529,-2.53087806702,-0.0911358371377,2.59903669357,-0.710297763348,0.0506237484515,0.000527235446498,0.000270184274996,0.000554776168428,0.000133415625896,1.85154949577e-05,0.00428949622437,-6.53067618259e-05,0.466500971549,-0.0129375495015,0.151708174643,0.039050412534,0.924759880004,0.378540928125,0.000997513435187
0.558507323265,0.0448327697814,-0.569934010506,-2.53087997437,-0.0911363437772,2.59908056259,-0.710296154022,0.0506237484515,0.000100863857369,-0.000539991946425,0.000437646376668,-0.000355764845153,1.33171197376e-05,0.000916072109248,0.000346285261912,0.46651144272,-0.0129359933092,0.151711714759,0.0390588736968,0.924759194658,0.37854166485,0.00102173180652
0.558500766754,0.0448324717581,-0.569936871529,-2.5308778286,-0.0911357700825,2.59912729263,-0.710297942162,0.0506237484515,-0.00289909844287,-0.000182428222615,-0.0031693901401,-0.000237650878262,2.58441723417e-05,0.00242665107362,0.000233576181927,0.466522515274,-0.0129393608876,0.15171703308,0.0390665770106,0.924760111376,0.378538567269,0.00104486431146
0.558505177498,0.0448301695287,-0.569933891296,-2.53087973595,-0.0911370739341,2.59915828705,-0.710298299789,0.0506237484515,0.000436247442849,-0.000271409284323,5.09852688992e-05,-0.00014033736079,1.94060867216e-05,0.0024155266583,0.000284177222056,0.466528696478,-0.0129350739866,0.151720087742,0.0390711591964,0.924758052306,0.378543083023,0.00105980794
0.558510124683,0.0448311492801,-0.569932341576,-2.53087806702,-0.0911361649632,2.59918141365,-0.710298657417,0.0506237484515,0.000270204036497,-0.000333934091032,-0.000369735760614,0.000199820744456,9.8406788311e-05,4.1580391553e-05,0.000241699584876,0.466534432728,-0.0129315988657,0.151722471726,0.0390749598946,0.924756587996,0.378546235689,0.00107125909325
0.558510541916,0.0448320321739,-0.569932162762,-2.53087854385,-0.091135174036,2.59921979904,-0.710298001766,0.0506237484515,-0.000311405019602,2.85344576696e-05,0.000322792446241,-9.96859380393e-05,0.000237801301409,0.00694012269378,0.000190630365978,0.466542343286,-0.012930558643,0.151725538602,0.0390807591574,0.924756256518,0.378546396406,0.00108891969107
0.558504104614,0.0448336862028,-0.569934248924,-2.53087949753,-0.0911356285214,2.59926557541,-0.710297465324,0.0506237484515,0.000272101984592,-0.000115688962978,-0.000471156556159,-0.000473579071695,3.35021795763e-05,-8.81209853105e-05,0.000131604101625,0.466551388714,-0.0129337615931,0.151728850491,0.0390881080834,0.924757278615,0.378543081934,0.0011091700872
0.558503687382,0.0448306463659,-0.569935262203,-2.53087949753,-0.0911362543702,2.59934854507,-0.71029651165,0.0506237484515,-0.000229386801948,0.000139132796903,0.000484318006784,-0.000160344236065,5.39838511031e-05,0.00462278071791,0.000186526653124,0.466569770411,-0.0129327467681,0.151737703205,0.0391013628203,0.924756687549,0.378543034873,0.00115008291757
0.558504223824,0.0448306761682,-0.569935560226,-2.5308816433,-0.0911352261901,2.5993719101,-0.710297822952,0.0494614467025,0.00380579638295,-0.000381184363505,0.000498257693835,0.000323994841892,3.74422634195e-05,0.000355623371433,0.00055702222744,0.466573709246,-0.0129317848947,0.151739190558,0.0391041687747,0.924756143639,0.37854404326,0.00116007833782
0.558506131172,0.0448311753571,-0.569933772087,-2.53087997437,-0.0911365821958,2.59938621521,-0.710297226906,0.0494614467025,0.00059578375658,-0.000501437869389,0.000188685778994,0.000462644093204,2.20342190005e-05,0.00010219309479,-0.000135156995384,0.466577585101,-0.0129298399426,0.151740940044,0.0391070857267,0.924755126155,0.378546205278,0.00116732538685
0.558503389359,0.0448323599994,-0.569935083389,-2.53088068962,-0.091134339571,2.59945964813,-0.710297346115,0.0494614467025,-0.00069516513031,0.000132665023557,-0.000407557730796,-0.000337164063239,7.49410537537e-05,0.00292709749192,0.000403043377446,0.466592830857,-0.0129302215703,0.151747098101,0.0391181308696,0.924755272592,0.378544599833,0.00120136190119
0.558503508568,0.044832341373,-0.569937646389,-2.53087949753,-0.0911362394691,2.59948706627,-0.710297822952,0.0494614467025,0.000724197598174,-0.000248536671279,-2.66865226877e-05,0.000378561817342,0.000125021164422,0.00111022370402,0.000252146855928,0.466599832677,-0.0129305400085,0.151750468307,0.0391235624454,0.924754903735,0.378544893894,0.00121567627406
0.558507323265,0.0448327995837,-0.569935321808,-2.53088259697,-0.0911357477307,2.59951639175,-0.710298836231,0.0494614467025,-0.000392204179661,3.82708458346e-05,0.000247143849265,0.0027576435823,-9.05475608306e-05,-0.000250927609159,-0.000577062019147,0.466604107794,-0.0129274025591,0.151751537834,0.039127111807,0.924753308144,0.378548388169,0.0012270677208
0.558507204056,0.0448327325284,-0.569935441017,-2.53088569641,-0.0911357402802,2.59954833984,-0.710298240185,0.0494614467025,0.000112271227408,-6.50890578981e-05,0.000305341207422,0.000549765361939,-1.1378507736e-07,3.38190784532e-06,0.00018090037338,0.466609472344,-0.0129268444322,0.151753403724,0.0391315522799,0.924753062144,0.378548485283,0.00124082394533
0.558500468731,0.0448333583772,-0.569936752319,-2.53087949753,-0.0911343097687,2.59958696365,-0.710297107697,0.0494614467025,-0.000270233344054,0.000543643371202,6.76943018334e-05,-0.000126558472402,0.00020701669564,0.00275247986428,-0.000249062373769,0.466620664704,-0.0129297764751,0.151759096872,0.039138594538,0.924754489988,0.378544200181,0.00126168809352
0.558505177498,0.0448330380023,-0.569936156273,-2.5308816433,-0.0911350697279,2.59961748123,-0.710298061371,0.0494614467025,0.000670626701321,0.000479375739815,-0.00157097564079,-0.00021181156626,9.46874934016e-06,0.00317129772156,-0.000494314183015,0.466626301257,-0.0129266583317,0.151761276577,0.0391431425924,0.924752787792,0.378547842518,0.0012753303102
0.558507144451,0.0448326952755,-0.569934427738,-2.53088188171,-0.0911353826523,2.59964942932,-0.710297584534,0.0494614467025,0.00022414214618,-0.000771990104113,0.000112715730211,0.000207116696401,-7.16199429007e-05,0.0042499913834,0.000542028283235,0.466633165196,-0.0129242279009,0.151764294873,0.0391481508066,0.924751708539,0.378549909442,0.00129057624605
0.558504581451,0.0448317714036,-0.569932758808,-2.53088116646,-0.0911356732249,2.59966826439,-0.710297942162,0.0494614467025,-4.20505166403e-05,8.06518219179e-05,-0.0031697973609,0.000117120624054,-5.83690634812e-05,0.00267211720347,-8.8122440502e-05,0.466637703339,-0.0129241562702,0.151766666491,0.0391512226946,0.924751517906,0.378550024409,0.00130022861148
0.558505058289,0.0448325313628,-0.569935083389,-2.5308804512,-0.0911346524954,2.59969997406,-0.710299134254,0.0494614467025,0.000171861262061,0.000388693035347,0.000200041642529,-3.85187704524e-05,-0.000156320253154,-6.4524661866e-05,0.000307147012791,0.466644760018,-0.0129243961633,0.151769632256,0.0391562390089,0.924751381044,0.378549787967,0.00131526313358
0.558506548405,0.0448347888887,-0.569934129715,-2.53088092804,-0.0911365225911,2.59972405434,-0.710298418999,0.0494614467025,-5.93572840444e-05,0.000122791941976,-7.8307770309e-05,-2.23010065383e-05,4.2846564611e-05,-0.000124935104395,-0.000285213027382,0.466649401038,-0.0129230296093,0.151770827189,0.0391605767765,0.924750398585,0.378551704552,0.00132521981158
0.558507502079,0.0448334589601,-0.569933116436,-2.53088116646,-0.0911360830069,2.59974837303,-0.710297763348,0.0494614467025,-0.000203865376534,0.000368009496015,0.00370262097567,-0.000302017026115,7.141475362e-05,0.000125365273561,0.000456627574749,0.466654750455,-0.0129214484213,0.151773521419,0.0391641284499,0.924749917475,0.378552469633,0.00133738206572
0.558505892754,0.0448322109878,-0.569934010506,-2.53088402748,-0.0911361202598,2.59978270531,-0.710296869278,0.0494614467025,0.000339348072885,1.81201739906e-05,0.000409147673054,0.000429447245551,-3.50790614903e-05,0.000874376564752,-4.55848094134e-05,0.466660359094,-0.012921941025,0.151775981187,0.0391686292424,0.924750172998,0.378551328281,0.001351873699
0.55850481987,0.0448337234557,-0.569935023785,-2.53088283539,-0.0911348387599,2.59988355637,-0.710298597813,0.0484633147717,-0.000281428656308,0.000449439627118,0.000621286802925,-0.000419444986619,-3.50547852577e-05,0.00412168586627,0.000136948394356,0.466682974211,-0.0129207328461,0.151785485208,0.0391849255743,0.924749047255,0.378552214716,0.00140058014516
0.558504402637,0.0448331944644,-0.569936275482,-2.53088331223,-0.0911361798644,2.59990739822,-0.710297822952,0.0484633147717,-8.09350894997e-05,0.000595063145738,-0.00013349398796,0.000453102198662,6.58050048514e-05,8.56568512972e-05,-4.82623072457e-05,0.466687946753,-0.0129210172737,0.151787766449,0.0391889118803,0.924748971644,0.378551945177,0.00141177696366
0.558504879475,0.0448324754834,-0.569936275482,-2.53088212013,-0.0911360606551,2.59995722771,-0.71029728651,0.0484633147717,0.000494489679113,-0.000322461535688,0.00036930674105,0.000427579623647,-1.7842870875e-05,1.77677429747e-05,-0.00035541728721,0.466699949908,-0.0129193869051,0.151793481334,0.039197256425,0.924748159251,0.378552969308,0.00143741497213
0.558507859707,0.0448295809329,-0.569932818413,-2.53087544441,-0.0911352708936,2.60005092621,-0.710298597813,0.0484633147717,3.53880823241e-05,-0.000379527889891,-1.76995017682e-05,0.000318454549415,3.04258264805e-05,0.00321804429404,-2.93455777864e-05,0.466723401248,-0.0129143281587,0.151805515525,0.0392125077525,0.924745752472,0.378557083904,0.00148540571319
0.558505654335,0.0448332540691,-0.569934308529,-2.53087687492,-0.0911356881261,2.60009336472,-0.710298955441,0.0484633147717,-9.26463035285e-05,-0.000162541982718,0.000112296671432,-0.00030801128014,-8.15660823719e-05,0.00572008267045,0.000437307171524,0.466731747475,-0.0129155762982,0.151807767589,0.0392197408253,0.924745822151,0.378556089981,0.00150424871453
0.558502435684,0.0448331683874,-0.56993663311,-2.53087925911,-0.0911364108324,2.6001470089,-0.71029728651,0.0484633147717,-0.000389619468478,-0.000577940605581,-0.000204146359465,-0.000140864271089,-6.87821852807e-07,0.0026364508085,0.000110501598101,0.466741576353,-0.0129170361736,0.151811757797,0.0392276193638,0.924746255075,0.378554124318,0.00152717014643
0.558503448963,0.04483467713,-0.569937586784,-2.53087878227,-0.0911337509751,2.60019540787,-0.710297763348,0.0484633147717,-8.79564759089e-05,2.14596147998e-05,-0.000397962779971,0.000389653723687,-0.000108566746349,0.000618826772552,9.50259563979e-05,0.466752010789,-0.0129160364065,0.151815891904,0.0392348559891,0.924745939145,0.378554053972,0.00154984354405
0.558505833149,0.0448353029788,-0.569933712482,-2.53087854385,-0.0911361128092,2.60027980804,-0.710298061371,0.0468774624169,-0.000130219603307,0.000364395498764,0.000120552846056,0.000102744088508,-5.82020074944e-05,0.00328306062147,-0.000155510206241,0.466770294106,-0.012911455057,0.151823616568,0.0392487778021,0.924743163776,0.378559226016,0.00158951908437
0.55850815773,0.0448332466185,-0.569935202599,-2.53087902069,-0.0911360383034,2.6003100872,-0.710297226906,0.0468774624169,7.0755762863e-05,-0.000328600988723,5.81866624998e-05,-0.000122104451293,0.000118996998935,0.00279981316999,0.000339814228937,0.466776917766,-0.0129102370979,0.151827096874,0.0392533084502,0.924742791835,0.378559600743,0.00160470939886
0.558507084846,0.0448314286768,-0.569933712482,-2.53087806702,-0.0911357998848,2.60033154488,-0.710298001766,0.0468774624169,0.000469638674986,0.000109325563244,-5.09952951688e-05,-5.72605968046e-05,-6.38932033326e-05,0.00140900572296,0.0002716871968,0.466782575212,-0.0129091889183,0.151830322935,0.0392568203362,0.924742362919,0.378560232553,0.00161687754054
0.558505535126,0.0448327921331,-0.569934427738,-2.53087902069,-0.0911349728703,2.60035634041,-0.71029740572,0.0468774624169,-0.00023448409047,-0.0006136893644,-0.00011207357602,0.000103863407276,-3.07214431814e-05,0.00107775791548,-0.000303230684949,0.466786926867,-0.0129100344056,0.151831601819,0.039260301104,0.924742673284,0.378559070404,0.00162691805741
0.558503806591,0.0448337346315,-0.56993407011,-2.5308804512,-0.0911348611116,2.60042858124,-0.710298061371,0.0468774624169,-0.000325637927745,0.000210165977478,0.000391212146496,0.00014251297398,5.76804122829e-05,0.00299711781554,-0.000114427268272,0.466801625708,-0.0129092376921,0.151837477381,0.0392714824176,0.924741857025,0.378559760935,0.00166000533852
0.558503210545,0.0448309853673,-0.569933593273,-2.53087830544,-0.0911360383034,2.60048604012,-0.710297226906,0.0468774624169,0.00277472031303,0.000509440957103,0.000119903328596,-0.000503002549522,-0.000115446375275,0.000175612993189,8.85349072632e-05,0.466815491033,-0.0129078488187,0.15184473687,0.0392810218527,0.924741080638,0.378560537365,0.00168947824561
0.558505952358,0.0448327623308,-0.569935381413,-2.53088068962,-0.0911348387599,2.60052537918,-0.710297346115,0.0468774624169,-0.000352523638867,0.000806137220934,0.00050096900668,-3.69110748579e-05,9.21598402783e-05,-7.42630218156e-05,-0.000115928094601,0.466822535511,-0.0129067186999,0.151846867701,0.0392866689163,0.924740546396,0.378561180984,0.00170629186843
0.558504164219,0.0448308140039,-0.56993585825,-2.53087949753,-0.0911352485418,2.60056638718,-0.710297644138,0.0458386167884,-0.00040848882054,-0.000404890917707,-6.0041933466e-05,-0.000361893529771,1.50365058289e-05,0.00278828642331,7.17332295608e-05,0.466832235308,-0.012906736855,0.151851926114,0.0392933276283,0.924740308875,0.37856097552,0.00172714838381
0.558505296707,0.0448320731521,-0.569935560226,-2.53087925911,-0.0911344960332,2.60060667992,-0.710298120975,0.0458386167884,6.19764250587e-05,3.71692549379e-05,-0.000348057452356,3.44931177096e-05,4.44999423053e-05,0.000212393206311,2.69766278507e-05,0.466840577329,-0.0129052216146,0.151855227929,0.0392994866123,0.924739418577,0.378562428206,0.00174519808075
0.558506906033,0.0448322705925,-0.569934368134,-2.53087830544,-0.0911357998848,2.60063123703,-0.71029728651,0.0458386167884,-0.000409096013755,-6.99053998687e-05,0.000319999235217,0.000105419123429,3.15472461807e-05,0.00241745775566,-1.34578740472e-05,0.46684662562,-0.0129035378631,0.151857876438,0.0393040257386,0.924738588876,0.378563925658,0.00175774789292
0.558505773544,0.0448321327567,-0.569933772087,-2.53087973595,-0.0911338105798,2.60065770149,-0.710299253464,0.0458386167884,-0.00035785685759,2.67076120508e-05,0.000154238980031,5.12787009939e-05,-1.74884389708e-05,0.0023850472644,0.000554257712793,0.466851628926,-0.0129031434333,0.151859869871,0.0393074191941,0.924738308746,0.37856420125,0.00176984428148
0.558504283428,0.044833842665,-0.569935441017,-2.53088092804,-0.0911359488964,2.60067772865,-0.71029728651,0.0458386167884,-0.000145526501001,0.000318652775604,0.000247940566624,0.000158581373398,-0.000130001237267,5.06583892275e-05,-6.78331853123e-05,0.466855064908,-0.012904453758,0.151860666361,0.0393110574896,0.924738634787,0.378562990123,0.00177771855395
0.55850738287,0.0448328070343,-0.569935023785,-2.53088140488,-0.091134801507,2.60071563721,-0.71029561758,0.0458386167884,-0.000129797990667,0.000181892959517,-0.000195023370907,0.000461330055259,-1.19463093142e-05,1.77284109668e-05,-0.000532700738404,0.466863198445,-0.0129018681858,0.15186444371,0.0393165715608,0.924737981224,0.378563926792,0.0017961896618
0.558506309986,0.0448314659297,-0.569934487343,-2.53088212013,-0.0911344438791,2.60072827339,-0.710297763348,0.0458386167884,0.0001267271291,0.000172583459062,-0.00191753148101,-3.02681055473e-05,-1.70946368598e-05,6.55693511362e-05,0.000716818787623,0.466865764055,-0.0129017088144,0.151865878628,0.0393182186272,0.92473758421,0.378564695588,0.00180249019396
0.558503270149,0.0448335446417,-0.569934666157,-2.53088092804,-0.0911358818412,2.60074019432,-0.710298717022,0.0458386167884,-6.88298750902e-05,-0.000136265487527,7.95091400505e-05,-0.000233219761867,5.52091150894e-05,0.00230425992049,-0.000115509748866,0.466868565298,-0.0129032094699,0.151866639487,0.039320868918,0.924737580997,0.378564404547,0.00180744337869
0.558506846428,0.0448339022696,-0.569935202599,-2.53088521957,-0.0911351665854,2.60077118874,-0.710297882557,0.0458386167884,0.00023768072424,0.000787947501522,-0.000307451089611,1.79749185918e-05,-3.58275829058e-05,0.000131674911245,0.000135736001539,0.466873109226,-0.0129011621302,0.151867817035,0.0393247952927,0.924736886716,0.37856563187,0.0018201296469
0.558507621288,0.0448319762945,-0.569934725761,-2.53088283539,-0.0911346971989,2.60078167915,-0.710297822952,0.0458386167884,-2.89883223559e-06,0.000211171092815,0.00165045459289,6.43542516627e-05,7.42010670365e-05,-7.59020840633e-05,-0.00050905183889,0.466876856384,-0.0129001422183,0.151870433084,0.0393266264045,0.924736604381,0.378566097173,0.00182721846416
0.558506369591,0.0448343344033,-0.56993407011,-2.53088259697,-0.0911358743906,2.60078978539,-0.710297048092,0.0433485358953,-0.000452805106761,0.000483239040477,-8.78161590663e-05,-4.92181898153e-05,1.78372811206e-05,3.53056384483e-05,0.000503168615978,0.466878351115,-0.0129005142327,0.151870361405,0.039328426168,0.924736531141,0.378566076184,0.0018298947062
0.558504700661,0.0448334179819,-0.569935321808,-2.53088331223,-0.0911341011524,2.60079979897,-0.710297465324,0.0433485358953,-0.000120725097077,-0.000310328876367,-7.30948595447e-05,-0.000179747978109,0.000119813616038,3.49656002072e-05,0.000828570162412,0.466880259758,-0.0129015230856,0.151871401763,0.0393293883602,0.924737182167,0.378564361822,0.00183487596163
0.558504760265,0.0448323972523,-0.569936156273,-2.53088283539,-0.0911347940564,2.6008169651,-0.710296630859,0.0433485358953,0.000565720722079,0.000138641931699,-0.000140201518661,-0.000443526398158,-5.0325958e-05,-4.41425763711e-05,0.00037423230242,0.466884346499,-0.0129014536137,0.151873600604,0.039332294698,0.924737143466,0.378564111676,0.00184367087158
0.558508634567,0.0448338761926,-0.569933772087,-2.53088259697,-0.091134570539,2.60083341599,-0.710298478603,0.0433485358953,0.00029787843232,0.000414642126998,0.00024035476963,0.000181998257176,0.000121213575767,-4.84406773467e-05,-0.000186350458534,0.466887851948,-0.0128983015847,0.151874631095,0.0393349535395,0.924735411197,0.378568031374,0.00185094938286
0.558511376381,0.0448326952755,-0.56993252039,-2.53088831902,-0.0911353752017,2.60083556175,-0.710298538208,0.0433879382908,-0.000132627756102,-0.000434732530266,9.6607604064e-05,-0.000469373946544,-0.000173737222212,8.550118946e-05,-0.000701646960806,0.466885717156,-0.0128963207864,0.151873148288,0.0393342468685,0.924734523777,0.37857027761,0.00184990592152
0.55850559473,0.0448328703642,-0.569935619831,-2.53088402748,-0.0911340713501,2.60085082054,-0.710297763348,0.0433879382908,0.00040808256017,8.30986173241e-05,-0.00370156974532,7.69045000197e-05,-8.61102380441e-05,-0.00018517189892,-6.41999504296e-05,0.466891054922,-0.0129000308846,0.151876078598,0.0393374372021,0.924736188324,0.378565836096,0.00185888724145
0.558500468731,0.0448345169425,-0.569936156273,-2.53088521957,-0.0911340117455,2.60086107254,-0.710296750069,0.0433879382908,-0.000250325072557,4.46783087682e-05,-0.000186563120224,-0.000299660256132,0.000140541305882,0.00103377096821,-0.000222589631448,0.466892290372,-0.0129027085106,0.151876028973,0.0393387914988,0.92473746249,0.378562565512,0.00186242487379
0.558505415916,0.0448341742158,-0.569934725761,-2.53088855743,-0.091134108603,2.60087394714,-0.710298240185,0.0433879382908,0.0006085683126,-0.000138034112751,3.17570375046e-05,-5.35952058272e-05,2.3703698389e-05,0.000105841216282,0.000148400504258,0.466893396725,-0.0128995518874,0.151875958523,0.039340078639,0.924735847779,0.378566354167,0.00186687473006
0.558500111103,0.0448310226202,-0.569934368134,-2.53088331223,-0.0911339074373,2.60087609291,-0.710297763348,0.0433879382908,-0.000422434357461,0.000223904047743,-0.000516349566169,-3.74077499146e-05,0.000101795361843,-6.06052708463e-06,6.94534101058e-05,0.466897016425,-0.0129013657492,0.151879489331,0.0393411743795,0.924736838787,0.378563793444,0.00187215499855
0.558497428894,0.0448319837451,-0.569937765598,-2.53088450432,-0.0911354348063,2.60088062286,-0.710298359394,0.0433879382908,0.000326336623402,0.00304991914891,0.000102620091639,-0.000477122055599,4.80231574329e-05,0.00236236886121,-0.000414147769334,0.466897195987,-0.0129042836276,0.151879140352,0.0393421947635,0.924737550624,0.378561944321,0.00187301137905
0.558498203754,0.0448334850371,-0.56993740797,-2.53088617325,-0.0911353826523,2.60088133812,-0.710299551487,0.0433879382908,0.000539028202184,1.95622578758e-05,7.91398706497e-05,0.000249563105172,2.91898436444e-06,-6.79812656017e-05,0.000174890767084,0.466896308027,-0.0129038856116,0.15187799736,0.0393420897917,0.924737105238,0.378563048972,0.00187184500642
0.558504402637,0.0448336303234,-0.569932162762,-2.53088879585,-0.0911336168647,2.60088944435,-0.710297226906,0.0433879382908,-0.000732543529011,0.000569321855437,0.000402284262236,-0.000252401398029,4.09272297475e-06,-9.82555957307e-06,-0.000163546646945,0.466896857614,-0.0128982953583,0.151877659831,0.0393423123609,0.924735587558,0.378566718361,0.00187483189639
0.558502912521,0.0448336042464,-0.56993418932,-2.53088831902,-0.0911343619227,2.60089349747,-0.71029728651,0.0433879382908,-5.71123928239e-05,4.41582487838e-05,-2.82503988274e-05,0.000303372828057,7.60393086239e-05,0.000122799145174,-2.24082305067e-05,0.466897935743,-0.0128998880858,0.151878253913,0.039343273564,0.92473605623,0.378565463629,0.00187684966208
0.558502912521,0.0448322333395,-0.569934546947,-2.53088474274,-0.0911341682076,2.6008951664,-0.710300087929,0.0433879382908,-0.000384684884921,0.000562863308005,0.00188998389058,0.00027300111833,-6.87372303219e-05,-6.08065674896e-05,-0.000285786489258,0.466900269022,-0.012899870494,0.151880280055,0.039344079585,0.924735596284,0.378566488144,0.0018799212352
0.558500051498,0.0448344051838,-0.569934010506,-2.53088736534,-0.0911345630884,2.60089755058,-0.710298418999,0.0433879382908,7.18926094123e-06,-0.000598616548814,0.000141854354297,-4.99218231198e-06,0.000110217450128,-4.60309784103e-05,-0.000111960376671,0.466899122306,-0.0129011345479,0.151878676807,0.0393442157082,0.924736247557,0.378564889073,0.00187872013987
0.55849802494,0.0448332950473,-0.569936871529,-2.53088951111,-0.0911338254809,2.60089993477,-0.710298836231,0.0433879382908,-5.68409486732e-05,7.1685470175e-05,-0.000650795525871,0.000680444471072,0.000184096410521,-7.7202450484e-05,-1.75394543476e-05,0.46689869407,-0.0129032583292,0.151878564517,0.039343969294,0.924737206803,0.378562568171,0.00187938744341
0.558499753475,0.0448336452246,-0.569936275482,-2.53088712692,-0.0911333188415,2.60090374947,-0.710297584534,0.0433879382908,-0.000191588507732,0.000863039400429,2.9852562875e-05,0.000135513473651,-0.000105275335955,-0.000100954930531,0.000457470450783,0.466900677327,-0.0129018421669,0.151879786525,0.0393448643164,0.924736849254,0.378563334066,0.00188230392409
0.558502018452,0.0448323041201,-0.569934487343,-2.53089094162,-0.0911339372396,2.60090589523,-0.710299909115,0.0433879382908,0.000247334915912,0.000965682149399,1.31668402901e-05,-0.000205875956453,-2.55363102042e-06,-3.85790190194e-05,6.33676108919e-06,0.466899496253,-0.0129000535538,0.15187894989,0.0393445190793,0.924735716905,0.378566136868,0.00188212591599
0.558503210545,0.0448346585035,-0.569932222366,-2.53089165688,-0.0911343023181,2.60090732574,-0.710300624371,0.0433879382908,0.000212698621908,0.000504185736645,-4.54431428807e-05,-0.000326620531268,-5.33462225576e-05,0.000164029697771,0.000185072000022,0.466899125253,-0.0128986367842,0.151877876473,0.0393448418568,0.92473482946,0.37856827509,0.0018813246312
0.558501064777,0.0448344349861,-0.569936037064,-2.53089404106,-0.0911342799664,2.60091090202,-0.710299491882,0.0433879382908,-0.000186302568181,0.000222604343435,-0.000412557710661,0.000334777141688,-2.24789255299e-05,0.0001194961078,0.000221747337491,0.466898691958,-0.012901354918,0.15187745537,0.039345008054,0.924736139562,0.378565054467,0.00188195333817
0.558499455452,0.0448312871158,-0.569935083389,-2.5308945179,-0.0911340564489,2.60091209412,-0.710297644138,0.0433879382908,0.000580202555284,-0.000138901436003,0.000321697501931,0.000224591058213,4.17292358179e-05,-2.95384725177e-05,0.000191343351617,0.466899384952,-0.0129011033693,0.15187867216,0.039344898052,0.924736612137,0.378563900553,0.00188415804808
0.558499515057,0.0448332875967,-0.569935500622,-2.53089261055,-0.0911340117455,2.60091376305,-0.710298895836,0.0433879382908,4.8110508942e-05,-0.000653152354062,3.13837226713e-05,-4.13859706896e-05,-0.000175426335772,-9.08637375687e-05,-0.000125171922264,0.466900175301,-0.0129016389292,0.151878696615,0.0393455639062,0.924736454295,0.37856421497,0.00188454936892
0.558502554893,0.0448324009776,-0.56993573904,-2.53089547157,-0.0911346003413,2.6009144783,-0.710298240185,0.0433879382908,0.000392752815969,-0.00220299628563,0.000354883843102,-0.000221018693992,0.000105611579784,4.00491589971e-05,-0.000111313871457,0.466899090909,-0.0129002643725,0.151878047354,0.0393451922634,0.924735963315,0.378565455577,0.00188401829726
0.558503508568,0.0448326729238,-0.569934785366,-2.5308945179,-0.0911350250244,2.60091590881,-0.710299611092,0.0433879382908,0.000659826677293,-0.000615339784417,7.44166172808e-05,-0.000185372176929,3.56573909812e-05,0.000182997566299,0.00030032574432,0.466899850013,-0.0128993759255,0.151878421335,0.0393457089053,0.924735244207,0.378567153745,0.00188496690704
0.558503210545,0.0448325574398,-0.56993407011,-2.53089189529,-0.0911343246698,2.60091638565,-0.71029818058,0.0433879382908,-0.000536752631888,-0.000106669620436,-0.000524962029886,-0.000303702137899,8.05262152426e-06,-0.000190709106391,0.000287864531856,0.466901266615,-0.0128991199778,0.151879477891,0.0393460950106,0.924735535114,0.378566395073,0.00188656015497
0.558492898941,0.0448320917785,-0.569941401482,-2.53090119362,-0.0911338701844,2.600918293,-0.710300624371,0.0433879382908,-0.000131221633637,-0.000168396698427,0.000280103937257,9.53107737587e-05,-4.68475045636e-05,-0.000119831391203,9.33549454203e-05,0.466896958751,-0.0129073360007,0.151876457984,0.0393446200991,0.924738514079,0.378559288765,0.00188308802492
0.558493494987,0.0448317937553,-0.569940447807,-2.53089928627,-0.0911333560944,2.60091876984,-0.71029984951,0.0433879382908,0.000306102650939,0.000205681033549,-0.000539859582204,0.000196343768039,1.4664156879e-05,3.75593226636e-05,-0.000168631697306,0.466898064116,-0.0129065417447,0.151877316853,0.0393448917258,0.924738441014,0.37855943233,0.00188443188931
0.558497846127,0.04483814165,-0.56993830204,-2.53088974953,-0.0911334231496,2.60092282295,-0.710298061371,0.0433879382908,3.16940349876e-05,0.000571184558794,3.07097275254e-06,-0.000537337269634,-2.16233092942e-05,3.21975421684e-05,-5.24101869814e-06,0.466902748211,-0.0129039865182,0.151878755702,0.0393478823664,0.924737369724,0.378561721789,0.00188776805515
0.558500468731,0.0448397658765,-0.569936811924,-2.53089094162,-0.0911325961351,2.60092234612,-0.710299193859,0.0433872789145,0.000576331047341,0.00040370982606,-0.00253873481415,-0.000451467174571,-0.000114205016871,4.74181251775e-05,0.000335536402417,0.46690176511,-0.0129010675983,0.15187708486,0.0393477883325,0.924735886151,0.378565364335,0.0018860081386
0.558502852917,0.0448395907879,-0.569932758808,-2.53089332581,-0.0911340713501,2.60092258453,-0.71029984951,0.0433872789145,-6.08177178947e-05,6.28656343906e-05,-3.07434602291e-05,-0.000311023293762,-4.88583027618e-05,4.08891028201e-05,0.000329049071297,0.466900551483,-0.012899117715,0.151876502176,0.0393472198524,0.924734953907,0.378567705382,0.00188505616167
0.558491230011,0.0448391512036,-0.56993997097,-2.53087186813,-0.0911332219839,2.60092258453,-0.710297524929,0.0433872789145,0.000278665509541,0.000709555635694,-0.00363499624655,-0.000915013311896,0.00011987589096,-6.37220728095e-05,0.000215903666685,0.466911274656,-0.0129078959263,0.151885020799,0.039351398725,0.924738962861,0.378557427121,0.00189526780144
0.558494269848,0.0448437221348,-0.569939613342,-2.53085327148,-0.0911341458559,2.60092282295,-0.710298657417,0.0433872789145,0.000720046227798,0.000354512681952,-0.00155825191177,0.00066935189534,-0.000116906121548,-0.00549916643649,-0.000137807641295,0.466919854847,-0.0129067085513,0.15189019107,0.0393556514668,0.924737795034,0.378559805778,0.00190164816356
0.558504104614,0.0448514074087,-0.569931805134,-2.53076863289,-0.0911331623793,2.60091400146,-0.710298895836,0.0433872789145,2.36570613197e-05,-0.000880828709342,0.000751263229176,0.00674451421946,4.46781850769e-05,6.29021596978e-05,0.000316853809636,0.466950093489,-0.0129002160188,0.151911296327,0.0393675724863,0.924734664172,0.378566095097,0.00192521213078
0.55850404501,0.044859841466,-0.56993073225,-2.52981495857,-0.0911347195506,2.60077619553,-0.710298418999,0.0433879382908,-2.18178793148e-05,0.0014496888034,0.0008848849684,0.0338032320142,4.8838188377e-05,-0.00973638705909,0.000352362985723,0.467398705566,-0.0128988624626,0.152257095261,0.039535477706,0.924729998214,0.378557886522,0.00230274635332
0.55850726366,0.0448742024601,-0.56992828846,-2.52920484543,-0.0911344438791,2.6004948616,-0.710301101208,0.0433879382908,0.00046890284284,0.00134264398366,0.000424186844612,0.0521068423986,-7.4983749073e-05,-0.0295810904354,-7.71138093114e-06,0.467637070041,-0.012901300555,0.152452633209,0.0396106344296,0.92472856386,0.378552651765,0.00244342909671
0.558494389057,0.0448808446527,-0.569932937622,-2.52790951729,-0.0911336243153,2.5995426178,-0.710298418999,0.0433879382908,-0.00362681620754,0.00209434120916,-0.00184470287059,0.0772970244288,-4.53648717667e-05,-0.0583661682904,8.15508246887e-06,0.468069656994,-0.0129255531946,0.152844116422,0.0397122736799,0.924737836599,0.378518407669,0.00258526986758
0.558510482311,0.0447443239391,-0.569923877716,-2.52273821831,-0.0911363139749,2.59428167343,-0.710298240185,0.0433879382908,0.00138657772914,-0.0102073410526,0.00182671030052,0.151681780815,-3.28754540533e-05,-0.170353919268,-0.000591755146161,0.469503594124,-0.0129930551538,0.154337566883,0.03987407148,0.924775914407,0.378408652315,0.00254127764355
0.558537185192,0.0445548519492,-0.569904088974,-2.51981782913,-0.0911360755563,2.59077763557,-0.710298478603,0.0433879382908,0.000867489317898,-0.012606414035,0.000674622948281,0.187217146158,1.47020909935e-05,-0.235933274031,-0.000344576517818,0.470212427731,-0.0130163948166,0.155178005432,0.0398705995332,0.924800228559,0.378351013965,0.00232001390671
0.5585283041,0.0441956073046,-0.569903492928,-2.51648902893,-0.0911362394691,2.5864238739,-0.710299313068,0.0433879382908,-0.00134888442699,-0.0280733928084,-0.000244332826696,0.22461900115,3.50892150891e-05,-0.299963027239,-7.8715122072e-05,0.470960397579,-0.0130661237232,0.156161851626,0.0397979918668,0.92484579613,0.378249262496,0.00196680655245
0.558494865894,0.0436087660491,-0.569930791855,-2.51216697693,-0.091136738658,2.58010816574,-0.710299253464,0.0433879382908,-0.000653182563838,-0.0375122576952,-0.000753895670641,0.256054013968,0.000124074111227,-0.396479487419,0.000445721845608,0.471800375527,-0.0131574313076,0.157430260248,0.0395887770544,0.924924770695,0.378081112732,0.00125266272388
0.558500826359,0.0424400754273,-0.569926977158,-2.50526046753,-0.0911388620734,2.569272995,-0.710298657417,0.0433879382908,0.00134129100479,-0.0704698264599,0.000948430795688,0.307031542063,0.000140506032039,-0.499193876982,-0.000403756159358,0.47300325515,-0.0132477909991,0.159492342344,0.0391148690254,0.92504218777,0.377845156178,-0.000124508375086
0.55851995945,0.0410092025995,-0.569912314415,-2.49958586693,-0.091142244637,2.55959272385,-0.710299789906,0.0433879382908,0.00215785764158,-0.0969046130776,0.000432376196841,0.324429363012,-0.000299741339404,-0.563563346863,0.000205794232897,0.473738510055,-0.013279405846,0.160995325959,0.0386670985332,0.92512790102,0.377679569395,-0.00116824252859
0.558514654636,0.035062648356,-0.569911301136,-2.48153424263,-0.0911384522915,2.52825427055,-0.710301339626,0.0433879382908,3.93045811506e-05,-0.166164875031,-0.00050829857355,0.432866126299,-0.000226088508498,-0.760180413723,4.5455453801e-05,0.476640958937,-0.0133510237851,0.167705762426,0.0365779251712,0.925516357738,0.376903964089,-0.0049928435829
0.558530330658,0.0316291227937,-0.569902896881,-2.47312784195,-0.0911468490958,2.51331448555,-0.710299551487,0.0433879382908,0.00109477946535,-0.196029365063,0.000196618988412,0.446783840656,-0.000283461326035,-0.811751246452,-0.000121747725643,0.477887677934,-0.013328551109,0.170965316977,0.0355385216852,0.925689039614,0.376556099066,-0.00650533277568
0.558528184891,0.0280984565616,-0.569903373718,-2.46559929848,-0.091141872108,2.49993777275,-0.71030330658,0.0433879382908,-0.000284021196421,-0.232789471745,-0.00113389617763,0.500080764294,-0.000113298730867,-0.852386415005,1.95334923774e-05,0.47903194365,-0.0132872135854,0.174094627659,0.0345615744757,0.92585232061,0.376224301217,-0.00763235534294
0.558533728123,0.0195148400962,-0.569904923439,-2.44847583771,-0.0911441966891,2.47021794319,-0.710301458836,0.0433872789145,0.000981233548373,-0.286053568125,-0.000147010025103,0.529781520367,0.000164966157172,-0.930825710297,-9.56946041697e-06,0.48172969284,-0.0131596986949,0.181596179131,0.0323931159132,0.926215578618,0.375477658489,-0.00958726368918
0.558534145355,0.0142466789111,-0.569909095764,-2.43919706345,-0.0911445617676,2.45418548584,-0.710302710533,0.0433872789145,-0.000373885734007,-0.328298151493,-0.000751881103497,0.568314433098,0.000219984183786,-0.951766908169,-0.000344665982993,0.483205250314,-0.0130628729615,0.185972796486,0.0311671344206,0.926416858415,0.375065567846,-0.01030697217
0.558540642262,0.00883202347904,-0.569907367229,-2.42990231514,-0.0911505371332,2.43889498711,-0.710301101208,0.0433872789145,0.00164611299988,-0.347186416388,0.000247253192356,0.593757450581,-0.000888643960934,-0.9659973979,-0.000223057955736,0.4848074484,-0.0129524232242,0.190520385774,0.0300454774052,0.926610716811,0.374669979197,-0.0105950531204
0.558549463749,0.00268913293257,-0.569901525974,-2.41974258423,-0.0911436825991,2.42233872414,-0.710301697254,0.0433872789145,-8.4847175458e-05,-0.371652752161,-0.000414891022956,0.601028203964,0.000146015372593,-0.992788851261,0.000215395280975,0.486548073395,-0.0128292039214,0.195641015146,0.0288138388522,0.926823060652,0.374237642195,-0.0107221165463
0.55855101347,-0.00434168521315,-0.56990647316,-2.40838336945,-0.0911427214742,2.40448451042,-0.710300922394,0.0433872789145,0.00128844112623,-0.38300254941,0.000890511437319,0.649682164192,0.000651958805975,-0.989421010017,0.000526393589098,0.488564450194,-0.0127059419092,0.201544900285,0.0275208525791,0.927059611487,0.373755808198,-0.0104725806531
0.558645248413,-0.0252557974309,-0.569825470448,-2.37514424324,-0.0911485850811,2.35592961311,-0.710302114487,0.0433872789145,0.00293239811435,-0.449366211891,0.00171877455432,0.713498950005,-0.000201849776204,-0.979085683823,0.000206805838388,0.494734409457,-0.012352710711,0.219604326695,0.0242521826587,0.927688653598,0.372484200574,-0.0078175205538
0.558688938618,-0.0330532342196,-0.56981164217,-2.36314797401,-0.091146081686,2.33929252625,-0.710302114487,0.0433872789145,0.000410862616263,-0.474094808102,-0.00049928156659,0.717689692974,0.00016302439326,-0.975731134415,-0.000260663218796,0.496826377021,-0.0122724054111,0.226002629606,0.0232345850281,0.92789699684,0.372056684424,-0.00641409177415
0.558742761612,-0.0414735637605,-0.569794297218,-2.34970545769,-0.0911482125521,2.32193851471,-0.710301280022,0.0433872789145,0.00551133276895,-0.469171196222,0.00225739553571,0.750900268555,-0.00144720450044,-0.953128814697,-0.000788752397057,0.499569583546,-0.0122192866276,0.234098374316,0.0221900176954,0.928144274894,0.371535189369,-0.0041726300689
0.558833658695,-0.0505057424307,-0.569786250591,-2.33557152748,-0.0911386460066,2.30390381813,-0.710301399231,0.0433879382908,-0.000282056920696,-0.49240347743,-0.00090630230261,0.759264111519,0.00201338739134,-0.930982351303,-2.00635095098e-05,0.502212197533,-0.0121954843553,0.242344268192,0.0211577832779,0.928381923531,0.37102069925,-0.00172993655416
0.559019207954,-0.073041677475,-0.569766461849,-2.29917931557,-0.0911435633898,2.26171469688,-0.710301995277,0.0433879382908,0.00338754430413,-0.477579474449,0.00134296098258,0.814368903637,-0.00104222737718,-0.862135350704,0.000341094564646,0.509115596106,-0.012401662305,0.263991433381,0.0192036076039,0.928935862179,0.369690032307,0.00621812750999
0.559108972549,-0.0810565054417,-0.56974285841,-2.28601884842,-0.0911370366812,2.24708986282,-0.710301816463,0.0433879382908,0.0019817603752,-0.482053220272,0.00206491281278,0.779684960842,-6.91477544024e-05,-0.84029430151,0.00449001975358,0.511466331807,-0.0125478016697,0.271932103857,0.0185887367001,0.929111364506,0.369214699642,0.00932933365362
0.559143781662,-0.0896525904536,-0.569757342339,-2.27197241783,-0.0911399498582,2.2323114872,-0.710300981998,0.0433879382908,0.00193389493506,-0.459360927343,0.00156249210704,0.780829489231,-0.000697664974723,-0.801199913025,-6.87789652147e-05,0.514131944573,-0.0128160154623,0.281042058064,0.0180299392884,0.929308054003,0.368626265699,0.0132716982486
0.559226453304,-0.102151490748,-0.569762825966,-2.25135087967,-0.0911398157477,2.21083426476,-0.710301935673,0.0433879382908,-0.00222583930008,-0.464275568724,-0.00224480265751,0.741856575012,0.000326913839672,-0.77502900362,-0.000442853342975,0.517434547492,-0.0132594784697,0.293313952352,0.0172950007196,0.929543520942,0.367837098372,0.0185901686684
0.559234499931,-0.111213207245,-0.569767653942,-2.23647785187,-0.0911384895444,2.19581723213,-0.710300505161,0.0433879382908,0.00175054941792,-0.435461819172,0.000831543060485,0.715250432491,0.00368234841153,-0.738744735718,-0.000156642461661,0.519789316622,-0.0136920175823,0.302651327584,0.0168039947558,0.929708399809,0.367204200219,0.0228252516044
0.559240400791,-0.119177982211,-0.569771409035,-2.22339892387,-0.0911376774311,2.18298864365,-0.710302233696,0.0433879382908,-0.000441523588961,-0.431423515081,-0.00126920605544,0.721663117409,0.000274356018053,-0.699528634548,0.000166154117323,0.521778775705,-0.0141267171559,0.31094725279,0.0164236570789,0.929835476752,0.36663597584,0.0267265890993
0.559222638607,-0.126761183143,-0.569794416428,-2.21092891693,-0.0911352932453,2.17063832283,-0.710302114487,0.0433879382908,-1.04685532278e-05,-0.409412175417,-0.00114418752491,0.661617994308,0.000321640283801,-0.683941841125,2.2731936042e-05,0.523423746979,-0.0145884105624,0.318455554842,0.0160573571963,0.929949620333,0.366092939162,0.0301964319483
0.559076189995,-0.151953101158,-0.569858014584,-2.17189836502,-0.0911329090595,2.1318693161,-0.710300624371,0.0433885939419,-0.00578680355102,-0.347831726074,0.000227572105359,0.532354533672,-3.44766849594e-05,-0.531339108944,-0.000261549517745,0.527976074761,-0.016522355771,0.34455286579,0.014594869384,0.930260122609,0.364138144004,0.0425030097347
0.558992862701,-0.158181995153,-0.569897413254,-2.16287350655,-0.0911331623793,2.12262821198,-0.710300624371,0.0433885939419,-0.00964827649295,-0.345463335514,-0.00550138670951,0.469544678926,-0.000293272983981,-0.498710662127,0.00459606293589,0.528738681233,-0.0170841216336,0.35067686085,0.0141659746117,0.930326349886,0.363639292163,0.0453725991205
0.558504104614,-0.172536015511,-0.570108830929,-2.1435520649,-0.0911298692226,2.1010248661,-0.71030241251,0.0433885939419,-0.0190280620009,-0.263485074043,-0.0106078237295,0.318758070469,1.41148575494e-05,-0.389598309994,0.000321950908983,0.529686194522,-0.0186854051927,0.36429888028,0.0128002636472,0.930554537868,0.362323208702,0.0512474138358
0.558233320713,-0.176929056644,-0.570223152637,-2.13814687729,-0.0911299958825,2.09432625771,-0.710302114487,0.043389249593,-0.0120419459417,-0.223920717835,-0.00626069679856,0.276207119226,-0.000178841437446,-0.351686894894,0.000294223777018,0.529725606448,-0.019225814417,0.367912466417,0.0123107860476,0.930646987341,0.361901575244,0.0526486374051
0.557982504368,-0.180528178811,-0.570399463177,-2.13407278061,-0.0911302044988,2.08870077133,-0.710300087929,0.043389249593,-0.0135284103453,-0.20796173811,-0.0158412121236,0.209674313664,-0.000265622686129,-0.314958572388,0.000112212124805,0.529604101612,-0.019749752919,0.370868020085,0.0117893220392,0.930753310306,0.361499473919,0.0536415629999
0.556624054909,-0.187667220831,-0.571076691151,-2.1270210743,-0.0911304652691,2.07562565804,-0.710302770138,0.043389249593,-0.0417663305998,-0.0975834652781,-0.0153594734147,0.0723966136575,-7.29894672986e-05,-0.234684452415,0.000231082623941,0.528713531163,-0.0212530803977,0.375757817415,0.0103742779571,0.931179222446,0.360344411009,0.0543096232903
0.555999040604,-0.188825249672,-0.571314394474,-2.12610721588,-0.0911314636469,2.07211041451,-0.710302710533,0.043389249593,-0.0343964807689,-0.0544992983341,-0.0155851608142,0.0410665273666,0.000210592377698,-0.215783238411,-0.000377048767405,0.528056991963,-0.0219387409808,0.376543013082,0.00971776473064,0.931435700305,0.359813072032,0.0535504820287
0.555387735367,-0.189340472221,-0.571726918221,-2.12574195862,-0.0911311432719,2.06865549088,-0.710303664207,0.043389249593,-0.03739342466,-0.0140992933884,-0.0323554947972,0.00396060757339,-0.000108371401438,-0.198348030448,0.000141313241329,0.527399143542,-0.0225220087709,0.376542949385,0.00914785804283,0.931686405842,0.359357530377,0.0523347199156
0.554760158062,-0.189199715853,-0.572435438633,-2.12588524818,-0.0911343693733,2.06477046013,-0.710300564766,0.043389249593,-0.0289819538593,0.0249552968889,-0.0375432707369,-0.0130103435367,-0.00496754655614,-0.203773826361,9.44936400629e-05,0.526525792613,-0.0232276332911,0.375944062959,0.00845277192557,0.932017190125,0.358799410946,0.0503536527833
0.55338037014,-0.185431420803,-0.57462143898,-2.12754940987,-0.0911340713501,2.05556726456,-0.710300862789,0.043389249593,-0.0276348888874,0.127919226885,-0.0573826916516,-0.0597007833421,-0.000136092479806,-0.165624782443,0.000220054120291,0.524181751912,-0.0249540249149,0.372375654197,0.00682841043323,0.932917760423,0.357404434789,0.0433577533595
0.552900671959,-0.183250337839,-0.57551419735,-2.12863302231,-0.0911345556378,2.05295825005,-0.710301935673,0.0433885939419,-0.0301970355213,0.135935112834,-0.0501203089952,-0.0718576684594,-0.000129449050291,-0.162800565362,-6.86526691425e-05,0.52336402751,-0.0255762551705,0.370577780653,0.00633760765992,0.933247790852,0.356882087608,0.0405409771713
0.551339030266,-0.175472795963,-0.578299820423,-2.13265681267,-0.0911336690187,2.0462975502,-0.710302829742,0.0433885939419,-0.0370564982295,0.206824168563,-0.0785164758563,-0.0963128358126,0.000509585137479,-0.130338802934,-6.190478598e-05,0.520863544099,-0.0275517615025,0.364281782642,0.00499036364277,0.934257758927,0.355171971645,0.0314707228718
0.55059915781,-0.170975655317,-0.579948484898,-2.13480591774,-0.0911344140768,2.04372286797,-0.710302352905,0.0433885939419,-0.0426437780261,0.223907396197,-0.0796436220407,-0.103073365986,0.000203139410587,-0.12090344727,-0.000229786965065,0.519790489456,-0.0285633858036,0.361126932893,0.00448960222591,0.934735156425,0.354271329517,0.0272370259527
0.549903333187,-0.166784733534,-0.581459343433,-2.13672566414,-0.0911328494549,2.04142999649,-0.710301339626,0.0433885939419,-0.0429557897151,0.248075336218,-0.0884220004082,-0.103147447109,1.03088623291e-05,-0.128310114145,1.27313232952e-05,0.51876738638,-0.0295508121337,0.358110767721,0.00403119448237,0.935182514933,0.353383190362,0.0231890855796
0.549031615257,-0.161786705256,-0.583327531815,-2.13871765137,-0.091134801507,2.03920722008,-0.710302114487,0.0433885939419,-0.0508539229631,0.274538934231,-0.107564210892,-0.104000322521,-2.45519750024e-05,-0.112208530307,-0.000403680867748,0.517772352185,-0.0307335371194,0.354904788113,0.00364266411976,0.935683505237,0.35231087256,0.0189778235669
0.546018719673,-0.147834867239,-0.588684439659,-2.14360356331,-0.0911337137222,2.03460526466,-0.710302889347,0.0433885939419,-0.0709827691317,0.308453708887,-0.138319119811,-0.0922171995044,4.85668388137e-05,-0.0823307707906,-0.000814487342723,0.515175813364,-0.0347381794134,0.345811539207,0.00285986616798,0.937224680249,0.348636096893,0.00738860791455
0.544854819775,-0.143028005958,-0.590899407864,-2.14490103722,-0.0911358967423,2.03362941742,-0.710302531719,0.0433885939419,-0.0829896852374,0.324419409037,-0.15801744163,-0.0865367949009,-5.43583191757e-05,-0.0516925230622,-0.000345879467204,0.514491299863,-0.0363756714525,0.342989929173,0.00274828964442,0.937805755682,0.347127204349,0.00393893388026
0.543266773224,-0.137037828565,-0.593887507915,-2.14628100395,-0.0911354199052,2.03282737732,-0.710301697254,0.0433885939419,-0.0947012007236,0.335379838943,-0.182515591383,-0.0708507522941,9.77518429863e-05,-0.0383679196239,-0.000197920642677,0.513720145864,-0.0387563030274,0.339443382736,0.00270856877074,0.938624174633,0.344930784248,-0.000276067972191
0.541249155998,-0.130340740085,-0.59778213501,-2.14769673347,-0.0911355689168,2.03218984604,-0.71030330658,0.0433885939419,-0.105607621372,0.337789446115,-0.205515161157,-0.0686142072082,7.10748645361e-06,-0.0187411159277,-0.000414948211983,0.512966419005,-0.0415510957212,0.335950835574,0.00269769849197,0.939557763385,0.342352164619,-0.00435048888964
0.537668824196,-0.119646571577,-0.604862689972,-2.1494884491,-0.0911337807775,2.03201341629,-0.710310995579,0.0433885939419,-0.127718314528,0.34150826931,-0.258320808411,-0.0514588207006,-0.000194762818865,-0.000150410152855,-4.44077741122e-05,0.511923284847,-0.0466962538824,0.330554870159,0.00285943048232,0.941225433395,0.33760656495,-0.0104074097546
0.534925699234,-0.112814307213,-0.610478699207,-2.15032672882,-0.0911348089576,2.03201127052,-0.710317373276,0.0433885939419,-0.141374364495,0.340847760439,-0.288150250912,-0.0294056106359,0.000108370142698,0.000330394454068,-0.000365947635146,0.511182398228,-0.0511174463992,0.326963282646,0.00298581206543,0.942625157421,0.333528386609,-0.0144122356856
0.533160746098,-0.108711719513,-0.614029109478,-2.15060329437,-0.0911342948675,2.03201341629,-0.710324823856,0.0433885939419,-0.157893359661,0.341254204512,-0.306818813086,-0.0188698880374,-0.000278958643321,-0.000975973787718,-0.00203555892222,0.510789052318,-0.0538197218572,0.325021807096,0.00309501733682,0.943466852941,0.33103670933,-0.0165956329551
0.52994120121,-0.102365501225,-0.62025809288,-2.15089225769,-0.0911331921816,2.03203034401,-0.710346758366,0.0433885939419,-0.183139383793,0.333046555519,-0.350764751434,-0.00469702854753,7.70851038396e-05,0.006036803592,-0.000586977985222,0.510114136009,-0.0586341414357,0.32207776204,0.00325065897063,0.944948507535,0.326596614619,-0.019909855112
0.520402491093,-0.0867025777698,-0.639746069908,-2.15092372894,-0.0911284610629,2.03226971626,-0.711707949638,0.0433879382908,-0.215568989515,0.292055696249,-0.435110986233,0.00572344800457,-0.0001819688041,0.00645800260827,-0.0671985596418,0.508037023216,-0.0734581654212,0.315126685258,0.00357495977479,0.949180328242,0.313489250902,-0.0277202705497
0.516478180885,-0.0819277018309,-0.647356152534,-2.15090298653,-0.0911296978593,2.03256249428,-0.713065624237,0.0433879382908,-0.250461429358,0.270079195499,-0.47800886631,-0.00361086777411,-0.000194319392904,0.0249880217016,-0.108778871596,0.507086713285,-0.0797089753175,0.312910226288,0.00361473177004,0.950786483777,0.308357327017,-0.0301289652362
0.512433350086,-0.0777092948556,-0.655164361,-2.15094923973,-0.0911278426647,2.03294205666,-0.714929223061,0.0433879382908,-0.252785742283,0.267139524221,-0.497085601091,0.00105686206371,-0.000306918227579,0.0172732118517,-0.129967331886,0.506157256523,-0.0853677908205,0.311148810303,0.00358729671042,0.95215913278,0.303901530503,-0.0319996345857
0.506897091866,-0.0723360776901,-0.666176497936,-2.15089559555,-0.091120429337,2.03347110748,-0.718083441257,0.0433879382908,-0.270152539015,0.233239114285,-0.547034323215,-0.00349322450347,0.00246796570718,0.0271268244833,-0.17404063046,0.504696495512,-0.0937738153078,0.308808657882,0.00351490214043,0.95408815899,0.297513990466,-0.0344797840079
0.49915984273,-0.0666810050607,-0.68132185936,-2.15091586113,-0.0909047052264,2.03436851501,-0.723693072796,0.0433879382908,-0.287894368172,0.192962452769,-0.572416901588,0.002964717336,0.0359812453389,0.0307765770704,-0.245443180203,0.502480414274,-0.105312709103,0.306294006823,0.0031608006668,0.956543146064,0.289221524196,-0.0369611781409
0.487424820662,-0.0604278817773,-0.704563617706,-2.15090799332,-0.0889722704887,2.03562450409,-0.734724462032,0.0433879382908,-0.328109890223,0.147508308291,-0.63938242197,0.00139521167148,0.0730843022466,0.0354876257479,-0.337099522352,0.498652997654,-0.122587699928,0.303460330585,0.00170746740104,0.959970847294,0.277326036837,-0.0392851865822
0.48172596097,-0.0582793951035,-0.715682685375,-2.15091896057,-0.0874087512493,2.03630614281,-0.740713179111,0.0433879382908,-0.3395652771,0.110043570399,-0.659831643105,-0.00382553250529,0.110552743077,0.0457584410906,-0.36798363924,0.496649738048,-0.130744462833,0.302449561907,0.00069059840517,0.961535756737,0.271779229344,-0.0398065544796
0.464793235064,-0.0549074150622,-0.74896800518,-2.15089774132,-0.0799082815647,2.03910660744,-0.761887788773,0.043389249593,-0.346525996923,0.0419269949198,-0.706307172775,0.0028433657717,0.19739176333,0.057402972132,-0.486672788858,0.490102239093,-0.154978170834,0.30067351962,-0.00363551129319,0.965946910236,0.255797473547,-0.0387427655428
0.458761751652,-0.0545194633305,-0.761210024357,-2.15089631081,-0.0760087966919,2.04030799866,-0.770589292049,0.043389249593,-0.347897082567,0.00578618282452,-0.726264774799,-0.00278136064298,0.248744934797,0.082893140614,-0.53346824646,0.487742263283,-0.162877676512,0.300382882606,-0.00552024449269,0.967339070217,0.250617557806,-0.0376229922271
0.452878177166,-0.0545556992292,-0.773669600487,-2.15087604523,-0.0713815540075,2.04173994064,-0.779992878437,0.043389249593,-0.341854155064,-0.00827259756625,-0.734721601009,0.00528260273859,0.292734235525,0.0729592740536,-0.568064033985,0.485183752401,-0.171166337937,0.300243149475,-0.00774776224773,0.96876382869,0.245246216426,-0.0359292279883
0.44628059864,-0.0548184476793,-0.787599027157,-2.1507256031,-0.0654281824827,2.04315829277,-0.791014254093,0.043389249593,-0.338921666145,-0.0215110499412,-0.736631333828,0.0050693419762,0.344043433666,0.0736956223845,-0.588590860367,0.482200092372,-0.180286007855,0.300208206762,-0.0105153179097,0.970308724188,0.23927792177,-0.0337117739285
0.431545883417,-0.0564301498234,-0.820019185543,-2.15040946007,-0.0475343689322,2.04667186737,-0.818378984928,0.043389249593,-0.323023676872,-0.0492217056453,-0.729480087757,0.00128399545792,0.46222859621,0.0790701806545,-0.651629447937,0.47501130985,-0.200446888561,0.300473482705,-0.018224803712,0.97370161013,0.225518750203,-0.0267268397124
0.424522340298,-0.0576633624732,-0.836098074913,-2.15033793449,-0.0360375121236,2.04836463928,-0.833108782768,0.0433885939419,-0.307630598545,-0.0637270882726,-0.71522974968,0.000194805208594,0.560522317886,0.0644338056445,-0.677484631538,0.471330216323,-0.209826486806,0.30071604781,-0.0229057805818,0.975258861635,0.218745773136,-0.022265768515
0.4205930233,-0.0585174411535,-0.845319807529,-2.15032529831,-0.028347691521,2.0491335392,-0.842030405998,0.0433885939419,-0.290189951658,-0.0670036152005,-0.693910717964,0.0013217428932,0.621778905392,0.0447466485202,-0.692121207714,0.468532843081,-0.216465550666,0.300937600996,-0.026991750707,0.976350435523,0.213706714166,-0.0184583981721
0.413535714149,-0.0602909326553,-0.861763238907,-2.15031266212,-0.0127834416926,2.05027532578,-0.858827352524,0.0433885939419,-0.294736117125,-0.0782851949334,-0.668243288994,-0.001148227253,0.680159211159,0.0452423878014,-0.70363676548,0.465294885218,-0.223801833471,0.301257172585,-0.0321340759946,0.977526438359,0.20790786719,-0.0135566192139
0.407400369644,-0.0621107853949,-0.875895678997,-2.15036129951,0.00318385264836,2.05123972893,-0.874261558056,0.0433885939419,-0.27293419838,-0.0744631066918,-0.626447558403,0.00175597378984,0.77363628149,0.0311402752995,-0.694297850132,0.461988020781,-0.231026683045,0.301680310909,-0.0382003359823,0.97866523475,0.201737493307,-0.00755487346317
0.401347219944,-0.0640355795622,-0.890030503273,-2.15033721924,0.0222189947963,2.05181670189,-0.890210151672,0.0433885939419,-0.258276283741,-0.091193780303,-0.600492835045,0.000311741488986,0.853912711143,0.0237318854779,-0.691412508488,0.458915272104,-0.237477707506,0.30216584514,-0.0449230245228,0.979698685722,0.195375509774,-0.000903846860996
0.396963447332,-0.0659005045891,-0.899941027164,-2.1503880024,0.0381974838674,2.05202794075,-0.902741014957,0.0433885939419,-0.233839064837,-0.10658929497,-0.511667191982,-0.00470543652773,0.9122158885,0.00696853920817,-0.695127427578,0.456624233988,-0.242119617793,0.302728665697,-0.051070578175,0.980363609258,0.190395005614,0.00536015115352
0.392523407936,-0.0678411275148,-0.909169793129,-2.1505689621,0.056136187166,2.05222034454,-0.916028141975,0.0433885939419,-0.236631438136,-0.105914346874,-0.470400810242,-0.0160363111645,0.976024627686,0.016162591055,-0.703148424625,0.454715545965,-0.245928340578,0.303304953119,-0.0574522635412,0.980818022889,0.185880446101,0.0119876120513
0.382674664259,-0.07326682657,-0.927983641624,-2.15227365494,0.106717400253,2.05242085457,-0.94862729311,0.0433885939419,-0.176732301712,-0.134874641895,-0.313854515553,-0.0559584982693,1.11301410198,-0.00212323735468,-0.651560664177,0.451430375111,-0.252016790773,0.304763954275,-0.0750969996918,0.981134240575,0.175528688707,0.0304256757576
0.379951775074,-0.0754605382681,-0.932621002197,-2.1533806324,0.124981440604,2.05245256424,-0.958911240101,0.0433899052441,-0.16043753922,-0.132716327906,-0.270725667477,-0.0775150135159,1.13571512699,0.000490197970066,-0.626391947269,0.450899456252,-0.25280820062,0.305288205439,-0.0814305385266,0.980937331381,0.172500399095,0.0370760206334
0.377723842859,-0.0773360356688,-0.936396837234,-2.15464615822,0.142628237605,2.0524532795,-0.968272447586,0.0433899052441,-0.134617760777,-0.123622618616,-0.225806951523,-0.0943979918957,1.22431635857,-0.000427179795224,-0.614937365055,0.450619366266,-0.253056464654,0.305714870541,-0.0879226777004,0.980600813261,0.169641121566,0.0437439978541
0.375029832125,-0.0803529024124,-0.940875351429,-2.15724134445,0.170619040728,2.05245351791,-0.98250156641,0.0433899052441,-0.0915517508984,-0.131165668368,-0.155908748507,-0.126758784056,1.22705006599,-0.000726192200091,-0.625937521458,0.450687038665,-0.252334725358,0.306214716332,-0.0971965034689,0.979829731537,0.166341187546,0.0530767927788
0.37315517664,-0.0841783285141,-0.944373369217,-2.16149091721,0.208320528269,2.05243611336,-1.00052535534,0.0433899052441,-0.0403547175229,-0.123839750886,-0.0821393579245,-0.160520613194,1.26763117313,-0.00254056812264,-0.58492064476,0.451731755766,-0.249380539453,0.306763409977,-0.110231960162,0.978221192267,0.163098996653,0.065809808882
0.372819721699,-0.0859851166606,-0.945361673832,-2.16427588463,0.228975191712,2.05240726471,-1.00967395306,0.0433899052441,-0.00633358955383,-0.115497998893,-0.0454459562898,-0.183611035347,1.28932893276,-0.0102701373398,-0.574493229389,0.452613723846,-0.246987065096,0.306880865291,-0.117418188845,0.97714994996,0.161687360489,0.0724440568591
0.372876137495,-0.087657392025,-0.94567579031,-2.16740870476,0.249978676438,2.05226826668,-1.01867091656,0.0433899052441,0.00747381569818,-0.109031327069,0.0026293178089,-0.1995074898,1.29924786091,-0.00286103109829,-0.545252561569,0.453697747417,-0.244017898353,0.306890079085,-0.124793099371,0.975913989152,0.160583375204,0.0789401509311
0.373482972383,-0.0894361808896,-0.945259153843,-2.17156219482,0.276348620653,2.05196619034,-1.02929913998,0.0433899052441,0.0549448803067,-0.0749661847949,0.0320248231292,-0.21124561131,1.34968745708,-0.0227601528168,-0.534404397011,0.455411936925,-0.239425824441,0.306796802792,-0.134559559522,0.974110314451,0.159400795852,0.0871447427993
0.375997811556,-0.0912352576852,-0.94367069006,-2.17824530602,0.317100793123,2.05122661591,-1.0442327261,0.0433899052441,0.114590145648,-0.0419274680316,0.0750939175487,-0.240123167634,1.37792086601,-0.0206441283226,-0.479178190231,0.458318763208,-0.231797722184,0.306440456826,-0.148478645971,0.971274518071,0.158022371264,0.0980246505239
0.37845531106,-0.0918685048819,-0.941858291626,-2.18288660049,0.343334853649,2.05076694489,-1.05324602127,0.0433899052441,0.143640786409,-0.0215267129242,0.110179238021,-0.24830827117,1.37966871262,-0.0260732956231,-0.46770131588,0.460517268401,-0.225985363424,0.306021464766,-0.157759362803,0.969196627674,0.157452633592,0.104778567574
0.38094368577,-0.0921227484941,-0.939808666706,-2.18685245514,0.365620732307,2.05026865005,-1.06060051918,0.0433899052441,0.163540691137,-0.011503980495,0.147623568773,-0.250405013561,1.4030020237,-0.0451050363481,-0.457407534122,0.462544784927,-0.220644390739,0.305637741136,-0.16564251068,0.967315272749,0.157187584438,0.110253275476
0.383977860212,-0.0921956151724,-0.937039673328,-2.19118452072,0.389247566462,2.04941034317,-1.06812739372,0.0433899052441,0.19369533658,0.000674510316458,0.179260209203,-0.256467401981,1.39098739624,-0.0686068758368,-0.427207767963,0.464795734616,-0.214474649671,0.305175743796,-0.174135346462,0.965182304145,0.157195839541,0.115712871376
0.38842779398,-0.0920718759298,-0.932927906513,-2.19676542282,0.418492525816,2.0478990078,-1.07689225674,0.0433899052441,0.218193501234,0.00624329969287,0.204928532243,-0.267966836691,1.39823365211,-0.0710871294141,-0.406629860401,0.467686650174,-0.206116781929,0.304527059298,-0.184879469626,0.962357214766,0.157516082106,0.121970719715
0.395526796579,-0.091609403491,-0.926042675972,-2.20485019684,0.458635479212,2.04593443871,-1.08791339397,0.0433899052441,0.254621088505,0.0241168085486,0.27156946063,-0.283008933067,1.3476074934,-0.0792305842042,-0.364467203617,0.471856616542,-0.193604790017,0.30355852296,-0.199719093241,0.95821433102,0.158286073415,0.129934977113
0.400362461805,-0.0912548601627,-0.920822381973,-2.20990967751,0.482812672853,2.04422926903,-1.09431159496,0.0433899052441,0.282081842422,0.0193032752723,0.313808143139,-0.270110547543,1.34818482399,-0.0983680561185,-0.338828891516,0.474446292738,-0.185203936439,0.302967038773,-0.208927420434,0.955479429201,0.159338288008,0.134237487421
0.405057013035,-0.0908469483256,-0.915501236916,-2.21413373947,0.503967881203,2.04256844521,-1.09953415394,0.0433899052441,0.300753414631,0.0333981737494,0.336410403252,-0.266414105892,1.33041095734,-0.108582273126,-0.326169222593,0.476884052304,-0.177306572392,0.302575229037,-0.21702089157,0.952953451586,0.16061990962,0.137778431023
0.411090314388,-0.090236581862,-0.908712089062,-2.21917748451,0.528620362282,2.04037356377,-1.10525417328,0.0433905646205,0.33322224021,0.0318024456501,0.371825873852,-0.266543358564,1.25097775459,-0.116751343012,-0.292727172375,0.479728485031,-0.167500806914,0.302087807714,-0.226624454318,0.94986577615,0.162408498583,0.141491495437
0.421718508005,-0.0887135341763,-0.896647036076,-2.22699165344,0.56704646349,2.03699803352,-1.11373090744,0.0433905646205,0.362679630518,0.0558343082666,0.418062239885,-0.239729613066,1.1926804781,-0.0960000455379,-0.249227508903,0.484295202778,-0.150969857494,0.301309321394,-0.241598938566,0.944772530713,0.166032828167,0.146519342592
0.427941888571,-0.0877462550998,-0.889396846294,-2.23102235794,0.587044477463,2.03531050682,-1.11788475513,0.0433905646205,0.370583385229,0.0596200935543,0.446677535772,-0.233177050948,1.16850316525,-0.100156463683,-0.240839809179,0.486756058882,-0.141594216451,0.300940139064,-0.249409920048,0.941956867363,0.168466008947,0.148765437272
0.43451243639,-0.0866817012429,-0.881532609463,-2.23480463028,0.60619944334,2.0338203907,-1.12175476551,0.0433905646205,0.389899075031,0.0661798864603,0.466386675835,-0.210744664073,1.08188080788,-0.0699708685279,-0.208495914936,0.489220001665,-0.131911994745,0.300628761219,-0.256876017937,0.939121436936,0.171381200791,0.150645682971
0.441614359617,-0.0854788944125,-0.873041808605,-2.23841834068,0.62517619133,2.03265213966,-1.12540435791,0.0433905646205,0.396473109722,0.0667804926634,0.477747827768,-0.192894950509,1.02768623829,-0.0625412538648,-0.201758742332,0.491745472061,-0.121767359996,0.300373094061,-0.264173081147,0.936215675317,0.174683865907,0.152310010061
0.451423197985,-0.0836058408022,-0.861271440983,-2.24272537231,0.64855837822,2.03118181229,-1.12996530533,0.0433905646205,0.415383517742,0.087713688612,0.50794428587,-0.16572239995,0.91730183363,-0.0629274174571,-0.166154623032,0.494899209739,-0.108118402685,0.300030914834,-0.273204904922,0.93240730244,0.179776977489,0.15380487747
0.458711951971,-0.0821636542678,-0.85234606266,-2.24537706375,0.663361608982,2.0302362442,-1.13261258602,0.0433905646205,0.430091977119,0.0860076472163,0.532116651535,-0.144487768412,0.834065854549,-0.0528694391251,-0.135088443756,0.496992296215,-0.0982188117904,0.299794890295,-0.27903296505,0.929785687314,0.184010667839,0.154205233011
0.466812878847,-0.0804343149066,-0.842350900173,-2.24783849716,0.678326845169,2.02936673164,-1.13471162319,0.0433905646205,0.441502928734,0.0987524613738,0.53407651186,-0.113914743066,0.730127036572,-0.0457402318716,-0.0895679816604,0.499152912882,-0.0874027855203,0.299571819312,-0.284940811696,0.927038897914,0.188754918335,0.154205045551
0.479590326548,-0.0775479376316,-0.826718091965,-2.25045251846,0.697290062904,2.02848696709,-1.1368817091,0.0433905646205,0.443066298962,0.101131215692,0.549519836903,-0.0655474960804,0.581184208393,-0.0154804885387,-0.0519722402096,0.502158926754,-0.071052784697,0.299293188671,-0.292483739594,0.92313960414,0.196980338375,0.15318380893
0.486604243517,-0.0759107023478,-0.81768733263,-2.25131464005,0.706003546715,2.02840352058,-1.13731396198,0.0433912202716,0.42930585146,0.104431241751,0.568409979343,-0.0429930686951,0.510111093521,-0.00179124274291,-0.0138368140906,0.503713715692,-0.0621283352667,0.299220660583,-0.295916300305,0.92115348325,0.201828412099,0.152233686355
0.494762510061,-0.0740193799138,-0.80700725317,-2.25183224678,0.715070545673,2.02839636803,-1.13733148575,0.0433912202716,0.431509703398,0.0989434793591,0.565235197544,-0.0148023813963,0.446087360382,-0.000499540299643,-0.00027538521681,0.505157324402,-0.0534301079186,0.299236247333,-0.298970931519,0.919264487509,0.206703401975,0.15113863637
0.502895116806,-0.072232156992,-0.796262860298,-2.25183463097,0.72227203846,2.02846813202,-1.13731873035,0.0433912202716,0.420920729637,0.0902360975742,0.558742582798,0.00953202601522,0.335316538811,0.0120157785714,0.00038406078238,0.506931803745,-0.0416753550732,0.299363730448,-0.302407961911,0.916743804836,0.214095067167,0.149310156264
0.515746772289,-0.0696815550327,-0.77855437994,-2.25150775909,0.730531215668,2.02900362015,-1.13700509071,0.0433912202716,0.402984380722,0.0738277733326,0.570824205875,0.0158687774092,0.214199393988,0.0353645533323,0.0260669738054,0.508849859616,-0.0256218112198,0.299512871846,-0.30595001704,0.913381496297,0.225354351486,0.146096698258
0.522176146507,-0.0686002895236,-0.769584953785,-2.25120091438,0.733561754227,2.02963852882,-1.13626074791,0.0433912202716,0.397864073515,0.0606100298464,0.5513843894,0.0272505916655,0.16134211421,0.039476107806,0.0684094205499,0.509641254994,-0.0176818305951,0.299625553228,-0.30730027078,0.911782028784,0.231066964692,0.144319551944
0.529146492481,-0.0675715580583,-0.759770274162,-2.25063276291,0.735507547855,2.03046178818,-1.13484954834,0.0433912202716,0.379943072796,0.0577196106315,0.544716358185,0.0370365493,0.0641843527555,0.0472529530525,0.0887340977788,0.510352381755,-0.00917839009046,0.299784430462,-0.308323687876,0.910140888735,0.237443834949,0.14212843161
0.535540819168,-0.0665258988738,-0.75048148632,-2.24985218048,0.736226260662,2.03149032593,-1.13295960426,0.0433912202716,0.373088359833,0.0594743080437,0.546449780464,0.0554464533925,0.023490767926,0.0697198063135,0.126277893782,0.510923827942,-0.00138853556741,0.299900981961,-0.308819373356,0.908736414801,0.243455684946,0.139850106187
0.551912009716,-0.0642823204398,-0.726381778717,-2.24676346779,0.736226558685,2.03666567802,-1.12428319454,0.0433912202716,0.320454061031,0.0411779843271,0.469259440899,0.077168636024,-0.0100358184427,0.144926846027,0.208829030395,0.512535716697,0.0181383757414,0.300695823929,-0.308683163984,0.905694245181,0.257640101117,0.134365979674
0.561350286007,-0.0632224604487,-0.71165907383,-2.24397158623,0.73450922966,2.04217767715,-1.11643588543,0.0433912202716,0.266120821238,0.0346382036805,0.4345959723,0.0996998846531,-0.115426242352,0.175660148263,0.248375073075,0.513788562272,0.0292657781566,0.301574307739,-0.307212386119,0.904400077445,0.265257184614,0.131604237851
0.569166779518,-0.0623643100262,-0.698764801025,-2.24034404755,0.730135977268,2.04835247993,-1.10869288445,0.0433912202716,0.224212303758,0.0272430032492,0.340268105268,0.117880620062,-0.135822311044,0.196944415569,0.228647664189,0.515202431676,0.0385176370867,0.30269934486,-0.304261177171,0.903589621828,0.272387104993,0.129445726474
0.57271617651,-0.0619696825743,-0.6933837533,-2.23825526237,0.727436184883,2.05171728134,-1.10503828526,0.0433912202716,0.196157231927,0.0228678323328,0.288825154305,0.127187550068,-0.185312494636,0.201459497213,0.200252428651,0.515952424165,0.0419710148997,0.303292609129,-0.302550940117,0.903378899298,0.275273710676,0.128817222553
0.576024830341,-0.0615890063345,-0.688342392445,-2.23581004143,0.723593056202,2.05548143387,-1.10141897202,0.0433912202716,0.157306522131,0.0153504163027,0.242597058415,0.132639631629,-0.219629094005,0.18955591321,0.179627299309,0.516868503454,0.0451880529853,0.30399600464,-0.30014862821,0.903282041522,0.278447314108,0.128294377862
0.578586101532,-0.061331178993,-0.684668183327,-2.23346567154,0.719448924065,2.05864572525,-1.09818887711,0.0433912202716,0.144166231155,0.013007286936,0.193489596248,0.143694624305,-0.264729470015,0.183326795697,0.185390740633,0.517700740311,0.0473931169594,0.304664619195,-0.297768310312,0.903335655545,0.280992942805,0.127912831903
0.582950294018,-0.0611386671662,-0.678737938404,-2.22638320923,0.705816805363,2.06598639488,-1.0900657177,0.0433912202716,0.0407483763993,-0.000144542820635,0.066941536963,0.141559958458,-0.27111697197,0.132352858782,0.137662261724,0.520130464055,0.0498961737266,0.306792624337,-0.290532206813,0.90410490835,0.286171780625,0.127636449154
0.583268165588,-0.0611434727907,-0.6780782938,-2.2242872715,0.701824367046,2.06800174713,-1.08812248707,0.0433912202716,0.00292626861483,-0.000390939996578,0.0245377086103,0.140193864703,-0.266911029816,0.129920661449,0.117638982832,0.520983410039,0.0495600772832,0.30749273593,-0.288182320456,0.904544440004,0.287017095661,0.127951134074
0.583056747913,-0.0611696690321,-0.678134262562,-2.22145032883,0.696463942528,2.07041501999,-1.08575534821,0.0433912202716,-0.0296718981117,-0.00169790210202,-0.0232705101371,0.137570723891,-0.270040601492,0.124577797949,0.109484896064,0.522033015349,0.048419891222,0.30833764524,-0.28537910544,0.905208979269,0.287476162068,0.128502630126
0.579488933086,-0.0611991323531,-0.682094097137,-2.2147321701,0.684747993946,2.07533621788,-1.08008134365,0.0433912202716,-0.115935251117,-0.00074062141357,-0.141353622079,0.132365763187,-0.20027191937,0.0733934938908,0.115364514291,0.524860626842,0.0422257108624,0.310466884019,-0.27861701271,0.907693747182,0.285249754121,0.130756258008
0.577500581741,-0.0612097233534,-0.684674263,-2.21270775795,0.681748569012,2.07662653923,-1.0785702467,0.0433912202716,-0.13513417542,0.000378691445803,-0.183225125074,0.119234569371,-0.190268412232,0.0834791138768,0.0818389579654,0.525789013071,0.039227514219,0.311134921495,-0.276686945805,0.908687010654,0.283468920862,0.131824205948
0.575121879578,-0.0612034611404,-0.687975406647,-2.21080946922,0.678897023201,2.0779504776,-1.07732474804,0.0433912202716,-0.162054985762,9.715349006e-05,-0.223630815744,0.113568462431,-0.166930824518,0.0756519213319,0.0797186344862,0.526712916652,0.0356555488978,0.311743337502,-0.274740538397,0.909794712881,0.281226625866,0.133051875443
0.571082949638,-0.0611919388175,-0.69330406189,-2.2081785202,0.675374388695,2.07939910889,-1.07572472095,0.0433912202716,-0.203376919031,0.000101623743831,-0.262550920248,0.122086919844,-0.165509477258,0.0629937425256,0.0659594684839,0.527954514798,0.0300007104975,0.312600752651,-0.272215206949,0.911452409208,0.277398225044,0.134920759252
0.564739584923,-0.0612086579204,-0.701883554459,-2.20478034019,0.671705007553,2.08109641075,-1.07379877567,0.0433912202716,-0.251164168119,0.000873838260304,-0.346721172333,0.125057578087,-0.104927413166,0.0520044714212,0.061665263027,0.529556092759,0.0212921727017,0.313766920055,-0.269128558852,0.913864946121,0.270957220697,0.137850873391
0.560065746307,-0.0611740723252,-0.708489358425,-2.20246171951,0.669901549816,2.08180809021,-1.07296252251,0.0433912202716,-0.271932214499,-0.000603374734055,-0.391970843077,0.134751006961,-0.0975595042109,0.0306196454912,0.0253571420908,0.530546085782,0.0148820923711,0.314573440951,-0.267289821368,0.915499279619,0.266102199107,0.140024425445
0.555740475655,-0.061178419739,-0.714540064335,-2.20048522949,0.66834127903,2.08223390579,-1.07266247272,0.0433912202716,-0.298176020384,-0.000232416437939,-0.416829913855,0.131202161312,-0.103294014931,0.0219509396702,0.0144414799288,0.531300747875,0.00902298595352,0.315262080821,-0.265695793449,0.916896727993,0.261823620548,0.141966640252
0.549535632133,-0.0611116625369,-0.72314208746,-2.19783163071,0.666616678238,2.08288812637,-1.07242524624,0.0433912202716,-0.330703318119,0.00141622533556,-0.462900072336,0.134469777346,-0.0634961053729,0.0334829203784,0.0101343151182,0.532250834175,0.000693777061447,0.316178830901,-0.263554166021,0.918828218645,0.255609779798,0.144767214338
0.539187073708,-0.0609257183969,-0.738358139992,-2.19359230995,0.665266573429,2.08385443687,-1.07202279568,0.0433912202716,-0.366566002369,0.00276636285707,-0.544798433781,0.152645170689,-0.0491027720273,0.0157229080796,0.0108033213764,0.533553327263,-0.0135298686651,0.317694012527,-0.260442641099,0.92198756147,0.244336534989,0.14969376922
0.53277784586,-0.0608974657953,-0.747851371765,-2.19095683098,0.66440731287,2.08419036865,-1.07182872295,0.0433912202716,-0.385243743658,0.000480377173517,-0.565719127655,0.156452298164,-0.0580990687013,0.0189681593329,0.0160890668631,0.534092230995,-0.0218377609278,0.318603848934,-0.258670998448,0.923735016784,0.237793744161,0.152502682765
0.525437712669,-0.0608589798212,-0.758348464966,-2.18804049492,0.663598537445,2.0844502449,-1.07167541981,0.0433912202716,-0.409644931555,0.00249923719093,-0.588734567165,0.162264928222,-0.0384550876915,0.0145080471411,0.00216965051368,0.534562095845,-0.0322783788563,0.319739669971,-0.256492465282,0.925844252646,0.229539826243,0.155998406877
0.504073798656,-0.0607801564038,-0.789576530457,-2.17937731743,0.661805272102,2.08541536331,-1.07160139084,0.0433912202716,-0.45374917984,-0.00190879078582,-0.671147167683,0.196000546217,-0.0369078144431,0.0284033995122,0.00291026523337,0.534870020558,-0.0615926630184,0.323004105155,-0.250250018196,0.931279126042,0.206320236143,0.16590984791
0.496875882149,-0.0607776083052,-0.800280332565,-2.17613315582,0.661409139633,2.0857322216,-1.07159340382,0.0433912202716,-0.459715664387,-0.00149437237997,-0.677139520645,0.205992802978,-0.0156864281744,0.0204699225724,0.000166747748153,0.53470939787,-0.0716157299693,0.324276484146,-0.248047727789,0.932963641977,0.198367635954,0.169415017571
0.489316672087,-0.0608582571149,-0.811360478401,-2.17289996147,0.66127294302,2.0861287117,-1.07159090042,0.0433912202716,-0.468568563461,-0.00656866794452,-0.695085525513,0.200360044837,-0.00184157176409,0.0249618627131,0.00118056091014,0.534327493511,-0.0820347575537,0.325596477537,-0.245812740642,0.934623745151,0.189972977539,0.173103492248
0.478860467672,-0.0608842484653,-0.826808810234,-2.16820144653,0.661174476147,2.08655190468,-1.07158470154,0.0433912202716,-0.477131634951,-0.00590228941292,-0.706591367722,0.221640586853,-0.00411621388048,0.0146211311221,0.00029289253871,0.533502635047,-0.0965281630779,0.327488954802,-0.242641339231,0.936792386396,0.178288973934,0.178208436237
0.465459436178,-0.0610745549202,-0.846316039562,-2.16202092171,0.661137342453,2.08676123619,-1.07158231735,0.0433912202716,-0.464080482721,-0.00612917961553,-0.695197880268,0.218301028013,-0.00121909985319,0.0017477000365,-0.000196296532522,0.53189858142,-0.114918076618,0.330053185864,-0.238591035703,0.93927736182,0.163465633215,0.184692559945
0.456969112158,-0.0612560175359,-0.858879029751,-2.15823173523,0.661140263081,2.08679294586,-1.07157731056,0.0433912202716,-0.477960348129,-0.0105363158509,-0.702945172787,0.206154942513,-0.000510631594807,0.00717876525596,3.90180648537e-05,0.53047210397,-0.126637828564,0.331636281878,-0.236021479543,0.940731775776,0.153948746312,0.188725648589
0.441296309233,-0.0623471140862,-0.882211208344,-2.15110516548,0.661148846149,2.08681917191,-1.0715700388,0.0433912202716,-0.435652345419,-0.0513621121645,-0.64891409874,0.194307163358,-0.00137882004492,0.00109420996159,4.10248139815e-05,0.527156680112,-0.148332016262,0.334922998463,-0.231198756425,0.943057215269,0.136341923254,0.196471635122
