imanlab/tactile_prediction_flat_dataset/train/data_sample_2021-11-24-16-12-42/robot_state.csv
position_panda_joint1,position_panda_joint2,position_panda_joint3,position_panda_joint4,position_panda_joint5,position_panda_joint6,position_panda_joint7,position_panda_finger,velocity_panda_joint1,velocity_panda_joint2,velocity_panda_joint3,velocity_panda_joint4,velocity_panda_joint5,velocity_panda_joint6,velocity_panda_joint7,ee_state_position_x,ee_state_position_y,ee_state_position_z,ee_state_orientation_x,ee_state_orientation_y,ee_state_orientation_z,ee_state_orientation_w
-0.0915798470378,0.144463703036,0.0821020007133,-2.48943161964,-0.0656995922327,2.6280310154,-0.696090221405,0.0505127683282,0.000272971956292,0.000329048809363,0.000272693025181,-0.000202741444809,-9.82892561296e-06,-0.000103282283817,0.000544233364053,0.472769605641,-0.00439001686762,0.119113567399,0.0086589577437,0.931713997191,0.363041980048,-0.00587965101136
-0.091580055654,0.144464403391,0.0821019336581,-2.48943257332,-0.0656997859478,2.62803268433,-0.696085393429,0.0505127683282,-0.000314044911647,0.000143150493386,-0.00031190973823,8.12304097053e-06,-4.31476073572e-05,-3.53341565642e-05,-0.0001315727568,0.472769210348,-0.00438985577233,0.119112970647,0.0086589029686,0.931714949157,0.363039537194,-0.00587971393707
-0.0915814787149,0.144464343786,0.0821008533239,-2.48943328857,-0.065700083971,2.62803196907,-0.696079313755,0.0505127683282,-0.000295691395877,0.00105006736703,-0.000383439939469,0.000506612239406,-0.000114669121103,-9.64685314102e-05,-0.000120942153444,0.47276868459,-0.00439107939376,0.119112683507,0.00865881775245,0.931716453429,0.363035667457,-0.00588040167798
-0.0915821045637,0.144462943077,0.0820972919464,-2.48943018913,-0.0656993165612,2.62803339958,-0.696062505245,0.0505127683282,4.4784941565e-05,0.000565344525967,0.000244248949457,-0.000144365330925,6.72341120662e-05,3.04900349875e-05,8.51572767715e-05,0.472770862356,-0.00439316620226,0.119114518917,0.00866002586256,0.931720397099,0.363025561668,-0.0058776562058
-0.0915807411075,0.144464179873,0.0820982605219,-2.48943209648,-0.065700262785,2.62803411484,-0.696056127548,0.0505127683282,0.00299921259284,-9.34996478463e-06,0.000183037947863,-3.3892760257e-05,-6.29307469353e-05,-8.18771295599e-05,0.00141720077954,0.472769788283,-0.00439201723601,0.119113344688,0.00865968942316,0.931720968781,0.363024084504,-0.00587876413054
-0.0915796458721,0.14446644485,0.0820985808969,-2.48943352699,-0.0656997039914,2.62803506851,-0.696050882339,0.0505127683282,0.000340490980307,-0.000669405097142,2.12125196413e-05,-0.000349335896317,-0.000658413686324,-4.17643386754e-05,-0.000107085965283,0.472768784882,-0.00439125319766,0.119111866991,0.00865893938555,0.931721741052,0.363022101855,-0.00587990393468
-0.0915836691856,0.144465759397,0.082096979022,-2.48943185806,-0.0656994730234,2.62803816795,-0.696024179459,0.0505127683282,4.01904799219e-05,-0.000116079994768,2.86600316031e-05,0.00131521211006,-8.0428117144e-06,-0.000133210298372,0.000227085023653,0.472770439686,-0.00439393838594,0.119113026817,0.00866000942433,0.931727650379,0.363006951499,-0.00587729560533
-0.0915825739503,0.144467160106,0.0820966660976,-2.4894323349,-0.065699800849,2.62803816795,-0.696016788483,0.0505121126771,0.000517397653311,0.000226856660447,0.000396609219024,-0.000585128029343,0.000183833268238,-5.114238229e-05,8.55580656207e-05,0.472769898967,-0.00439355483334,0.11911220039,0.0086597274242,0.931728790461,0.363004018219,-0.00587814492298
-0.0915824100375,0.144463822246,0.0820989534259,-2.48943328857,-0.0656995475292,2.62803769112,-0.696006834507,0.0505121126771,0.000184298653039,-0.000208826022572,-0.000396493269363,0.00017511509941,6.27104527666e-05,6.10770803178e-05,-0.000188482285012,0.472770031273,-0.00439239134268,0.119113414672,0.0086600500431,0.931730202636,0.363000401599,-0.00587717225685
-0.0915746167302,0.144465088844,0.0821004956961,-2.48943305016,-0.0656997412443,2.62803840637,-0.695968925953,0.0505121126771,6.42155937385e-05,-0.000269075942924,2.71563512797e-05,-7.8394288721e-05,4.91614337079e-05,-0.000103285448859,-0.000154117122293,0.472770086512,-0.00438791288201,0.119112971101,0.00866000964806,0.931735358979,0.362987169217,-0.00587705109682
-0.0915755406022,0.144465535879,0.0821012333035,-2.48943209648,-0.0657001361251,2.62803936005,-0.695949554443,0.0505121126771,-0.00054329278646,-0.00014312993153,0.000287767150439,0.000171316889464,-9.74088106886e-06,-6.35805045022e-05,0.00197931937873,0.472770692968,-0.00438798286181,0.119113177327,0.00866033920816,0.931738850169,0.362978212295,-0.00587628239233
-0.0915779694915,0.144463524222,0.0820964127779,-2.48943257332,-0.0656996294856,2.62803983688,-0.695896685123,0.0503249615431,-0.000598661601543,-0.000232637612498,-0.000164255397976,7.13894478395e-05,9.00771337911e-05,-8.86361522134e-05,0.0128739951178,0.472770934595,-0.00439154769554,0.119113974402,0.0086611036107,0.931749832169,0.362950018804,-0.00587529339515
-0.0915868058801,0.144466340542,0.0820932537317,-2.48943400383,-0.065699711442,2.62804055214,-0.695794284344,0.0503249615431,0.000146568869241,6.94621558068e-05,-0.00010913254664,-0.00045960478019,-5.39724642294e-05,-8.6266110884e-05,0.00319908838719,0.472769693875,-0.0043972254429,0.119112197165,0.00866081031982,0.931770554783,0.362896802032,-0.00587659452217
-0.091577835381,0.144464641809,0.082092769444,-2.48943209648,-0.0656999573112,2.62804341316,-0.695763587952,0.0503249615431,0.000472063809866,-0.000116550167149,-0.000185540789971,0.000640972575638,5.78839717491e-07,-5.76929087401e-05,0.00229840655811,0.472771700755,-0.00439325009957,0.119113902753,0.00866220362996,0.931774556415,0.362886544803,-0.00587345999088
-0.0915796235204,0.144464790821,0.0820954591036,-2.48943042755,-0.0656997337937,2.62804293633,-0.695745706558,0.0503249615431,-0.000130170708871,-0.000164218101418,-0.000185702403542,4.45997866336e-05,3.1307295103e-06,9.28213353291e-07,0.00238638743758,0.472772434594,-0.00439276628853,0.119114383163,0.00866223552049,0.93177768829,0.362878513108,-0.00587279236947
-0.0915798917413,0.14446657896,0.0820946395397,-2.48943114281,-0.0656998753548,2.62804341316,-0.695729374886,0.0503249615431,0.00017228188517,3.95055030822e-05,-0.00042093519005,-0.000341800798196,-7.64129799791e-06,-2.27746622841e-05,-1.16064957183e-05,0.47277178326,-0.00439325857177,0.119113330154,0.00866190922988,0.931780815636,0.362870476379,-0.00587367002332
-0.0915781706572,0.144465461373,0.0820955634117,-2.48943471909,-0.0656996071339,2.62804532051,-0.695702254772,0.0503249615431,0.000564798247069,0.000112231689855,8.22305300971e-05,0.000472104322398,0.000104316670331,2.0857922209e-05,0.000139236784889,0.472770612396,-0.00439194125172,0.119112790618,0.00866176294014,0.931785285479,0.362859000765,-0.00587374466813
-0.0915817394853,0.14446555078,0.0820927321911,-2.48943281174,-0.0656986385584,2.62804841995,-0.695684194565,0.0503249615431,-0.000496225664392,-0.000372640031856,-0.000191010214621,0.00059709046036,0.000152288121171,3.05358662445e-05,0.00242547178641,0.472772441551,-0.00439530998401,0.119113880546,0.00866270053292,0.93179025245,0.3628462671,-0.00587104726182
-0.0915832966566,0.144464671612,0.0820906236768,-2.48943185806,-0.0656988695264,2.62804961205,-0.695673704147,0.0503249615431,-0.000639540143311,-0.000197517132619,0.000252034369623,0.000440806790721,0.000193765270524,-0.000106346102257,0.000304816494463,0.472773134739,-0.00439679493694,0.119114496235,0.00866335844791,0.931792411454,0.362840723177,-0.00587004830528
-0.0915846526623,0.144464552402,0.0820883437991,-2.48943185806,-0.0656985789537,2.62805199623,-0.695664703846,0.0503249615431,0.000116391573101,0.000859992695041,0.00366323511116,-0.000252861296758,7.14505877113e-05,-0.000325606408296,-8.15570820123e-05,0.472773659931,-0.00439853713776,0.119114746307,0.00866386067403,0.931794743795,0.362834740281,-0.00586889119777
-0.0915800854564,0.144466981292,0.0820931717753,-2.48943257332,-0.0656986013055,2.62805294991,-0.695654571056,0.0489393956959,0.00171763950493,0.000559066655114,0.000124243786559,-0.000327473127982,2.08533911064e-05,0.000168761616806,0.00231878436171,0.472772883854,-0.00439372705043,0.119113213626,0.00866298106054,0.931794880371,0.362834396027,-0.00586978858335
-0.091575294733,0.144467607141,0.0820936709642,-2.48943424225,-0.065698929131,2.62805438042,-0.695639312267,0.0489393956959,-7.03050100128e-05,0.000288730603643,0.000244107053732,-9.34243580559e-05,0.000110290551675,0.000126939718029,0.00128045049496,0.472772384499,-0.00439135717246,0.119112719385,0.00866296964248,0.931796622517,0.362829920168,-0.00586991806739
-0.0915780588984,0.144467458129,0.0820931643248,-2.48943328857,-0.0656988546252,2.62805724144,-0.695631444454,0.0489393956959,-0.000173310720129,-4.292329686e-05,0.000603773631155,1.4592401385e-05,1.32187869895e-05,1.23859008454e-05,0.00458623887971,0.47277351825,-0.00439289159602,0.119113364682,0.00866366525654,0.931798657563,0.362824707565,-0.00586804335373
-0.0915816277266,0.144467055798,0.082090459764,-2.4894349575,-0.0656983926892,2.62805843353,-0.695622503757,0.0489393956959,-0.000249033852015,0.00079308275599,0.000202431052458,-0.0001290445216,-0.000124497833895,0.000131284963572,9.93110188574e-06,0.472772970477,-0.00439589060766,0.119113065175,0.00866371002799,0.931801476832,0.362817464948,-0.00586811002199
-0.0915840342641,0.144466504455,0.0820884928107,-2.48943090439,-0.0656982809305,2.62806010246,-0.695617437363,0.0489393956959,2.24813156819e-05,-9.75562652457e-05,0.000205835764064,0.000395003327867,-8.57068225741e-05,0.00179901870433,1.38847381095e-05,0.472775514971,-0.00439803421974,0.11911486017,0.00866495661832,0.931803223132,0.362812996593,-0.00586524310747
-0.0915807634592,0.144469469786,0.0820892974734,-2.48943257332,-0.0656992569566,2.62805986404,-0.695604205132,0.0489393956959,0.000195540342247,-0.000231831538258,-0.000478596542962,0.00320923491381,2.35458737734e-05,-2.9715243727e-05,0.000856241793372,0.472773993705,-0.00439604605988,0.119112870261,0.00866416956535,0.931804713801,0.362809151458,-0.00586743617372
-0.0915821865201,0.144469454885,0.082091242075,-2.48943567276,-0.0656985417008,2.62806010246,-0.695584058762,0.0489393956959,-0.000642067170702,-0.000278992578387,0.00183989561629,3.74642222596e-05,-3.16892983392e-05,-3.4596221667e-05,0.00035519283847,0.472772460487,-0.00439569559971,0.119111836676,0.00866340451696,0.93180837791,0.362799741121,-0.00586854378557
-0.0915795713663,0.144468173385,0.0820881649852,-2.48943138123,-0.0656972378492,2.62806200981,-0.695576190948,0.0489393956959,0.00409101229161,-7.02180841472e-05,0.000288746756269,-7.91780348663e-06,-6.47624547128e-05,9.83087520581e-05,-0.000213191000512,0.472775355253,-0.00439619597594,0.119113999075,0.00866460705488,0.931810157765,0.362795195854,-0.00586515303824
-0.0915791317821,0.14446875453,0.0820915773511,-2.48943185806,-0.0656982958317,2.62806391716,-0.69556581974,0.0489393956959,-3.50544869434e-05,0.00366951595061,-0.000227844764595,9.59246899583e-05,3.88906119042e-05,-0.000121691366076,0.000474723317893,0.472775424596,-0.00439408018751,0.11911381839,0.00866486394405,0.931811130777,0.362792700705,-0.00586452829154
-0.0915805920959,0.144469171762,0.0820905864239,-2.48943567276,-0.0656987503171,2.62806391716,-0.695556402206,0.0489393956959,-0.000227675773203,-0.000412026129197,0.000177405032446,0.000151401720359,6.46239059279e-05,0.00311651825905,-0.000465550023364,0.472773359449,-0.00439523458003,0.119112297483,0.00866424960508,0.931813187981,0.362787399271,-0.00586652357479
-0.0915841162205,0.144469052553,0.0820872783661,-2.48943519592,-0.0656962990761,2.62806344032,-0.695533394814,0.0489393956959,-0.000226717980695,-6.89029839123e-05,-0.00156284880359,-0.000376601296011,-7.1642207331e-05,-0.000159210801939,0.00292720412835,0.472773482991,-0.00439848664231,0.119112457131,0.00866398520838,0.931818988645,0.362772509781,-0.0058663100282
-0.0915845111012,0.144469469786,0.082088701427,-2.48943448067,-0.0656978935003,2.628064394,-0.695520937443,0.0489393956959,8.84677283466e-05,-0.000302855856717,0.000797039421741,-3.77401556761e-05,9.36047945288e-05,-0.000156985464855,0.000171471721842,0.472773982062,-0.00439800023368,0.119112599546,0.00866449211538,0.931820811422,0.36276782487,-0.00586573959583
-0.0915822461247,0.144468739629,0.0820881202817,-2.48943424225,-0.0656978860497,2.62806391716,-0.695505857468,0.0489393956959,0.000117137627967,-0.000107442188892,0.000277989922324,0.000166651632753,-0.000124975093058,-0.000981307122856,0.00300426129252,0.472774161571,-0.00439724117126,0.119112981409,0.00866470842965,0.931823244253,0.362761574868,-0.00586547373211
-0.091578938067,0.144468083978,0.0820882841945,-2.4894323349,-0.0656985789537,2.62806773186,-0.695491373539,0.0489393956959,0.000258632702753,-0.000181461669854,0.000530985882506,5.2583463912e-06,-4.47282473033e-05,0.000263726047706,-2.93544580927e-05,0.4727761357,-0.0043956016137,0.11911428217,0.00866601910328,0.931825140016,0.362756722581,-0.00586246146141
-0.0915815383196,0.144469693303,0.0820880830288,-2.4894323349,-0.065696708858,2.62806916237,-0.695460319519,0.0386041216552,-7.32417902327e-05,5.8155557781e-05,-0.000280116481008,0.000557105930056,-0.00011875150085,1.03589190985e-05,7.00775199221e-05,0.472776090852,-0.00439682471334,0.119113645675,0.00866555289062,0.931831575415,0.362740206138,-0.00586223413344
-0.0915831848979,0.14447017014,0.0820859968662,-2.48943281174,-0.0656982436776,2.62806844711,-0.695444226265,0.0386041216552,0.000165297577041,0.000719409319572,0.000251973367995,-0.000598693091888,0.000111421759357,0.00020094885258,0.00286336662248,0.472775567142,-0.00439868539418,0.119113183343,0.00866576784267,0.931834916286,0.362731603878,-0.00586314693274
-0.0915820375085,0.144467875361,0.0820888280869,-2.48943281174,-0.0656982883811,2.62806868553,-0.695425093174,0.0386041216552,0.000193803134607,3.08156741085e-05,0.00028316344833,-0.000176157947863,-1.72652180481e-05,-0.000169341568835,0.00428285170346,0.472776133565,-0.00439677492339,0.119114301186,0.00866621364488,0.931837670468,0.362724539271,-0.00586181997331
-0.0915804728866,0.14446978271,0.08208578825,-2.48943257332,-0.0656978562474,2.62806987762,-0.6953997612,0.0386041216552,-0.000106652129034,0.000234256061958,-0.00393381854519,-1.50864088937e-05,0.000116426999739,-0.00020817029872,0.000604515895247,0.47277609576,-0.00439748780374,0.119113571036,0.00866618844895,0.931842589575,0.362711900249,-0.00586195644337
-0.0915820971131,0.144467920065,0.0820862129331,-2.48943281174,-0.0656979307532,2.62807154655,-0.695366740227,0.0386041216552,-7.29885723558e-05,8.3149629063e-05,-0.000410500681028,-0.000189627360669,2.75280835922e-05,-0.00011713582353,5.3265135648e-05,0.472776731548,-0.00439806033626,0.119114513481,0.00866690866667,0.931848787278,0.36269598694,-0.00586029737454
-0.0915830880404,0.144468784332,0.082083798945,-2.48943519592,-0.065696567297,2.62807226181,-0.69534277916,0.0386041216552,-1.14333579404e-05,0.000741800991818,-0.000174928311026,-0.000214623272768,1.50714304255e-05,0.000108358173748,-0.000311569951009,0.47277545344,-0.00439964213768,0.11911332953,0.00866628779568,0.931853948112,0.362682725485,-0.00586132774395
-0.0915820151567,0.144468337297,0.0820852443576,-2.48943781853,-0.0656952932477,2.62806248665,-0.695326805115,0.0386041216552,0.000637253804598,-0.000236068721279,0.00180641096085,-1.58381244546e-05,0.000109834756586,-0.000172163898242,6.5051150159e-05,0.472772069664,-0.00439847704525,0.119111792572,0.00866401047273,0.93185658942,0.362675905804,-0.00586674625939
-0.0915802940726,0.144472554326,0.0820860937238,-2.4894554615,-0.0656952932477,2.62806510925,-0.695304214954,0.0386041216552,8.06777679827e-05,0.000318484817399,0.00159841659479,-0.0026229720097,-0.000185146695003,0.000463978620246,0.00268142367713,0.472762678971,-0.00439695982799,0.119103937355,0.00866022271753,0.931860121089,0.362666781173,-0.00587543912581
-0.0915809497237,0.144470989704,0.0820852071047,-2.48943471909,-0.0656953826547,2.62807774544,-0.695265173912,0.0386041216552,-3.79821030947e-05,0.000224235947826,-0.000449291692348,-0.00352929485962,-6.55631956761e-05,-0.00115006801207,-0.000248126074439,0.472776448732,-0.00439778776805,0.119112938127,0.00866663183164,0.93186756506,0.36264776641,-0.00585900033531
-0.0915841907263,0.144481495023,0.0820833593607,-2.48948574066,-0.0656961128116,2.62807011604,-0.695250511169,0.0386041216552,0.000164841781952,-2.29204815696e-05,0.000385002349503,-0.00221336260438,1.61155949172e-05,0.000453841319541,0.00329879228957,0.472746251181,-0.00439967014554,0.119089674977,0.00865389334718,0.931870745143,0.362639379426,-0.00589106540196
-0.0915836766362,0.144481897354,0.0820826739073,-2.48946046829,-0.0656952038407,2.62808299065,-0.695239365101,0.0351940505207,-0.000233077356825,0.000229612691328,-0.000616166857071,0.00231957901269,0.000134431640618,0.000685530714691,0.000445354206022,0.472761991312,-0.00439981530099,0.119099335919,0.00866042356161,0.931873060975,0.362633560373,-0.00587331846854
-0.0915809646249,0.144478902221,0.0820837318897,-2.48943066597,-0.0656939521432,2.62808847427,-0.695229768753,0.0351940505207,-4.86424250994e-05,0.000336834986228,0.000172476633452,-0.000628256762866,-0.00022454316786,-0.00058083049953,0.000380339304684,0.472779188214,-0.00439823990643,0.119111532922,0.0086671935818,0.931874475482,0.362630054141,-0.00585535821487
-0.0915815457702,0.144482150674,0.0820838436484,-2.48949790001,-0.0656954422593,2.62807631493,-0.695206046104,0.0351940505207,-0.000392209127313,-0.00273342779838,0.000188307327335,0.00225322041661,0.000119004529552,-3.96315845137e-05,0.00143895868678,0.472741225552,-0.00439795556665,0.119085701999,0.00865242606506,0.93187828267,0.362620000533,-0.00589378576236
-0.0915822982788,0.144477337599,0.0820831954479,-2.48946285248,-0.0656945928931,2.62808299065,-0.695199906826,0.0351940505207,-0.000107430299977,0.00015574558347,0.000256507919403,0.0015512019163,1.39033563755e-05,0.00302150659263,-0.000286211579805,0.472761744303,-0.00439895156662,0.119100662567,0.00866094464881,0.93187996968,0.362615812974,-0.00587213864692
-0.0915798768401,0.144480153918,0.0820847377181,-2.48946523666,-0.0656957775354,2.62808299065,-0.695190608501,0.0351940505207,0.00153023912571,0.000629185873549,0.000631055096164,-0.00107794709038,-8.42446097522e-05,-0.0003901294549,-0.000156415757374,0.472759940675,-0.00439699704794,0.119098520569,0.00866008485925,0.931880731586,0.362613837327,-0.00587449505627
-0.0915784016252,0.144486129284,0.0820839852095,-2.4894926548,-0.0656943544745,2.6280772686,-0.695184409618,0.0286641567945,-1.99366641027e-05,0.000488024088554,-0.000486769567942,-0.000801664835308,3.04184777633e-05,-0.00253314897418,-0.000168023965671,0.472743300152,-0.0043963250318,0.11908572376,0.00865247987391,0.9318818006,0.362610979815,-0.00589247874568
-0.0915831327438,0.144483342767,0.0820832550526,-2.48946833611,-0.0656946375966,2.6280837059,-0.695158243179,0.0286641567945,0.000145218131365,-0.000120985991089,1.70237271959e-05,-0.00044015806634,1.18370362543e-05,0.00138100248296,0.000511815596838,0.472757796258,-0.00439914002635,0.119095999422,0.00865882466392,0.931887613734,0.36259614226,-0.00587685529056
-0.0915801301599,0.144484207034,0.0820840671659,-2.48948812485,-0.0656949058175,2.62807893753,-0.695150971413,0.0286641567945,-3.15019533446e-05,0.000266521266894,-0.000231480589719,-0.00103343417868,5.34126156708e-05,-0.00553366634995,0.000176163215656,0.472746400865,-0.00439717844291,0.119088341242,0.00865423271307,0.931888100113,0.362594810819,-0.00588863104007
-0.091580145061,0.144485458732,0.0820835903287,-2.48948693275,-0.065694719553,2.62807893753,-0.695135295391,0.0286641567945,0.000190914070117,-0.000416174385464,-0.000529096461833,0.000987069448456,-6.77587086102e-05,0.000249586388236,5.24312708876e-05,0.472746744077,-0.00439740416197,0.119088160862,0.00865420775077,0.931891062763,0.362587198107,-0.00588857230636
-0.0915804132819,0.144483581185,0.0820844098926,-2.48947954178,-0.065694719553,2.6280810833,-0.695106387138,0.0286641567945,-0.00023178657284,0.000398546952056,-0.000129463078338,-0.000187541765627,-1.46679703903e-05,-3.5648676544e-07,0.00289468327537,0.47275142329,-0.00439720278492,0.119091791659,0.00865637732087,0.931896246581,0.362573911333,-0.0058831323598
-0.0915817916393,0.144485488534,0.0820825397968,-2.48948454857,-0.0656944289804,2.62807965279,-0.695099115372,0.0286641567945,-0.000584979075938,0.000390966539271,0.00502994982526,-5.42314155609e-05,-5.79985608056e-05,5.47358940821e-05,0.000449210259831,0.472748106488,-0.00439871050119,0.119089027135,0.00865485792852,0.931898166284,0.362568950633,-0.00588700546798
-0.0915809348226,0.144484579563,0.0820812135935,-2.48947620392,-0.0656943619251,2.62808084488,-0.695087254047,0.0286641567945,0.00063031015452,-0.000128346538986,-6.41179794911e-05,-0.000331122777425,7.25365025573e-05,0.000427463586675,9.65443978203e-05,0.472752850702,-0.00439904639352,0.119092436542,0.00865690659329,0.931900452739,0.362563103681,-0.00588214990836
-0.0915805101395,0.144485756755,0.0820846781135,-2.48948264122,-0.0656956061721,2.62808036804,-0.695077061653,0.0286641567945,0.000228960314416,9.09244699869e-05,0.00321108754724,-0.000391830631997,-7.0979258453e-05,2.68926523859e-05,-0.000229881916312,0.472749210546,-0.00439707916864,0.119089634964,0.00865547501686,0.931901369403,0.36256072219,-0.00588581919001
-0.0915785133839,0.144485160708,0.0820843875408,-2.48948383331,-0.0656943917274,2.62808084488,-0.695068180561,0.0286641567945,-0.000584438443184,-5.47851559531e-05,-0.000791138969362,-0.000332232972141,-0.000100156015833,0.00155882886611,0.000309854571242,0.472748606456,-0.00439689952101,0.11908952686,0.00865528013164,0.931903458524,0.362555354953,-0.00588594899056
-0.0915827676654,0.144484132528,0.0820835754275,-2.48947954178,-0.0656952634454,2.62808132172,-0.695057570934,0.0282136835158,0.000189517813851,-0.000383705337299,-0.00376059464179,0.000570912729017,-0.00202356791124,4.74286025565e-05,-5.63864668948e-05,0.472751342555,-0.00439873493757,0.119091548234,0.00865660548732,0.931905583189,0.362549907672,-0.00588313991116
-0.0915815159678,0.144485548139,0.0820804983377,-2.48948574066,-0.0656957477331,2.62808012962,-0.695041418076,0.0282136835158,0.000859065796249,-0.00125812762417,0.000455438508652,-6.80060402374e-05,1.12254347187e-05,9.41594698816e-05,9.58046293817e-05,0.472747573196,-0.00439962042808,0.11908861765,0.00865529862664,0.931908722409,0.362541802273,-0.00588729077688
-0.091577231884,0.144486114383,0.0820821374655,-2.4894785881,-0.0656958967447,2.62808084488,-0.695026695728,0.0282136835158,0.000251701771049,7.75457665441e-05,-6.62420206936e-05,-0.00040730839828,-2.4908415071e-05,0.000133523630211,-0.000273540616035,0.472751321721,-0.00439683022903,0.119090895161,0.00865660618594,0.931910331925,0.362537691159,-0.00588375683039
-0.0915786549449,0.144486039877,0.0820813849568,-2.48947930336,-0.0656945928931,2.62808132172,-0.695015609264,0.0282136835158,0.000208486919291,0.00377323268913,-0.00044017349137,-8.47430710564e-05,2.65710295935e-05,7.7611177403e-05,0.000337055098498,0.472751060395,-0.00439782680058,0.119090719305,0.00865634013845,0.93191293952,0.362530995358,-0.00588370805554
-0.0915809124708,0.144485607743,0.0820812061429,-2.48948097229,-0.0656953901052,2.62808036804,-0.694991469383,0.0282136835158,0.00030619095196,-0.000275697471807,-8.93246105989e-05,1.90078953892e-05,-3.06421243295e-05,1.50515797941e-05,0.000730758882128,0.472750074346,-0.00439901207161,0.11909026265,0.00865623323457,0.931917621606,0.362518945632,-0.00588471818899
-0.0915801376104,0.144483759999,0.0820836275816,-2.48948097229,-0.065695270896,2.62808036804,-0.694986462593,0.0282136835158,-9.97392198769e-05,-0.000158912720508,-0.000338595418725,-0.000538101943675,1.15273371648e-06,-1.67633716046e-05,0.000488742662128,0.472750044938,-0.00439768438084,0.119091113988,0.00865650887567,0.931918267886,0.362517289669,-0.00588397909556
-0.0915807634592,0.144484981894,0.0820807889104,-2.48948287964,-0.0656948760152,2.62808084488,-0.694979131222,0.0282136835158,-0.000133610737976,0.00025487417588,-0.000423890072852,-0.000618585618213,7.10581589374e-05,4.01590914407e-05,-0.000194135791389,0.472749327332,-0.00439912227302,0.119089936772,0.00865603798538,0.931919979765,0.362512883344,-0.00588501613542
-0.0915788710117,0.144486472011,0.0820832327008,-2.48948335648,-0.0656954720616,2.62808036804,-0.694973886013,0.0282136835158,-6.4481755544e-05,4.65509447167e-06,-0.000116717412311,1.29084548917e-06,-9.01105449884e-05,8.66370610311e-05,0.000313493568683,0.47274868668,-0.00439699993721,0.119089042487,0.00865554886058,0.931920049185,0.362512699631,-0.00588605909211
-0.0915791839361,0.144485503435,0.0820821002126,-2.48948049545,-0.0656946748495,2.6280810833,-0.694965004921,0.0276108626276,-3.28074975187e-06,-2.54487840721e-05,0.000178187270649,0.000612196745351,-5.98090991843e-05,-1.65236015164e-05,-0.000366501277313,0.472750511736,-0.00439772501703,0.119090543264,0.00865632230983,0.931922062433,0.362507540698,-0.005883898079
-0.0915785059333,0.144486114383,0.0820812955499,-2.48948097229,-0.0656945258379,2.62808036804,-0.694959640503,0.0276108626276,0.000136533679324,0.000358046148904,-4.50408369943e-05,-0.000189975951798,0.000131047636387,-5.7969475165e-05,0.000209397461731,0.472749976394,-0.00439779320305,0.119090023897,0.00865601642144,0.931923075981,0.362504929014,-0.00588472261236
-0.0915785729885,0.144484698772,0.0820823758841,-2.48948144913,-0.0656953155994,2.62808084488,-0.694953799248,0.0276108626276,0.000557765422855,-0.000514448271133,-0.000277471379377,-0.000129620748339,-3.19084647344e-05,-3.64140687452e-05,0.00048593262909,0.472750145606,-0.00439732820964,0.119090573924,0.00865645183773,0.931923828051,0.36250299555,-0.00588408486425
-0.0915786325932,0.144485533237,0.0820832327008,-2.48948335648,-0.0656946897507,2.62808036804,-0.694949030876,0.0276108626276,-0.000100585726614,-6.09013404755e-05,4.15096328652e-05,-0.000320702354657,9.27686051e-06,-0.00424695806578,-9.12078103283e-05,0.472748886563,-0.00439688142348,0.119089484321,0.0086556520152,0.931924638939,0.362500907582,-0.00588546633815
-0.0915759950876,0.144483923912,0.0820823088288,-2.48948454857,-0.0656950026751,2.6280810833,-0.694942355156,0.0276108626276,0.000122707235278,-0.000462091935333,0.00196646875702,4.65503617306e-05,8.09138873592e-05,6.23683008598e-05,-0.000152291511768,0.472748777967,-0.00439611638935,0.119089887491,0.0086560594439,0.931925483468,0.362498734619,-0.0058849793445
-0.0915808454156,0.14448235929,0.0820810720325,-2.48948168755,-0.0656945481896,2.62808060646,-0.694938242435,0.0276108626276,-0.000382758851629,-0.000199122805498,0.000120552002045,0.000223030190682,3.12556549034e-05,0.000117844268971,9.37375516514e-05,0.472750448514,-0.004399075157,0.119091565333,0.00865683405932,0.931927420551,0.36249376522,-0.0058831887961
-0.0915841683745,0.144486114383,0.0820765718818,-2.48948192596,-0.0656941011548,2.62808132172,-0.694934785366,0.0276108626276,-0.000411817571148,-0.000592841184698,2.70276486845e-05,0.000352128030499,0.000166772486409,-8.27541371109e-05,0.000593700038735,0.472749635125,-0.00440279123872,0.119089750199,0.00865624005549,0.931929514203,0.362488371215,-0.00588476718888
-0.0915815755725,0.144487097859,0.0820797532797,-2.48948097229,-0.0656947046518,2.6280810833,-0.694930434227,0.0276108626276,-0.00140778394416,0.00108616461512,0.000395411188947,7.32446187612e-06,-8.64139365149e-05,0.000185834913282,0.000306220463244,0.47274970583,-0.00440012065613,0.119089377778,0.0086560023594,0.931929263092,0.362489018103,-0.0058850365293
-0.0915784165263,0.14448697865,0.0820828601718,-2.48948144913,-0.0656948760152,2.62807941437,-0.694922149181,0.0276108626276,-0.000136103059049,3.26215304085e-05,6.94564441801e-05,0.000169604027178,0.000140227333759,-0.000345244683558,-0.00545595353469,0.472749349958,-0.00439697191577,0.119089378058,0.00865567809378,0.931929515132,0.362488368858,-0.00588559165574
-0.0915750414133,0.144485607743,0.0820818170905,-2.48947834969,-0.0656944513321,2.62808132172,-0.694915771484,0.0276108626276,-0.000423192133894,0.000858702522237,-0.00288329040632,0.000679118034896,-7.53195708967e-05,-0.000218455665163,0.000301687134197,0.472751796862,-0.00439609952964,0.119091273524,0.00865685203585,0.931930461996,0.362485954923,-0.00588260861905
-0.0915776118636,0.14448004961,0.0820801332593,-2.48946690559,-0.0656947940588,2.62808346748,-0.694911718369,0.0276108626276,0.000127248044009,-5.84485060244e-05,-0.00376035808586,0.000778776360676,0.000124263184262,6.18385547568e-06,0.00149218749721,0.472759183904,-0.00439817179321,0.119098007657,0.00866075610319,0.93193184891,0.362482437741,-0.00587386629332
-0.0915797948837,0.144451275468,0.0820809081197,-2.4894516468,-0.0656948983669,2.62808775902,-0.694907367229,0.0276108626276,2.49123113463e-05,-0.000467779755127,-0.000384811719414,-0.000172050204128,-2.68158123617e-06,-0.000257614505244,-5.47432755411e-05,0.472774103124,-0.00439947541213,0.119117218484,0.00867067938146,0.931933025002,0.362479532912,-0.00585184872084
-0.0915783345699,0.144450977445,0.0820807293057,-2.48946118355,-0.0656946599483,2.62808728218,-0.69490647316,0.0276108626276,0.000294987752568,-2.40582794504e-05,5.47956733499e-05,-0.000374725757865,0.00011842357344,-0.000246411393164,2.44446364377e-05,0.472769158333,-0.00439878865099,0.119114018745,0.00866885908535,0.931932945696,0.362479707763,-0.00585634302219
-0.0915771201253,0.144453465939,0.0820824056864,-2.4894630909,-0.0656947344542,2.62808704376,-0.694901525974,0.0276108626276,0.000201749367989,4.26955484727e-05,0.000253561796853,0.000333179923473,-7.19527743058e-05,0.000145908517879,0.000254238810157,0.472767611804,-0.00439731737776,0.119112175409,0.00866784328853,0.931933294983,0.36247880124,-0.00585837282719
-0.0915780961514,0.144456297159,0.0820831805468,-2.48946356773,-0.0656945332885,2.62808632851,-0.694898664951,0.0276108626276,-0.000328540889313,9.83204590739e-05,0.000507534598,-0.000480213057017,0.000105099948996,-8.37668776512e-05,3.79775992769e-05,0.472766607557,-0.00439733509524,0.119110618647,0.00866692067593,0.931933875058,0.362477303244,-0.00586014701721
-0.0915777236223,0.144460022449,0.0820806249976,-2.48946404457,-0.0656942948699,2.62808680534,-0.694898605347,0.0276108626276,0.000152333421283,6.10272072663e-05,8.30001317809e-06,1.40371985253e-05,0.000128789964947,9.89484906313e-05,-9.60601391853e-05,0.472765656141,-0.00439834245297,0.119108725384,0.00866618035141,0.931934301204,0.362476197283,-0.00586188072097
-0.0915755927563,0.144458994269,0.0820829346776,-2.48946523666,-0.0656948834658,2.62808680534,-0.694893836975,0.0246401038021,0.000198773821467,8.17958934931e-05,-4.99117595609e-05,3.67809552699e-05,-1.28416340885e-05,5.80461528443e-05,-0.000462322408566,0.472765288342,-0.00439621074843,0.11910881094,0.00866620168496,0.931934268683,0.362476279943,-0.00586190804486
-0.0915763676167,0.144457682967,0.0820823460817,-2.48946166039,-0.0656947344542,2.62808585167,-0.694891214371,0.0246401038021,-0.000347843742929,-3.97105104639e-05,-0.000369053188479,-0.000206675060326,3.80072087864e-05,-0.000148817081936,0.000135329304612,0.472767191516,-0.00439693669082,0.119110579277,0.00866701494497,0.931935035288,0.362474318525,-0.00586011519613
-0.0915798023343,0.144459038973,0.0820801481605,-2.48946499825,-0.0656947568059,2.62808537483,-0.694887399673,0.0246401038021,-0.000461024523247,0.000884115870576,-0.000558820378501,0.000169719904079,1.11161371024e-05,-0.000166599740623,0.000319062470226,0.472765049348,-0.00439960470028,0.119108732546,0.00866615716203,0.931936718359,0.362469971959,-0.0058625768451
-0.0915815383196,0.144459307194,0.0820799767971,-2.48946046829,-0.0656946152449,2.62808656693,-0.694885313511,0.0246401038021,0.000427113904152,-0.000665764557198,0.00429091183469,0.000455516361399,-5.92526121181e-05,0.000189594633412,0.000496836204547,0.472767256592,-0.00440084539349,0.119109953185,0.00866696272555,0.931937478247,0.362468034036,-0.00586040801047
-0.0915808826685,0.144446402788,0.0820783674717,-2.48945379257,-0.0656950846314,2.62808680534,-0.694877922535,0.0246401038021,8.49125426612e-05,0.000800765759777,0.000381113903131,0.000244968745392,-6.52690796414e-05,-0.000607071153354,0.000108787186036,0.472773804772,-0.0044013486068,0.119118675656,0.00867149767459,0.931938984687,0.362464202717,-0.00585110090635
-0.0915774330497,0.144447147846,0.0820824205875,-2.48945116997,-0.06569480896,2.62808775902,-0.694873273373,0.0232945941389,3.48604371538e-05,0.000375821167836,-0.000315232871799,-0.000927555724047,-4.11605833506e-05,0.000118075833598,-0.000194584630663,0.472775248774,-0.0043976872761,0.11911933669,0.00867168192455,0.931938532857,0.362465384885,-0.00584956016468
-0.0915761962533,0.144447341561,0.0820828229189,-2.48945498466,-0.0656950771809,2.62808680534,-0.694867968559,0.0232945941389,-0.000151440268382,0.000617568497546,-0.000425746489782,-4.65196753794e-05,1.09561278805e-05,-4.41917036369e-05,0.000190178092453,0.472773043806,-0.00439688211043,0.119117846016,0.00867083357677,0.931939136067,0.362463817331,-0.00585184779309
-0.0915779098868,0.144448503852,0.0820809975266,-2.48946022987,-0.0656944289804,2.6280875206,-0.694866716862,0.0232945941389,-0.000163595803315,-0.000168220853084,-2.07436660276e-05,0.00363924331032,3.18695902024e-06,-0.000117235846119,-0.000159946459462,0.472770231745,-0.0043985015072,0.119115536084,0.00866967419557,0.93194007399,0.362461391068,-0.0058544778786
-0.0915755927563,0.144448056817,0.0820823907852,-2.48946404457,-0.0656945034862,2.62808609009,-0.694864392281,0.0232945941389,0.00043508579256,-7.6576579886e-05,-6.69354922138e-05,-2.73943023785e-05,-3.08005837724e-05,-0.00297966017388,0.00228269677609,0.472767717828,-0.00439728990898,0.119114112153,0.00866858679369,0.931939966323,0.362461654326,-0.00585692766759
-0.0915790423751,0.144447550178,0.0820818245411,-2.48944950104,-0.0656944662333,2.62808799744,-0.694857597351,0.0232945941389,0.000347983033862,0.000896890473086,0.00335630099289,0.000125479229609,-0.000248430587817,7.36250149203e-05,0.00223118741997,0.472775920612,-0.00439862370877,0.119119425418,0.00867178584038,0.931941752565,0.362457111748,-0.00584908411194
-0.0915765166283,0.144450470805,0.0820837393403,-2.48945474625,-0.0656950101256,2.62808823586,-0.694858014584,0.0232945941389,-5.80587184231e-05,0.000444668607088,-0.00201050611213,-0.000707518018316,-2.48153301072e-05,-0.000165044650203,3.98618467443e-05,0.472771852283,-0.00439641093207,0.119115673269,0.0086698931031,0.931940996667,0.362459028774,-0.00585353143305
-0.0915707349777,0.144446074963,0.082084685564,-2.48945856094,-0.0656949132681,2.62808775902,-0.694853842258,0.0232945941389,-0.000288461887976,7.731232472e-05,0.000174658620381,0.000717496091966,-5.9658606915e-05,4.22581360908e-05,0.000226876174565,0.472771718989,-0.00439334619367,0.119117299261,0.00867050773281,0.931940384641,0.362460607212,-0.00585232224064
-0.0915779173374,0.144454628229,0.0820814296603,-2.48945832253,-0.0656946897507,2.62808704376,-0.694849193096,0.0230050031096,-0.000597983656917,0.000295955018373,-0.00281153619289,-0.000199657311896,-4.87287081796e-07,-0.000176504079718,0.000398960575694,0.472769582599,-0.00439829770606,0.119112963668,0.00866852923722,0.931943193302,0.362453360369,-0.00585681661467
-0.0915764868259,0.144454672933,0.0820826813579,-2.48946332932,-0.0656950995326,2.62808609009,-0.694845676422,0.0230050031096,-0.00293820397928,-0.000344708765624,-0.000416333816247,-0.000329518254148,2.46897579927e-05,-3.72507602151e-05,-2.41946090682e-05,0.47276702829,-0.00439687748861,0.119111443279,0.008667610483,0.931943190429,0.362453350389,-0.0058592506173
-0.0915736556053,0.144453883171,0.082084454596,-2.48946690559,-0.0656946450472,2.62808537483,-0.694841384888,0.0230050031096,-0.000101270161394,0.000273613259196,-0.00020300707547,0.000566467351746,-8.4552982571e-07,-1.16769761007e-05,0.000293891673209,0.472765223512,-0.00439463142589,0.119110526393,0.00866681482887,0.93194319554,0.362453331825,-0.00586076294601
-0.0915753915906,0.144456684589,0.0820809975266,-2.48946714401,-0.0656948387623,2.62808513641,-0.694840371609,0.0230050031096,8.4348503151e-05,0.000295924139209,-0.000361740472727,-0.000658078934066,6.99998563505e-05,2.01062612177e-05,-0.000143687488162,0.472764419737,-0.00439712731944,0.119109084065,0.00866636274887,0.931944272269,0.362450547895,-0.00586238490617
-0.0915797129273,0.144457429647,0.0820787921548,-2.48947191238,-0.0656940490007,2.62808489799,-0.694839477539,0.0230050031096,3.24137254211e-05,0.00012108773808,-0.000187563957297,0.000782019575126,5.76352385906e-06,-4.84653501189e-05,-0.000327573827235,0.472762499263,-0.00440067237456,0.119107559431,0.00866550884294,0.931945738276,0.362446764852,-0.00586448618081
-0.0915795788169,0.144453167915,0.0820784196258,-2.48946142197,-0.0656941235065,2.62808465958,-0.694840431213,0.0230050031096,4.39184514107e-05,0.000423515477451,-0.00014323843061,-0.000234399209148,-9.46178697632e-05,-8.10001583886e-05,0.00016729926574,0.472767971477,-0.00440049827244,0.119112663395,0.00866811701763,0.931945633504,0.362447069725,-0.00585843605263
-0.0915764123201,0.144440308213,0.0820796117187,-2.48945903778,-0.06569532305,2.62808227539,-0.694841504097,0.0230050031096,-0.000224935516599,0.000244740891503,-0.000380764104193,5.38871645404e-05,-7.0136244176e-05,-0.000157678936375,-0.000186849254533,0.472771439273,-0.00439874677955,0.119119347749,0.00867125879448,0.931944505432,0.362449986963,-0.00585275165062
-0.0915782675147,0.144413217902,0.0820779949427,-2.48945355415,-0.0656943395734,2.62808132172,-0.694840967655,0.0230050031096,-0.000252224301221,-0.00330916489474,-0.000211668637348,-0.000343946943758,0.000169206570718,-0.000182820498594,-0.000167092337506,0.472782174632,-0.00440147482835,0.119138040607,0.00868007387338,0.931945673098,0.362447066155,-0.00583460636244
-0.0915790349245,0.144298762083,0.0820749849081,-2.4894182682,-0.0656948909163,2.628064394,-0.694838941097,0.0230050031096,0.000418490933953,-0.00593061745167,0.000442356045824,0.00487141730264,-4.3034447117e-06,-0.000553949736059,-0.000155437708599,0.472818599399,-0.00440564729025,0.119198568173,0.00870775647378,0.931946908509,0.3624441147,-0.00577910905734
-0.0915792584419,0.144166842103,0.0820724517107,-2.48933744431,-0.0656945481896,2.62802267075,-0.694840669632,0.0235073529184,-7.55487344577e-05,-0.0140039436519,-0.000356334407115,0.00680403783917,-4.98802473885e-05,-0.0013746265322,-7.96145759523e-05,0.472879109343,-0.00441084786083,0.11928506076,0.0087456484293,0.931947893273,0.362441884791,-0.00570242847403
-0.0915788561106,0.143801614642,0.0820619314909,-2.48921298981,-0.0656942501664,2.62797045708,-0.694839537144,0.0235073529184,-0.000149118102854,-0.0163973551244,-0.000411806278862,0.0116101847962,-0.000103837483039,-0.00233559915796,0.000455961417174,0.473009313431,-0.00442482826819,0.11949569479,0.00884254066414,0.931951468336,0.36243337293,-0.00550636106315
-0.0915761142969,0.142914697528,0.0820574089885,-2.48877000809,-0.0656966567039,2.62735033035,-0.69483923912,0.0235073529184,-3.18931561196e-05,-0.0412653312087,-6.94142436259e-05,0.0222800839692,3.75163544959e-05,-0.0370407812297,-0.000161130461493,0.473289567726,-0.00445480055131,0.120013452281,0.00902492067399,0.931956052668,0.362421639428,-0.00519823636316
-0.0915758237243,0.142119839787,0.0820536762476,-2.48842668533,-0.0656978785992,2.62660574913,-0.694839477539,0.0235073529184,-0.000230284378631,-0.0624715127051,-0.000397547701141,0.0251099038869,-0.000168617843883,-0.0589650198817,-0.000100686840597,0.473471292439,-0.00448423540297,0.120442704624,0.00914808127751,0.931960411933,0.36240962655,-0.00503641409856
-0.0915757939219,0.140945151448,0.0820509418845,-2.48789381981,-0.06569878757,2.62535691261,-0.694840252399,0.0235073529184,0.000537181796972,-0.0843589901924,-0.000189057987882,0.0422288887203,0.000130739586893,-0.101559050381,-0.000302206259221,0.473719663039,-0.00452847644779,0.121073417189,0.00931080537403,0.931966732309,0.362391696126,-0.00485561910606
-0.0915704742074,0.130645304918,0.0820523947477,-2.48155426979,-0.0657043680549,2.60842990875,-0.694838583469,0.0235073529184,6.31111979601e-05,-0.215313270688,0.000276127597317,0.147724851966,-0.000217287801206,-0.387572973967,-2.61759087152e-05,0.47539763302,-0.00498549305537,0.12668905877,0.0100923294929,0.932034498683,0.36218980365,-0.00532766057978
-0.0915722697973,0.126111388206,0.0820631682873,-2.47845768929,-0.0657071396708,2.60036182404,-0.694838166237,0.0235073529184,0.000361083919415,-0.256632834673,-0.000569232390262,0.176193892956,-0.000596940575633,-0.465054899454,-0.000170517421793,0.476129031957,-0.0051917672696,0.129231404534,0.0103932458799,0.932066479382,0.362093548877,-0.00568506801927
-0.0915689170361,0.121849790215,0.08207257092,-2.47558450699,-0.0657090693712,2.59277415276,-0.694837629795,0.0235073529184,0.000838003063109,-0.304493308067,0.00186285143718,0.201108410954,0.000508644268848,-0.533229887486,-6.54169634799e-05,0.476780284946,-0.00538210156077,0.131617102212,0.0106676427179,0.932096404702,0.36200277883,-0.00603999548241
-0.0915590375662,0.115123637021,0.0821002647281,-2.47115373611,-0.0657079741359,2.58090758324,-0.694835484028,0.0235073529184,-0.000355098920409,-0.354872316122,-0.000388777029002,0.246635600924,7.46422119846e-06,-0.642914652824,0.000156779991812,0.477747682481,-0.00566912589086,0.135373289361,0.0110957434853,0.932142099442,0.361862532161,-0.00659533370811
-0.0915660783648,0.103791154921,0.0821129456162,-2.46276402473,-0.0657112523913,2.56061053276,-0.694828629494,0.0236019138247,0.000409813830629,-0.434592962265,0.000682254962157,0.309751212597,-0.000858624291141,-0.746123194695,0.00262735853903,0.479681135329,-0.00618553529616,0.142061907716,0.011938643197,0.932237942231,0.361576254789,-0.0072456553081
-0.0915646329522,0.0959666967392,0.0821467041969,-2.45718646049,-0.0657072141767,2.54726696014,-0.694819092751,0.0236019138247,-0.000596052792389,-0.473924726248,0.00358346942812,0.346600651741,0.000827322888654,-0.80504077673,0.000279246596619,0.480985831595,-0.00651093780746,0.146699585547,0.0125817728421,0.932301351047,0.361386256943,-0.007474142472
-0.0915721207857,0.0881798714399,0.0821688249707,-2.45116281509,-0.0657121837139,2.53380656242,-0.694776654243,0.0236019138247,3.98986630898e-05,-0.495563805103,-0.000281357381027,0.387920200825,0.00110496778507,-0.873773694038,0.00302675738931,0.48241881097,-0.006846506081,0.151505901358,0.0132807269382,0.93237751593,0.361162734368,-0.00756763293646
-0.0915669053793,0.0771718472242,0.0821872651577,-2.44257974625,-0.0657147169113,2.51474523544,-0.694406747818,0.0236019138247,0.00123936182354,-0.5549300313,0.00119441701099,0.438143730164,0.000481925759232,-0.926453053951,0.0264493320137,0.484258154405,-0.00729033529125,0.158023216857,0.0142141313473,0.932536947201,0.360712597293,-0.00769561004242
-0.0915842056274,0.0598723180592,0.0822058990598,-2.42803072929,-0.0657120868564,2.4855453968,-0.693908572197,0.0236019138247,-0.000717930088285,-0.591903030872,-0.00313138938509,0.518437564373,-0.00131072069053,-1.02204072475,0.0195296443999,0.48784200421,-0.00803814473969,0.169787187561,0.0161309568131,0.932813166191,0.359931106084,-0.00699912651017
-0.0915781706572,0.0489157736301,0.0822151526809,-2.41834592819,-0.0657145157456,2.46664643288,-0.69350194931,0.0236019138247,0.00118904479314,-0.629165887833,-0.000486968579935,0.560483634472,-0.000564828456845,-1.07201063633,0.0240064952523,0.490002751533,-0.00848524384326,0.177248909491,0.0173231852718,0.93300340524,0.359390895002,-0.00653738005659
-0.0915709584951,0.0381697006524,0.0822335332632,-2.40818786621,-0.065710388124,2.4481306076,-0.69293653965,0.0236019138247,-0.000630975002423,-0.635772287846,8.44327223604e-05,0.613887250423,0.00300776585937,-1.10879123211,0.0392268449068,0.492293037368,-0.00891033834482,0.184899112416,0.0186081984669,0.933224398604,0.358765587356,-0.00576279577403
-0.0915838554502,0.0272633135319,0.0822252184153,-2.39742898941,-0.0657140612602,2.42917490005,-0.692026793957,0.0236019138247,0.000761441362556,-0.652022361755,0.000966843392234,0.637737095356,0.000194849009858,-1.12144601345,0.0702010244131,0.494635629087,-0.00935802103853,0.19290336733,0.0199640787604,0.933520604139,0.357934763388,-0.00483963331466
-0.0915635153651,0.014754017815,0.0822472795844,-2.38472008705,-0.065709784627,2.40765595436,-0.690532922745,0.0236321203411,0.000300675979815,-0.661181211472,0.000476599409012,0.698960006237,-0.00131941749714,-1.13497638702,0.0892386436462,0.497340328232,-0.00982089218768,0.202347793717,0.0216092484408,0.933931828029,0.356780309987,-0.00349157083833
-0.0916121900082,-0.00555258477107,0.0822179913521,-2.36241912842,-0.0657069459558,2.37201690674,-0.6878002882,0.0236321203411,-0.00100324465893,-0.668917775154,0.000222506336286,0.740013360977,0.00160517496988,-1.16534757614,0.0943043678999,0.501830154845,-0.0106233696999,0.218526457743,0.0244439784811,0.934687050588,0.354629238304,-0.000844040568133
-0.0916091352701,-0.016730574891,0.0822220370173,-2.34944415092,-0.0657114386559,2.35243082047,-0.68632876873,0.0236321203411,-0.00172416528221,-0.661864340305,-0.00161780358758,0.745780646801,0.000376914278604,-1.14351558685,0.0788385123014,0.50433438479,-0.0110210550207,0.227850402707,0.0261211614475,0.935085903079,0.353455955313,0.000962355115561
-0.0916676968336,-0.0270768329501,0.0821889936924,-2.3372426033,-0.0657029300928,2.33419346809,-0.685128331184,0.0236321203411,-0.00477296719328,-0.654728114605,-0.00117071787827,0.786570966244,0.000978501397185,-1.1248831749,0.0749300271273,0.506523193657,-0.0114248564713,0.236629630127,0.0276748283052,0.93544454768,0.352378260621,0.00267641966744
-0.0917222425342,-0.039959281683,0.0821542069316,-2.32160663605,-0.065707065165,2.31188058853,-0.683425486088,0.0236321203411,-0.001026113634,-0.637910723686,-0.00392891326919,0.762620091438,-0.00387549190782,-1.10067808628,0.0860720202327,0.508602490986,-0.0117810563728,0.245085609461,0.0292317111994,0.935796233116,0.351297440583,0.00458531043607
-0.0918373689055,-0.069030970335,0.0816245153546,-2.28623461723,-0.065691255033,2.26174449921,-0.679462552071,0.0236321203411,-0.000636704673525,-0.600895166397,-0.0144490515813,0.729176223278,-0.000782276329119,-1.01037228107,0.0589920245111,0.514416227369,-0.0130846274731,0.273756149994,0.0343592578832,0.937046315478,0.347332620603,0.0111217982889
-0.0918856263161,-0.0781417787075,0.0812569782138,-2.2751288414,-0.0656975805759,2.24663543701,-0.678617298603,0.0236321203411,-0.00325915054418,-0.581756174564,-0.0302256997675,0.703144490719,-0.00102237146348,-0.969322800636,0.0534829422832,0.515849529366,-0.0135369790319,0.282031051077,0.0358843711393,0.937351560648,0.346277729716,0.0132701637941
-0.0919433236122,-0.0892926305532,0.080581702292,-2.26193189621,-0.0657008513808,2.22803473473,-0.677544593811,0.0236321203411,-0.00265975901857,-0.556881308556,-0.0409664921463,0.647813916206,0.000938549637794,-0.926153242588,0.0560170672834,0.517164565547,-0.0141566915813,0.291532229805,0.0375537081756,0.937748795056,0.344927376631,0.0155570212713
-0.0920598357916,-0.1002259776,0.0796551182866,-2.24917626381,-0.065705306828,2.21030306816,-0.676430404186,0.0236708633602,-0.00962400715798,-0.523414433002,-0.0521002709866,0.60846722126,-0.000550105876755,-0.851654827595,0.0558773577213,0.51839014214,-0.0149756020446,0.301844668412,0.039378370029,0.938233600171,0.343272839553,0.0181882598084
-0.0924339964986,-0.115182600915,0.0776285976171,-2.23246359825,-0.0657339170575,2.18600797653,-0.674658060074,0.0236708633602,-0.016790824011,-0.481447666883,-0.0772250890732,0.519477248192,0.000563906156458,-0.763889253139,0.0592137798667,0.519360117164,-0.0165295314432,0.315005829108,0.0415663487172,0.939072020007,0.340533451101,0.0212825811791
-0.0928746759892,-0.12302262336,0.0761295631528,-2.22401571274,-0.0657820031047,2.17372560501,-0.67388522625,0.0236708633602,-0.0408398881555,-0.436967611313,-0.0958822742105,0.458579987288,-0.00388571666554,-0.69867759943,0.0365686640143,0.519691732263,-0.0176843059124,0.321833351433,0.0427108003424,0.939586073101,0.338860189589,0.0229689000039
-0.0935363322496,-0.128924757242,0.0747728720307,-2.21790099144,-0.0660328045487,2.16434049606,-0.673467934132,0.0236708633602,-0.0581765398383,-0.410283267498,-0.0995773226023,0.412702411413,-0.0252519976348,-0.647013604641,0.0299204345793,0.519751348336,-0.0188674216137,0.326855545472,0.0435783798959,0.940021255338,0.337466954214,0.0240212160127
-0.0949893817306,-0.137057945132,0.0726826861501,-2.20998620987,-0.0670479610562,2.15167546272,-0.672859668732,0.0236708633602,-0.0793197825551,-0.356802195311,-0.105872087181,0.337347954512,-0.0719295591116,-0.566850364208,0.0341672673821,0.519613103377,-0.0209735461358,0.3335776792,0.0449788011334,0.940685403553,0.335335785899,0.0252544921557
-0.0970778092742,-0.144303306937,0.0700461938977,-2.20306277275,-0.069246865809,2.14041137695,-0.672052145004,0.0236708633602,-0.106758773327,-0.309872746468,-0.124556213617,0.287838846445,-0.125531822443,-0.460982650518,0.0394955016673,0.519325733185,-0.0238338144902,0.339531507679,0.0466880995278,0.941456033378,0.332865332526,0.0261041887248
-0.0994127616286,-0.149563789368,0.0676103383303,-2.19843411446,-0.0722792893648,2.13228273392,-0.671358048916,0.0236918758601,-0.133023113012,-0.257275909185,-0.133841633797,0.212850406766,-0.175459623337,-0.3998272717,0.03472937271,0.518908337042,-0.0268006131687,0.343688346845,0.0484267184774,0.942121013433,0.330710924678,0.0263274186251
-0.102991573513,-0.154813751578,0.0635293275118,-2.19395422935,-0.0774396881461,2.12354874611,-0.670606970787,0.0236918758601,-0.148626729846,-0.174241259694,-0.187847167253,0.147649884224,-0.243245184422,-0.30345338583,0.0253946483135,0.518172656572,-0.0315620613363,0.347736490481,0.0508261563178,0.943086257868,0.327623559645,0.025842115008
-0.106793999672,-0.15815076232,0.0587324984372,-2.19131040573,-0.0837299525738,2.11711215973,-0.669962763786,0.0236918758601,-0.185641244054,-0.117351174355,-0.223695844412,0.091630525887,-0.319238394499,-0.254990488291,0.0258574131876,0.517277005754,-0.0369410830083,0.350161666869,0.0532828857333,0.944075216718,0.32447086273,0.0245270910248
-0.110005110502,-0.159362062812,0.0549696981907,-2.19018411636,-0.0893121287227,2.11350989342,-0.669462323189,0.0236918758601,-0.211935326457,-0.0441204607487,-0.241838917136,0.0591792464256,-0.377986252308,-0.204026758671,0.0378384031355,0.516558019058,-0.0413534963849,0.351037257216,0.0552381121862,0.944817011923,0.322089253793,0.0229799308431
-0.114016488194,-0.159667596221,0.0504294782877,-2.18941259384,-0.0965664833784,2.11019182205,-0.668877780437,0.0236918758601,-0.233801558614,-0.000360382604413,-0.268273234367,0.0259223654866,-0.423004627228,-0.176413193345,0.0311963353306,0.515692364012,-0.0468082636703,0.351328188843,0.0576177037047,0.945668963711,0.319314893307,0.0206980649796
-0.119070142508,-0.159219071269,0.0445028543472,-2.18920898438,-0.105202719569,2.10708189011,-0.668379306793,0.0236918758601,-0.266486078501,0.0503759644926,-0.314437270164,-0.00212807883509,-0.447077453136,-0.135970622301,0.0117666497827,0.514523566307,-0.0536912731796,0.351002009048,0.0602374019341,0.946759555128,0.315763523731,0.017640775238
-0.12765827775,-0.155881673098,0.0350402332842,-2.18936347961,-0.118753604591,2.10420513153,-0.668106555939,0.0236918758601,-0.31755438447,0.166538193822,-0.343170672655,-0.00604314217344,-0.484585851431,-0.0887079685926,0.00264755426906,0.512789192549,-0.0648759064873,0.349119170735,0.0639835321923,0.948453384607,0.310147545413,0.012279438047
-0.134704843163,-0.151991218328,0.0273448284715,-2.1894133091,-0.129184216261,2.10277700424,-0.668088614941,0.0236918758601,-0.352680593729,0.20861145854,-0.386376351118,-0.00427706167102,-0.510994136333,-0.0511627905071,0.000264682341367,0.511442329646,-0.0738963962652,0.347110827623,0.0666643316594,0.949802121161,0.30556449155,0.00788281137037
-0.139374613762,-0.149102553725,0.0220937989652,-2.18945026398,-0.135896489024,2.10234761238,-0.668086528778,0.0236918758601,-0.364604413509,0.243760839105,-0.412604033947,0.00113290350419,-0.51831060648,-0.0187783427536,0.000431399879744,0.510567241905,-0.0799096270155,0.345669973649,0.0683504171303,0.950701289529,0.302439282812,0.00507528014035
-0.147000014782,-0.143667176366,0.0133922351524,-2.18941259384,-0.146085396409,2.10228562355,-0.668087601662,0.0236918758601,-0.396458566189,0.291146367788,-0.454781740904,0.00294088991359,-0.495804339647,-0.000618020538241,0.00029519002419,0.509235741889,-0.0891650401286,0.343189454761,0.0706192044716,0.952128100484,0.297429524683,0.000828109333633
-0.166042804718,-0.128879845142,-0.00880782026798,-2.18936228752,-0.167860791087,2.10259604454,-0.66808950901,0.0236958172172,-0.441933900118,0.368616223335,-0.526080787182,0.007054887712,-0.480222344398,0.0218968987465,-0.000123651901959,0.504909830701,-0.113613005837,0.335830122905,0.0748110417047,0.956143876619,0.282986731699,-0.0105216260873
-0.174355491996,-0.121838010848,-0.0186879783869,-2.18911504745,-0.176276832819,2.10321545601,-0.668092608452,0.0236958172172,-0.483824133873,0.405930668116,-0.575957357883,0.0235741771758,-0.448421508074,0.0419393926859,-0.000161988398759,0.502856363254,-0.123956542519,0.332508624611,0.0760961850877,0.957872590897,0.276510783145,-0.0152071272416
-0.183027863503,-0.114465370774,-0.0289980769157,-2.18867301941,-0.183719903231,2.10410141945,-0.668095111847,0.0236958172172,-0.487917363644,0.406860768795,-0.576791524887,0.0256619788706,-0.382618278265,0.0456341058016,-9.11078386707e-05,0.500607938284,-0.134529757865,0.32910911266,0.0769603769198,0.959730114207,0.269455513299,-0.0197214176056
-0.207307979465,-0.0936259701848,-0.058749333024,-2.1864926815,-0.198353424668,2.10820293427,-0.668096065521,0.0236958172172,-0.509186625481,0.444030404091,-0.640299737453,0.0654385462403,-0.232777476311,0.123359441757,-1.87737441593e-05,0.493703679482,-0.163554174439,0.319916509878,0.0773143913382,0.965227622965,0.247862763046,-0.0303672709397
-0.216088220477,-0.0861751958728,-0.0696725547314,-2.18532013893,-0.20204180479,2.11052560806,-0.668092429638,0.023699099198,-0.530671656132,0.443609118462,-0.663254082203,0.0778241530061,-0.213844805956,0.150250405073,0.000884100853,0.491078004,-0.173874014182,0.316843124862,0.077093131507,0.967230726511,0.239595977792,-0.0333936803384
-0.225165694952,-0.0785544067621,-0.0811108723283,-2.18382453918,-0.205342590809,2.11359763145,-0.668092191219,0.023699099198,-0.537997126579,0.450451910496,-0.678441941738,0.0944329500198,-0.176252678037,0.206777796149,0.000259169231867,0.488345359347,-0.18454655671,0.313879711529,0.07690420913,0.969275052431,0.230858650676,-0.0359985896217
-0.23562900722,-0.069780997932,-0.0944314450026,-2.18175601959,-0.208716750145,2.11841678619,-0.668092727661,0.023699099198,-0.523102998734,0.425483316183,-0.65112143755,0.117605090141,-0.16723819077,0.27004006505,0.000204379059142,0.485262915217,-0.196884151822,0.310721079303,0.0769113587265,0.971565895557,0.220640335451,-0.0382386657129
-0.2516515553,-0.0566803477705,-0.115434683859,-2.17753314972,-0.211897701025,2.12778878212,-0.668090999126,0.023699099198,-0.511678874493,0.415350407362,-0.680743038654,0.148536011577,-0.063749410212,0.327847898006,-0.00030410150066,0.48061771657,-0.21592323966,0.306651062372,0.0770547364135,0.975076723037,0.204195579212,-0.0399013397452
-0.259536743164,-0.0505141094327,-0.125928655267,-2.17511534691,-0.212472453713,2.13330411911,-0.66808784008,0.023699099198,-0.498343527317,0.377884477377,-0.654175758362,0.14682969451,-0.0210932064801,0.373759239912,0.000205632270081,0.478353985434,-0.225296785188,0.304999731245,0.0771828401887,0.976793725352,0.195767385782,-0.0398993440164
-0.267586350441,-0.0443986877799,-0.136478677392,-2.17255568504,-0.212536856532,2.13965392113,-0.668084621429,0.023699099198,-0.494251191616,0.371683329344,-0.643451988697,0.162707105279,0.000198037858354,0.399330914021,0.000546210852917,0.476092255511,-0.234758741163,0.303499836698,0.077422855404,0.978490537952,0.187112419801,-0.0393816029506
-0.276134312153,-0.0381235815585,-0.147837847471,-2.16951465607,-0.212507143617,2.14688134193,-0.668081521988,0.023699099198,-0.468590140343,0.320877075195,-0.628368258476,0.173768654466,-0.00188097078353,0.400184631348,0.00031384950853,0.473654063009,-0.244935146112,0.302211875936,0.0779665510772,0.980221120986,0.177798106187,-0.0384135915774
-0.289685726166,-0.0291967950761,-0.16638225317,-2.16427946091,-0.211734056473,2.15911507607,-0.668068170547,0.023699099198,-0.407112628222,0.250970125198,-0.559182405472,0.169720470905,0.0652772262692,0.389726907015,0.000378181546694,0.469541898766,-0.261338384802,0.300958322071,0.0792636244808,0.982864233362,0.162506862444,-0.0358705445528
-0.297275513411,-0.0248141884804,-0.176693528891,-2.16128778458,-0.20996569097,2.16639018059,-0.66804599762,0.023699099198,-0.388065844774,0.198992714286,-0.518307030201,0.145522624254,0.124939002097,0.377152979374,-0.000170597675606,0.467189485725,-0.270366118777,0.300627451989,0.0798875392232,0.984323668538,0.153584417,-0.0337153256505
-0.303383231163,-0.0218860730529,-0.184669092298,-2.15903615952,-0.207605406642,2.17240142822,-0.668011903763,0.023699099198,-0.372209370136,0.170869916677,-0.479946643114,0.138407319784,0.159304350615,0.379033476114,0.00107141060289,0.465302197713,-0.277361161132,0.300607263772,0.0802584735775,0.985479025442,0.146276670019,-0.0315087819208
-0.310163736343,-0.0192458238453,-0.193086698651,-2.1566195488,-0.203903362155,2.17931771278,-0.667868554592,0.0237010698766,-0.333367079496,0.112486764789,-0.39035063982,0.117688126862,0.247893795371,0.34935092926,0.0101223783568,0.463299079477,-0.284810461612,0.300880305374,0.0805458331711,0.986740539646,0.138003737947,-0.0284683014627
-0.324067622423,-0.016874846071,-0.208577021956,-2.15177416801,-0.184870675206,2.1934659481,-0.667459666729,0.0237010698766,-0.227304473519,-0.00435501569882,-0.250244379044,0.0848576948047,0.553993761539,0.243986785412,0.0144739216194,0.459970286721,-0.298009383676,0.302824350354,0.0781245940569,0.989705045748,0.118523511851,-0.0182386145781
-0.327673494816,-0.017075298354,-0.212561383843,-2.15029120445,-0.173823133111,2.19756245613,-0.667231976986,0.0237010698766,-0.173197492957,-0.0207335073501,-0.198121115565,0.0785658732057,0.663546562195,0.218697503209,0.0148925194517,0.459550615039,-0.300835242238,0.303818759266,0.075844218293,0.990752639895,0.111689627736,-0.0135014016598
-0.32997122407,-0.0175690185279,-0.21519613266,-2.1491420269,-0.163270920515,2.20047664642,-0.666958749294,0.0237010698766,-0.134788498282,-0.0514299683273,-0.148032903671,0.0702350214124,0.736692249775,0.175802364945,0.0199446622282,0.459566376448,-0.302367878596,0.304726262891,0.0734415896841,0.991582322913,0.106230319005,-0.00927085831138
-0.332278758287,-0.0189328752458,-0.217450037599,-2.14778637886,-0.14638005197,2.20384597778,-0.66642087698,0.0237010698766,-0.0830025300384,-0.0710842758417,-0.0602158643305,0.0574020333588,0.877127408981,0.155117318034,0.0272721666843,0.460216981152,-0.30313446342,0.306164457879,0.0692861296622,0.992665247109,0.0990306120561,-0.00284200499081
-0.333455443382,-0.0211101155728,-0.217777252197,-2.14621543884,-0.11871226877,2.20788288116,-0.66520434618,0.0237043537199,0.00943557173014,-0.0845350325108,0.0229592379183,0.050232924521,1.02106928825,0.125705227256,0.052133385092,0.462629600362,-0.301458819796,0.308121668913,0.0619268189154,0.993991295901,0.0899851756642,0.00700290170126
-0.332938700914,-0.0225000809878,-0.217103362083,-2.14546203613,-0.101536393166,2.20972156525,-0.664303064346,0.0237043537199,0.0533101335168,-0.0913130044937,0.0641482323408,0.0472892187536,1.13193285465,0.106036856771,0.0593049749732,0.464586962917,-0.299361057073,0.309233156182,0.057108758895,0.994631848148,0.0853321080781,0.012826041359
-0.331545352936,-0.0241666510701,-0.215356275439,-2.14468383789,-0.080802731216,2.21160316467,-0.663109838963,0.0237043537199,0.103210240602,-0.0926442965865,0.128944709897,0.0438505634665,1.19157040119,0.100939325988,0.074268579483,0.467359709571,-0.29599478665,0.310520857152,0.051129476484,0.995247559993,0.0805022208352,0.019684082474
-0.32906883955,-0.0258399415761,-0.212444588542,-2.14396572113,-0.0574987307191,2.2133204937,-0.661370754242,0.0237043537199,0.155435889959,-0.0807341188192,0.173917472363,0.0386659018695,1.2608383894,0.087155751884,0.0895342752337,0.470693523322,-0.291554095281,0.31174163336,0.044538055277,0.995752046625,0.0760378987186,0.026691963808
-0.319104790688,-0.0294666457921,-0.201117247343,-2.14223241806,0.00631067156792,2.21578097343,-0.655887246132,0.0237043537199,0.265421926975,-0.0583129487932,0.309838622808,0.0414228513837,1.44383966923,0.0241903457791,0.133343145251,0.481799202274,-0.274935983769,0.314782227242,0.0237701921948,0.996502399145,0.0658213172352,0.0456672788467
-0.314608573914,-0.0303297955543,-0.195884093642,-2.14163208008,0.0298679061234,2.21596765518,-0.653744459152,0.0237043537199,0.290886312723,-0.0464318469167,0.339928150177,0.0411736816168,1.49634587765,0.00456954771653,0.129970684648,0.486101228583,-0.267868218023,0.315640123525,0.0157761111156,0.996539227515,0.0630218209209,0.0518549142151
-0.308345526457,-0.031146530062,-0.188501343131,-2.14085006714,0.0600630640984,2.21598100662,-0.650963664055,0.0237043537199,0.342804521322,-0.0306136719882,0.395944476128,0.0407763272524,1.53009271622,0.00295467022806,0.145653888583,0.491783163317,-0.258152670004,0.316651174467,0.00527823718956,0.99641372537,0.0600109423231,0.059418133659
-0.297644346952,-0.0316252224147,-0.175634026527,-2.139793396,0.105875998735,2.21589326859,-0.645835220814,0.0237043537199,0.402158677578,-0.00538246426731,0.471505701542,0.0370531789958,1.61386728287,-0.0137944957241,0.199617445469,0.500781719059,-0.241806850987,0.317880314358,-0.0111979190142,0.995882829682,0.0564178330307,0.0700644272744
-0.290996581316,-0.0315620601177,-0.167955324054,-2.13920521736,0.131992354989,2.21559667587,-0.642512202263,0.0237043537199,0.425028204918,0.00479922164232,0.489259392023,0.0354936793447,1.64874064922,-0.0273168180138,0.223387151957,0.505890169869,-0.231915976259,0.318459090023,-0.0209014036187,0.995419589114,0.0546126866197,0.0756335050995
-0.282081365585,-0.0313407927752,-0.157776519656,-2.13853406906,0.165165886283,2.21481013298,-0.637772858143,0.023705009371,0.464644789696,0.0208264812827,0.527687072754,0.036206740886,1.66848266125,-0.0510617382824,0.254597961903,0.512268305567,-0.218731572877,0.319135248909,-0.0335766949344,0.99466829496,0.052511655032,0.0821590794973
-0.27437248826,-0.0308581367135,-0.148794800043,-2.13801574707,0.191900119185,2.21395158768,-0.633633852005,0.023705009371,0.497709900141,0.0338768437505,0.584412455559,0.0323237553239,1.68821668625,-0.0622761957347,0.265759766102,0.517438618571,-0.207314412998,0.319558605429,-0.044081881056,0.993917335429,0.0513024381519,0.0869090192902
-0.263935983181,-0.0299812387675,-0.136538147926,-2.13733410835,0.227047502995,2.21221804619,-0.62775850296,0.023705009371,0.516653716564,0.049175042659,0.59717798233,0.0406070500612,1.69237649441,-0.118766248226,0.302987605333,0.523967305116,-0.19170597389,0.320025716512,-0.058298112029,0.992759946631,0.0498801524904,0.0924174690438
-0.249496802688,-0.0284160189331,-0.119726724923,-2.13631081581,0.273169606924,2.2082118988,-0.619145095348,0.023705009371,0.555844545364,0.0759925097227,0.644208669662,0.038620300591,1.70237755775,-0.179937928915,0.324557363987,0.531955198201,-0.170013927566,0.320481015923,-0.0778096825737,0.990952235407,0.048369683586,0.0980800379709
-0.240084990859,-0.0270213112235,-0.108660139143,-2.13562846184,0.302393138409,2.20482826233,-0.613562762737,0.023705009371,0.561888992786,0.0901217162609,0.649638175964,0.0414503850043,1.72135579586,-0.216017156839,0.334119796753,0.536613130603,-0.15566410201,0.320591655181,-0.0906172142285,0.989630252538,0.0477223513446,0.10071276298
-0.229976028204,-0.025457797572,-0.0970141738653,-2.13501882553,0.332977026701,2.20060682297,-0.60758793354,0.023705009371,0.581687808037,0.0860824212432,0.664779305458,0.0310178864747,1.7142111063,-0.259712547064,0.327390909195,0.541051108108,-0.140259644403,0.32063231846,-0.104351433149,0.988095585452,0.0471775573728,0.102723756685
-0.21826389432,-0.0235265828669,-0.0832256674767,-2.13438630104,0.367832064629,2.19479346275,-0.600450873375,0.023705009371,0.576963365078,0.109256915748,0.690366983414,0.0350544713438,1.73190426826,-0.309344917536,0.372904598713,0.545570232324,-0.122050053897,0.320601075985,-0.120441239549,0.986147494222,0.0468149622247,0.103997050272
-0.201787620783,-0.0199295543134,-0.0637241974473,-2.13352274895,0.41596186161,2.18567109108,-0.589790165424,0.0237082932144,0.594135642052,0.120022788644,0.693650901318,0.0230327770114,1.71431863308,-0.346129983664,0.408471941948,0.550872336938,-0.0961238469967,0.320179129251,-0.143261834013,0.983120506967,0.0463354629154,0.103938155987
-0.191028207541,-0.017551349476,-0.0509655512869,-2.13314270973,0.446935385466,2.17913222313,-0.582245051861,0.0237082932144,0.593502938747,0.148824825883,0.701465606689,0.0234996434301,1.72213900089,-0.369305580854,0.43321749568,0.553616991646,-0.0790189379164,0.319889697047,-0.158248593978,0.980947368719,0.0459197138379,0.10291269059
-0.169018000364,-0.0114395916462,-0.024656239897,-2.1325173378,0.510053575039,2.16501736641,-0.565707147121,0.0237082932144,0.591892063618,0.174919039011,0.726537823677,0.00776758790016,1.70660889149,-0.391223728657,0.453983485699,0.557700972508,-0.0436094234238,0.318875062412,-0.189231535653,0.975970688425,0.0446577677742,0.0983784769229
-0.141118973494,-0.00221907161176,0.00951356161386,-2.13241887093,0.592216789722,2.14607548714,-0.541809439659,0.0237082932144,0.572000861168,0.203488752246,0.712000370026,-0.00419580144808,1.69564056396,-0.383680909872,0.553031027317,0.559946935368,0.00238462814331,0.317359851415,-0.229747971348,0.968341962544,0.0412734514317,0.0884658981674
-0.132137462497,0.00111868919339,0.0206363610923,-2.13246774673,0.619314789772,2.13991904259,-0.532936513424,0.0237082932144,0.555535197258,0.210273489356,0.692669034004,-0.00104011106305,1.6881994009,-0.380914866924,0.549269080162,0.560021678595,0.0173530620108,0.31689356551,-0.243035659914,0.965541525349,0.0394217488463,0.0843158125534
-0.121630512178,0.00537260994315,0.0336245186627,-2.13247084618,0.651103019714,2.13278841972,-0.522150933743,0.0237082932144,0.556022524834,0.228654578328,0.70210391283,0.000878026941791,1.66188061237,-0.366011500359,0.579632043839,0.559742715436,0.0348341866752,0.316338925141,-0.258536227057,0.962065270799,0.0369563469405,0.0788901903541
-0.111928030849,0.00940406322479,0.0459008961916,-2.13251781464,0.680858552456,2.12647438049,-0.511435508728,0.0237082932144,0.521342277527,0.227342352271,0.669533073902,-0.00411129137501,1.63176083565,-0.334847092628,0.618023991585,0.559149871573,0.0511157997044,0.315936235781,-0.27287986159,0.958630176358,0.0342586352105,0.0734241902822
-0.0877617225051,0.0202251318842,0.0768261179328,-2.13281941414,0.756933271885,2.11257219315,-0.480131357908,0.023710263893,0.474120140076,0.225760489702,0.617697775364,-0.00393722951412,1.53364014626,-0.252037882805,0.674095749855,0.556292744868,0.0932194277432,0.315243881135,-0.309989035203,0.948718840799,0.0239430509618,0.0571497083692
-0.0715579465032,0.0276889652014,0.0978648886085,-2.13334488869,0.809464633465,2.10482048988,-0.454989224672,0.023710263893,0.429551362991,0.202525004745,0.560890734196,-0.0193126965314,1.37703108788,-0.174260497093,0.714141428471,0.553601433613,0.118669009028,0.315202698329,-0.332324131381,0.941937365938,0.0150917144217,0.0456827122104
-0.0523948147893,0.0366186574101,0.123411364853,-2.1343266964,0.87159371376,2.09927916527,-0.420167773962,0.023710263893,0.349430114031,0.149971351027,0.465390980244,-0.025520388037,1.17263066769,-0.0410181172192,0.726689934731,0.549473409009,0.15018769557,0.315470105394,-0.359008298964,0.932852450402,0.00115306343902,0.0299669348378
-0.0469362512231,0.0389655418694,0.130550667644,-2.13465070724,0.889164566994,2.09896922112,-0.408751428127,0.0237135458738,0.323049843311,0.140722632408,0.422497063875,-0.0154467886314,1.04599332809,-0.000976688810624,0.697749912739,0.548300815698,0.158832073689,0.315720233064,-0.366154548781,0.930197081968,-0.00377177739929,0.0254952639689
-0.0416621491313,0.0412392504513,0.137638881803,-2.13489985466,0.905812859535,2.09899973869,-0.396941095591,0.0237135458738,0.301577359438,0.117103949189,0.412425458431,-0.0125470627099,0.922727406025,0.00957168266177,0.685375511646,0.547103619116,0.167180615515,0.315989722233,-0.372814221124,0.927627127306,-0.00877467314655,0.0209874726354
-0.0295403134078,0.0457066521049,0.154126212001,-2.13516306877,0.942958116531,2.10134911537,-0.364031881094,0.0237135458738,0.210128068924,0.0591712705791,0.269013226032,0.000676773837768,0.634639501572,0.106991276145,0.630893409252,0.544439257203,0.185954322795,0.317160207991,-0.387047664961,0.921720447568,-0.0227908076518,0.0103005025141
-0.0232893396169,0.0471224561334,0.161489725113,-2.13517189026,0.962018311024,2.10742068291,-0.342587471008,0.0237135458738,0.138586223125,0.0179408099502,0.167054027319,-0.000857350300066,0.457227140665,0.247402995825,0.61264115572,0.544095224846,0.194319513345,0.31833725472,-0.393346582257,0.918765203962,-0.0332992618296,0.00633443439964
-0.0211596246809,0.0472178831697,0.1639662534,-2.13519001007,0.969398856163,2.11226296425,-0.33279171586,0.0237135458738,0.103972584009,-0.001789416885,0.116437114775,0.00194100860972,0.409994840622,0.335877120495,0.545164763927,0.544688068596,0.197217000909,0.319167510224,-0.395634364559,0.917529826505,-0.0397260240438,0.00585745235658
-0.0184994582087,0.0466018542647,0.167545095086,-2.1350300312,0.986258804798,2.13444113731,-0.307741582394,0.0237135458738,-0.000917034980375,-0.0293033234775,0.0173808969557,0.000808606331702,0.270126104355,0.592783153057,0.492148309946,0.548793572157,0.198803021861,0.32126256619,-0.398041106799,0.915554850956,-0.0567181780191,0.0102781394854
-0.0186845511198,0.0460372120142,0.167514637113,-2.13502383232,0.990799546242,2.14575338364,-0.299360007048,0.0237155165523,-0.0286270901561,-0.0290687661618,-0.0171992834657,0.00251201284118,0.226692944765,0.668668150902,0.445427805185,0.551317539714,0.197506719435,0.322077970141,-0.397852103586,0.915105184114,-0.0640423837713,0.0139563047548
-0.024097468704,0.0436613820493,0.162026137114,-2.1345872879,1.00358760357,2.19879388809,-0.274079114199,0.0237155165523,-0.126209154725,-0.0357018485665,-0.146904140711,0.0177313629538,0.15490436554,0.886068582535,0.353339105844,0.5641592385,0.185152796924,0.325281793697,-0.393791866894,0.913740230671,-0.0936457834595,0.0351741857346
-0.026278950274,0.0430466160178,0.159484997392,-2.13428521156,1.00580847263,2.21340203285,-0.268616050482,0.0237155165523,-0.150588393211,-0.0433568246663,-0.172418788075,0.02296641469,0.137522414327,0.943358719349,0.331291735172,0.567932462999,0.180522467094,0.326187766398,-0.392124950276,0.91332895632,-0.101620995395,0.0417302515421
-0.0291059873998,0.0422822535038,0.156039461493,-2.13388299942,1.00827336311,2.23050236702,-0.262920945883,0.0237155165523,-0.165823280811,-0.0451379530132,-0.211994290352,0.0202256292105,0.137775793672,0.957250595093,0.298495173454,0.572409778194,0.174586028418,0.327324969914,-0.390063621291,0.912729233905,-0.110923707714,0.0497156682363
-0.0327788256109,0.0414100028574,0.151350334287,-2.1332859993,1.01041245461,2.24969935417,-0.257675200701,0.0237155165523,-0.19963747263,-0.0397624745965,-0.251443445683,0.0357102490962,0.083543650806,0.9792791605,0.249360308051,0.577558865379,0.167011310856,0.328680829567,-0.387415049498,0.911980250786,-0.1212290658,0.0592040107018
-0.0392546691,0.0400100052357,0.143367767334,-2.13206315041,1.01309740543,2.2791826725,-0.25051215291,0.0237155165523,-0.239579617977,-0.0557811446488,-0.298649817705,0.0452698282897,0.0889820381999,0.982129871845,0.231735825539,0.585507175111,0.154161568795,0.331023644243,-0.382944676042,0.910504139706,-0.13713055059,0.0743693380546
-0.0432119108737,0.039158411324,0.138297319412,-2.13118124008,1.01450705528,2.2950387001,-0.246887847781,0.0237155165523,-0.254379719496,-0.0480239205062,-0.32503080368,0.0645862370729,0.0815707445145,0.997428536415,0.220043078065,0.589874126233,0.14639036575,0.332511890257,-0.380409487627,0.909436900817,-0.146070321739,0.0829253033881
-0.0483147129416,0.0381941348314,0.132141053677,-2.12973690033,1.01580631733,2.31378030777,-0.242704510689,0.0237155165523,-0.276964098215,-0.0493910685182,-0.324685335159,0.0888619050384,0.0509902611375,0.967580676079,0.215591400862,0.595051897563,0.136718577599,0.334485136536,-0.377215081445,0.907997333448,-0.156670973584,0.0932943218884
-0.0532160699368,0.0373181737959,0.126267671585,-2.12799239159,1.01652932167,2.33007478714,-0.239098206162,0.0237155165523,-0.302998006344,-0.050021238625,-0.36794000864,0.115343466401,0.0403452627361,0.95443713665,0.208172410727,0.599648001427,0.127594932039,0.336499578346,-0.374221389743,0.906545866962,-0.166087053392,0.102703616914
-0.0695004016161,0.0349426940084,0.106020390987,-2.11964559555,1.01933944225,2.37711834908,-0.228545129299,0.0237155165523,-0.334044247866,-0.0465542525053,-0.4232673347,0.21296684444,0.0570979565382,0.881670534611,0.193818837404,0.613492361827,0.0973975164017,0.344306138427,-0.365358751989,0.900505099185,-0.195344162762,0.132076517359
-0.0742348730564,0.0343071296811,0.100142747164,-2.11643075943,1.02014160156,2.38917207718,-0.226034715772,0.0237155165523,-0.345686942339,-0.0445039309561,-0.422956317663,0.242449164391,0.0566374398768,0.841779172421,0.165613085032,0.617173630044,0.0887299290746,0.346975231634,-0.362999094696,0.898493684239,-0.203112961294,0.14030638354
-0.0791121050715,0.0336363017559,0.0942292511463,-2.11281013489,1.02092087269,2.40058708191,-0.223869860172,0.0237155165523,-0.349737226963,-0.0531393066049,-0.424694120884,0.275276750326,0.0504000149667,0.791393399239,0.153161436319,0.620748878429,0.0799915604078,0.349886026287,-0.360705089445,0.896372546116,-0.210582096428,0.148537124511
-0.0877611786127,0.0326004475355,0.0837294757366,-2.10574269295,1.02174973488,2.41918253899,-0.220547050238,0.0237161740661,-0.357236981392,-0.0437566824257,-0.441873162985,0.316981911659,0.0163391642272,0.74628931284,0.139227434993,0.626668514006,0.064589268833,0.355271052943,-0.356648470966,0.892528130879,-0.222988429045,0.162700841838
-0.0980981811881,0.0312754064798,0.0712429583073,-2.09565424919,1.02222144604,2.43898272514,-0.216746658087,0.0237161740661,-0.374990046024,-0.0384011790156,-0.448440700769,0.388574808836,0.0180018153042,0.667068481445,0.135806769133,0.633270295486,0.0463755553904,0.362624162363,-0.352049920322,0.887621834081,-0.236710311281,0.179322506871
-0.10467646271,0.0304807592183,0.0634712576866,-2.0882062912,1.02258181572,2.45067977905,-0.214398145676,0.0237161740661,-0.364403158426,-0.0483633540571,-0.433448493481,0.429897427559,0.0173917990178,0.621476173401,0.121495507658,0.637301890492,0.0349156026858,0.367861861154,-0.349311241596,0.884258730241,-0.244964844708,0.18989570563
-0.110548056662,0.0297270528972,0.0564700625837,-2.08118724823,1.02292823792,2.46035885811,-0.212450757623,0.0237161740661,-0.368853628635,-0.0445413812995,-0.435525387526,0.439234972,0.0217881631106,0.582028865814,0.115604281425,0.640688592865,0.0247002316256,0.372774754303,-0.346967910907,0.881133622661,-0.25205380328,0.199212669626
-0.116966553032,0.0286520421505,0.0486802943051,-2.07273197174,1.02340841293,2.47016000748,-0.21030421555,0.0237161740661,-0.356547743082,-0.066551849246,-0.445014744997,0.501036345959,0.0280644316226,0.5187728405,0.123959235847,0.644262854365,0.0134987867235,0.378745545735,-0.344596379918,0.877492419342,-0.259533361998,0.209530004114
-0.127917572856,0.0265550874174,0.0351837426424,-2.05627131462,1.0244525671,2.48543381691,-0.206971362233,0.0237161740661,-0.338615775108,-0.071378134191,-0.40513125062,0.523718893528,0.0341577082872,0.431167721748,0.0877522006631,0.650108257723,-0.00570484635433,0.390284416217,-0.340864388867,0.870798401769,-0.271528007501,0.227583287368
-0.133538201451,0.0251989662647,0.0284549593925,-2.04714441299,1.02502202988,2.49260044098,-0.20539419353,0.0237161740661,-0.321715205908,-0.0972498655319,-0.382124871016,0.56054931879,0.0334468074143,0.406132906675,0.0931153297424,0.652878913267,-0.0154094707706,0.396795186414,-0.339086649181,0.867198419296,-0.277199709614,0.236954566476
-0.139128908515,0.023509837687,0.021636068821,-2.03689837456,1.02553200722,2.49960947037,-0.203596591949,0.0237161740661,-0.3010160923,-0.0990260243416,-0.377205878496,0.570235908031,0.0208809748292,0.373525857925,0.102261960506,0.65565555788,-0.0252132115937,0.404191955783,-0.33739017646,0.863332412556,-0.282644727302,0.246854151378
-0.144088223577,0.0218877810985,0.0153920454904,-2.02729868889,1.02596390247,2.50561761856,-0.20191565156,0.0237161740661,-0.280062824488,-0.104001648724,-0.356875419617,0.563805937767,0.0283475350589,0.341263264418,0.0971226468682,0.65799838461,-0.0340596285741,0.411157523199,-0.335895084983,0.859725556944,-0.28739979166,0.255827711634
-0.150610893965,0.0189956463873,0.00720051629469,-2.01328420639,1.02669906616,2.5133895874,-0.199751168489,0.0237161740661,-0.268277972937,-0.13363148272,-0.324635952711,0.584531128407,0.0286606643349,0.30185264349,0.0831564217806,0.66100695867,-0.0457522962611,0.421686412861,-0.334086976429,0.854593408751,-0.2931987975,0.26849667169
-0.155237570405,0.0165579225868,0.00177545484621,-2.00280785561,1.02722620964,2.5184879303,-0.198133409023,0.0237161740661,-0.245210632682,-0.132129505277,-0.279614210129,0.575694203377,0.0283344667405,0.276104420424,0.103667229414,0.662968761314,-0.0537592729278,0.429746294937,-0.332969196294,0.850830387468,-0.296893751545,0.277620723354
-0.159761190414,0.0135230785236,-0.00360364187509,-1.99097859859,1.02758681774,2.52382159233,-0.196071684361,0.0237161740661,-0.217459082603,-0.156963348389,-0.262994587421,0.604822456837,0.0183695163578,0.249768763781,0.0972977653146,0.664866190599,-0.0613951487131,0.438575974865,-0.331972547635,0.846929237597,-0.300156586247,0.287073366082
-0.165484517813,0.00892609637231,-0.0105236256495,-1.97394800186,1.02780425549,2.53079152107,-0.193951547146,0.0237161740661,-0.177563562989,-0.175651356578,-0.210381269455,0.574396073818,0.00481497030705,0.222834646702,0.0683246999979,0.667372238189,-0.0718393379137,0.452168699867,-0.330542794887,0.841320244123,-0.303765683995,0.301078256376
-0.167928174138,0.00607725838199,-0.0134697984904,-1.96514296532,1.02788984776,2.53408789635,-0.19293898344,0.0237161740661,-0.146917179227,-0.187036857009,-0.18115387857,0.589120745659,0.00341883301735,0.199113965034,0.0628522634506,0.668633212659,-0.0769756938397,0.460499127823,-0.329957900663,0.83815838889,-0.305053498847,0.309128875103
-0.170448958874,0.00273194932379,-0.0166836418211,-1.95463073254,1.02795493603,2.53754854202,-0.191703781486,0.0237161740661,-0.12249738723,-0.190146714449,-0.169395342469,0.576033830643,0.00374865485355,0.18134765327,0.0763666257262,0.669775710811,-0.0815345424572,0.468753520368,-0.329544750371,0.835121848766,-0.305950187292,0.316806309547
-0.172590568662,-0.00113171595149,-0.0194857567549,-1.94390916824,1.0280097723,2.54091095924,-0.190199762583,0.0237161740661,-0.106383219361,-0.217896029353,-0.12505453825,0.576206624508,0.000488485442474,0.167611449957,0.0810311213136,0.670856008785,-0.0858184209087,0.478010239678,-0.32931767656,0.831838573808,-0.306506451724,0.325035766859
-0.175393939018,-0.00754665955901,-0.0222222711891,-1.92632806301,1.02807724476,2.54529738426,-0.188321784139,0.0237161740661,-0.0680910944939,-0.206454187632,-0.0488937497139,0.544896125793,0.00136147078592,0.12156932801,0.0479959622025,0.672444649097,-0.0908538146645,0.493225444634,-0.329473187133,0.826945229362,-0.305819790765,0.337762137939
-0.176380559802,-0.0110774440691,-0.0226922873408,-1.91774868965,1.02809596062,2.54700255394,-0.187562584877,0.0237161740661,-0.0537023805082,-0.240288034081,-0.0152683807537,0.547921299934,0.000923202664126,0.0996486470103,0.0525559894741,0.673104339323,-0.0923513809016,0.500915663369,-0.32983659549,0.82472361258,-0.304718746474,0.343780843457
-0.177073791623,-0.0153629248962,-0.0227594021708,-1.90820252895,1.02812564373,2.54858589172,-0.186781808734,0.0237161740661,-0.0154337482527,-0.233425319195,0.00152746634558,0.519753575325,0.000771971652284,0.0803354606032,0.0450334809721,0.673732136235,-0.0933420716208,0.509710149457,-0.330466283815,0.822341290655,-0.302970387414,0.350365210811
-0.176933661103,-0.0194585714489,-0.0226172525436,-1.89914751053,1.0281317234,2.54984498024,-0.186192631721,0.0237161740661,0.0205971691757,-0.230401948094,0.0235354825854,0.480735749006,0.000274399470072,0.0559937357903,0.0296885035932,0.674294639523,-0.0935330230954,0.518071182874,-0.331252431283,0.82024950536,-0.30076510465,0.356374700563
-0.175628080964,-0.0273525360972,-0.0211978293955,-1.88466632366,1.0281419754,2.55108475685,-0.185394376516,0.0237161740661,0.0627917870879,-0.257327467203,0.0740552917123,0.435967355967,-0.000589841802139,0.0310198757797,0.0253781378269,0.674889642622,-0.0920454730961,0.532320738398,-0.333143979396,0.817094411563,-0.295807165284,0.365882402148
-0.17434348166,-0.0316797979176,-0.0197880323976,-1.87746942043,1.02814233303,2.55164575577,-0.184898287058,0.0237161740661,0.0902100875974,-0.24973577261,0.0986364334822,0.412034034729,5.24755741935e-05,0.0309334918857,0.027489123866,0.675107785326,-0.0903472573661,0.539687794113,-0.33437712471,0.81561576507,-0.292731400234,0.370501267484
-0.172712057829,-0.0357766151428,-0.0179732572287,-1.87130153179,1.02814543247,2.55204367638,-0.184393569827,0.0237161740661,0.107458814979,-0.271836400032,0.126563578844,0.356333911419,3.22250198224e-05,0.0239380579442,0.0388422831893,0.675243107111,-0.0880736450162,0.546264319008,-0.335700133976,0.814431203002,-0.289563683256,0.374379631677
-0.170359194279,-0.0412047803402,-0.0153352282941,-1.86476516724,1.02814888954,2.55241751671,-0.183898732066,0.0237161740661,0.130738168955,-0.280320882797,0.155045822263,0.341069787741,-9.46342988755e-05,0.0152167836204,0.0161893870682,0.675184717359,-0.084687166691,0.55397311391,-0.337426389725,0.813184057779,-0.285411169912,0.378702499898
-0.163119927049,-0.0542579814792,-0.00556534156203,-1.85108292103,1.0281509161,2.5534491539,-0.183273404837,0.0237168297172,0.181238681078,-0.28420072794,0.243393793702,0.230654001236,-0.000143862460391,0.0219468846917,0.0124757410958,0.674838753483,-0.0730452260599,0.571286170107,-0.342207528707,0.811133651405,-0.273546931201,0.387463911782
-0.159661456943,-0.0590418130159,-0.000850300188176,-1.84728598595,1.02815186977,2.5538084507,-0.183079347014,0.0237168297172,0.20193053782,-0.247817382216,0.277255266905,0.193186372519,-0.000236296531511,0.0253095719963,0.00983389560133,0.674594774501,-0.0674106668407,0.576879717313,-0.344228864994,0.810803345003,-0.268621138603,0.389803935049
-0.156512409449,-0.0627010315657,0.00354541372508,-1.84466063976,1.02815198898,2.55428862572,-0.182931125164,0.0237168297172,0.213131725788,-0.24032177031,0.314088642597,0.163228020072,0.000251943682088,0.0382932350039,0.00666230311617,0.674417699718,-0.0622501696145,0.581004243391,-0.345946106957,0.810722620834,-0.264416720066,0.391323294662
-0.151650607586,-0.0681256279349,0.0103946141899,-1.84183073044,1.02815544605,2.55485486984,-0.182750195265,0.0237168297172,0.237080916762,-0.257331341505,0.337011903524,0.113916918635,-0.000182582938578,0.0218012351543,0.00726139592007,0.673991604324,-0.0541895679838,0.586443896589,-0.348533953021,0.810842001478,-0.258129565983,0.392973865599
-0.144269481301,-0.0746997818351,0.0211647115648,-1.83912491798,1.02815508842,2.55547809601,-0.182514622808,0.0237168297172,0.269569426775,-0.20869794488,0.409754782915,0.0699524134398,6.5331289079e-05,0.0210942216218,0.00347816082649,0.67342219931,-0.041684642836,0.592560981876,-0.352326609599,0.811590585103,-0.249002436813,0.393934599204
-0.138008713722,-0.0791906714439,0.0301022510976,-1.83806061745,1.02815365791,2.55581140518,-0.182331696153,0.0237168297172,0.300165325403,-0.199331671,0.40741148591,0.0255944505334,-6.30065187579e-05,0.00607725093141,0.0102219153196,0.672917071028,-0.0312024939305,0.596227447143,-0.355366096112,0.812565423929,-0.241745906954,0.393714726279
-0.134041175246,-0.0815755948424,0.035612706095,-1.83786165714,1.02815246582,2.55592370033,-0.182206451893,0.0237168297172,0.311861723661,-0.170169278979,0.436954408884,0.0125549873337,1.74694650923e-05,0.00612447177991,0.0136599699035,0.672589969354,-0.0246606457442,0.597932598542,-0.357211454521,0.813313202279,-0.237375293005,0.393159740662
-0.128127127886,-0.0842358991504,0.0440107472241,-1.83794939518,1.02815282345,2.5561337471,-0.182012140751,0.0237168297172,0.314076393843,-0.11523566395,0.455773383379,-0.00939546432346,-5.20324210811e-05,0.00295580900274,0.011837108992,0.672200806477,-0.0148231814461,0.599634388187,-0.359881932062,0.814631194719,-0.231043140168,0.391765336135
-0.118356280029,-0.0872058272362,0.0584056451917,-1.83863067627,1.02815127373,2.55618405342,-0.181657254696,0.0237168297172,0.343299418688,-0.0820224881172,0.511641383171,-0.045172367245,5.14166531502e-05,-0.000550396856852,0.0119596030563,0.671575961882,0.00179408652838,0.601109497938,-0.364254863751,0.81717205879,-0.220679169994,0.388392744716
-0.112881742418,-0.0881233513355,0.0665001124144,-1.83950531483,1.02815127373,2.556204319,-0.181439995766,0.0237168297172,0.337138622999,-0.0298651438206,0.498175472021,-0.0651220306754,0.000111226843728,-0.00123071391135,0.0177391245961,0.671220410857,0.0110961877494,0.601125166785,-0.366596226787,0.81876746317,-0.215097767721,0.38595336212
-0.10666295141,-0.0884090960026,0.0755540803075,-1.84099400043,1.02815020084,2.55617761612,-0.181241154671,0.0237168297172,0.350891768932,-0.0107230758294,0.505913734436,-0.106325417757,-2.8787930205e-05,-0.000549682939891,0.0093930112198,0.670836841119,0.021544689212,0.60032436677,-0.369113873029,0.820754466347,-0.209021615007,0.382657835175
-0.100705005229,-0.0885829105973,0.0840353518724,-1.84320390224,1.0281482935,2.55623674393,-0.181070268154,0.0237168297172,0.357059955597,-0.00182548211887,0.506852030754,-0.157021105289,-0.000587101036217,0.000407804735005,0.00766717875376,0.670276900402,0.0319770717724,0.598915635614,-0.371497369618,0.822870276499,-0.203119689018,0.378967813945
-0.0833897292614,-0.0875015407801,0.108493462205,-1.85510957241,1.02814006805,2.55622076988,-0.180752202868,0.0237168297172,0.349114120007,0.0401018597186,0.477491885424,-0.338622152805,-0.000422242941568,-0.00325590046123,0.0023790365085,0.668033281965,0.0597578574634,0.590744933881,-0.377018546305,0.829639538293,-0.188474159481,0.366104825297
-0.0773784965277,-0.086804933846,0.116451278329,-1.86146330833,1.02813398838,2.55620455742,-0.180704087019,0.0237168297172,0.344565063715,0.0416208989918,0.451257228851,-0.413488686085,0.000290038384264,0.00837534759194,0.00501945940778,0.667186930716,0.0670089379936,0.587409197409,-0.37821116682,0.831725938755,-0.184937747592,0.361920302368
-0.0719504877925,-0.0859773010015,0.123400524259,-1.86856770515,1.02812945843,2.55619192123,-0.180654093623,0.0237168297172,0.338995754719,0.057845171541,0.432239443064,-0.469492137432,-0.000906800210942,-0.000321234954754,0.000360299251042,0.665718947432,0.0774748325928,0.581317058624,-0.379665134585,0.835081257061,-0.180168361986,0.355011324723
-0.0649838298559,-0.0846831649542,0.132187411189,-1.87906467915,1.02811837196,2.55620193481,-0.180585190654,0.0237174872309,0.323499709368,0.0641924515367,0.397938877344,-0.539468586445,0.000167165417224,0.00643522571772,0.0110167525709,0.663947271489,0.0879690070274,0.573935602508,-0.380825872821,0.838782201911,-0.175688504632,0.347202565292
-0.0555874891579,-0.082226999104,0.143069535494,-1.89696216583,1.0281008482,2.55624914169,-0.180484429002,0.0237174872309,0.299283564091,0.083359785378,0.316197007895,-0.62366849184,-0.000752449559513,0.00197052699514,0.00381640228443,0.661086951577,0.101303590426,0.561259427202,-0.381586264393,0.844383341278,-0.170820777996,0.335005906311
-0.0508159548044,-0.0804699510336,0.148097723722,-1.90807759762,1.02809154987,2.55642485619,-0.180465221405,0.0237174872309,0.267561972141,0.133574098349,0.274030089378,-0.680473327637,-0.00250928197056,0.0213777888566,0.00158332113642,0.659415157497,0.107621652018,0.553289381634,-0.381501941785,0.847564140657,-0.169010930708,0.327912489621
-0.0464750342071,-0.0780728310347,0.152572631836,-1.92003798485,1.02807295322,2.55682373047,-0.180443644524,0.0237174872309,0.239948600531,0.147010877728,0.241651520133,-0.713866233826,-0.00175059807952,0.0325357541442,-0.000295541161904,0.657661666175,0.113483734385,0.543902835635,-0.380981580645,0.85103158382,-0.167871184552,0.320027410714
-0.0422253087163,-0.0751498937607,0.156804800034,-1.93378210068,1.0280444622,2.55763149261,-0.180427491665,0.0237174872309,0.201063200831,0.186266496778,0.206022709608,-0.754947006702,-0.000271417200565,0.0570392385125,-7.06761202309e-05,0.655911699304,0.118362205599,0.534221884105,-0.380081322812,0.854391693036,-0.167437554944,0.312278221747
-0.0373552851379,-0.0690946504474,0.161672189832,-1.95585167408,1.02797424793,2.55977010727,-0.180420637131,0.0237174872309,0.139409974217,0.227798908949,0.120874211192,-0.772598028183,-0.0107962246984,0.0813485980034,0.00220409431495,0.653337269415,0.12386338615,0.517111708875,-0.377644241429,0.859748006114,-0.168699968204,0.299597251809
-0.0352153815329,-0.0646535679698,0.163393691182,-1.97000479698,1.02793908119,2.56153130531,-0.180420875549,0.0237174872309,0.0960918366909,0.264089465141,0.0643248930573,-0.786674678326,0.000879258092027,0.119705960155,0.00292880809866,0.651856418903,0.125702287708,0.505879329036,-0.375582929401,0.862930891944,-0.170691486456,0.291808421723
-0.0338737554848,-0.0602402165532,0.164042517543,-1.98254024982,1.02790224552,2.56376600266,-0.180422395468,0.0237168297172,0.069911211729,0.301739275455,0.0207732152194,-0.76959502697,-0.00145099661313,0.161724150181,0.00065140175866,0.650704997171,0.126244089255,0.495728944269,-0.373380149706,0.865566351626,-0.173282208417,0.285228733916
-0.0331785678864,-0.0539619214833,0.164001613855,-1.99758172035,1.02786958218,2.56711554527,-0.180423215032,0.0237168297172,0.00356386881322,0.340907126665,-0.0150336269289,-0.818295896053,0.00119360152166,0.189833119512,0.000411377463024,0.649545644469,0.125614750063,0.483031157318,-0.370279289208,0.86857009292,-0.17744051268,0.277478117688
-0.0356497317553,-0.034966930747,0.159991234541,-2.03395247459,1.02782952785,2.57897853851,-0.18045386672,0.0237168297172,-0.0913487672806,0.446739375591,-0.15005402267,-0.720921337605,-0.000284229259705,0.305325597525,-0.00376153062098,0.647529325013,0.11809438858,0.45047229699,-0.36060753856,0.874868395437,-0.192321077543,0.259961721416
-0.0373398400843,-0.0279026459903,0.157400280237,-2.04477024078,1.02782785892,2.58352303505,-0.180478930473,0.0237168297172,-0.130468070507,0.485789418221,-0.198527693748,-0.715368747711,-0.000925624859519,0.304619818926,-0.00147986225784,0.647120853839,0.114137385416,0.440043870106,-0.357086693897,0.876485024515,-0.198180756429,0.254926425258
-0.0400224179029,-0.0189752262086,0.15317606926,-2.05735588074,1.02781796455,2.58909225464,-0.180607035756,0.0237168297172,-0.168525993824,0.498221307993,-0.263083726168,-0.662187218666,3.03188589896e-05,0.327563673258,-0.0121029326692,0.646687223934,0.107878372157,0.426852398645,-0.352333155653,0.878244176461,-0.206386125012,0.248904160296
-0.0440590791404,-0.00772824324667,0.14716643095,-2.07112288475,1.02781546116,2.59602332115,-0.180999696255,0.0237168297172,-0.218993812799,0.549674630165,-0.302776515484,-0.645648181438,-3.74798655685e-05,0.335534960032,-0.0247631035745,0.646357893485,0.10003517709,0.41300970537,-0.346995300796,0.879753209339,-0.215783264514,0.243035253224
-0.0514812618494,0.00847914069891,0.137256771326,-2.08871436119,1.02781665325,2.60618805885,-0.1818934232,0.0237168297172,-0.283242315054,0.580726444721,-0.397419929504,-0.576326787472,-0.000266994989943,0.366546869278,-0.0364969223738,0.645907438576,0.085922356948,0.39281803479,-0.338440731095,0.881257566772,-0.231165904781,0.235383297371
-0.0549990348518,0.0155949657783,0.1324185431,-2.09551882744,1.02781760693,2.61062192917,-0.182449400425,0.0237168297172,-0.306643903255,0.607630193233,-0.424914300442,-0.549341440201,-5.37353735126e-05,0.373913556337,-0.0528120361269,0.645727223925,0.07949050494,0.384792859272,-0.334796580718,0.881628372205,-0.237754377306,0.232627424451
-0.0622080750763,0.0288364943117,0.122598193586,-2.10706400871,1.0278185606,2.61877179146,-0.183895885944,0.0237174872309,-0.348765105009,0.579940974712,-0.471630483866,-0.498218953609,-0.00010609596211,0.367209017277,-0.0638592690229,0.645361621035,0.067251398773,0.371183975175,-0.328232141829,0.881924556869,-0.249631732539,0.228378490323
-0.0688132271171,0.0394647791982,0.113540962338,-2.11552810669,1.02782201767,2.62545061111,-0.185256108642,0.0237174872309,-0.387652546167,0.60707038641,-0.538703560829,-0.452553331852,-1.36957996801e-05,0.374365895987,-0.0827855393291,0.644989490552,0.0557263191746,0.360214323265,-0.32247190208,0.881734273762,-0.260225941244,0.225475058524
-0.0889632478356,0.0678000822663,0.0863438621163,-2.13431310654,1.02783107758,2.64449357986,-0.191584944725,0.0237174872309,-0.460998237133,0.553921878338,-0.606811881065,-0.337456136942,0.000598101061769,0.420312821865,-0.160364463925,0.643543149981,0.0229229075305,0.334263221885,-0.306764069847,0.879928022052,-0.287807104785,0.220883570155
-0.0971878990531,0.0772180631757,0.0758116096258,-2.13952946663,1.02783989906,2.65168642998,-0.194760456681,0.0237174872309,-0.488410502672,0.555838227272,-0.622039675713,-0.291311651468,-0.000281215237919,0.41776868701,-0.210235849023,0.642723163626,0.00791348572038,0.324962046452,-0.299921583291,0.878528148115,-0.299312060862,0.220562070036
-0.106172084808,0.0867124423385,0.0646516010165,-2.14456295967,1.02784395218,2.65898537636,-0.198877483606,0.0237174872309,-0.51175314188,0.504465758801,-0.630182623863,-0.259036839008,0.00121246359777,0.396107882261,-0.234525933862,0.64164361105,-0.00642325974309,0.31673533662,-0.293413238728,0.877094513023,-0.309722814208,0.220648282553
-0.132325619459,0.108233772218,0.0324262753129,-2.15473723412,1.02780938148,2.67738437653,-0.213498026133,0.0237174872309,-0.551305115223,0.368243008852,-0.661523878574,-0.164210826159,-0.000830591656268,0.353981524706,-0.359928160906,0.637506490515,-0.0480928440217,0.298657118794,-0.27530738411,0.872013215489,-0.336796621309,0.224425559618
-0.137859478593,0.111683443189,0.0257790964097,-2.15631461143,1.02770543098,2.68091082573,-0.217213824391,0.0237174872309,-0.556603252888,0.309612542391,-0.67026412487,-0.139639422297,-0.022358700633,0.335940927267,-0.39699575305,0.635918070498,-0.0607391704982,0.294666731539,-0.269867641654,0.870356703233,-0.343987278723,0.226546721163
-0.147904142737,0.117009289563,0.0137177053839,-2.15872836113,1.02724397182,2.68688750267,-0.224555417895,0.0237174872309,-0.557940125465,0.268387883902,-0.669625937939,-0.122340761125,-0.0360297486186,0.31695780158,-0.434276908636,0.634654205168,-0.0700241146369,0.292175986242,-0.265879457238,0.86914548672,-0.348918929032,0.228363345928
-0.17897310853,0.125436663628,-0.0225794166327,-2.16399502754,1.02191889286,2.70233726501,-0.250718891621,0.0237174872309,-0.540896356106,0.0517836771905,-0.629844367504,-0.0681195482612,-0.157290518284,0.24190273881,-0.504046797752,0.626863015246,-0.116364019129,0.28504463836,-0.245413601176,0.863532824301,-0.369114917234,0.240494081535
-0.187940657139,0.125531718135,-0.0328877046704,-2.16496062279,1.01889967918,2.70621347427,-0.259483218193,0.0237174872309,-0.524906277657,-0.0132317403331,-0.596821546555,-0.0341878905892,-0.197421640158,0.229301601648,-0.531254470348,0.624164938122,-0.129961782986,0.284804875166,-0.239051772246,0.862164951521,-0.373365599158,0.245201907793
-0.197124406695,0.125055745244,-0.0435002371669,-2.1653277874,1.01489186287,2.71033120155,-0.269018888474,0.0237174872309,-0.507920861244,-0.0550142340362,-0.594816327095,-0.00717797409743,-0.255426287651,0.221245929599,-0.522176265717,0.621664853795,-0.142438819977,0.285254793407,-0.232921104182,0.861065954409,-0.376572850082,0.250012138968
-0.205476716161,0.123324580491,-0.053297098726,-2.16544413567,1.0099593401,2.71421718597,-0.277827829123,0.0237174872309,-0.468703985214,-0.140923291445,-0.546511828899,-0.00107419595588,-0.323986917734,0.234620288014,-0.510784864426,0.61912258885,-0.154573267933,0.286631016981,-0.226659254209,0.860111683087,-0.37903405402,0.255277614877
-0.226217329502,0.113338083029,-0.0786050930619,-2.16535496712,0.989457607269,2.72523903847,-0.301852822304,0.0237174872309,-0.379443615675,-0.283905923367,-0.480497926474,-0.00448246533051,-0.49786940217,0.223784297705,-0.454566270113,0.612108828383,-0.184906075969,0.293840405316,-0.208572215708,0.859004932344,-0.381092654915,0.270881053374
-0.231982588768,0.108291722834,-0.085921138525,-2.16533541679,0.9813580513,2.72838330269,-0.308877646923,0.0237174872309,-0.33447816968,-0.341766476631,-0.427395254374,0.00841823592782,-0.515621185303,0.180664733052,-0.407020509243,0.609575759417,-0.194727049462,0.297808150119,-0.202027545461,0.858953886129,-0.38043058851,0.27686758454
-0.241885200143,0.0957138165832,-0.0995528176427,-2.16506123543,0.963128864765,2.73434400558,-0.320997983217,0.0237174872309,-0.244086891413,-0.397026121616,-0.37670058012,0.00710884295404,-0.577649950981,0.169182911515,-0.313969880342,0.605477618616,-0.209945541274,0.306331964118,-0.191011854393,0.85907053381,-0.37793109889,0.287541950987
-0.24869787693,0.0807754546404,-0.11083791405,-2.16499519348,0.942737281322,2.73889613152,-0.330036908388,0.0237174872309,-0.166950047016,-0.486943125725,-0.309861242771,0.00945476815104,-0.656835734844,0.106773510575,-0.231916621327,0.601727431799,-0.222584011866,0.317020337709,-0.180196114384,0.859880790559,-0.372887099279,0.298478805353
-0.251279354095,0.0719211548567,-0.115977481008,-2.1648144722,0.930848419666,2.74066352844,-0.333867698908,0.0237174872309,-0.128610149026,-0.49372830987,-0.259379565716,0.0153706921265,-0.670658648014,0.0899666547775,-0.193954497576,0.600431792503,-0.226780317864,0.321965644448,-0.175983020933,0.860443503592,-0.369997098575,0.302934151561
-0.253074854612,0.0631784871221,-0.120018839836,-2.16464853287,0.919261217117,2.74192214012,-0.336664974689,0.023718142882,-0.0886702388525,-0.531336843967,-0.222508132458,0.00572206731886,-0.690802454948,0.0607311725616,-0.144232794642,0.599053716669,-0.23104257236,0.328442490554,-0.171051566403,0.86130243174,-0.365831209377,0.308329383323
-0.2544234097,0.053310200572,-0.123698636889,-2.1644847393,0.906358242035,2.74254536629,-0.338843077421,0.023718142882,-0.0609493739903,-0.554837465286,-0.186582803726,0.0179519727826,-0.738154292107,0.0184910763055,-0.0992744415998,0.597993177656,-0.234021663513,0.334528196176,-0.166976522711,0.86221812745,-0.361599784318,0.312960600086
-0.255281299353,0.0271166265011,-0.129186034203,-2.16303992271,0.870022296906,2.74258732796,-0.341148614883,0.023718142882,0.0190133340657,-0.555154025555,-0.0543224848807,0.040796764195,-0.802183508873,-0.00558521738276,-0.000809825840406,0.596538497532,-0.237993012349,0.352323373986,-0.15667320568,0.865691112165,-0.346958888592,0.325041434643
-0.254866957664,0.0173325818032,-0.129761397839,-2.16216611862,0.855275213718,2.74234890938,-0.341140061617,0.023718142882,0.0325357802212,-0.524688184261,-0.00894757173955,0.0596540980041,-0.837143003941,-0.0239636898041,0.000443285913207,0.596493950315,-0.238080814997,0.358602354914,-0.153244530942,0.867220485709,-0.340927244679,0.328957985775
