imanlab/tactile_prediction_flat_dataset/train/data_sample_2021-11-24-15-22-34/robot_state.csv
position_panda_joint1,position_panda_joint2,position_panda_joint3,position_panda_joint4,position_panda_joint5,position_panda_joint6,position_panda_joint7,position_panda_finger,velocity_panda_joint1,velocity_panda_joint2,velocity_panda_joint3,velocity_panda_joint4,velocity_panda_joint5,velocity_panda_joint6,velocity_panda_joint7,ee_state_position_x,ee_state_position_y,ee_state_position_z,ee_state_orientation_x,ee_state_orientation_y,ee_state_orientation_z,ee_state_orientation_w
0.144868776202,-0.0107453735545,-0.12719014287,-2.50033593178,-0.0739030390978,2.49622774124,-0.693503379822,0.0669044852257,-4.41074262199e-05,-0.000958611315582,0.000123689213069,-7.96465392341e-05,-3.72409595002e-05,-0.000136012909934,6.06499861533e-06,0.467254360906,0.00394216841532,0.17634124316,0.0215045631794,0.926559964036,0.375509858939,-0.00406599688891
0.144870445132,-0.0107426531613,-0.127186372876,-2.50033450127,-0.0739016756415,2.49622821808,-0.693505585194,0.0669044852257,0.000184895965504,0.000402528356062,-0.000687317224219,0.000191831873963,8.17199725134e-06,2.37324238697e-05,-0.00271209864877,0.467254693305,0.0039447463257,0.176340580437,0.0215042067334,0.926558732074,0.37551291635,-0.00406625714331
0.144868314266,-0.0107451658696,-0.127190589905,-2.50033760071,-0.0739028304815,2.4962272644,-0.693504214287,0.0669044852257,-0.000135540089104,0.000979308970273,0.000134061643621,0.00014559639385,9.56728254096e-05,0.000136859438499,0.00394929386675,0.467253437296,0.00394172962508,0.176340455929,0.021504101194,0.926560008216,0.375509764429,-0.00406710075461
0.14486990869,-0.0107490988448,-0.127190038562,-2.50034189224,-0.0739020556211,2.49622893333,-0.693505883217,0.066906452179,0.000325733330101,-3.96433233618e-06,-0.00160130660515,-0.000202614304726,8.87648366188e-06,-0.000100649012893,-0.000201040704269,0.467252366345,0.00394286830551,0.176340757944,0.0215038347963,0.926559407133,0.37551127133,-0.00406631652765
0.144871354103,-0.0107496669516,-0.127187564969,-2.5003464222,-0.073902271688,2.4962284565,-0.69350540638,0.066906452179,0.000373818242224,-0.000493115454447,-0.000331239687512,-0.000330583570758,2.85559126496e-05,-2.48446267506e-05,0.000300600018818,0.467250192103,0.00394464955858,0.176339222554,0.021503100123,0.926558720269,0.375512986089,-0.00406835856627
0.144870638847,-0.0107451891527,-0.127189427614,-2.50034666061,-0.0739029273391,2.49622654915,-0.693506300449,0.066906452179,0.000249358941801,-0.000430278218118,-0.000104150196421,0.000275862636045,1.19702244774e-05,0.000106988896732,-0.00536967581138,0.467248982828,0.00394326571934,0.176336887715,0.0215024053969,0.926558928053,0.375512477469,-0.00407165277815
0.14486785233,-0.0107470266521,-0.127190411091,-2.50034689903,-0.0739026591182,2.49622893333,-0.693505823612,0.066906452179,-9.91654305835e-05,0.00093497132184,-0.000629717949778,0.000310720788548,5.8729333432e-06,0.000155939749675,0.00025977412588,0.467249686955,0.00394161096563,0.176337856789,0.021502854673,0.926559760601,0.375510418159,-0.00406974364364
0.144868016243,-0.0107471039519,-0.127188637853,-2.50035095215,-0.0739025175571,2.49622750282,-0.6935069561,0.066906452179,0.000563929555938,0.000451564585092,6.42496233922e-05,-0.000158728056704,3.02378066408e-05,-9.17595025385e-05,-5.2957006119e-05,0.467247460834,0.00394246230211,0.176336192895,0.0215018896791,0.92655920394,0.375511819699,-0.00407225775381
0.144870564342,-0.0107439905405,-0.127191632986,-2.50035834312,-0.0739024206996,2.4962284565,-0.693503916264,0.066906452179,-6.05136956437e-05,0.00326306628995,0.000250005861744,-5.59574036743e-05,-1.59622650244e-05,0.000188152058399,0.000315694866003,0.467243686968,0.00394215562598,0.176331965731,0.021500299363,0.926559839486,0.375510294135,-0.00407672179993
0.144868120551,-0.0107473591343,-0.127188235521,-2.50036215782,-0.073901899159,2.49622797966,-0.693504750729,0.066906452179,-5.92616088397e-05,0.000697808805853,0.000399119249778,4.68126454507e-05,3.6369854115e-06,5.09925521328e-05,-0.00010893005674,0.467242215593,0.00394259170124,0.176331765707,0.0214998049877,0.926559578435,0.375510960151,-0.00407731354905
0.144870072603,-0.0107478080317,-0.12718911469,-2.50036764145,-0.0739018023014,2.49622821808,-0.693506658077,0.0669051408768,-0.000270414049737,7.90338526713e-06,0.00186007004231,-0.000292197917588,2.79474388662e-05,1.00136512629e-05,0.000352777773514,0.467239814248,0.00394314457997,0.176330102963,0.0214988833134,0.926559032048,0.375512339871,-0.00407926877907
0.144872143865,-0.0107436245307,-0.127188920975,-2.50037169456,-0.0739027187228,2.49622821808,-0.693503558636,0.0669051408768,-0.000100323675724,-0.00145235704258,-0.000262500019744,-0.000214196566958,0.000111563043902,-0.000156400594278,-0.000294777419185,0.467236825987,0.00394413484702,0.176326977866,0.0214978877336,0.926558871767,0.375512749756,-0.00408318844501
0.144868701696,-0.0107479542494,-0.127190545201,-2.50037741661,-0.0739024356008,2.49622797966,-0.693505525589,0.0669051408768,3.52594579454e-05,-0.00243035960011,0.000120749326015,0.000343575375155,-8.30522258184e-05,0.000117694922665,-0.00115493277553,0.467234867668,0.00394170673154,0.176325814603,0.0214969254362,0.926559819571,0.375510453224,-0.00408437961658
0.144869089127,-0.010744696483,-0.127191752195,-2.5003798008,-0.0739019811153,2.49622821808,-0.69350540638,0.0669051408768,-0.000283836678136,0.000986489118077,-0.00159546360373,3.29546855937e-05,-2.75942766166e-05,0.0002472428896,1.29101263155e-05,0.467233589321,0.00394128047395,0.176323942151,0.0214963626942,0.92655987798,0.375510318335,-0.00408649197852
0.144869372249,-0.0107477689162,-0.127188995481,-2.50038266182,-0.0739025622606,2.4962284565,-0.693502902985,0.0669051408768,0.000149012441398,0.000636563054286,0.00101840740535,-9.31957038119e-06,0.000157001297339,2.99960538541e-05,0.000641442078631,0.467232754347,0.0039427125083,0.176324278704,0.0214964418222,0.926559689064,0.375510782871,-0.00408622334491
0.14487041533,-0.0107439756393,-0.127189874649,-2.50038504601,-0.0739026069641,2.49622797966,-0.693504333496,0.0669051408768,-0.000347893306753,0.00120111077558,0.000296281446936,0.000272634293651,-2.5650502721e-05,-8.77341954038e-05,-1.14910308184e-05,0.467230933009,0.00394267353923,0.176321554514,0.0214954959338,0.926559365861,0.375511599696,-0.00408942142076
0.144869461656,-0.0107473544776,-0.127188906074,-2.50038862228,-0.0739022120833,2.49622797966,-0.693506240845,0.0669051408768,-0.000119988442748,0.00399356428534,5.21836518601e-05,-7.94061925262e-05,-7.55522269174e-05,0.000120945427625,-0.000241856570938,0.467229761922,0.00394275138735,0.176321730251,0.0214951443604,0.926559069526,0.375512350905,-0.00408943140923
0.144868522882,-0.0107429903001,-0.127190187573,-2.50039315224,-0.0739023983479,2.49622821808,-0.693505704403,0.0669057965279,-0.000365379353752,-0.000108018131868,0.000250730197877,0.00021020747954,-0.00013981932716,-0.000104983497295,0.000184557022294,0.467227001699,0.00394157543187,0.176317972854,0.0214938912675,0.926559530078,0.375511240981,-0.00409358514095
0.14486785233,-0.0107441777363,-0.127191007137,-2.50039672852,-0.0739020556211,2.49622893333,-0.693505525589,0.0669057965279,-8.38565974846e-05,7.98931796453e-05,0.000425052450737,0.000392582936911,7.15051937732e-05,4.37964299635e-05,8.77972852322e-05,0.467225652236,0.0039409150728,0.176317196815,0.0214933943765,0.926559888437,0.375510377226,-0.00409431513264
0.144867941737,-0.0107489340007,-0.127190485597,-2.50040197372,-0.0739031583071,2.49622702599,-0.693505585194,0.0669057965279,-0.000213682302274,-0.000255558552453,0.000169222752447,-0.000337300327374,-4.00314784201e-05,0.000201893621124,0.000365297833923,0.467223494036,0.00394115939587,0.176317196273,0.0214930467491,0.926559604777,0.375511084494,-0.00409546608028
0.144866839051,-0.0107478797436,-0.127189353108,-2.50040555,-0.0739019215107,2.49622631073,-0.693505585194,0.0669057965279,5.19633686054e-05,-0.0008729621768,0.00234716874547,-0.000730241066776,7.20946045476e-05,1.14836957437e-05,-6.28609195701e-05,0.467221476023,0.00394118047453,0.176315254104,0.0214918244644,0.926559782797,0.375510689027,-0.00409786461395
0.144866660237,-0.010747211054,-0.127189651132,-2.50040793419,-0.0739019140601,2.49622821808,-0.693505704403,0.0669057965279,-0.000151391359395,3.92970141547e-05,1.21346211017e-05,-0.000303612061543,-1.3288644368e-05,-4.71707389806e-05,-0.000195531683858,0.467220660305,0.00394096402456,0.176314188941,0.0214916014773,0.926559832696,0.375510572839,-0.0040983983712
0.144874244928,-0.0107475118712,-0.127187430859,-2.50041151047,-0.0739029347897,2.49622774124,-0.693504810333,0.0669057965279,0.000373443181161,0.000519882654771,0.00323577318341,-0.000250489334576,7.12210458005e-05,7.68970585341e-06,0.000221600173973,0.467218876561,0.00394544782081,0.176312902043,0.0214912470992,0.926557995091,0.375515108334,-0.00410013761282
0.144869461656,-0.0107466764748,-0.127190008759,-2.5004222393,-0.0739027485251,2.4962284565,-0.693505585194,0.0669057965279,-0.00043071366963,0.00063176616095,0.000151443702634,-0.000217290580622,7.50598919694e-05,4.02150253649e-05,-0.000298614701023,0.467214251039,0.00394212086105,0.176308880735,0.0214894109976,0.92655918283,0.375512232556,-0.00410473063342
0.144869327545,-0.0107472836971,-0.127190232277,-2.5004401207,-0.0739029794931,2.4962284565,-0.6935069561,0.0669057965279,-9.71887784544e-05,-0.000355644937372,-0.000320361665217,-0.00298467301764,5.90886920691e-05,4.38368224422e-05,0.00523558817804,0.467205480322,0.00394162852689,0.17630175522,0.0214861699912,0.926558958685,0.375512876635,-0.00411336164499
0.144867777824,-0.0107588050887,-0.127189218998,-2.5004863739,-0.0739025995135,2.49623394012,-0.693504869938,0.0669057965279,1.65179662872e-05,-0.00485500693321,0.000385723571526,-0.00653048697859,-3.40859696735e-05,0.00068600528175,-0.000106998289993,0.467186560021,0.00394140990636,0.176289626787,0.0214799685642,0.926559406665,0.375511979922,-0.00412668026811
0.144870996475,-0.0107568679377,-0.127187773585,-2.5005865097,-0.0739022567868,2.4962284565,-0.693505108356,0.0669051408768,-0.000448269420303,0.000168511658558,-0.000284272129647,-0.00741763226688,8.02274153102e-05,-0.000220658854232,0.000185220327694,0.467134370357,0.00394245523391,0.176246631571,0.0214595732328,0.926558385535,0.375515073124,-0.00418024539136
0.144868269563,-0.0107534974813,-0.12718950212,-2.50072169304,-0.0739020034671,2.49622917175,-0.693505942822,0.0669051408768,-0.000345450098393,0.000591298739891,0.000332740513841,-0.00436092913151,-4.86930184707e-05,-0.000268184696324,-0.00317031447776,0.467073260237,0.00393947972771,0.176195439752,0.0214361936076,0.926558667611,0.375515028327,-0.00424125710257
0.144868761301,-0.0107360249385,-0.127188593149,-2.50079417229,-0.0739029794931,2.49622917175,-0.693502187729,0.0669051408768,-8.87356945896e-05,0.00125931017101,0.00137983029708,-0.00287289055996,2.53376788351e-06,0.000173042048118,-0.000141615615576,0.467034343604,0.00393894868823,0.176157304275,0.0214206138267,0.926558655813,0.37551544019,-0.00428584918147
0.144870281219,-0.0107332821935,-0.127189099789,-2.50088620186,-0.0739029124379,2.4962284565,-0.693504989147,0.0669051408768,0.000385773426387,0.000711818982381,-0.000106683160993,-0.00224969442934,3.47993736796e-05,5.10202517034e-05,-8.77397469594e-05,0.466992045469,0.00393878712183,0.176122211874,0.0214044147839,0.926557755762,0.375518098786,-0.00432821352292
0.144867628813,-0.0107394019142,-0.127189621329,-2.50091505051,-0.0739025324583,2.4962284565,-0.693504393101,0.0669051408768,0.000358268676791,0.00232906965539,0.00161410006694,0.00018240881036,5.1754181186e-05,0.000102349942608,-0.00050547090359,0.466979341283,0.00393724119373,0.176113852869,0.0213998467117,0.926558470097,0.375516475683,-0.00433868944156
0.144868791103,-0.0107377320528,-0.127191245556,-2.50093054771,-0.0739023089409,2.49622893333,-0.693504273891,0.0669051408768,0.000287658622256,0.000391647423385,-0.00143433886115,-0.00129267841112,4.30897198385e-05,1.03080174085e-05,-7.91096827015e-05,0.466971845491,0.00393689224474,0.176107110539,0.0213968653901,0.926558565022,0.375516321235,-0.00434648201415
0.144869476557,-0.0107401264831,-0.1271892488,-2.50093579292,-0.0739021971822,2.49622917175,-0.693505108356,0.0669051408768,0.000358474906534,-9.61000405368e-05,2.38345114667e-06,0.00012199034245,5.78640947424e-06,-0.000192507752217,0.000139034964377,0.466969773949,0.0039381661721,0.176106206297,0.0213962272134,0.926557915831,0.375517946199,-0.00434762446739
0.144866511226,-0.0107370279729,-0.127191126347,-2.50094437599,-0.0739017874002,2.49622917175,-0.69350451231,0.0669051408768,-0.000103208221844,0.000390912260627,-2.09642694244e-05,0.000109994871309,1.56966489158e-05,1.19521573652e-05,-0.00142781087197,0.466965369322,0.00393582701618,0.176101571969,0.0213942350223,0.92655899043,0.375515346153,-0.00435298151662
0.14486669004,-0.0107344025746,-0.127189099789,-2.50095367432,-0.0739016160369,2.49622917175,-0.693504035473,0.0669051408768,0.000272011617199,-0.000344993371982,3.88854314224e-05,-0.000122090481455,-0.000138489776873,-6.82798345224e-05,-5.93903605477e-05,0.466960138522,0.00393690152811,0.1760963998,0.0213920968954,0.926558538645,0.375516512084,-0.00435906991104
0.144869789481,-0.0107376780361,-0.12718911469,-2.50095510483,-0.0739027038217,2.49622917175,-0.693505048752,0.0669051408768,-5.11477337568e-05,-0.000244860508246,-2.70854397968e-05,0.000128447150928,0.00011156401888,4.68371108582e-05,0.000280714884866,0.466960246644,0.00393813661959,0.176097585211,0.0213926150099,0.926557704478,0.375518554757,-0.00435786783368
0.14486990869,-0.0107361581177,-0.127189040184,-2.50095415115,-0.0739027112722,2.49622964859,-0.693504750729,0.0669051408768,8.49589850986e-05,-0.00126475142315,-0.000435045774793,0.000300899846479,-0.00011863301188,0.000118607378681,5.32896083314e-05,0.466960565486,0.00393820935735,0.176097294382,0.0213926814336,0.926557717311,0.375518518594,-0.00435792936808
0.14487119019,-0.0107383895665,-0.127188950777,-2.5009572506,-0.0739030763507,2.49622941017,-0.693503797054,0.0669051408768,-0.000309915863909,-0.000355061696609,0.000328620139044,-0.000186016535736,-1.01142595668e-05,-8.90515220817e-05,1.02776857602e-05,0.466959388198,0.00393884833424,0.176097104516,0.0213924636316,0.926557583446,0.375518855641,-0.00435841710683
0.144867792726,-0.0107377311215,-0.127190709114,-2.50096583366,-0.0739010944963,2.49622917175,-0.693504810333,0.0669051408768,0.000104378399556,-0.000668415799737,-6.99913798599e-05,0.000574826495722,-6.74489128869e-05,-8.91260497156e-05,0.000232258666074,0.466955089817,0.00393635040525,0.17609317467,0.0213901661186,0.926558714496,0.375516142434,-0.00436300818293
0.14487041533,-0.0107387062162,-0.127188891172,-2.50096511841,-0.0739022865891,2.49622917175,-0.693505525589,0.0669051408768,-0.000218265078729,-6.68840075377e-05,0.00143652199768,-0.00026447349228,-9.00092175016e-07,8.37584302644e-05,-0.000386898813304,0.466955657658,0.00393850305733,0.17609417641,0.0213908226819,0.926557497971,0.375519118481,-0.00436199472944
0.144867792726,-0.0107373502105,-0.127189576626,-2.50096654892,-0.0739027485251,2.49622917175,-0.693504691124,0.0669051408768,0.000260148837697,0.00110968621448,-0.000208505894989,0.000359426659998,-5.23917478858e-05,5.53924037376e-05,6.79383228999e-05,0.4669547538,0.00393700190993,0.176092662633,0.0213904646074,0.926558114475,0.375517597592,-0.0043637263311
0.144867628813,-0.0107369469479,-0.127191185951,-2.50096750259,-0.0739024206996,2.49622917175,-0.693504154682,0.0669051408768,-0.000201719027245,-0.000480706046801,0.000144682999235,-3.36164703185e-05,-2.03429754038e-05,4.66532628707e-06,-0.000233179234783,0.466954275205,0.00393606743559,0.17609243667,0.0213902035728,0.92655867599,0.375516223654,-0.00436401130087
0.144870519638,-0.0107372328639,-0.127188697457,-2.50097322464,-0.0739025697112,2.49622964859,-0.693505585194,0.0669051408768,0.00036447198363,0.00265921722166,0.00278023979627,1.46964612213e-05,-7.56384761189e-05,6.02485779382e-05,0.000176942456164,0.466951692982,0.00393853734914,0.176090394326,0.0213893466583,0.92655735749,0.375519499256,-0.00436629059299
0.144870683551,-0.0107336696237,-0.127188175917,-2.50097250938,-0.073901720345,2.49622893333,-0.693505644798,0.0669051408768,0.000124221187434,-0.000684995146003,-0.000643704202957,-0.000198198700673,-8.80132283783e-05,6.14615419181e-05,0.000239207627601,0.466951316313,0.0039388187062,0.176088957736,0.021388705052,0.926557342232,0.375519554303,-0.00436793683752
0.144867226481,-0.0107377963141,-0.127191409469,-2.50097322464,-0.0739010870457,2.49622869492,-0.693504273891,0.0669051408768,-0.000431387132267,0.000150088759256,-0.00036953567178,0.000320148596074,1.30542284751e-05,-0.000124154277728,-0.000422549754148,0.466951588927,0.00393582169888,0.176090564375,0.0213888223757,0.926558969471,0.375515550767,-0.00436636997395
0.144863322377,-0.0107369776815,-0.127192884684,-2.50097250938,-0.0739025473595,2.49622893333,-0.693503320217,0.0669051408768,-0.000214523795876,-0.00102325563785,-0.00327976583503,-3.69633125956e-05,9.06819768716e-05,-0.00011042940605,-5.62024179089e-05,0.466951745792,0.00393336851846,0.176090090968,0.0213891896408,0.926559764971,0.37551356049,-0.00436692968641
0.1448687464,-0.0107391709462,-0.127190589905,-2.50097799301,-0.0739029571414,2.49622941017,-0.693505764008,0.0669051408768,-9.65563522186e-05,9.95555528789e-05,-0.000238695181906,0.000268677511485,4.07575607824e-05,6.44707979518e-05,-0.00113536044955,0.466949699021,0.00393680671887,0.176089420217,0.0213887769124,0.926557947893,0.375518057796,-0.00436776502446
0.144867300987,-0.0107385171577,-0.12719039619,-2.50097727776,-0.0739019066095,2.49622941017,-0.693504989147,0.0669051408768,-0.000533780606929,0.000296604412142,0.000881995831151,-0.00169320125133,-5.09381898155e-05,8.2297847257e-05,-2.72007073363e-05,0.466949936375,0.00393627699482,0.176089392477,0.0213885284243,0.926558491491,0.375516732013,-0.00436764926316
0.144867360592,-0.0107394568622,-0.127189919353,-2.50097775459,-0.0739021375775,2.49622964859,-0.693507134914,0.0669051408768,0.000210660480661,0.00059464230435,8.56787519297e-05,-0.00108814949635,4.58083595731e-05,0.000168908169144,-0.00151872134302,0.466949907381,0.00393653499022,0.176089664429,0.0213886554772,0.926557952853,0.375518057385,-0.00436734277724
0.144869461656,-0.0107382824644,-0.127188667655,-2.50097703934,-0.0739023908973,2.49622964859,-0.693505704403,0.0669051408768,-9.10178187041e-06,0.000275902973954,0.000186306482647,-1.86057441169e-05,9.42502447288e-05,0.000145624042489,0.000215596941416,0.466950052145,0.00393806195417,0.176089400038,0.0213887333401,0.926557549874,0.375519044795,-0.00436755504115
0.144865989685,-0.0107380514964,-0.127189859748,-2.50097703934,-0.0739010944963,2.49622964859,-0.693504393101,0.0669051408768,0.000204087162274,0.000886129273567,-0.00101078185253,-0.000127928869915,-2.42410842475e-05,-0.000193237588974,-0.000179813607247,0.466950028276,0.00393596018029,0.176089288917,0.0213883232045,0.926558873022,0.3755158032,-0.00436757210479
0.144860655069,-0.010735581629,-0.127192974091,-2.50097966194,-0.0739024579525,2.49622988701,-0.693506002426,0.0669051408768,-8.4594314103e-05,0.000482443196233,-0.000222318980377,-0.000125427148305,-4.69781844004e-05,0.00562270451337,0.000294008350465,0.466948493218,0.0039318651699,0.17608715192,0.0213879448586,0.926559927844,0.375513192385,-0.00437012091349
0.144861102104,-0.0107397520915,-0.127191230655,-2.50098013878,-0.0739016234875,2.49623060226,-0.693506658077,0.0669051408768,0.000595903024077,-0.000148219332914,0.000246069044806,0.000551713572349,7.40058239899e-05,-5.27656156919e-05,-0.000171412961208,0.466949058455,0.0039330415384,0.176088958935,0.02138823856,0.926559533798,0.375514174012,-0.00436788032028
0.144869953394,-0.0107379574329,-0.127189323306,-2.50098204613,-0.0739016905427,2.49623012543,-0.693506896496,0.0669051408768,0.000237867381657,-0.00277526327409,0.000424455414759,0.000527546741068,0.000101694822661,-0.00228375731967,0.000503423914779,0.46694773094,0.0039379925084,0.176087348053,0.0213876623715,0.926557449168,0.375519328565,-0.00436976522294
0.14487080276,-0.0107382284477,-0.127187401056,-2.50098323822,-0.0739013627172,2.49623084068,-0.693507373333,0.0669051408768,-0.000382508616894,-0.000203116782359,0.000123954727314,0.000283778615994,-7.23257471691e-05,-1.70508119481e-05,-0.00571513036266,0.466947352014,0.00393931499258,0.17608707517,0.0213875108148,0.926556884299,0.375520730613,-0.00436979428581
0.144867062569,-0.0107385888696,-0.127190962434,-2.50098466873,-0.0739022791386,2.49623084068,-0.693506360054,0.0669051408768,-0.000298891391139,0.000759259739425,-0.000267139548669,0.000137914452353,-8.15168386907e-05,-2.65372073045e-05,-0.000702029967215,0.46694676252,0.00393585244093,0.176086687152,0.0213875254791,0.926558300655,0.37551722753,-0.00437044081602
0.144866555929,-0.0107353599742,-0.127191096544,-2.50098562241,-0.0739011988044,2.49623012543,-0.693507194519,0.0669051408768,-0.00026654053363,-0.000281733460724,0.00147424521856,-0.000152304870426,8.81557061803e-05,3.60216581612e-05,-0.000525242241565,0.466945651153,0.00393552424423,0.17608475696,0.0213865502273,0.926558421805,0.375516957823,-0.00437270187561
0.1448661834,-0.0107384026051,-0.127190366387,-2.50098466873,-0.0739006176591,2.49623012543,-0.693506479263,0.0669051408768,7.93411163613e-05,-2.08077708521e-05,-0.00015099371376,-0.000416700699134,-6.38979763607e-05,-7.03829937265e-05,-0.000397405965487,0.466946571389,0.00393580196652,0.176086533347,0.0213869239302,0.926558593199,0.375516536814,-0.00437071113082
0.14486682415,-0.010738783516,-0.127189695835,-2.50098609924,-0.0739013031125,2.49623036385,-0.693507790565,0.0669051408768,-0.000160059964401,8.10525380075e-05,0.000295733712846,-0.000186509161722,-3.86916326534e-05,-3.88489524994e-08,0.000220331945457,0.466945942293,0.00393650794033,0.176086110161,0.0213869779347,0.92655793634,0.375518149352,-0.00437115209403
0.144866898656,-0.0107390740886,-0.127187371254,-2.50098586082,-0.0739010944963,2.49622988701,-0.693504750729,0.0669051408768,-4.70514351036e-05,-0.000403620797442,1.90315483906e-06,0.000508006545715,6.39908321318e-05,-8.42426816234e-05,-7.96002859715e-05,0.466946047418,0.0039375012197,0.176086363792,0.0213869168509,0.926558147091,0.375517634033,-0.00437104805106
0.144866809249,-0.0107350954786,-0.127188116312,-2.50098919868,-0.0739010721445,2.49623036385,-0.693507015705,0.0669051408768,0.000222595423111,0.000650234811474,5.07955082867e-05,8.25676543172e-05,9.00699815247e-05,9.1344685643e-05,-0.000282834516838,0.466944004238,0.00393696956406,0.176083548805,0.0213859366342,0.92655790398,0.375518253738,-0.00437413748767
0.144865900278,-0.0107405818999,-0.127188786864,-2.50098967552,-0.0739019960165,2.49622988701,-0.693506002426,0.0669051408768,-0.000176675006514,0.000900190905668,-0.00218251999468,4.96530810778e-05,9.12865943974e-05,0.000101027566416,0.000357799144695,0.466944487885,0.00393632546572,0.176085583389,0.0213866525851,0.926558220575,0.375517454091,-0.00437222294599
0.144863665104,-0.0107358768582,-0.12719117105,-2.50099182129,-0.07390255481,2.49622988701,-0.693505465984,0.0669051408768,2.74108842859e-05,5.94024131715e-05,-0.000271004973911,-3.05181893054e-05,-9.78604730335e-05,-1.81570649147e-05,-0.000370957102859,0.466942761078,0.00393401491272,0.176082574453,0.0213858456035,0.926559078714,0.375515343265,-0.00437560480965
0.144864425063,-0.0107392966747,-0.127189517021,-2.50099015236,-0.0739017426968,2.49623060226,-0.693503558636,0.062900133431,-0.00191020453349,7.00856253388e-05,0.000339398422511,-0.000375750823878,0.000113277354103,8.1698581198e-06,0.00019497537869,0.466944225439,0.00393529426434,0.176084866331,0.0213864472767,0.926559123323,0.375515232765,-0.00437269997567
0.14486515522,-0.0107380487025,-0.127189740539,-2.50099253654,-0.0739025101066,2.49623179436,-0.693504393101,0.062900133431,-0.000179588852916,-0.000148283696035,4.85904965899e-05,-0.000782914226875,5.70486627112e-05,-7.21985052223e-05,0.00037589709973,0.466943163274,0.00393546178283,0.176083472293,0.021386268369,0.926558734949,0.375516186913,-0.0043739302008
0.144865617156,-0.0107396868989,-0.127188622952,-2.50099253654,-0.0739017426968,2.49623012543,-0.693506360054,0.062900133431,-0.000159756396897,-0.000493602012284,-6.72675814712e-05,2.96495109069e-05,7.87701210356e-05,2.03221807169e-05,0.000285269983578,0.466943044849,0.00393624719323,0.176084080447,0.0213859963718,0.926558203182,0.37551751533,-0.00437385866333
0.144863650203,-0.0107382871211,-0.127189069986,-2.50099349022,-0.0739002153277,2.49623060226,-0.693506598473,0.062900133431,0.00164042308461,-0.000262723537162,-2.6505025744e-05,-0.000103160251456,-5.5059488659e-05,7.54919601604e-05,-0.00613434473053,0.466942481754,0.00393518481988,0.176083101068,0.0213852880396,0.92655883949,0.375515976627,-0.00437463141196
0.144863963127,-0.0107360798866,-0.12718975544,-2.50099349022,-0.0739010497928,2.49623203278,-0.693507015705,0.062900133431,0.000336502940627,0.000551700999495,6.48990753689e-05,-4.368476948e-05,8.70616349857e-06,-0.000119947144412,-0.000243575443164,0.466942455597,0.00393494038011,0.176082208936,0.0213854749608,0.926558685612,0.375516340057,-0.00437511262503
0.144865378737,-0.0107382712886,-0.127189084888,-2.50099492073,-0.0739007219672,2.49623203278,-0.693505942822,0.062900133431,-0.000465070945211,-0.000511068792548,0.000166723853908,0.000196463093744,-7.27489968995e-05,-0.000106566913018,0.000158879047376,0.466942108637,0.00393597183263,0.17608266754,0.0213853957847,0.926558550725,0.375516682776,-0.00437465033487
0.144866108894,-0.010735264048,-0.127189084888,-2.50099301338,-0.0739012286067,2.49623155594,-0.693505108356,0.062900133431,-0.000397631782107,0.00113455799874,0.00231371261179,-0.000298775703413,-1.71664833033e-05,-1.258247039e-06,0.00383469369262,0.466942440933,0.00393621882235,0.176081974962,0.0213854559349,0.926558487709,0.375516825152,-0.00437548159905
0.144866615534,-0.0107382824644,-0.127189308405,-2.50099754333,-0.0738992616534,2.49623155594,-0.693504452705,0.062900133431,-0.000423445686465,0.000479086360428,-3.19952996506e-05,-0.00028221210232,-6.06237153988e-05,-4.39050709247e-05,0.00432579219341,0.466941063184,0.00393678791989,0.176081915218,0.0213846616646,0.926558666387,0.375516429256,-0.004375503509
0.144864305854,-0.0107367588207,-0.127188146114,-2.50099921227,-0.0738997831941,2.49623155594,-0.693506062031,0.062900133431,-3.96818431909e-05,-6.52732851449e-05,-0.000110687775305,0.000433108507423,8.74936304172e-05,5.31481091457e-05,-0.000456132256659,0.46693973342,0.00393588731157,0.176080259287,0.0213841101331,0.926558685226,0.375516390632,-0.00437752404667
0.144864320755,-0.010738350451,-0.127190604806,-2.50099730492,-0.073901578784,2.49623179436,-0.693505823612,0.062900133431,-0.000291695643682,-0.000854841491673,-0.000293539371341,-3.70012785424e-05,0.000128626808873,-4.34725589002e-05,0.000784539617598,0.466940786174,0.00393496844245,0.176081263947,0.021385186645,0.926558662162,0.375516398009,-0.00437651399121
0.144862920046,-0.0107371164486,-0.127188742161,-2.50099849701,-0.0739011615515,2.49623131752,-0.693506777287,0.0552348606288,-0.000428153056419,0.000590430572629,-6.39095742372e-05,8.76533522387e-05,5.02017337567e-06,-1.82238836715e-05,0.000207826888072,0.46694009,0.00393488739148,0.176080684177,0.021384628344,0.926558712811,0.375516295715,-0.00437729595518
0.144864752889,-0.0107391346246,-0.127190381289,-2.50099802017,-0.0739009305835,2.49623155594,-0.693507313728,0.0552348606288,-0.000207881821552,0.000447402591817,0.000304602843244,-6.85871927999e-05,-3.49855690729e-05,-2.46630293077e-06,-0.00573546811938,0.466940678903,0.00393504911411,0.176081822211,0.0213849150636,0.926558619375,0.375516525522,-0.00437595857676
0.144865259528,-0.0107365977019,-0.127187669277,-2.50100040436,-0.0739003717899,2.49623155594,-0.69350618124,0.0552348606288,0.00280103087425,0.000901764724404,0.000209409583476,7.00185410096e-05,0.000139594863867,-3.89825945604e-05,-0.000250332988799,0.466939140942,0.00393650544433,0.176079724345,0.0213840499015,0.926558298774,0.375517339677,-0.00437820374375
0.144865065813,-0.010738030076,-0.12719027698,-2.50099945068,-0.0739010348916,2.49623155594,-0.693505585194,0.0552348606288,-0.000389936554711,0.000444214965682,-0.000154127788846,-1.50311961988e-06,-0.000121382778161,-2.54302358371e-05,-6.56098491163e-05,0.466939828621,0.0039352011294,0.176080756815,0.0213845618317,0.92655884146,0.375515983776,-0.00437714982212
0.144864991307,-0.0107387704775,-0.127188906074,-2.50099921227,-0.0739011317492,2.49623131752,-0.693506002426,0.0552348606288,-0.000200412017875,-0.000208497818676,-0.000271400931524,0.000261332141235,7.83356153988e-05,-0.000105359758891,2.21108457481e-05,0.466940000321,0.00393581196406,0.176081171787,0.0213846931475,0.926558509088,0.375516800539,-0.00437679468453
0.144861295819,-0.0107338400558,-0.127190127969,-2.50099992752,-0.0739023163915,2.49623179436,-0.693507015705,0.0552348606288,-1.33030525831e-05,-0.000194446183741,0.000178382921149,7.8614531958e-05,5.82131724514e-05,-3.3174361306e-05,-6.71284506097e-05,0.466939024311,0.00393333793105,0.176078658243,0.0213843687568,0.926559035058,0.375515489967,-0.00437947522566
0.144862607121,-0.0107362261042,-0.127191439271,-2.50100255013,-0.0739006474614,2.49623346329,-0.693507194519,0.0552348606288,-0.0024514074903,0.000347438588506,-0.000363858329365,-0.000282474095002,1.0811676475e-05,-2.10823127418e-05,0.00618995027617,0.466938507559,0.00393351004361,0.176078888087,0.0213839524924,0.926559254955,0.375514981542,-0.00437857894889
0.14486540854,-0.0107341501862,-0.12719014287,-2.50100302696,-0.0738983973861,2.49623298645,-0.693507552147,0.0552348606288,-8.93081669346e-05,-0.000658217992168,0.000410326232668,0.000527408614289,-6.72416572343e-05,-2.64258278548e-06,0.00032009507413,0.466937829187,0.0039354983803,0.176077695297,0.0213829219455,0.926558762305,0.375516241875,-0.0043797734932
0.144865438342,-0.0107380701229,-0.127190679312,-2.50100135803,-0.0738994926214,2.49623298645,-0.693506240845,0.0552348606288,-0.000267165276455,0.000184249031008,0.00399953639135,-0.0001103788818,7.09245941835e-05,-6.01935280429e-05,0.000161077157827,0.466939235454,0.00393529760379,0.176080158493,0.0213839985188,0.926558952009,0.375515742594,-0.00437719170547
0.144865140319,-0.0107359737158,-0.127190262079,-2.5010035038,-0.0739012733102,2.49623060226,-0.693507254124,0.0552348606288,-8.00412963144e-05,0.000231614394579,-0.000337892706739,-0.000333747913828,-0.000106117731775,-0.000262803572696,0.000139311465318,0.46693738251,0.00393513026508,0.176078149525,0.0213835094073,0.926558460782,0.375516943537,-0.00438053400578
0.144862905145,-0.0107379062101,-0.127190157771,-2.50100326538,-0.0738995447755,2.49623179436,-0.693506538868,0.055219758302,-5.66638882447e-05,0.000155740213813,0.000182173898793,0.000776821863838,2.79918476735e-05,-0.000295654288493,0.000308048911393,0.466938055294,0.00393431102216,0.176079237464,0.0213834681959,0.92655926609,0.375514979541,-0.00437875943752
0.144863784313,-0.0107408193871,-0.127188041806,-2.50100564957,-0.0739009231329,2.49623155594,-0.69350618124,0.055219758302,-0.000128506479086,-5.92020369368e-05,4.9066500651e-05,-0.000161858581123,-3.58729557774e-05,-3.04996428895e-05,0.000141964061186,0.466937321529,0.00393566401839,0.176079644458,0.0213837612226,0.926558561698,0.375516701875,-0.0043786752527
0.144865378737,-0.0107353348285,-0.127187907696,-2.50100564957,-0.0739009305835,2.49623322487,-0.693505704403,0.055219758302,0.000371505826479,-0.000691440887749,-8.5740657596e-06,-6.22406878392e-05,6.58022254356e-05,-0.000109008666186,7.04326157575e-05,0.466936826413,0.00393638051826,0.176077255755,0.0213833699562,0.926558296561,0.375517356836,-0.00438052062018
0.144864693284,-0.0107398852706,-0.127188593149,-2.5010073185,-0.0739000737667,2.49623227119,-0.693507492542,0.055219758302,5.26754884049e-05,0.000182445539394,-2.04283242056e-05,-6.78960350342e-05,-7.55989231038e-06,-2.81064767478e-05,-0.000149400759256,0.466936536045,0.00393586435508,0.176078626073,0.0213832122542,0.926558369169,0.375517198668,-0.00437949140976
0.144863933325,-0.0107345245779,-0.127189517021,-2.50100803375,-0.073900051415,2.49623250961,-0.693505048752,0.055219758302,-1.00541155916e-05,-0.000819801120088,2.64975860773e-05,8.34403181216e-05,4.11892142438e-05,7.32140033506e-05,0.000203711781069,0.466935423006,0.00393495889718,0.176075889282,0.0213824730498,0.926559124732,0.375515343666,-0.00438230277612
0.144863769412,-0.0107342181727,-0.127190724015,-2.50100970268,-0.0738994553685,2.49623298645,-0.693506121635,0.055219758302,-0.000403457408538,-4.50525985798e-05,0.000181336741662,4.74703520013e-05,1.7220947484e-05,1.49892939589e-05,0.00088907306781,0.466934690923,0.00393434704902,0.176075140316,0.0213820279901,0.926559265671,0.375515013484,-0.00438296809637
0.144863530993,-0.0107338130474,-0.127188906074,-2.50100946426,-0.0738998800516,2.49623227119,-0.693505764008,0.055219758302,0.000137479844852,-0.000462939584395,5.24252209289e-05,-0.000112114452349,-3.65497385246e-06,2.39669152506e-05,7.83715677244e-06,0.466934581496,0.00393503351047,0.176074984123,0.0213820487134,0.926558972719,0.375515729891,-0.00438341824391
0.144865199924,-0.010739072226,-0.127188310027,-2.50100708008,-0.0739018246531,2.49623394012,-0.693507492542,0.055219758302,0.000312360993121,-0.000300967978546,0.00032944130362,-0.000400050194003,1.58166167239e-05,2.71899716608e-05,0.000212259779801,0.466936891161,0.00393614327471,0.176078495688,0.0213839133869,0.92655793711,0.375518228831,-0.00437914674519
0.144863307476,-0.0107336724177,-0.127189487219,-2.50101184845,-0.0739012882113,2.49623250961,-0.693505764008,0.055219758302,0.000101452962554,-0.000364874576917,8.73241879162e-05,-3.79579323635e-05,6.08667178312e-05,2.88267838187e-05,0.000646718544886,0.466934077935,0.00393499852521,0.176075297351,0.0213821019072,0.926558942668,0.375515804177,-0.00438314692844
0.14486373961,-0.0107350982726,-0.127189606428,-2.50101256371,-0.0738987028599,2.49623179436,-0.693505227566,0.0526147596538,4.75186643598e-05,-0.000656430318486,0.000476324639749,-3.90029708797e-05,8.29854470794e-05,-3.5565928556e-05,3.14535973303e-05,0.466933234291,0.00393504145623,0.176074556145,0.0213812187807,0.926559303092,0.375514953025,-0.00438418471344
0.144862338901,-0.0107342712581,-0.127191156149,-2.50101184845,-0.0739007592201,2.49623203278,-0.693506836891,0.0526147596538,0.000145868980326,-0.00081763160415,-1.56303867698e-05,0.000252793746768,-8.52562588989e-05,5.63686262467e-05,-9.30708483793e-05,0.466933488447,0.00393336303027,0.176074251118,0.0213818676769,0.926559277476,0.375514974962,-0.00438455473131
0.144862100482,-0.01073756814,-0.127190425992,-2.50101232529,-0.0739008262753,2.49623227119,-0.693506836891,0.0526147596538,-0.000514872081112,6.97373479852e-06,0.000463259319076,-0.00036792177707,-0.000164643017342,4.98116023664e-05,2.76480204775e-05,0.466933824958,0.00393366314317,0.176075613253,0.0213822342706,0.926559184384,0.375515201175,-0.00438306525569
0.144864335656,-0.0107376389205,-0.127190113068,-2.50100970268,-0.0739006772637,2.49623227119,-0.693505167961,0.0526147596538,-8.35843457025e-06,-0.000590547046158,-0.0010510974098,0.000163452248671,0.000134119967697,-1.68593142007e-05,-0.000611386203673,0.466935067665,0.00393488371098,0.176076662861,0.0213826819795,0.926559049671,0.375515523452,-0.0043817478542
0.144864216447,-0.0107373055071,-0.127187311649,-2.50101494789,-0.0739003568888,2.49623346329,-0.693505585194,0.0526147596538,0.000373086921172,0.000637602119241,0.00494447350502,0.000470855709864,3.95956667489e-05,0.000227108670515,0.000146928796312,0.466932779251,0.00393612676301,0.176074581596,0.0213818098953,0.926558496156,0.37551691566,-0.00438373629242
0.14486220479,-0.0107366954908,-0.127190515399,-2.5010137558,-0.073899872601,2.49623274803,-0.693506360054,0.0526147596538,5.12710867042e-05,0.000193866988411,9.38672019402e-05,0.000154200097313,-7.222739805e-05,-2.95941317745e-05,9.05949636945e-05,0.46693316493,0.00393371196236,0.176074611082,0.0213816841705,0.926559386832,0.375514723149,-0.00438390662737
0.144863650203,-0.0107384249568,-0.127189978957,-2.50101518631,-0.0738996863365,2.49623274803,-0.693506419659,0.0526147596538,-0.000348752364516,-0.000270870426903,0.000236066873185,0.000127552280901,6.56682095723e-05,-5.83716318943e-05,0.000635696167592,0.46693269339,0.00393467124461,0.176074939792,0.021381577915,0.92655905854,0.37551554261,-0.0043836178058
0.1448610425,-0.0107373418286,-0.127188056707,-2.50101590157,-0.0739004611969,2.49623322487,-0.693506538868,0.0526147596538,0.000135386639158,-0.000245379196713,0.002988724038,-0.000339027232258,-9.98293944576e-06,5.20424655406e-05,0.00532004842535,0.466932296958,0.00393428016842,0.176074207132,0.0213816219499,0.926559035593,0.375515588307,-0.00438433866694
0.14486195147,-0.0107358666137,-0.127191051841,-2.50101590157,-0.0739002749324,2.4962348938,-0.693506538868,0.0509415715933,-0.000269997632131,-0.0011386758415,0.000135356691317,0.00041449078708,8.87972237251e-06,-2.64581776719e-05,0.00030195742147,0.466932437739,0.00393332342979,0.176073670561,0.0213816265796,0.926559442532,0.375514584867,-0.00438425992204
0.144861862063,-0.0107385395095,-0.127190098166,-2.50101423264,-0.0738983303308,2.49623370171,-0.6935069561,0.0509415715933,0.000615110096987,-0.000214779254748,0.000576240126975,0.000349159905454,-4.63690448669e-05,0.000141733733471,0.000355121388566,0.466933371637,0.00393389349377,0.176075443734,0.0213815154107,0.926559525223,0.375514407079,-0.0043825536786
0.144860967994,-0.0107342237607,-0.127189576626,-2.50101709366,-0.0738982111216,2.49623560905,-0.693506062031,0.0509415715933,-0.000257273437455,0.000191236613318,-0.000441832409706,0.000314667791827,0.000144117759191,-4.65247867396e-05,-0.000165689532878,0.466931975586,0.00393356939497,0.176072653636,0.0213807952495,0.926559797793,0.37551374851,-0.00438486847678
0.144860580564,-0.0107381837443,-0.127190262079,-2.50101685524,-0.0738980099559,2.49623370171,-0.69350618124,0.0509415715933,-0.000125753402244,-0.000298222410493,8.80590887391e-05,0.00185284845065,2.97244650938e-06,5.43099667993e-05,0.000600597588345,0.466932078169,0.00393320982474,0.176074261143,0.0213809087122,0.926559983786,0.375513294139,-0.00438392486782
0.144863545895,-0.0107358396053,-0.127190798521,-2.50101661682,-0.0739005431533,2.49623274803,-0.693506360054,0.0509415715933,-8.03025322966e-05,-0.000679462507833,0.000775241234805,0.000593642354943,-5.45311922906e-05,-4.95278873132e-05,0.000621401821263,0.466931621729,0.00393411902808,0.176073190759,0.0213812514498,0.926559096428,0.375515444169,-0.00438563414591
0.144863560796,-0.0107376426458,-0.127189770341,-2.50101447105,-0.0738984718919,2.4962348938,-0.693506240845,0.0509415715933,0.00054251763504,-0.00241064280272,-0.00100699684117,0.000492044840939,-2.96671896649e-06,9.08350557438e-05,-9.66713196249e-05,0.466933371664,0.00393483286012,0.176075042991,0.0213815948915,0.926559246836,0.375515089876,-0.00438251781693
0.144862905145,-0.0107386615127,-0.127189278603,-2.50101661682,-0.0738993957639,2.49623417854,-0.693507492542,0.0474697761238,-8.59614519868e-05,0.000100296798337,4.91427927045e-05,0.00064106361242,-7.08276456862e-06,-0.000118502430269,-0.000419182819314,0.466932362811,0.00393469050023,0.176074621391,0.0213814847779,0.92655890043,0.37551593973,-0.00438347280258
0.144863754511,-0.0107368864119,-0.127188697457,-2.50101804733,-0.0738993287086,2.4962348938,-0.693507730961,0.0474697761238,0.000352498551365,-0.000403675570851,0.00015686644474,-0.000276753737126,-2.2674257707e-05,0.000104286162241,-0.000242051159148,0.46693155939,0.00393532483292,0.176073309288,0.0213811119639,0.92655858342,0.375516729499,-0.00438464265631
0.144862636924,-0.0107368296012,-0.127187460661,-2.5010175705,-0.0738986432552,2.49623370171,-0.693506658077,0.0474697761238,2.70977270702e-05,-0.0004417214368,5.93430740992e-06,0.00057877699146,1.55584912136e-05,-0.000101791600173,-6.3147695073e-06,0.466930853182,0.0039350928964,0.176072625882,0.0213805995485,0.92655904065,0.375515614848,-0.00438598233572
0.144863992929,-0.0107366126031,-0.12718705833,-2.50101733208,-0.0739002898335,2.49623513222,-0.69350540638,0.0474697761238,-0.000302615488181,-0.000503453367855,0.000136649730848,-0.000316351361107,2.44815037149e-05,3.55358206434e-05,0.00177159940358,0.466931905111,0.00393614424738,0.176073484878,0.0213815354151,0.926558517105,0.375516872066,-0.00438438147784
0.144860029221,-0.0107381874695,-0.127189785242,-2.50101947784,-0.0738991722465,2.49623441696,-0.693507015705,0.0474697761238,-0.000152613807586,0.000238309774431,6.59595461912e-05,-9.28421359276e-05,7.39492752473e-05,-2.23715669563e-05,-0.000284357636701,0.466930997916,0.00393309731907,0.176073312856,0.0213808782829,0.926559649402,0.375514109184,-0.0043849322143
0.144861280918,-0.0107366917655,-0.127189844847,-2.50102162361,-0.073899179697,2.49623441696,-0.693508267403,0.0474697761238,-0.000689792388584,-0.00334393326193,-0.000539281521924,-0.000123464866192,8.51504082675e-05,0.000144538702443,-0.000101007892226,0.466929847136,0.00393354543011,0.176071960496,0.0213803595717,0.926559215172,0.375515193243,-0.00438638018611
0.144861698151,-0.010736996308,-0.127188712358,-2.50101971626,-0.0739006474614,2.49623298645,-0.693507313728,0.0474697761238,0.000829657365102,0.000417070259573,-0.000196244131075,-0.000124707919895,-3.55232441507e-05,2.21129971578e-06,-0.000196763881831,0.466930385039,0.0039342272164,0.176072546807,0.0213809077269,0.92655885104,0.375516059974,-0.00438642562331
0.14486181736,-0.010735402815,-0.127191185951,-2.50101923943,-0.0738994628191,2.49623537064,-0.693504929543,0.0474697761238,-0.000330977869453,0.000397605239414,0.000117326751933,6.70223889756e-05,-7.28184022591e-05,-7.81894195825e-05,0.0003252561728,0.466930885518,0.00393322120841,0.176072201739,0.0213808155388,0.926559908604,0.375513463995,-0.00438571957447
0.144863307476,-0.0107330940664,-0.127189517021,-2.50101995468,-0.0739007666707,2.49623537064,-0.693507611752,0.0474697761238,0.00375839881599,0.00201373617165,-7.00660966686e-05,-0.000128303072415,-2.60011220234e-05,-5.34754435648e-05,0.000100028417364,0.466930182268,0.00393455574483,0.176070860934,0.0213807935699,0.926558598119,0.375516680307,-0.00438730140385
0.144856482744,-0.0107371052727,-0.12719245255,-2.50102162361,-0.0739000812173,2.49623441696,-0.693506598473,0.0474697761238,-7.92327336967e-05,0.000218453773414,2.13993462239e-05,-0.000326214532834,-1.48624149006e-05,-1.91647959582e-05,-0.000239262415562,0.466929841424,0.00393010346809,0.176071980705,0.0213805965442,0.926560743403,0.375511406257,-0.00438660797326
0.14485783875,-0.0107371415943,-0.127189815044,-2.50102043152,-0.0738996714354,2.49623370171,-0.693506836891,0.0474697761238,-0.00140643073246,-0.000752495252527,-0.000195812463062,-1.09585962491e-05,-2.58127656707e-05,-1.66548361449e-05,-0.000167581063579,0.466930087919,0.00393208874903,0.176072058342,0.0213805861794,0.926560017769,0.375513197581,-0.00438658562173
0.144860595465,-0.010737337172,-0.127187624574,-2.50101995468,-0.0738989114761,2.49623465538,-0.693506419659,0.0474697761238,-0.00271781207994,0.000471429608297,-0.000378349563107,0.000556342594791,-0.000100206299976,-8.95731936907e-05,0.000409877247876,0.4669308624,0.00393445048245,0.176072811315,0.0213807669576,0.926559233105,0.375515138162,-0.00438532169151
0.14485873282,-0.0107359988615,-0.127187043428,-2.50102090836,-0.0739003047347,2.49623513222,-0.693507552147,0.0474697761238,-0.000319867220242,1.92234001588e-05,9.01548410184e-05,-1.51333242684e-05,-5.26420553797e-05,0.000101368554169,0.000215831852984,0.466930136375,0.00393365218717,0.176071814136,0.021380808481,0.926559085017,0.375515488269,-0.00438642836441
0.144857928157,-0.010737686418,-0.127190515399,-2.50102066994,-0.0738994851708,2.49623417854,-0.693505525589,0.0463954694569,0.000564267858863,0.000495204760227,-0.000376464246074,-9.35559583013e-05,9.6603500424e-05,-8.72574892128e-05,0.00610653823242,0.466930315926,0.0039317318218,0.176072597909,0.0213806508465,0.926560408309,0.375512238385,-0.00438588981164
0.144857794046,-0.0107378503308,-0.127190560102,-2.5010228157,-0.0738980472088,2.49623441696,-0.693507313728,0.0463954694569,-7.65396616771e-05,0.000834668753669,0.000936441181693,8.61049556988e-05,1.55141533469e-05,6.63638784317e-05,-5.96357567701e-05,0.466929370734,0.00393172816649,0.176071858954,0.021379907304,0.926560323886,0.375512481027,-0.00438657512596
0.144856154919,-0.0107395267114,-0.127190440893,-2.50102305412,-0.0738990604877,2.49623441696,-0.693507015705,0.0463954694569,-0.000273120735073,0.000985590508208,0.000184394724783,-1.26722525238e-05,9.37296717893e-05,-8.79318831721e-05,-0.00379401468672,0.466929514138,0.00393081340488,0.176072384355,0.021380349982,0.926560556659,0.37551188521,-0.00438625437368
0.144854649901,-0.0107340812683,-0.12718988955,-2.50102186203,-0.0738989561796,2.49623608589,-0.693507373333,0.0463954694569,0.000201701899641,-0.000796076608822,-0.00184863631148,0.000256812752923,5.03388946527e-05,7.00873642927e-05,-0.000200732203666,0.466929709233,0.00393049753752,0.176070920259,0.0213801634587,0.926560622,0.375511726249,-0.0043869695008
0.144852772355,-0.0107370996848,-0.127189129591,-2.50102329254,-0.0738985687494,2.49623584747,-0.693506896496,0.0463954694569,7.00846794643e-05,-0.00055397010874,7.4072740972e-05,0.000126981860376,-0.000104785809526,-3.39567814081e-05,-0.00022414943669,0.466929356553,0.00393002566217,0.176071456364,0.0213800985191,0.926560983691,0.375510842171,-0.0043865685208
0.144856199622,-0.0107360072434,-0.12718872726,-2.5010228157,-0.0738986879587,2.49623560905,-0.693506479263,0.0463954694569,3.94973139919e-05,-0.000610800518189,-0.000375276693376,-7.91436978034e-05,0.000124426951515,-3.33292809955e-05,0.00522445142269,0.46692934651,0.00393177993235,0.176071115298,0.0213800633921,0.926560322817,0.375512470315,-0.0043869570553
0.144854187965,-0.0107363378629,-0.127189666033,-2.50102305412,-0.0738988295197,2.49623537064,-0.693505883217,0.0463954694569,-0.000197942121304,-0.000325832515955,-0.000588596507441,-0.000226363452384,-0.000152009393787,-0.00239797960967,-0.000185290031368,0.466929010387,0.00393007945927,0.176070937868,0.0213798857867,0.926561058555,0.375510661006,-0.00438730081712
0.144849613309,-0.0107384752482,-0.127190113068,-2.50102329254,-0.0738989263773,2.49623513222,-0.693507432938,0.0463954694569,8.87578717084e-05,-0.000329247734044,-7.27505612304e-05,-0.00278242351487,6.1086662754e-05,5.48629941477e-05,-0.000496662920341,0.46692957083,0.00392823051849,0.176072333265,0.0213803619427,0.926561584687,0.37550934974,-0.00438609697088
0.144849866629,-0.0107363453135,-0.127189442515,-2.50102424622,-0.0738987550139,2.49623441696,-0.693505465984,0.0463954694569,-0.000212667684536,0.000797521264758,-0.000213968596654,-0.000424248661147,-4.71520797873e-05,-2.80168678728e-05,-0.000372548151063,0.46692848972,0.0039284579456,0.176070610627,0.021379667977,0.926561829654,0.375508761419,-0.00438809833331
0.144851520658,-0.0107390917838,-0.127188563347,-2.50102424622,-0.0738999694586,2.49623513222,-0.6935069561,0.0463954694569,-0.000186735196621,0.000100663317426,-0.0035155818332,0.00024527386995,-5.96678110014e-05,6.33674571873e-05,-0.000300197076285,0.466929067842,0.00392964188501,0.176071948604,0.0213804557823,0.926560891498,0.375511049701,-0.00438653537219
0.144853413105,-0.0107383085415,-0.127188190818,-2.50102305412,-0.0739014446735,2.49623584747,-0.693506598473,0.0436374694109,0.000122346857097,0.000274120218819,0.00112482893746,6.04010929237e-05,6.36218392174e-05,-0.000108325322799,-0.000149257772136,0.466929664719,0.00393061488536,0.176072116353,0.0213811129417,0.926560300086,0.375512476206,-0.00438613856654
0.144851446152,-0.0107377879322,-0.127189293504,-2.50102329254,-0.0738986432552,2.49623560905,-0.693505585194,0.0436374694109,-0.0020251981914,0.000159794057254,-0.000488042540383,-9.34393101488e-05,7.79134206823e-05,0.00578578934073,0.00475085061044,0.466929417699,0.00392933629211,0.176071753636,0.0213801641473,0.926561501864,0.375509562327,-0.00438635705087
0.144848957658,-0.0107379946858,-0.127190262079,-2.5010240078,-0.0738999471068,2.49623537064,-0.693506717682,0.0436374694109,8.25666502351e-05,-0.00260802241974,-0.000198328329134,0.000116894880193,1.42068847708e-05,-4.94477312429e-08,-0.000669977976941,0.46692907854,0.00392763812319,0.176071553521,0.0213803802614,0.926561735403,0.37550896764,-0.00438688187465
0.144848063588,-0.0107382461429,-0.12718911469,-2.50102329254,-0.0738983675838,2.4962348938,-0.693506538868,0.0436374694109,3.46678243659e-05,0.00296444748528,0.00028318000841,0.00028875056887,-5.57547355129e-05,-4.1328221414e-05,-0.000119434938824,0.46692934451,0.00392785261038,0.176071901388,0.0213800234109,0.926561972636,0.375508407139,-0.00438649239608
0.144846782088,-0.0107344174758,-0.127190232277,-2.50102496147,-0.073898665607,2.49623465538,-0.693506538868,0.0436374694109,0.00011079057731,0.00108187447768,-0.000589152390603,-0.000285211397568,-1.14905305963e-05,-1.47323426063e-05,-0.000464461685624,0.466927918021,0.00392661135581,0.176069461852,0.0213793060635,0.926562359363,0.375507460959,-0.00438929742625
0.144846215844,-0.0107372170314,-0.127190068364,-2.50102305412,-0.0738999992609,2.49623465538,-0.693506062031,0.0436374694109,0.00016979155771,0.00282984552905,-5.56979612156e-05,0.000613513577264,4.3375781388e-05,5.71493219468e-05,-0.000109701977635,0.466929264174,0.00392641998483,0.176071500269,0.0213803621658,0.926562332085,0.375507492871,-0.00438718090174
0.144848451018,-0.0107346018776,-0.127187341452,-2.50102782249,-0.0739004835486,2.49623513222,-0.693506658077,0.0436374694109,3.95440201828e-06,-0.00301583693363,0.000542736845091,4.49703802587e-05,-6.71723246342e-05,-9.61738442129e-06,7.43667187635e-05,0.466926686435,0.00392861584334,0.176068486894,0.0213794291226,0.926561188057,0.375510330619,-0.00439045317364
0.144845768809,-0.0107360202819,-0.12718847394,-2.50103783607,-0.07389690727,2.49623155594,-0.693505764008,0.0436374694109,-0.000183292198926,-0.000381900521461,0.000170757281012,-0.000997290131636,7.02782635926e-05,4.8682319175e-05,3.93285845348e-05,0.466921382568,0.003926935512,0.176064931559,0.0213762266645,0.926562626606,0.375506900644,-0.00439581205242
0.144842326641,-0.0107356607914,-0.12719027698,-2.50103282928,-0.0738973096013,2.49623441696,-0.693506419659,0.0436368137598,-0.000129779495182,-0.000112329675176,-0.000214237501496,0.000588539696764,1.21597440739e-05,0.000120635675557,9.55135255936e-05,0.466924343343,0.00392455474634,0.176066961095,0.0213776092147,0.926563422986,0.37550489692,-0.0043923891402
0.144839540124,-0.0107378177345,-0.127190411091,-2.50104188919,-0.0738972947001,2.49623203278,-0.693505227566,0.0436368137598,-0.000183229916729,-0.00227277819067,-1.40543006637e-05,-0.000490909558721,0.000145263664308,1.87351361092e-06,0.00505680171773,0.466919878818,0.00392312103354,0.176064233426,0.021375868531,0.92656419384,0.375503043222,-0.00439672078616
0.144840374589,-0.0107370531186,-0.127189218998,-2.50104498863,-0.0738988444209,2.49623179436,-0.693507373333,0.0436368137598,-0.000220779562369,0.000107127605588,0.000269961659797,0.000162225100212,4.04545535275e-05,-4.75920351164e-05,1.29388135974e-05,0.4669182395,0.00392392391927,0.176062661542,0.0213756321412,0.926563159132,0.375505585382,-0.00439880899865
0.144838601351,-0.0107385516167,-0.127189427614,-2.50105261803,-0.0738983750343,2.49623322487,-0.693507373333,0.0436368137598,-0.000599453866016,-0.000324501161231,1.73687858478e-05,-0.000184018703294,-1.95133925445e-05,-2.96487905871e-05,0.000123332298244,0.466915174835,0.00392303117776,0.176060521998,0.0213745185669,0.926563582421,0.375504579408,-0.00440093334512
0.144836217165,-0.0107369450852,-0.127190262079,-2.50105381012,-0.0738980844617,2.49623250961,-0.693506658077,0.0436368137598,-0.0015519092558,-0.001302203862,-0.00016730176867,0.00020574060909,-0.000113257221528,-3.29885028805e-06,5.15000429004e-05,0.466914215992,0.00392148710543,0.176059251613,0.0213739123468,0.926564360914,0.375502673349,-0.00440260683505
0.144838899374,-0.0107373902574,-0.12718732655,-2.50105333328,-0.0738971009851,2.49623274803,-0.693505942822,0.0436368137598,2.73053537967e-05,0.000573541386984,0.000526747375261,9.29569796426e-05,2.92872726959e-07,0.000148957260535,-5.0599079259e-05,0.466914536979,0.00392418402991,0.176059663035,0.0213738363074,0.926563595072,0.375504575783,-0.00440189258352
0.14483769238,-0.0107368389145,-0.127190709114,-2.50105452538,-0.0738994926214,2.49623155594,-0.693507790565,0.0436368137598,-0.000502012611832,-0.000442290736828,0.00019510241691,-2.17943379539e-05,-6.38586498098e-05,0.000161134128575,0.000205965348869,0.466913655549,0.00392185416669,0.176058843785,0.0213740249415,0.926563738537,0.375504191172,-0.00440358738847
0.144834429026,-0.0107369031757,-0.127190589905,-2.50105643272,-0.073898345232,2.49623131752,-0.693505227566,0.0436368137598,0.000368099368643,-0.000371533213183,-0.000190913546248,0.000219473891775,-5.02389993926e-05,-9.43995109992e-05,0.000465750694275,0.466912717041,0.00392043773869,0.176058109704,0.0213733266085,0.926564985208,0.375501144589,-0.00440445136676
0.144835084677,-0.0107352109626,-0.127188742161,-2.50105643272,-0.0738980174065,2.49623250961,-0.693507671356,0.0436368137598,0.000227416298003,9.92007917375e-05,0.000866552290972,0.000184978664038,-1.4939936591e-05,9.02632382349e-05,-0.000498965266161,0.466912702811,0.00392160969955,0.17605743329,0.021373222712,0.926564094831,0.375503344923,-0.00440467420806
0.144835412502,-0.0107361217961,-0.127186506987,-2.50106668472,-0.0738975480199,2.49623036385,-0.693505465984,0.0409385710955,0.000814112368971,0.00242446898483,-0.00334757100791,-0.000391569599742,-7.34176273909e-06,0.000302865664707,-0.00300464290194,0.466907508781,0.00392272752136,0.176053688626,0.0213710532431,0.926564087855,0.375503423791,-0.00440994166983
0.14483320713,-0.0107337981462,-0.127186283469,-2.5010612011,-0.0738978087902,2.49623417854,-0.693505764008,0.0409385710955,-2.29733655033e-06,-0.00341378338635,0.00065013935091,0.000784806150477,0.00013972481247,-0.00113439955749,0.000138171293656,0.466910294405,0.00392191490768,0.176054654794,0.0213724474082,0.926564210981,0.375503076098,-0.004406920221
0.144835159183,-0.0107373241335,-0.127188459039,-2.50105333328,-0.0738980621099,2.49623441696,-0.693505525589,0.0409385710955,0.000201729519176,-0.000225033058086,4.60077208118e-05,0.000285147019895,2.41898633249e-05,-0.000175475288415,0.000211945938645,0.466914913315,0.00392188481371,0.17605978264,0.0213743396708,0.926564429827,0.375502494629,-0.00440127191
0.144833296537,-0.0107428357005,-0.127186462283,-2.50105118752,-0.0738981217146,2.49623513222,-0.693506598473,0.0409385710955,0.000143831770401,-0.00184296257794,0.000382708094548,-5.50334734726e-05,5.43512578588e-05,0.000218321103603,-8.41577493702e-05,0.466916941669,0.00392209675352,0.176063229469,0.0213755142314,0.926564216223,0.375503001697,-0.00439727272987
0.144835159183,-0.0107371648774,-0.12718732655,-2.50105142593,-0.0738973245025,2.49623465538,-0.693506777287,0.0409385710955,4.33716377302e-05,-0.000595649355091,-0.000281346350675,-0.000261917884927,6.04680863034e-05,3.62909595424e-05,-0.0033821624238,0.466915836421,0.00392247304071,0.176060468611,0.0213744949908,0.926564100211,0.375503310808,-0.00440027497331
0.144835323095,-0.0107420450076,-0.127185866237,-2.50105500221,-0.0738984495401,2.4962348938,-0.693506538868,0.0409385710955,-0.000318193371641,0.000350886111846,-0.00192904809956,-0.000185031807632,8.91411309567e-06,0.00021758271032,-0.000100400597148,0.466914951249,0.00392324751852,0.176061364501,0.0213748014719,0.926563672088,0.375504358206,-0.00439955460183
0.144835874438,-0.0107413418591,-0.127187877893,-2.50105428696,-0.0738976374269,2.49623560905,-0.6935069561,0.0409385710955,0.00027452694485,-0.00010175359057,-1.83663923963e-05,0.000272534118267,-2.63425863523e-05,-6.57414420857e-05,-7.39420429454e-05,0.466915338004,0.00392262315229,0.176061376659,0.0213747089734,0.92656399024,0.37550358307,-0.00439915808963
0.144834563136,-0.0107395844534,-0.127186641097,-2.50105524063,-0.0738979950547,2.49623584747,-0.693507134914,0.0409385710955,-2.70212130999e-05,-5.36908555659e-05,0.00017839949578,-0.000266423128778,7.03792175045e-05,1.49939387484e-05,-0.000523290538695,0.466914667466,0.00392252200573,0.176060216876,0.0213744726578,0.926563904538,0.375503793645,-0.00440038269115
0.144832447171,-0.0107384566218,-0.127188950777,-2.50105571747,-0.073897741735,2.49623441696,-0.693507194519,0.0409385710955,0.000412230903748,8.81230735104e-05,0.000596816011239,0.000143782308442,-1.4302816453e-05,5.38101194252e-05,-0.000144923120388,0.466913970666,0.00392041634406,0.176059380788,0.0213739417833,0.926564765855,0.375501681295,-0.0044018537642
0.144833981991,-0.0107413958758,-0.12718655169,-2.50105500221,-0.0738976374269,2.49623560905,-0.693507015705,0.0392450280488,-0.000323083047988,6.95287162671e-05,-0.000599208055064,-0.000363623432349,-2.42914375121e-05,0.0044489717111,-0.00031157079502,0.466915010099,0.0039223521351,0.176061125188,0.0213745925192,0.92656408354,0.375503355778,-0.00439947391995
0.144835472107,-0.0107394410297,-0.127186357975,-2.50105428696,-0.0738981962204,2.49623513222,-0.693505227566,0.0392450280488,0.000392965885112,0.000577123253606,-0.000516210857313,-0.000359938683687,1.91454018932e-05,0.000174196378794,-8.66632253747e-05,0.466914937631,0.00392305534971,0.176060457474,0.021374583846,0.926564013127,0.375503519924,-0.00440033541375
0.144831269979,-0.0107377320528,-0.127188235521,-2.50105500221,-0.073897510767,2.49623441696,-0.693505883217,0.0392450280488,3.34355136147e-05,5.24791175849e-05,-0.0002957987017,-0.000438416056568,7.30743922759e-05,-0.000153149740072,-9.90369699139e-07,0.466914197883,0.00392020277122,0.176059322843,0.0213739238718,0.926565133887,0.375500774334,-0.00440184067127
0.144833892584,-0.0107407877222,-0.127186879516,-2.50105690956,-0.0738988220692,2.49623465538,-0.693507373333,0.0392450280488,0.000458776485175,0.000409485481214,0.000100276818557,-0.000229896177188,7.33969864086e-05,7.1197005127e-06,0.000158341048518,0.466913811621,0.00392203707675,0.176060022357,0.0213743668936,0.926563907815,0.37550378154,-0.00440123932947
0.144835039973,-0.0107385348529,-0.127187892795,-2.5010535717,-0.0738983750343,2.49623537064,-0.693506419659,0.0392450280488,-0.000310334668029,0.00445194076747,0.000243364236667,6.44208412268e-05,0.000105672865175,-1.33161420308e-05,-0.000801072572358,0.466915100192,0.00392220451964,0.176060052183,0.0213746552446,0.926563952543,0.375503661101,-0.00440069811973
0.144835188985,-0.0107412515208,-0.127186432481,-2.50105023384,-0.0738974437118,2.49623513222,-0.693505942822,0.0392450280488,-0.000306608882966,-2.85816963697e-06,-0.0002499166294,0.000706030114088,1.09460152089e-05,7.57643283578e-05,-0.000253100704867,0.46691670475,0.00392306697979,0.176062554654,0.0213751788393,0.926564060239,0.375503398455,-0.00439788986273
0.144836038351,-0.0107593778521,-0.127184852958,-2.50103569031,-0.0738973990083,2.49623799324,-0.693506658077,0.0392450280488,0.000410672888393,-0.00071991502773,-0.000214834959479,0.000218419416342,7.96289386926e-05,-7.54669599701e-05,0.0002260125475,0.466927454455,0.00392472478864,0.176077145165,0.0213805100585,0.926563588136,0.375504462752,-0.00438053281318
0.14483615756,-0.0107593527064,-0.127184823155,-2.50104284286,-0.0738972872496,2.49623727798,-0.693506538868,0.0392450280488,0.000123113000882,0.000249331438681,-6.99934898876e-05,-0.000200335111003,-6.7002416472e-05,-2.50695429713e-05,0.000125282153022,0.466923679685,0.00392478627123,0.176074112297,0.0213790105795,0.926563573688,0.37550453828,-0.00438443111708
0.144835010171,-0.0107555510476,-0.127185925841,-2.50104832649,-0.0738981813192,2.49623632431,-0.693506121635,0.0392450280488,-2.06408822123e-05,-0.000289660441922,-0.000135115027661,-4.51319137937e-05,-8.71166048455e-05,-0.000118900214147,0.000322249659803,0.466920522625,0.00392347771582,0.176070327545,0.021377746702,0.926563922633,0.375503693796,-0.00438917407471
0.144835323095,-0.0107562383637,-0.127185717225,-2.5010406971,-0.0738972648978,2.49623680115,-0.693507790565,0.0385712869465,-0.00250849802978,-0.000721741700545,0.000535978586413,0.000614445831161,-3.8661655708e-06,7.7358316048e-05,0.000202596798772,0.466924341044,0.00392386210279,0.176073644239,0.0213790082307,0.926563674333,0.375504283718,-0.00438497511773
0.144846647978,-0.0107854828238,-0.127180382609,-2.50101852417,-0.0738979801536,2.49623990059,-0.693504929543,0.0385712869465,-0.000219122113776,0.000499578658491,-0.000206942451769,4.08798550779e-05,-5.34657665412e-05,7.94440256868e-06,0.00514938263223,0.466939999204,0.00393248798299,0.176096053081,0.0213872114584,0.926561122415,0.375510417885,-0.00435882547383
0.144841223955,-0.0107842953876,-0.127180665731,-2.50102114677,-0.0738972574472,2.49624013901,-0.693506896496,0.0385712869465,-0.000260475295363,0.000385969964555,0.000393811671529,-0.000591010088101,6.51295267744e-05,-9.74176218733e-05,-0.000196182736545,0.466938643387,0.00392982523741,0.176094505737,0.0213864115881,0.926561924755,0.375508463992,-0.00436052148273
0.144839301705,-0.0107833771035,-0.127182781696,-2.50102210045,-0.0738970339298,2.49624180794,-0.693507015705,0.0385712869465,-0.000195175263798,-3.18810125464e-05,1.10355786092e-05,0.000615859869868,-0.000121990982734,1.60045219673e-05,9.7553973319e-05,0.466938426602,0.00392796294216,0.176093857461,0.0213863006602,0.926562681081,0.375506602741,-0.00436063677523
0.144840285182,-0.0107817631215,-0.127182021737,-2.50101685524,-0.0738978013396,2.49624300003,-0.693506717682,0.0376033596694,4.7908648412e-05,0.00056649040198,-2.42230889853e-05,0.000473061896628,-1.4179648133e-05,9.10457965801e-05,3.44895233866e-05,0.466940917058,0.00392875783522,0.176095253594,0.0213874582899,0.926562291724,0.375507522801,-0.0043584614403
0.144843623042,-0.0107889752835,-0.127179682255,-2.50100517273,-0.0738967806101,2.49624252319,-0.693506419659,0.0376033596694,0.00011430959421,-0.000593730306718,-7.48384190956e-05,1.70768053067e-05,-7.34809073037e-05,4.21750737587e-05,0.000311526353471,0.466947440436,0.00393171242603,0.176103077346,0.0213900756547,0.926561500276,0.375509429654,-0.00434957402252
0.144850060344,-0.010808845982,-0.127173408866,-2.5009970665,-0.0738976895809,2.4962451458,-0.693507134914,0.0376033596694,0.000386762811104,-0.00242717377841,0.000240445631789,0.000182427509571,2.93698394671e-05,0.000231388650718,0.000729518302251,0.466954891707,0.00393814886488,0.17611565401,0.0213946097862,0.926558918274,0.375515712402,-0.00433486593975
0.144844442606,-0.0108691090718,-0.127176448703,-2.50097966194,-0.073896959424,2.49624657631,-0.693506419659,0.0376033596694,5.55661208637e-05,3.79081830033e-05,0.00029208464548,0.000141192562296,-1.74512661033e-06,-0.000118886207929,-0.000422238168539,0.466972581535,0.00393547828683,0.17615003652,0.0214047356982,0.926561133664,0.375510100588,-0.00429731450001
0.1448430866,-0.0108652682975,-0.127175614238,-2.50097513199,-0.0738973021507,2.49624800682,-0.693505704403,0.0376033596694,-0.000187635421753,0.000422144599725,0.000448439095635,-3.39681610058e-05,3.25957480527e-05,0.00016978153144,0.000281119748252,0.466974805654,0.00393539013635,0.176150710013,0.0214056370533,0.926561249385,0.375509783015,-0.00429562377776
0.144843176007,-0.0108795454726,-0.127175867558,-2.50097823143,-0.0738963112235,2.49624943733,-0.693507254124,0.0376033596694,0.000149192623212,-0.00129378167912,0.000298466358799,0.000181321593118,2.16642765736e-05,-3.49828110302e-06,-0.00591305503622,0.46697575099,0.00393571120042,0.17615604456,0.0214066243569,0.926561151895,0.375510035361,-0.00428966894818
0.144844070077,-0.0108734387904,-0.127175137401,-2.50097155571,-0.0738965943456,2.49624967575,-0.693507730961,0.0376033596694,-0.000193334577489,0.000458406022517,0.000262757152086,-3.9548616769e-05,-5.05446914758e-05,-1.60728359333e-05,0.000572207383811,0.466978012148,0.00393637007758,0.17615583117,0.0214072197913,0.926560706908,0.375511102218,-0.00428942299476
0.144846796989,-0.0108750015497,-0.127172097564,-2.50097084045,-0.0738972648978,2.49625015259,-0.693506538868,0.0376033596694,0.000219069013838,-0.000197633664357,0.000672621303238,-0.000211894817767,1.99825735763e-05,-0.000191454950254,-0.00021680102509,0.46697867843,0.00393906757091,0.176156877942,0.0214078283307,0.926559748336,0.375513447871,-0.00428809983129
0.144841715693,-0.0108746318147,-0.127176359296,-2.50097537041,-0.0738973543048,2.49624943733,-0.6935069561,0.0362302698195,0.00022932876891,0.000138793169754,-0.000341247039614,0.000333660456818,7.33198612579e-05,-4.95287531521e-06,-0.00020179314015,0.466976366471,0.00393470572952,0.176154915285,0.0214068816138,0.926561361283,0.375509490923,-0.00429081666779
0.14483897388,-0.0108714485541,-0.1271777004,-2.50097632408,-0.0738969892263,2.49625039101,-0.693506121635,0.0362302698195,9.35872667469e-05,-0.000897065736353,-0.00140602851752,0.000148246967001,-0.00014784646919,0.00241578835994,0.00052538694581,0.466975631759,0.0039327059226,0.176153123714,0.0214063215064,0.926562362483,0.375507034606,-0.0042923740046
0.144852057099,-0.0108887907118,-0.127167463303,-2.50095367432,-0.073896817863,2.49625182152,-0.693507313728,0.0362302698195,0.00331567577086,-0.00136933976319,0.000464382464997,0.00288920360617,-5.89214650972e-05,-3.82802390959e-05,-0.000348548550392,0.466989272227,0.00394418857685,0.176170066852,0.0214127199827,0.926557900539,0.37551790649,-0.00427246542604
0.144854351878,-0.0109336813912,-0.127163857222,-2.50094151497,-0.0738971978426,2.49625444412,-0.693506479263,0.0362302698195,-8.90352239367e-05,-0.0062497719191,0.000882971042302,-0.00087880686624,7.83600044088e-05,-0.000122667595861,-0.000227802520385,0.467002547196,0.00394808024718,0.176195790342,0.0214207809967,0.926557071371,0.375519818611,-0.00424371855946
0.144848063588,-0.0109985768795,-0.127170905471,-2.50093579292,-0.0738966315985,2.49625396729,-0.693505942822,0.0362302698195,0.000111086061224,-0.00113400886767,-5.81832027819e-05,0.000510044395924,0.000147401413415,-8.6263200501e-05,0.000238213819102,0.467014450855,0.003943649793,0.176226395919,0.0214287844328,0.926559761207,0.375513087983,-0.00421147799599
0.14484077692,-0.0110019696876,-0.127175971866,-2.50089502335,-0.0738967508078,2.49625253677,-0.693506896496,0.0362302698195,0.000365198153304,-0.000316305086017,-0.000133572102641,0.00248545687646,-4.05151768064e-05,0.000114377806312,0.00450111366808,0.467034840244,0.00393800151371,0.176245244532,0.0214367122153,0.926562264304,0.37550669942,-0.00419000139001
0.144842728972,-0.010999369435,-0.127173736691,-2.50082302094,-0.0738967210054,2.49625062943,-0.6935069561,0.0359295159578,-0.000187268538866,0.000843805144541,-0.000183412179467,0.00182225333992,-5.59870168217e-05,6.52273665764e-05,-0.00028250797186,0.467068102701,0.00394042081286,0.176271809989,0.0214490524318,0.926561654737,0.375507848608,-0.00415853807747
0.144839897752,-0.0109985461459,-0.127176225185,-2.5007853508,-0.0738970339298,2.49625015259,-0.693506479263,0.0359295159578,-0.000149587824126,-0.00129273510538,-0.000235268831602,0.00553747173399,-5.62326895306e-05,-7.93490398792e-05,0.000408635649364,0.467085731069,0.00393818775125,0.176286002626,0.0214557109885,0.926562789278,0.375504855139,-0.00414167130274
0.144841775298,-0.0109944529831,-0.127174556255,-2.50073242188,-0.073896728456,2.49624633789,-0.693507432938,0.0359295159578,0.000272349367151,0.000468189886305,0.000131914799567,0.00267251580954,-3.01313939417e-05,-0.000153594897711,-8.95200428204e-05,0.467110855495,0.00394050666149,0.176305740555,0.0214646974129,0.926562000516,0.375506536846,-0.00411903309855
0.144831165671,-0.011058209464,-0.127180799842,-2.50048875809,-0.0738961920142,2.49623560905,-0.693506538868,0.0359295159578,-0.000752874766476,-0.00735177239403,-0.000985571765341,0.00482729356736,-3.88323423977e-05,-2.88261344394e-05,0.00067366741132,0.46723228547,0.00393540066652,0.176427428666,0.0215135559177,0.926566433947,0.37549428647,-0.00398131964121
0.144800007343,-0.0110968677327,-0.127192229033,-2.50035023689,-0.0738961994648,2.49621486664,-0.693507254124,0.0359295159578,0.00111581943929,-2.29633842537e-05,-0.000560429936741,0.00912439730018,5.56589584448e-05,0.00115974573418,9.45573265199e-05,0.467299494643,0.00391704868244,0.176497247703,0.0215397302083,0.926574877901,0.375472716527,-0.00390825960136
0.144737094641,-0.0111805591732,-0.127186581492,-2.50018644333,-0.0738966017962,2.49619603157,-0.693506479263,0.0359295159578,-0.00316267693415,-0.00876745861024,0.000357310083928,0.00687405001372,-0.000109115229861,-0.0016541373916,-0.00019942149811,0.467386099973,0.00389302759083,0.176597930577,0.0215762700219,0.926586492198,0.375443058707,-0.00380084209371
0.144633367658,-0.0115695577115,-0.127189129591,-2.49989366531,-0.0738974884152,2.49599385262,-0.693505585194,0.0353949889541,-0.00310814171098,-0.0181817207485,4.50141487818e-05,0.0174802578986,3.22515952575e-05,-0.0227190349251,-0.000105742481537,0.467541201558,0.00385017731938,0.17687379929,0.0216444645906,0.926609570634,0.375384409317,-0.00357291023786
0.144544646144,-0.0120163979009,-0.127190098166,-2.4995443821,-0.0738977715373,2.49530529976,-0.693506479263,0.0353949889541,-0.00286701018922,-0.032095503062,1.62197993632e-05,0.0258672256023,0.000136794697028,-0.057986214757,-0.000259713502601,0.467625917872,0.00380683914083,0.177155097339,0.0216557124814,0.92663228177,0.37532817635,-0.00352196257206
0.144489854574,-0.0128093911335,-0.127187266946,-2.49898290634,-0.073897562921,2.49371743202,-0.693508028984,0.0353949889541,-0.00145932438318,-0.0507999025285,-0.000188599005924,0.0403827540576,0.000153707107529,-0.123925559223,9.28675290197e-05,0.467668177329,0.0037721036383,0.177599144655,0.0216096038207,0.926654482367,0.375274972414,-0.00363181709353
0.144424900413,-0.0157013852149,-0.127192288637,-2.49628543854,-0.0738993063569,2.48583579063,-0.693506479263,0.0353949889541,0.000994259375148,-0.0978415459394,-0.00284086167812,0.0992926508188,3.16922123602e-05,-0.283877849579,0.00218081334606,0.467667665243,0.00366293955624,0.179288478972,0.0212408274148,0.926726429044,0.375106170306,-0.00472373198676
0.14443397522,-0.0178452450782,-0.127180755138,-2.49411463737,-0.0739003792405,2.47940182686,-0.693506002426,0.0353949889541,4.33236527897e-05,-0.119586385787,0.000349326845026,0.138090267777,0.000121097225929,-0.385297894478,0.000436913775047,0.467611833134,0.00360468814967,0.1805595415,0.0209078777236,0.9267686222,0.375006537545,-0.00573393735953
0.144433796406,-0.0259363409132,-0.12718077004,-2.48503804207,-0.0739021524787,2.45350933075,-0.693508982658,0.0353949889541,0.000879504194017,-0.211210012436,-0.00017667238717,0.239305496216,-4.73303989565e-05,-0.663584947586,-0.000463363976451,0.467403313961,0.00331909256254,0.185602110592,0.0195578076185,0.926942309514,0.374563002778,-0.00989967818978
0.14443475008,-0.0294887535274,-0.127178251743,-2.48082971573,-0.073903888464,2.44219827652,-0.693506717682,0.0353949889541,1.58673647093e-05,-0.232062235475,-0.000333601172315,0.280048966408,-0.000691635301337,-0.735569953918,-0.000432433997048,0.467395718261,0.00319627346497,0.187930505555,0.0190109410476,0.927014699886,0.374363265426,-0.011596357129
0.144434988499,-0.0338919200003,-0.127177149057,-2.47520947456,-0.0739074870944,2.42793011665,-0.693506538868,0.0353949889541,0.000807083270047,-0.255259513855,6.2471430283e-05,0.332547813654,-0.000528340111487,-0.824692428112,-0.000125961334561,0.467489523015,0.00303863540606,0.190973856656,0.0183652211213,0.927103948563,0.374105942166,-0.0136283136296
0.144448235631,-0.0395722649992,-0.127165436745,-2.46803855896,-0.073907263577,2.41007256508,-0.693505525589,0.0360995940864,0.000638669298496,-0.30942094326,0.000178529677214,0.395330607891,-0.000350102433003,-0.938951611519,-7.57628076826e-05,0.467644589733,0.0028541487091,0.194946423301,0.0175959244091,0.927209864764,0.373785377848,-0.0160231432347
0.144453123212,-0.0491214841604,-0.127158641815,-2.45461630821,-0.0739125832915,2.38012385368,-0.693504214287,0.0360995940864,-0.00260972231627,-0.337526202202,-0.000761385948863,0.496850311756,-0.000173075706698,-1.05133759975,0.000485229218611,0.468410954744,0.00253115127173,0.202255356718,0.0165471261233,0.927396973057,0.373209996434,-0.0193738284213
0.144438862801,-0.0545012131333,-0.127169564366,-2.44702148438,-0.0739120990038,2.3638010025,-0.693503022194,0.0360995940864,0.000129140069475,-0.370003908873,-0.00033831136534,0.508482635021,-0.00026644821628,-1.11075663567,-0.00295517966151,0.46890067845,0.00234092063382,0.206476038188,0.016037417115,0.927507334754,0.372870879442,-0.0209821871674
0.144477933645,-0.0614836066961,-0.127142682672,-2.43698477745,-0.0739125907421,2.34325838089,-0.693497776985,0.0360995940864,0.00310189137235,-0.389111608267,0.000172799467691,0.593804776669,-0.000357009761501,-1.154925704,0.000387138163205,0.469672679284,0.00214784947811,0.212124798426,0.0155014647454,0.927635072403,0.372476329562,-0.0226773155163
0.144469544291,-0.0685383304954,-0.127100467682,-2.42573618889,-0.0739157795906,2.32178044319,-0.693494081497,0.0360995940864,-0.0021575964056,-0.398944735527,-9.01560197235e-05,0.647292554379,-0.000890376279131,-1.22679793835,-0.000459286908153,0.4706761257,0.00192148242873,0.218279515022,0.0150387227394,0.927780421585,0.372036276413,-0.0242143523204
0.144483610988,-0.0887105837464,-0.12688626349,-2.3917734623,-0.0739112272859,2.261500597,-0.693438529968,0.0360995940864,-0.00191195437219,-0.440694630146,0.00966185703874,0.800000190735,-5.87426256971e-07,-1.31858181953,-0.000534911639988,0.473995509273,0.00131051235167,0.237462743834,0.0141454715334,0.928226342017,0.370746056618,-0.0272603156215
0.144470855594,-0.0958881303668,-0.126745447516,-2.37860894203,-0.0739150717854,2.24016141891,-0.693252980709,0.0360995940864,-0.00186468171887,-0.441333115101,0.0117878615856,0.864559054375,0.000462821160909,-1.34559011459,0.0178762953728,0.475295129395,0.00112092515229,0.24427896199,0.0140418241669,0.928412601168,0.370249557703,-0.0277152281354
0.144476339221,-0.104440681636,-0.126545622945,-2.36227369308,-0.0739088878036,2.21439003944,-0.692880749702,0.0360995940864,-3.97628973587e-05,-0.460044533014,0.0116927856579,0.900635957718,0.00130763999186,-1.35986328125,0.0147874606773,0.477025201796,0.000877442278586,0.253742248341,0.0139529029007,0.928691993256,0.369517202102,-0.0281697567988
0.1444555372,-0.126985087991,-0.125561252236,-2.31658267975,-0.0739175975323,2.1478998661,-0.691773951054,0.0360995940864,0.00142595008947,-0.445467054844,0.0241056773812,0.963341891766,-0.00118133355863,-1.36177682877,0.0307843275368,0.481509853769,0.000433124214598,0.278558822451,0.0143653199337,0.929389613013,0.367799070774,-0.0274304216017
0.144456490874,-0.134722918272,-0.125126808882,-2.2997546196,-0.0739104375243,2.12495589256,-0.691200017929,0.0360995940864,-0.000410363805713,-0.453879952431,0.0304443594068,1.00516080856,-0.000805680290796,-1.3343526125,0.0274894088507,0.48308915809,0.000302521818619,0.287880147288,0.0146693551587,0.929675519596,0.367118447641,-0.0266886374568
0.144464299083,-0.142263963819,-0.124544419348,-2.2826666832,-0.0739137232304,2.1023247242,-0.690540969372,0.0360995940864,-0.00140534620732,-0.43938806653,0.0408861637115,1.01915597916,-0.00123486365192,-1.29612791538,0.0489575043321,0.48460313236,0.000235593214856,0.297319132713,0.0150479973424,0.929953245819,0.366464792324,-0.0257696340378
0.144428566098,-0.150492623448,-0.123777590692,-2.26318526268,-0.0739178061485,2.07755661011,-0.689614772797,0.0362263284624,-0.00244367285632,-0.414581358433,0.0436182208359,1.02801942825,0.000354660238372,-1.30206763744,0.0510000698268,0.486274820413,0.000188005521192,0.308066454663,0.0155920228084,0.930293702117,0.365670502117,-0.024404921485
0.144403412938,-0.169668257236,-0.121212370694,-2.21436524391,-0.0739137977362,2.01907801628,-0.685753881931,0.0362263284624,-0.000296620099107,-0.386057347059,0.0687738060951,1.02021360397,0.00074515119195,-1.19127178192,0.0954900756478,0.489992588703,0.00040735303231,0.334924361123,0.0173431300229,0.931299794402,0.36329326531,-0.0199477279906
0.144418716431,-0.176404431462,-0.119973815978,-2.19587850571,-0.0739184841514,1.9979865551,-0.68355256319,0.0362263284624,0.00358696025796,-0.367275953293,0.0724146962166,1.03331112862,5.0244245358e-05,-1.14730203152,0.147848874331,0.491179217237,0.000628678647545,0.345034108396,0.0181169465916,0.931757018994,0.362183049062,-0.0180020126385
0.144410163164,-0.183131858706,-0.118465811014,-2.17661547661,-0.0739193484187,1.97678482533,-0.680319428444,0.0362263284624,-0.00211532274261,-0.366743206978,0.0870803892612,0.994060873985,-0.00214216159657,-1.07648050785,0.184063479304,0.492331691863,0.000957755679787,0.355545414972,0.0190195580101,0.932364129378,0.360676876941,-0.0157345729776
0.14445848763,-0.193148806691,-0.115710392594,-2.14745140076,-0.0739245191216,1.94537293911,-0.674534678459,0.0362263284624,-0.00046343987924,-0.310390293598,0.0996567234397,0.953631103039,-0.00206500780769,-0.999720156193,0.203029453754,0.493732779941,0.00171303891288,0.371529213371,0.0204908230858,0.933336691676,0.358214766072,-0.0120385710511
0.144435539842,-0.198291450739,-0.113915093243,-2.13164496422,-0.0739242434502,1.92864644527,-0.670955479145,0.0362342111766,0.000246280978899,-0.293404489756,0.103378176689,0.900418460369,-0.00217245193198,-0.973731577396,0.219537347555,0.494318405117,0.00224716911832,0.380119445161,0.0213140786611,0.93389038545,0.356782814043,-0.0100240363421
0.144727662206,-0.207789689302,-0.11016831547,-2.10231304169,-0.0739125162363,1.89760196209,-0.662398040295,0.0362342111766,0.0126208160073,-0.265412509441,0.109511181712,0.801776528358,0.00550149241462,-0.868482649326,0.271638661623,0.49494400164,0.00360198252462,0.396099345334,0.0228456127508,0.93511360436,0.35355520222,-0.00627244670366
0.145644068718,-0.219600901008,-0.104871846735,-2.06586074829,-0.0739034041762,1.85842466354,-0.649147033691,0.0362342111766,0.0263124443591,-0.200938925147,0.100468382239,0.673290014267,0.0017244402552,-0.717610836029,0.257518142462,0.494756712496,0.00580457929054,0.415628892453,0.0246314609548,0.936827802459,0.348917358333,-0.00190693770803
0.146040275693,-0.222873181105,-0.103294797242,-2.0559284687,-0.0739120393991,1.84714603424,-0.645195603371,0.0362342111766,0.0294254217297,-0.21068161726,0.0981722399592,0.579874873161,0.000692311732564,-0.696530342102,0.249177053571,0.494392454151,0.00658263976312,0.421390279418,0.0250819799519,0.937344573444,0.347498610333,-0.000872021020837
0.14658048749,-0.226500734687,-0.101539604366,-2.04586839676,-0.0739104524255,1.83530664444,-0.640764474869,0.0362342111766,0.030429514125,-0.181488960981,0.0956914052367,0.538932442665,-8.60360742081e-05,-0.616684436798,0.248620659113,0.493840426122,0.00746108524095,0.42697991586,0.0254863026074,0.937860665047,0.346074872298,6.15441110868e-05
0.147228166461,-0.229528859258,-0.0998711884022,-2.03656721115,-0.0739096552134,1.82409203053,-0.636144578457,0.0362342111766,0.0397963039577,-0.152526646852,0.079812169075,0.444102734327,2.03788349609e-05,-0.557239711285,0.242456093431,0.493234516794,0.00836569695247,0.431964384331,0.0257896218897,0.938394256423,0.344602228562,0.000647047905526
0.149276182055,-0.236361399293,-0.0964323952794,-2.02068543434,-0.0739066451788,1.80080735683,-0.625489115715,0.0362414345145,0.0413467511535,-0.115850374103,0.0560899414122,0.245903238654,0.00110982777551,-0.407863736153,0.225016921759,0.490966054381,0.0105545130612,0.440913507924,0.0259612693944,0.939548672603,0.341429396555,0.000520726222382
0.149956449866,-0.238049268723,-0.0956131666899,-2.01743388176,-0.0739063769579,1.7944316864,-0.622026264668,0.0362414345145,0.0422677658498,-0.103298760951,0.0514307282865,0.166922420263,0.000180868373718,-0.382717311382,0.20729996264,0.490090551604,0.0111481056919,0.442740047082,0.0258207610136,0.939951105855,0.340331004468,-0.000118264944888
0.151313766837,-0.241506189108,-0.093407176435,-2.01353693008,-0.0739063322544,1.77727735043,-0.612999141216,0.0362414345145,0.0189936440438,-0.0218319166452,0.0310437027365,-0.000237957487116,-0.000178395828698,-0.29805919528,0.157834097743,0.486775155868,0.0125116008196,0.444787954089,0.0246781349918,0.941022661372,0.337409490203,-0.00470914481514
0.15150924027,-0.241719976068,-0.0929028764367,-2.01372265816,-0.0739057958126,1.77210915089,-0.610363423824,0.0362414345145,0.00891698524356,0.000653701194096,0.03126719594,-0.0192230269313,-0.000121436081827,-0.320161253214,0.150882706046,0.485574786624,0.012745595509,0.444353211812,0.0240575998525,0.941373128517,0.336432257691,-0.00715545021954
0.151610061526,-0.24149645865,-0.0925896316767,-2.01414942741,-0.0739046558738,1.76674127579,-0.607919454575,0.0362414345145,0.00197506113909,0.0257994774729,0.0117342649028,-0.0342860594392,0.000122981364257,-0.311406493187,0.132115349174,0.484328616077,0.0128398222078,0.443578410526,0.0233192605295,0.941727209554,0.335418309866,-0.0100315486605
0.151575013995,-0.240582957864,-0.0925317630172,-2.01513075829,-0.0739067569375,1.76135849953,-0.605546474457,0.0362414345145,-0.0028593132738,0.0688755065203,-0.00128586846404,-0.0706933140755,0.000209270889172,-0.265855044127,0.126803010702,0.483036278285,0.0127497763242,0.442210830606,0.0224144664124,0.942112797384,0.334272693066,-0.0135216514892
0.150667205453,-0.236668527126,-0.0929100289941,-2.02013111115,-0.0739323794842,1.75081670284,-0.599583804607,0.0362532548606,-0.032292291522,0.117090307176,-0.0198303814977,-0.127025663853,-0.00240071630105,-0.203259810805,0.119323454797,0.480047396938,0.011947387196,0.43708666477,0.0200027131941,0.943192054118,0.330855354847,-0.0228773768136
0.149946451187,-0.234311461449,-0.0933450981975,-2.02258086205,-0.0740310028195,1.74723649025,-0.597660899162,0.0362532548606,-0.0460134409368,0.136822283268,-0.0288505125791,-0.140388667583,-0.0110919885337,-0.196348369122,0.100376337767,0.47896347488,0.0113232078933,0.434517999833,0.0189936357143,0.943604450021,0.329430347214,-0.0269356589823
0.14535073936,-0.223080694675,-0.0962316244841,-2.03228449821,-0.0817430019379,1.73702478409,-0.591555774212,0.0362532548606,-0.0949937179685,0.205340877175,-0.0676616877317,-0.140525102615,-0.263566404581,-0.146854490042,0.0850573927164,0.475710643696,0.00610780832067,0.423937077375,0.0186152781734,0.944955104187,0.323829735986,-0.0429840001483
0.143619656563,-0.219462126493,-0.0974152982235,-2.03454518318,-0.08714299649,1.73442852497,-0.590072870255,0.0362532548606,-0.108376026154,0.221547976136,-0.0730106905103,-0.1276396662,-0.356982648373,-0.154049873352,0.0904345437884,0.475007268464,0.00361905172471,0.421050968614,0.0200280484096,0.945227829918,0.322273177423,-0.0477831102608
0.141932785511,-0.216024905443,-0.0987007692456,-2.03632760048,-0.0934851467609,1.73224473,-0.588828146458,0.0362532548606,-0.115537770092,0.231348156929,-0.096617475152,-0.117223381996,-0.47768419981,-0.137086465955,0.0708770751953,0.474390735559,0.00031444661053,0.418035339421,0.0224814994187,0.945449763379,0.320628444281,-0.0530728510305
0.139124646783,-0.211070775986,-0.100847661495,-2.03850793839,-0.105015508831,1.72950696945,-0.587902605534,0.0362532548606,-0.149584904313,0.241852968931,-0.101312831044,-0.091351993382,-0.614955842495,-0.116912685335,0.025628881529,0.473905459404,-0.00376283290934,0.415162435151,0.0259880187143,0.945518876453,0.31921560061,-0.058481425861
0.131271779537,-0.198924869299,-0.106845922768,-2.0417637825,-0.141060307622,1.72509300709,-0.587254464626,0.0362677015364,-0.182745933533,0.252780169249,-0.160845503211,-0.0517765395343,-0.910005748272,-0.0697691068053,0.00627890788019,0.473394164118,-0.0175714798227,0.408336331456,0.039743777659,0.94516576501,0.315854009625,-0.0729270394462
0.127815648913,-0.194400280714,-0.110006161034,-2.04251241684,-0.158673673868,1.72409164906,-0.58724462986,0.0362677015364,-0.205239027739,0.25381475687,-0.186770573258,-0.037411056459,-1.0325551033,-0.0464005209506,0.000489148311317,0.473408131314,-0.0242361535845,0.406213523149,0.0467876062337,0.9448740027,0.314450063153,-0.0783913030624
0.124024815857,-0.189722165465,-0.113698512316,-2.04309678078,-0.178508862853,1.72365939617,-0.587248384953,0.0362677015364,-0.215580120683,0.260113477707,-0.210140421987,-0.0238285474479,-1.13979959488,-0.0122137181461,-0.001273355796,0.473547511378,-0.0317409716734,0.404246300139,0.0548376423365,0.944483174605,0.312890286838,-0.0839287433547
0.111567854881,-0.178303614259,-0.125966250896,-2.04406166077,-0.242434874177,1.72351610661,-0.587256073952,0.0362677015364,-0.279351919889,0.228240832686,-0.281993597746,-0.00833340268582,-1.38566112518,0.000757340923883,-0.000355536205461,0.473771467981,-0.0561567708933,0.400588393145,0.0811320958744,0.942832983676,0.307603848139,-0.0993147532276
0.106997668743,-0.174913242459,-0.130465433002,-2.04411220551,-0.265389621258,1.723503232,-0.587269365788,0.0362677015364,-0.292014539242,0.193276658654,-0.28531947732,0.00133573240601,-1.45897972584,0.000603245804086,-0.000501531583723,0.473709791225,-0.0649887190782,0.399919987558,0.0905863915036,0.94206284276,0.30560879575,-0.104474731935
0.104951381683,-0.173644483089,-0.132495224476,-2.04412293434,-0.275752693415,1.72350871563,-0.587275743484,0.0363162942231,-0.312073051929,0.158400058746,-0.317525565624,0.000156679903739,-1.50797140598,0.00454122945666,-0.00381037010811,0.473500870044,-0.0742126594531,0.399710987678,0.100452189558,0.941185095369,0.303458773704,-0.109511397665
0.08555252105,-0.164955079556,-0.153274416924,-2.04414248466,-0.370235025883,1.72356247902,-0.587371349335,0.0363162942231,-0.341197252274,0.0976949334145,-0.382137060165,-0.00515147577971,-1.64695036411,0.000409542320995,-0.00496668275446,0.47175204652,-0.106381817661,0.400656948891,0.133402878102,0.937673490455,0.295008787063,-0.12626128723
0.0793780907989,-0.163428157568,-0.160334587097,-2.04411172867,-0.399908810854,1.72357344627,-0.587532639503,0.0363162942231,-0.34944152832,0.0767733827233,-0.405453979969,0.00632533803582,-1.6552542448,0.000708980252966,-0.00861180666834,0.470680450013,-0.118316682967,0.401805596067,0.145361979033,0.936132484593,0.291665464275,-0.132125406253
0.0733295455575,-0.162134647369,-0.167417094111,-2.04398322105,-0.428213298321,1.7237071991,-0.587648868561,0.0363162942231,-0.361204445362,0.0721299052238,-0.420417547226,0.00951561331749,-1.66654980183,0.0141699267551,-0.00549704115838,0.469476318388,-0.129877696681,0.403152004443,0.15667440277,0.934573094024,0.288213142684,-0.137693309616
0.0667237713933,-0.161151841283,-0.175199374557,-2.04391336441,-0.458088666201,1.72392368317,-0.5877571702,0.0363162942231,-0.387082397938,0.0347562283278,-0.461610168219,0.0048742312938,-1.6499607563,0.0092985695228,-0.00272489641793,0.467925890846,-0.142251967092,0.404853634793,0.168496359723,0.932830428691,0.284302364167,-0.143556725659
0.0488475188613,-0.160506159067,-0.196464508772,-2.04309487343,-0.531907856464,1.72443056107,-0.587875068188,0.0363162942231,-0.393368393183,0.000263718364295,-0.48013779521,0.0311853177845,-1.54192185402,0.0134633649141,-0.00128004804719,0.462663400899,-0.174162793495,0.410692282515,0.197143990795,0.928363211697,0.272688016357,-0.15785195431
0.0413153581321,-0.160574823618,-0.205892235041,-2.04222345352,-0.560365378857,1.72487401962,-0.587907195091,0.0363162942231,-0.395632237196,-0.0012023813324,-0.513327360153,0.0566599741578,-1.46369731426,0.0291299857199,-0.000141355936648,0.46007902733,-0.187190472357,0.413522947304,0.207937382698,0.926638270405,0.267282722704,-0.163289639983
0.035131752491,-0.160606682301,-0.214163348079,-2.04103374481,-0.583119571209,1.72539901733,-0.587930619717,0.0363576635718,-0.395378738642,-0.00373447220773,-0.525330781937,0.0873996764421,-1.37103044987,0.035347238183,-0.00367198046297,0.457810119447,-0.19796848076,0.41606202045,0.21647958255,0.925280784069,0.262516738849,-0.167561995924
0.027500981465,-0.160742461681,-0.224486544728,-2.03911447525,-0.609510660172,1.72640216351,-0.58794850111,0.0363576635718,-0.380868822336,-0.010570534505,-0.515495240688,0.104621343315,-1.24184381962,0.0680333077908,-0.000389515014831,0.454906585685,-0.210948168806,0.419372272116,0.226320063282,0.923760309791,0.256415366159,-0.172328983898
0.0161713287234,-0.161013767123,-0.240466758609,-2.03546953201,-0.643750727177,1.72865986824,-0.587960362434,0.0363576635718,-0.36881223321,-0.0135520603508,-0.534824073315,0.130550086498,-1.04660487175,0.0805488675833,-0.000741756346542,0.450282865661,-0.229517481539,0.424307382287,0.238789918247,0.922157161621,0.246649362836,-0.178240387425
0.0103660710156,-0.161305606365,-0.249064475298,-2.03325819969,-0.659427702427,1.73016500473,-0.587963700294,0.0363576635718,-0.356827318668,-0.0200658552349,-0.537782907486,0.141321837902,-0.914087772369,0.102083615959,0.000128085070173,0.44772173554,-0.238840655008,0.426903634975,0.24438272641,0.921617959553,0.24129623648,-0.180758251832
-0.00231024366803,-0.16227966547,-0.267930477858,-2.02801156044,-0.686987578869,1.73582386971,-0.587971568108,0.0363576635718,-0.340358316898,-0.0317561849952,-0.508094251156,0.149191841483,-0.628693282604,0.200840845704,-0.000596699712332,0.4421710513,-0.257949836138,0.432311629559,0.254106671976,0.921410436945,0.2292929464,-0.184003669416
-0.00882460270077,-0.16300290823,-0.277891904116,-2.02494311333,-0.698069095612,1.74034202099,-0.587976455688,0.0363576635718,-0.317338705063,-0.0429813712835,-0.490109920502,0.153741359711,-0.494296371937,0.24461735785,0.000300963438349,0.439407879751,-0.267314577148,0.435074248858,0.258082240316,0.921805711075,0.22292531654,-0.184315195225
-0.016925111413,-0.164258435369,-0.290227085352,-2.02094507217,-0.708931088448,1.74740660191,-0.587976753712,0.0363813042641,-0.300354927778,-0.049836050719,-0.448820114136,0.151246279478,-0.350990980864,0.285766899586,-0.000236731793848,0.43596530815,-0.27880039419,0.438605029271,0.262254449944,0.922787886973,0.214648687416,-0.183333193431
-0.0226869881153,-0.165491551161,-0.298474013805,-2.01798295975,-0.714768469334,1.75308430195,-0.587975502014,0.0363813042641,-0.275168538094,-0.072484202683,-0.384491115808,0.13928206265,-0.242789357901,0.286053448915,0.000238802851527,0.433966004796,-0.285370387144,0.440812146305,0.264368043009,0.923597146104,0.209651782705,-0.181999942954
-0.0273765064776,-0.166784778237,-0.304939508438,-2.01551246643,-0.717822670937,1.75833582878,-0.587979018688,0.0363813042641,-0.251080870628,-0.0808848440647,-0.342386186123,0.134943634272,-0.119930282235,0.289508372545,-0.000479328358779,0.432169517663,-0.29130111225,0.442939617671,0.265895610433,0.924641116953,0.204847047878,-0.179933365029
-0.031825274229,-0.168410778046,-0.311165064573,-2.01300168037,-0.71917527914,1.76373338699,-0.587980091572,0.0363813042641,-0.218864247203,-0.0916523113847,-0.308403581381,0.126858055592,-0.0252466332167,0.281088203192,-6.76065101288e-05,0.430653938141,-0.296144434319,0.444825146894,0.266729961681,0.925803464164,0.20057770991,-0.177515225414
-0.0387890897691,-0.172958850861,-0.32227563858,-2.00701951981,-0.717649936676,1.77526974678,-0.587979197502,0.0363813042641,-0.097591497004,-0.102213822305,-0.180532559752,0.132783681154,0.119262896478,0.213970214128,-0.000289424438961,0.428468971152,-0.304543952679,0.44956728179,0.267720068532,0.928752817479,0.192209171641,-0.169705046925
-0.0400935932994,-0.174853011966,-0.324780315161,-2.00484204292,-0.71465909481,1.77881741524,-0.587980806828,0.0363813042641,-0.0554399937391,-0.116492941976,-0.120053589344,0.127631604671,0.229377314448,0.207771837711,-0.000141069293022,0.428368797306,-0.305930183027,0.451139036591,0.267354747553,0.929907410984,0.190128207896,-0.16626758615
-0.0407340675592,-0.176874443889,-0.326465308666,-2.00241875648,-0.709202706814,1.78258228302,-0.587978124619,0.0363813042641,-0.00722997216508,-0.104222461581,-0.058698579669,0.13281583786,0.345023661852,0.182760134339,-0.000236879553995,0.428888209614,-0.306297295591,0.452740184702,0.266208936653,0.931403217667,0.188389812861,-0.161648155762
-0.0388231128454,-0.182287946343,-0.325855016708,-1.99534404278,-0.682758927345,1.79031527042,-0.587962806225,0.0363937802613,0.108014583588,-0.103832378983,0.0668906867504,0.16088758409,0.730666875839,0.132439747453,0.00065013836138,0.432637903857,-0.301687467728,0.455949170511,0.259348735032,0.93608534985,0.186394740883,-0.147443045582
-0.0367981307209,-0.183882683516,-0.324498564005,-1.99267566204,-0.670170366764,1.7923104763,-0.587944924831,0.0363937802613,0.141622647643,-0.0904903709888,0.101849727333,0.164082303643,0.83938151598,0.127299666405,0.00184797437396,0.434710872076,-0.29844655832,0.456763437817,0.255682067021,0.93796649623,0.186414337767,-0.141757634415
-0.034595169127,-0.185155108571,-0.322944104671,-1.9903472662,-0.657633841038,1.79396510124,-0.587902963161,0.0363937802613,0.171908199787,-0.0833510309458,0.122270323336,0.167711719871,0.941484212875,0.112614452839,0.00581401027739,0.436480614002,-0.295525897234,0.457229814752,0.252455133009,0.939471163469,0.186614608369,-0.137241853885
-0.0302511453629,-0.186931371689,-0.319487929344,-1.9865064621,-0.635062217712,1.79632747173,-0.587514460087,0.0363937802613,0.219475194812,-0.0748249515891,0.190868228674,0.177253827453,1.10868287086,0.102823212743,0.0248691849411,0.440682126525,-0.288237339079,0.457931720147,0.244846185166,0.942684014636,0.187491047641,-0.127453132178
-0.017243238166,-0.189384520054,-0.308065921068,-1.97769069672,-0.575641334057,1.80147874355,-0.58505654335,0.0363937802613,0.319239199162,-0.0405810512602,0.306154459715,0.180567324162,1.36604166031,0.116449333727,0.0947266444564,0.451858833387,-0.26768912876,0.458450724324,0.225215213286,0.949560403174,0.191379010884,-0.104819951872
-0.0118609853089,-0.189882054925,-0.302829682827,-1.97485053539,-0.553253173828,1.8032989502,-0.583099961281,0.0363937802613,0.349954605103,-0.026331031695,0.335128992796,0.174956679344,1.43591880798,0.107558012009,0.148572459817,0.456174019593,-0.25924949655,0.458400959979,0.217801283703,0.951792610747,0.19310995386,-0.0967572857931
-0.00544756650925,-0.19024027884,-0.296592473984,-1.97174489498,-0.526733338833,1.80519843102,-0.579967439175,0.036416105926,0.370665729046,-0.0192378703505,0.364749670029,0.172737434506,1.51554238796,0.0990526154637,0.192898958921,0.460829965456,-0.249676218288,0.458214524885,0.209303457218,0.954202957771,0.194766806135,-0.0880605989945
0.0143019119278,-0.19042134285,-0.276347875595,-1.96380960941,-0.449519693851,1.80929720402,-0.569121837616,0.036416105926,0.440499991179,0.00382158579305,0.469644397497,0.138161286712,1.70084142685,0.084976695478,0.255300790071,0.47467852622,-0.217939167092,0.457326863965,0.182044918933,0.96051490472,0.200729960271,-0.0630733544583
0.0234147291631,-0.190287485719,-0.266922831535,-1.96115243435,-0.415144830942,1.81120860577,-0.563548028469,0.036416105926,0.476208865643,0.00978733133525,0.488830894232,0.128088951111,1.74745476246,0.108448415995,0.302452653646,0.480419468086,-0.203069191767,0.456725103874,0.169359713401,0.96286766046,0.203539641107,-0.0526760866767
0.0306889396161,-0.190121412277,-0.259487599134,-1.95943081379,-0.38870421052,1.81292033195,-0.558811128139,0.036416105926,0.502941131592,0.015863224864,0.507061958313,0.106070540845,1.77715873718,0.108819462359,0.333330959082,0.484984007979,-0.190459201171,0.456191964553,0.15875152753,0.964589686046,0.205906606755,-0.0443526669786
0.0415710695088,-0.18991830945,-0.24839836359,-1.957447052,-0.35075995326,1.81518030167,-0.551582574844,0.036416105926,0.521300137043,0.0113261984661,0.538609981537,0.0802598372102,1.82304954529,0.113791055977,0.358523190022,0.490234998492,-0.174533523875,0.455518785444,0.145552848733,0.966399916073,0.209003563298,-0.034685453177
0.0665215030313,-0.189123362303,-0.222899630666,-1.95454072952,-0.263787925243,1.82051551342,-0.533044695854,0.036416105926,0.558315336704,0.0257723685354,0.579118072987,0.0473091751337,1.94414138794,0.126062393188,0.420527219772,0.501788616976,-0.132502456259,0.453668323475,0.10994852046,0.97008689669,0.216098346215,-0.0120100031317
0.0766345709562,-0.188593223691,-0.212551027536,-1.95380604267,-0.228544279933,1.82287347317,-0.525388419628,0.0364640429616,0.575683116913,0.0362313240767,0.574629426003,0.0390742458403,1.97150313854,0.125310465693,0.441153734922,0.505616267191,-0.115543752076,0.452969421071,0.0953203174249,0.971091655138,0.21881434165,-0.00391382028857
0.0863851606846,-0.187944054604,-0.202775999904,-1.95332431793,-0.194573059678,1.82515597343,-0.517649590969,0.0364640429616,0.589912712574,0.0414720363915,0.594736099243,0.0177730415016,2.01871871948,0.143075540662,0.468982726336,0.508852680263,-0.0991839047345,0.452295037387,0.080943571649,0.971876075386,0.221119587474,0.0033406630517
0.10036431253,-0.186930418015,-0.188383132219,-1.95299875736,-0.145630553365,1.82837319374,-0.505602359772,0.0364640429616,0.578580677509,0.046919900924,0.598964512348,0.00842870399356,2.04398202896,0.12834264338,0.533846259117,0.512751095957,-0.0753257252967,0.45142071416,0.0598428519643,0.972662899592,0.224008413165,0.0128820553854
0.110843196511,-0.186049625278,-0.177725046873,-1.95298588276,-0.10862428695,1.83077931404,-0.495690256357,0.0364640429616,0.593091547489,0.0618549622595,0.601617634296,0.00245541287586,2.07375693321,0.130558431149,0.548679113388,0.515079489621,-0.0573544394644,0.450826797059,0.0435732084208,0.973064449175,0.225548769099,0.0193573167496
0.13892942667,-0.182743430138,-0.148916080594,-1.95300865173,-0.00819338392466,1.83818340302,-0.468807667494,0.0364640429616,0.59137159586,0.0816998109221,0.60437887907,0.00376268895343,2.10578083992,0.163174629211,0.593178629875,0.519220271117,-0.00963104710372,0.449883848647,-0.000488454232666,0.972854444337,0.228905211548,0.0340058137245
0.148815467954,-0.181259408593,-0.138633608818,-1.95300519466,0.0274540446699,1.84124672413,-0.458547443151,0.0364640429616,0.574627280235,0.0954358279705,0.598019778728,0.00583751732484,2.0994181633,0.19571608305,0.616240739822,0.520102701468,0.00971056692508,0.449804439425,-0.0186199611,0.972329702639,0.229586918704,0.0389627112591
0.15852548182,-0.179563313723,-0.128563687205,-1.95302450657,0.063103415072,1.84485244751,-0.448296487331,0.0365303680301,0.565245687962,0.0982205271721,0.583128929138,-0.00206718943082,2.09494400024,0.230924323201,0.601707398891,0.52056566892,0.0257917311789,0.449856809193,-0.0339727310275,0.971692432647,0.229842665847,0.0428020856239
0.169865489006,-0.177557691932,-0.11669973284,-1.95304656029,0.104787774384,1.84943056107,-0.43610444665,0.0365303680301,0.559670448303,0.10411413759,0.601782143116,0.000864740635734,2.07323169708,0.236863791943,0.620583713055,0.520697804615,0.0457700461202,0.450185528339,-0.053139570226,0.970619344676,0.229902333141,0.0471082872401
0.185700297356,-0.174336746335,-0.0995678827167,-1.95304656029,0.165129780769,1.857406497,-0.41689312458,0.0365303680301,0.542921483517,0.119064576924,0.580143213272,-0.00242822919972,2.08991074562,0.316570997238,0.684747219086,0.520261418719,0.0742272945486,0.451102705896,-0.0810124469765,0.968746847828,0.228473790143,0.0525952010086
0.193802073598,-0.172584414482,-0.0908815711737,-1.95311355591,0.196057319641,1.86246728897,-0.406721889973,0.0365303680301,0.538003087044,0.113901115954,0.588163137436,-0.00886122137308,2.05327820778,0.354381084442,0.678407430649,0.519812349263,0.0886642141097,0.451788716284,-0.0953197505948,0.967579459304,0.227278684473,0.0552135341845
0.203777462244,-0.170284211636,-0.0796654224396,-1.95312333107,0.234647065401,1.86946690083,-0.393545478582,0.0365303680301,0.50942414999,0.116799503565,0.582684874535,-0.00286572054029,2.00269031525,0.386891961098,0.712365210056,0.518944236723,0.107634811571,0.45294388913,-0.114100837044,0.965825471463,0.225294840847,0.0583471682309
