imanlab/tactile_prediction_flat_dataset/train/data_sample_2021-11-24-15-57-53/robot_state.csv
position_panda_joint1,position_panda_joint2,position_panda_joint3,position_panda_joint4,position_panda_joint5,position_panda_joint6,position_panda_joint7,position_panda_finger,velocity_panda_joint1,velocity_panda_joint2,velocity_panda_joint3,velocity_panda_joint4,velocity_panda_joint5,velocity_panda_joint6,velocity_panda_joint7,ee_state_position_x,ee_state_position_y,ee_state_position_z,ee_state_orientation_x,ee_state_orientation_y,ee_state_orientation_z,ee_state_orientation_w
0.154996871948,-0.0956025347114,-0.191547423601,-2.58017349243,-0.00386162591167,2.52526926994,-0.753207325935,0.0660994127393,6.86413477524e-05,-0.000302289467072,0.000500468304381,-8.97460995475e-06,0.000145573358168,-6.51235632176e-06,0.000248141237535,0.448200872486,-0.0135401033568,0.185766065252,0.00016191424491,0.935643037534,0.352319658634,0.021046090456
0.154999479651,-0.0956047996879,-0.19154727459,-2.58017420769,-0.00386002380401,2.52526950836,-0.753208339214,0.0660994127393,0.000263505091425,-0.00011700190953,0.000176247573108,3.57800745405e-05,3.86916726711e-05,2.42074347625e-05,-0.00036579958396,0.448200958304,-0.0135387158882,0.185766805966,0.000161599788589,0.935642577065,0.352320818016,0.021047155319
0.15500369668,-0.0956041961908,-0.191545054317,-2.58016824722,-0.00386017328128,2.52527070045,-0.753205418587,0.0660994127393,-0.000241857487708,-6.6322463681e-05,-0.000304905959638,0.00027022958966,3.78634831577e-05,-9.76579394774e-05,-0.000126220489619,0.44820401434,-0.0135360408779,0.185769031593,0.000162962902234,0.935641891554,0.352322460641,0.0210501217785
0.154999524355,-0.0956042855978,-0.191547587514,-2.58017730713,-0.00386062613688,2.52526903152,-0.753206014633,0.0660994127393,5.44006979908e-05,-0.000112282185,0.000279973872239,-0.000125770849991,5.92075502936e-06,3.96673713112e-05,3.94296002924e-05,0.448199321757,-0.0135387974747,0.1857653036,0.00016098792214,0.935642981215,0.35231986237,0.0210451906987
0.155001595616,-0.0956050083041,-0.19154727459,-2.58017539978,-0.00386278657243,2.5252699852,-0.753207206726,0.0660994127393,8.91395902727e-05,0.000211115984712,0.00414211722091,0.000952460162807,1.95483426069e-05,2.80388430838e-05,-8.46326838655e-06,0.448200431438,-0.0135380551715,0.185766352541,0.000162256678575,0.935642047771,0.352322265539,0.0210464488085
0.155003473163,-0.095608741045,-0.191546797752,-2.58017754555,-0.00386169762351,2.52527093887,-0.753204286098,0.0660994127393,0.000713502580766,-0.000186726509128,-0.000144450881635,0.000628026609775,-8.41642395244e-06,-1.9545226678e-05,0.000200827867957,0.448200332488,-0.0135366542222,0.185767362193,0.000162024892192,0.935642242598,0.352321654618,0.0210480162177
0.155001193285,-0.0956096276641,-0.191548764706,-2.58017468452,-0.00386000773869,2.52526950836,-0.753208041191,0.0660994127393,-5.3882766224e-05,0.000422866840381,-0.000214470215724,0.000829412369058,-6.94481277606e-05,-5.93982513237e-05,-0.000136279631988,0.448201436874,-0.0135384699271,0.185768733366,0.000161919814942,0.935642544825,0.35232077449,0.0210493145804
0.155002638698,-0.0956056490541,-0.191547036171,-2.58017611504,-0.00386119703762,2.52526974678,-0.753206551075,0.0660994127393,-0.000435513298726,-0.000687801395543,0.000354309304385,0.000608066329733,-5.30626384716e-05,2.47260759352e-05,-0.000434719811892,0.448200206128,-0.0135374934352,0.185766602236,0.000161681675102,0.935642221956,0.352321775481,0.0210469132903
0.155003234744,-0.0956038013101,-0.191546186805,-2.58017849922,-0.00386049668305,2.52527046204,-0.753206372261,0.0660994127393,0.000357821001671,3.57892058673e-05,-0.000134602218168,-0.000115204144095,-7.78789544711e-05,8.09478442534e-05,-0.00042941927677,0.448199072443,-0.0135365166111,0.185764767454,0.000160962377275,0.935642039505,0.352322370709,0.0210450656038
0.155006557703,-0.0956043452024,-0.191546186805,-2.58017754555,-0.00386162777431,2.52526974678,-0.753206312656,0.0660994127393,4.50698365739e-07,-0.000131319335196,9.57413358265e-05,0.000388142711017,-2.6805597372e-05,4.65001539851e-05,-0.00014607043704,0.448199487883,-0.0135350935413,0.185765314668,0.000161340801246,0.935641299606,0.352324320461,0.0210453163166
0.155001983047,-0.0956044048071,-0.191548004746,-2.58017277718,-0.00385940726846,2.52527165413,-0.753207623959,0.0660994127393,0.000516162603162,-0.000147509432281,-6.9667689786e-06,-0.000461750198156,2.33396604017e-05,8.27859694255e-05,-0.000243106318521,0.448202057244,-0.0135379373209,0.185767399912,0.00016201618959,0.935642453345,0.352321054808,0.0210486881728
0.155004903674,-0.0956038162112,-0.191546142101,-2.58017921448,-0.00386131554842,2.5252699852,-0.7532081604,0.0660994127393,0.00014219500008,3.29019603669e-05,0.000136065878905,-4.51601044915e-05,2.28544195124e-05,5.90198251302e-05,0.000209721125429,0.44819865832,-0.0135357725602,0.18576444456,0.00016096309627,0.935641317087,0.352324327048,0.0210444317377
0.155006870627,-0.095607444644,-0.191546291113,-2.5801782608,-0.00386063521728,2.52526974678,-0.75320649147,0.0660994127393,-0.000107088919322,-0.000501214526594,-0.000247999996645,-5.46227420273e-05,-3.23563181155e-05,6.18464546278e-05,0.000106697865704,0.448199607649,-0.0135348564598,0.185766397634,0.000161239780931,0.935641342919,0.352324127948,0.0210466142985
0.155007705092,-0.0956071913242,-0.191545054317,-2.58017802238,-0.00386165617965,2.52527093887,-0.753208577633,0.0660994127393,0.000184200893273,8.86472917045e-05,0.000608064699918,0.000202981726034,3.10684008582e-05,0.000263603054918,-0.000319150829455,0.448199968026,-0.0135340253813,0.185766504213,0.000161827508443,0.935640460449,0.352326446609,0.021047025651
0.155011475086,-0.0956063717604,-0.191546022892,-2.58017873764,-0.00386243150569,2.5252699852,-0.753205895424,0.0660994127393,0.000659392564557,-5.16496038472e-05,-0.000754647830036,-0.00133083679248,-9.6634728834e-05,-0.000184359727427,0.000130048632855,0.448199342541,-0.0135327901496,0.185765759593,0.00016153408781,0.93564035169,0.352326810075,0.0210457783233
0.155007734895,-0.0956047698855,-0.191547647119,-2.58018159866,-0.00386140379123,2.52527165413,-0.753207147121,0.0660994127393,-0.000355227064574,-0.000278773979517,0.000227208685828,-0.000312382995617,1.81415325642e-05,-9.49917448452e-05,0.00049661664525,0.44819813117,-0.0135351124048,0.185764177737,0.000160869066484,0.935641320628,0.352324295945,0.0210447957358
0.155004113913,-0.0956047326326,-0.191549599171,-2.58018112183,-0.00386073370464,2.52526974678,-0.753206074238,0.0660994127393,-0.000200579728698,4.57175119664e-05,0.000104263635876,0.00029284399352,0.000119401105621,3.03281703964e-05,0.00020086276345,0.448197781953,-0.0135375205032,0.185764043766,0.000160343589703,0.935642518015,0.352321164577,0.0210439884228
0.155008226633,-0.0956055372953,-0.191546544433,-2.58017921448,-0.00386064779013,2.52527022362,-0.753206193447,0.0660994127393,0.000850017124321,8.26421019156e-05,0.000492751772981,7.53201820771e-05,6.44569954602e-05,-5.00105124956e-05,0.000105483726657,0.448198999878,-0.0135343834878,0.185765223509,0.000160929779724,0.935641222347,0.352324517092,0.0210454623989
0.155010685325,-0.0956063717604,-0.191546112299,-2.58018183708,-0.00386105966754,2.52527070045,-0.753207623959,0.0660994127393,-0.000218421439058,-8.04987503216e-05,0.000142088058055,-0.000357535580406,-3.74096125597e-05,-7.15043424862e-05,0.00042303535156,0.448198096583,-0.0135330149288,0.18576468002,0.000160783394116,0.935640311534,0.352326974626,0.0210448145069
0.155008867383,-0.0956045612693,-0.19154818356,-2.58017969131,-0.00386016140692,2.52527022362,-0.753206670284,0.0660994127393,-6.5557025664e-05,-0.000485623982968,0.000419254414737,1.57279864652e-05,2.07653083635e-05,-0.00010450604168,0.000152078544488,0.448198643712,-0.0135347266833,0.185764664207,0.000160584670212,0.935641362927,0.352324177284,0.0210449038773
0.155007123947,-0.0956034511328,-0.191549420357,-2.58018231392,-0.00386081426404,2.5252699852,-0.753208041191,0.0660994127393,0.000223602342885,9.90464905044e-05,0.000274519639788,0.000152443826664,0.000142264558235,-1.27392013383e-05,-0.000100760320493,0.448197131106,-0.0135361011515,0.18576303146,0.000160046496269,0.935641618813,0.352323617022,0.0210429110322
0.155010640621,-0.095606572926,-0.191548600793,-2.58018136024,-0.00386086036451,2.52526950836,-0.753207266331,0.0660994127393,-0.000308730610413,-0.000200818496523,-0.00286536151543,-0.000334964279318,0.000203970601433,0.00562590593472,0.000142311706441,0.448197990253,-0.0135341210367,0.185764745239,0.000160454283931,0.935640949818,0.352325289821,0.0210446458127
0.155007019639,-0.0956062674522,-0.19154907763,-2.58018231392,-0.00385973835364,2.5252699852,-0.75320661068,0.0660994127393,0.000688893836923,0.000634523516055,-0.000445983634563,-0.000484886491904,0.00013122386008,-0.00393655244261,0.000180692833965,0.448197546671,-0.0135358768336,0.185764276341,0.00016003531496,0.935641950013,0.352322648229,0.021044405316
0.155011802912,-0.0956063047051,-0.191545411944,-2.58018088341,-0.00386098655872,2.5252699852,-0.753205955029,0.0660994127393,-0.000342237821314,-0.000450644991361,-0.000330931419739,-4.56834022771e-05,-3.73526127078e-05,5.25455579918e-05,-0.00028537644539,0.448198342906,-0.0135322501735,0.185764886784,0.000160734573411,0.935640394348,0.352326749016,0.0210449101113
0.155011922121,-0.0956069231033,-0.191550150514,-2.58018279076,-0.00386024452746,2.52526950836,-0.753209412098,0.0660994127393,0.000664809602313,0.000770918151829,-0.000130981206894,8.11164954939e-06,3.59875630238e-05,-8.31697434478e-06,0.000166623460245,0.448197364426,-0.0135341406336,0.185764321679,0.000159997251348,0.935640710883,0.352325948752,0.0210442405682
0.155012562871,-0.0956071168184,-0.191548228264,-2.58018255234,-0.0038614529185,2.52527046204,-0.753207147121,0.0660994127393,-0.00135578925256,6.73269241815e-05,-0.000184896780411,0.00011797004845,-2.72373426924e-06,-8.38506730361e-06,-5.5051074014e-05,0.448197746281,-0.0135330981457,0.185764607522,0.000160617583322,0.935640479767,0.352326532776,0.0210447335795
0.155011937022,-0.0956056267023,-0.19154715538,-2.58017992973,-0.00386149436235,2.52527117729,-0.753208458424,0.0660994127393,-0.00025990587892,-0.000126249651657,0.000380077719456,-0.000539872096851,-8.71241427376e-05,-6.79145305185e-05,9.21820173971e-05,0.448198921812,-0.0135330199299,0.185765066251,0.000161179392745,0.935640155672,0.352327345678,0.0210455289373
0.155014917254,-0.0956025123596,-0.191546350718,-2.5801858902,-0.00386080052704,2.52527070045,-0.753206908703,0.0660994127393,3.85735002055e-05,0.000321500177961,0.000459822593257,-6.17796031293e-05,-4.07534644182e-05,3.237099736e-05,0.000272982520983,0.448195624569,-0.0135312224049,0.185761295387,0.000159411558528,0.93563993893,0.352328186272,0.0210411052737
0.155015036464,-0.0956053361297,-0.1915474087,-2.58018398285,-0.00386128108948,2.5252699852,-0.753210246563,0.0660994127393,0.000598449725658,3.71369278582e-05,-2.7859256079e-05,0.000107520114398,6.63803439238e-05,5.24919232703e-05,0.00025949216797,0.448196760238,-0.0135316279667,0.185763217112,0.000160057973627,0.935639410779,0.352329475773,0.0210429932891
0.155015140772,-0.0956042259932,-0.191546142101,-2.58018183708,-0.00386288599111,2.52527046204,-0.75320982933,0.0660994127393,0.00153545744251,-0.000745778670534,-0.00397152733058,1.1786108189e-05,-3.42474704667e-05,-1.44473015098e-05,0.000281756045297,0.44819772619,-0.0135312022564,0.185763631744,0.000160932731266,0.935639011646,0.35233050684,0.0210434698104
0.155014768243,-0.0956042334437,-0.191546261311,-2.58018183708,-0.00386091601104,2.5252699852,-0.753209233284,0.0660994127393,0.000174184067873,-0.000378665397875,0.00355381495319,-0.000133731562528,-1.11777499114e-05,1.68279730133e-05,-0.000332370895194,0.448197621254,-0.0135313086593,0.185763589799,0.000160292778783,0.935639481869,0.352329258253,0.0210434725956
0.155014157295,-0.0956075638533,-0.191548854113,-2.58018660545,-0.00386198796332,2.52526974678,-0.753206551075,0.0660994127393,-0.000148622086272,-0.000175150795258,-0.000300499144942,-6.50251649859e-06,5.84952831559e-05,-5.84321969654e-05,-0.000213976585655,0.44819576711,-0.013532570033,0.185763125885,0.000159845982675,0.935640369569,0.352326947237,0.0210426999017
0.15501485765,-0.0956078544259,-0.19154754281,-2.58018422127,-0.00386190391146,2.52527213097,-0.753207743168,0.0660994127393,-0.000162406315212,-0.000668049382512,-8.90328883543e-05,0.000184734832146,-2.37606109295e-05,-8.60537038534e-05,-8.3979939518e-05,0.448197470967,-0.0135317555692,0.185764438028,0.000160821522442,0.935639778873,0.352328375722,0.0210450391686
0.155015558004,-0.0956046432257,-0.191547393799,-2.58018302917,-0.00386171741411,2.52527046204,-0.753209114075,0.0660994127393,0.000328151712893,0.000352751347236,-0.00040679317317,0.000657808617689,-0.000145150639582,1.79360031325e-05,0.000165592020494,0.448197215899,-0.0135314543196,0.185763334936,0.00016036602954,0.935639451401,0.352329351479,0.0210432658295
0.155019313097,-0.0956034660339,-0.191545620561,-2.5801858902,-0.00386041216552,2.52527022362,-0.753208518028,0.0660994127393,0.00111857929733,-6.02794971201e-05,0.000170934901689,-5.97145844949e-05,-1.5572155462e-05,0.000304126908304,0.000149657425936,0.448195732257,-0.0135288895701,0.185761675797,0.000159307518369,0.935638800881,0.352331191612,0.0210413880135
0.155020043254,-0.095608048141,-0.191546559334,-2.58018612862,-0.00386111577973,2.52527022362,-0.753208994865,0.0660994127393,-0.000146719481563,0.000271154451184,2.07437224162e-05,-0.000708974373993,5.69156072743e-05,-0.00201183720492,0.000125269289128,0.448196280937,-0.0135288967587,0.185763592904,0.000159885244788,0.935638608953,0.352331577776,0.0210434517419
0.155014514923,-0.0956052169204,-0.191549181938,-2.58018684387,-0.0038616838865,2.5252699852,-0.753210067749,0.0660994127393,0.000238256834564,0.000100847100839,9.81473785941e-05,-0.000686766870786,-5.88866387261e-05,2.92939621431e-05,-0.000168351049069,0.44819536544,-0.0135325844876,0.185762017826,0.000159544249974,0.935639811322,0.352328496256,0.0210415880179
0.155015513301,-0.0956031009555,-0.191548869014,-2.58019137383,-0.00386220822111,2.52526903152,-0.753207921982,0.0660994127393,0.000616736768279,0.000110425746243,-0.00296670850366,0.00018920795992,-2.85395926767e-05,-0.000177071866347,0.00195626285858,0.448192745068,-0.0135319619539,0.185759202288,0.000158395091721,0.935639947779,0.352328350921,0.0210379622027
0.155018061399,-0.09560444206,-0.191545709968,-2.58019089699,-0.00385957374237,2.52526950836,-0.753208637238,0.0660994127393,0.0007674350054,-0.00103531288914,7.88156103226e-05,0.000511284451932,-8.35279861349e-05,0.0023884002585,-8.55979305925e-05,0.448193711821,-0.0135288011666,0.185760469319,0.000158299365621,0.935638950509,0.352330886122,0.0210398574757
0.155022844672,-0.0956055149436,-0.191543981433,-2.58018708229,-0.00386261916719,2.52526950836,-0.753209590912,0.0660994127393,0.00011921596888,-3.10599825752e-05,-0.000557269435376,0.000195596760022,9.14038719202e-06,-0.00547905312851,-0.000524975883309,0.448195386685,-0.0135266377963,0.18576204899,0.000159790826819,0.935637386839,0.352334954653,0.0210412507294
0.155020296574,-0.0956060886383,-0.191548064351,-2.58019018173,-0.00386060471646,2.52527046204,-0.753207683563,0.0660994127393,-6.52506196275e-06,-0.000554950966034,-0.000561786466278,-3.3121312299e-05,-0.0001226876484,-1.04240507426e-05,-0.000128730884171,0.448194126915,-0.0135293553628,0.185761136606,0.00015873772319,0.935639179003,0.352330222563,0.0210408049271
0.155020654202,-0.0956031233072,-0.191548898816,-2.5801923275,-0.00386032392271,2.52527046204,-0.753208637238,0.0660994127393,-0.00027399888495,-9.97672177618e-05,-0.00347733241506,-4.98692606925e-05,3.04840741592e-05,1.05189765236e-05,0.000450431922218,0.448192681362,-0.013529556456,0.185758974052,0.000157920539474,0.935639180147,0.352330363312,0.0210384032143
0.155019432306,-0.0956040546298,-0.191548988223,-2.58019065857,-0.00386116374284,2.52526974678,-0.75320905447,0.0660994127393,0.000133115216158,0.000235196450376,0.000773256178945,-0.000262558198301,1.29582331283e-05,0.000297791993944,-0.000237822590861,0.448193426272,-0.0135302013899,0.185759974661,0.00015844572803,0.935639203988,0.352330251821,0.0210392061061
0.155020073056,-0.0956059768796,-0.191546276212,-2.58019018173,-0.00386174512096,2.52527189255,-0.753210365772,0.0660994127393,0.000265115406364,0.000931666407268,0.000260881672148,0.000389467197238,-8.21640787763e-05,0.000271437835181,-0.00019786421035,0.448194441459,-0.0135287598016,0.185761238443,0.000159409810801,0.935638262877,0.352332627494,0.0210412670358
0.15502537787,-0.0956049561501,-0.191546395421,-2.58019161224,-0.00386022799648,2.52527070045,-0.753210365772,0.0660994127393,0.000150410633069,0.000614092044998,-4.98439185321e-05,1.05143699329e-05,-8.79748331499e-05,1.32140548885e-05,-0.000368523149518,0.448193438016,-0.0135263294637,0.185760107755,0.000158323586634,0.935637591374,0.352334503163,0.021039726892
0.155023768544,-0.0956045165658,-0.191546410322,-2.58019185066,-0.0038602782879,2.52527165413,-0.753209590912,0.0660994127393,6.6592139774e-05,-4.93451225339e-05,0.000313622818794,0.000119887932669,-1.42293629324e-05,1.62230298884e-06,0.000243977061473,0.448193445414,-0.013527072386,0.185759911479,0.000158437528771,0.935638005919,0.352333395713,0.0210398366903
0.155021205544,-0.0956061407924,-0.191547721624,-2.58019208908,-0.00386034301482,2.52527117729,-0.753210425377,0.0660994127393,-0.00020551198395,-2.98410468531e-05,0.000192489358597,4.75961060147e-05,-9.87743551377e-05,-0.000171890947968,-0.000263766676653,0.448191668265,-0.0135296295299,0.185758475464,0.000157749752003,0.935638781023,0.352331458124,0.0210378197997
0.155020028353,-0.0956043601036,-0.191547006369,-2.58019375801,-0.00386103405617,2.52527070045,-0.75320994854,0.0660994127393,4.35977235611e-05,-7.52677515266e-05,-0.00054746447131,-0.000334796233801,-2.55913400906e-05,-1.83188549272e-05,0.000145007739775,0.448192261482,-0.0135289974821,0.185758990238,0.000158100795116,0.935638623849,0.352331842985,0.0210383618733
0.155022472143,-0.0956058949232,-0.1915474087,-2.58019471169,-0.00386067456566,2.5252726078,-0.753210127354,0.0660994127393,0.000403099431423,-0.000468809477752,-0.000236159597989,-0.000214444458834,-7.40627115192e-07,0.000272766861599,9.54945280682e-05,0.448192538414,-0.0135279946454,0.185759506593,0.000158454204113,0.935638216749,0.352332834011,0.0210398672575
0.155025824904,-0.0956082418561,-0.19154573977,-2.58019423485,-0.00386079889722,2.52527117729,-0.753210544586,0.0660994127393,0.000208440629649,0.000138917690492,1.85343856174e-06,-0.000289114104817,4.94858468301e-05,-4.23464698542e-05,6.79998120177e-05,0.448192803789,-0.013525743552,0.185760568487,0.000158421776545,0.935637267705,0.352335329833,0.0210402761706
0.155024185777,-0.0956058353186,-0.191546723247,-2.58019709587,-0.00386057235301,2.52527141571,-0.753210067749,0.0660994127393,-1.36363896672e-05,0.000549273448996,-4.71019593533e-05,0.000242189693381,-4.33351779066e-05,4.55707158835e-05,0.0001042347576,0.448191125917,-0.0135268791777,0.185758390889,0.000157584670493,0.935637888787,0.352333821384,0.021037923566
0.155025959015,-0.0956050902605,-0.191546618938,-2.58019661903,-0.00386214070022,2.52527117729,-0.753209888935,0.0660994127393,-0.000119848467875,-0.000339772726875,0.000371731817722,0.000473069638247,5.38908097951e-05,4.12327535741e-05,0.00010613752238,0.448191212688,-0.0135261515141,0.185758227721,0.000157970470483,0.935637376696,0.352335206724,0.0210374942027
0.155027464032,-0.0956049636006,-0.191547572613,-2.58019590378,-0.00386161659844,2.52527093887,-0.75320994854,0.0660994127393,-6.4566542278e-05,3.00904739561e-05,0.000123538295156,9.07033972908e-05,-1.83507781912e-05,-0.000126323706354,0.000297524878988,0.448191484817,-0.013525878481,0.18575842494,0.000157855731023,0.935637339562,0.352335291945,0.0210377193157
0.155024468899,-0.0956041812897,-0.191549450159,-2.58019948006,-0.00386132881977,2.52527093887,-0.753210365772,0.0660994127393,-0.000177978799911,0.000377484073397,0.000299396750052,-7.78383109719e-05,-4.88845071231e-05,-0.000157104746904,1.43368142744e-05,0.448189624201,-0.0135279488815,0.1857566501,0.000156974771846,0.935638197709,0.352333131857,0.0210357369055
0.155027329922,-0.0956062152982,-0.191546887159,-2.58019852638,-0.00386293232441,2.52527189255,-0.753210067749,0.0660994127393,-0.0028049107641,-0.000436583504779,-0.0005736121675,0.000297611288261,-0.000109229906229,-7.30494284653e-05,-0.000994457164779,0.448190648601,-0.0135256312466,0.185758034811,0.000158049881128,0.935637036971,0.352336113835,0.0210374105099
0.155027136207,-0.095605917275,-0.191546812654,-2.58019971848,-0.0038601316046,2.52527046204,-0.753209590912,0.0660994127393,-0.000120889286336,-0.00037276383955,-6.64328254061e-05,-0.00038850097917,5.07291151735e-05,-0.00202306127176,-0.000257456471445,0.448189613085,-0.0135254827825,0.185757263444,0.000156661987371,0.935637545263,0.35233482329,0.0210364287504
0.155025616288,-0.0956046134233,-0.191550165415,-2.58020281792,-0.00386202079244,2.52527165413,-0.753211677074,0.0660994127393,-0.000174502274604,0.000320150284097,-0.000472349958727,0.000585160742048,-5.86801033933e-05,0.000256144005107,7.97973843873e-05,0.448188308164,-0.013527674739,0.185755536977,0.000156691336274,0.935637838023,0.352334148475,0.021034709685
0.155028820038,-0.0956058204174,-0.191547289491,-2.5802052021,-0.00386198912747,2.52527332306,-0.753210663795,0.0658255815506,-0.000270188524155,0.000764359894674,-4.5610631787e-05,0.000510865356773,2.04821371881e-05,0.000128301631776,3.35440272465e-05,0.448187876547,-0.0135252158871,0.185755282642,0.000156694789075,0.935637060262,0.35233619972,0.0210349462622
0.155027881265,-0.095605365932,-0.19154663384,-2.58020567894,-0.0038623935543,2.52527570724,-0.753212928772,0.0658255815506,-0.000329186470481,0.000161793184816,0.000101918783912,8.09822740848e-05,3.49115252902e-05,9.41450198297e-05,-6.73846152495e-05,0.448188003579,-0.0135251258653,0.185755199891,0.000157199121227,0.935636498218,0.352337658065,0.0210355148824
0.155025184155,-0.0956043303013,-0.191548630595,-2.5802052021,-0.0038620182313,2.52527618408,-0.75321739912,0.0658255815506,6.49592766422e-05,-6.10917486483e-05,0.000553412421141,-0.000248399417615,4.5810098527e-05,0.000107978507003,2.86242737957e-07,0.448188049601,-0.0135270510499,0.185755003834,0.000157080707438,0.935636555861,0.35233750114,0.0210355802897
0.155026823282,-0.0956056267023,-0.191548883915,-2.58020615578,-0.00386216165498,2.52527761459,-0.753217816353,0.0658255815506,0.000132626271807,-0.000203228497412,5.53633108211e-05,4.35295696661e-05,-6.65068801027e-05,0.000162277196068,0.000209746562177,0.448188179316,-0.0135265589095,0.18575529253,0.000157415972137,0.935636236932,0.352338301938,0.0210363502662
0.155030608177,-0.0956049636006,-0.191545948386,-2.5802090168,-0.00386215979233,2.52527928352,-0.753218591213,0.0658255815506,-0.000152550273924,-0.00017913641932,-0.00166107597761,0.000357134413207,5.69948351767e-05,-0.000201985865715,-9.64438804658e-05,0.4481870825,-0.0135230569115,0.185753944602,0.000156845289529,0.935634886039,0.352341966252,0.0210350643021
0.15502859652,-0.0956055298448,-0.191549867392,-2.58020877838,-0.00385953066871,2.52528595924,-0.753221929073,0.0624128840864,-0.00336456322111,0.000202340219403,0.000387301348383,0.00040564101073,3.44390355167e-05,-1.62571959663e-05,-0.000254622573266,0.448188744487,-0.0135260560038,0.185755011251,0.00015776208442,0.935635695701,0.352339566041,0.021039247357
0.155027523637,-0.09560790658,-0.191547811031,-2.58019971848,-0.00386076793075,2.52528262138,-0.753220617771,0.0624128840864,8.24999369797e-05,-0.00038856631727,0.000325753906509,6.43206221866e-05,3.66936801584e-05,-1.3927474356e-05,0.00031892338302,0.448192636788,-0.0135258500047,0.185759337862,0.000159525532617,0.935635516878,0.352339822548,0.0210428904908
0.155030921102,-0.0956037566066,-0.191545173526,-2.58021831512,-0.00386271160096,2.52527689934,-0.753222346306,0.0624128840864,0.000255985825788,-0.000425708538387,0.00076190760592,0.000154838518938,0.000184844102478,0.000107367304736,-0.000220930727664,0.448182254415,-0.0135228008756,0.185749753879,0.000155025042224,0.935634089724,0.352344403591,0.0210296708964
0.155029401183,-0.0956043079495,-0.191547989845,-2.58020877838,-0.0038603998255,2.52528357506,-0.753222286701,0.0624128840864,0.000259018415818,0.000953044160269,-0.000917380442843,0.000148989187437,-2.45727133006e-05,-0.000138075469295,-7.3417526437e-05,0.448188092242,-0.0135249387673,0.185754256802,0.000157483973197,0.935635071123,0.352341332993,0.0210374340954
0.155025929213,-0.0956064537168,-0.191548854113,-2.58021616936,-0.00386117352173,2.52528071404,-0.753223240376,0.0624128840864,0.000459248345578,-0.000173544802237,-0.000595633522607,-0.000194832653506,-5.78777908231e-05,-0.000127460152726,9.19121375773e-05,0.448184259987,-0.0135266606426,0.185751993694,0.000155957314208,0.935635612307,0.352340120873,0.021033677011
0.155030608177,-0.0956068560481,-0.191548258066,-2.58021831512,-0.00386093161069,2.52528047562,-0.753222286701,0.0624128840864,0.000405193248298,-0.000568773772102,4.80083363072e-05,0.000498603563756,5.37908563274e-05,0.00014611678489,-0.000504906056449,0.448183333754,-0.0135242301772,0.18575130363,0.00015543443814,0.935634898527,0.352342069142,0.0210327957589
0.155032843351,-0.0956048443913,-0.19154663384,-2.5802128315,-0.00386088015512,2.52528166771,-0.753221809864,0.0624128840864,6.21314029559e-05,0.000389395223465,0.000616035715211,0.000223441427806,1.42229637277e-05,-6.14560485701e-05,0.000162902768352,0.448185925512,-0.0135227106861,0.185752715293,0.000156531819416,0.93563428243,0.352343580212,0.0210348807877
0.155031740665,-0.0956050008535,-0.191547513008,-2.58021879196,-0.0038605495356,2.52528071404,-0.753225743771,0.052396748215,-8.68710703799e-05,-0.000430519721704,5.73337565584e-05,-0.000846302136779,0.000134124464239,-5.9560086811e-05,-0.000119974261906,0.448182919153,-0.0135234124553,0.185750326479,0.00015514540009,0.935634033445,0.35234442513,0.02103181295
0.155032247305,-0.0956049859524,-0.191546052694,-2.58021688461,-0.00386116327718,2.52528095245,-0.753224432468,0.052396748215,-0.000237388434471,0.000119711658044,-4.71681687486e-06,0.000817334919702,-9.26316861296e-05,-4.17457958974e-05,-0.000276235077763,0.448183891539,-0.0135226357917,0.185751108809,0.00015576036136,0.935633817548,0.352344944409,0.021032713441
0.15503372252,-0.0956065878272,-0.19154715538,-2.58021569252,-0.00386132951826,2.52528119087,-0.753225564957,0.052396748215,-0.000103591439256,-0.000148159117089,0.000129029343952,0.000443459051894,-3.40212609444e-05,0.000406392471632,0.00010392369586,0.448184737474,-0.0135224545051,0.185752300779,0.000156201293482,0.935633501303,0.352345698257,0.021034149504
0.155032649636,-0.0956064388156,-0.19154766202,-2.58020877838,-0.00386220845394,2.52528619766,-0.753225266933,0.052396748215,0.000144309102325,0.000426956015872,0.00106228794903,0.000629072077572,-0.000147405822645,-0.00022886073566,-0.000270768534392,0.448189012553,-0.0135234141185,0.185755449917,0.000158710425466,0.935633621331,0.35234505988,0.021039484569
0.1550283283,-0.0956231281161,-0.19154958427,-2.58018946648,-0.00386303546838,2.52529335022,-0.753226876259,0.052396748215,0.000269933778327,-0.00032181647839,-0.000282690365566,0.00120469124522,-0.000266304705292,0.00271328887902,0.000300418207189,0.448201948011,-0.013526371039,0.185771123401,0.000165725143398,0.935633951086,0.35234296806,0.021059787622
0.155026271939,-0.0956376343966,-0.191548392177,-2.5801756382,-0.00386403920129,2.52530217171,-0.753228008747,0.052396748215,-5.46633309568e-05,-0.00150949927047,9.67778032646e-05,0.0003833398805,0.000318919861456,-0.00101381691638,0.000291073869448,0.448212145753,-0.0135269354934,0.185782941481,0.000171959288772,0.935633328295,0.352343620947,0.0210764768863
0.155026420951,-0.0956444442272,-0.191551595926,-2.5801782608,-0.00386241450906,2.52529907227,-0.75322675705,0.052396748215,0.00027478375705,-0.000300894957036,-0.000234024933889,-0.000777215929702,9.8437682027e-05,9.06949062482e-05,0.00047038399498,0.448211479787,-0.0135278941127,0.185785490555,0.000170927673997,0.935634399933,0.352340677588,0.0210781177662
0.155022799969,-0.0956420600414,-0.191553071141,-2.58018326759,-0.0038630196359,2.52529883385,-0.753226578236,0.052396748215,-0.000706714985427,-0.00080558413174,0.000324036576785,0.000217214561417,5.34561477252e-05,-2.77120579995e-05,-2.39110177063e-05,0.448208660245,-0.0135301201777,0.18578242271,0.000169822951572,0.935635307128,0.352338486748,0.0210744788194
0.155023828149,-0.0956380739808,-0.191551193595,-2.58019089699,-0.00386365922168,2.52529621124,-0.75322663784,0.052396748215,0.00374161149375,0.00339667708613,9.37980803428e-05,-0.000339357793564,0.000126338549308,-0.000155366753461,0.000351279042661,0.448203979714,-0.0135287682749,0.185777407172,0.000167677247494,0.935634814277,0.352340201352,0.0210677097706
0.155029609799,-0.0956353321671,-0.19155049324,-2.58019971848,-0.00386286340654,2.52529406548,-0.75322675705,0.0467888116837,0.000256965722656,-0.000156452486408,0.000420816795668,-7.34256682335e-05,-5.06241012772e-05,7.93924027676e-06,-0.000265589042101,0.448199072061,-0.0135256634361,0.185772506195,0.000165032030958,0.935633872619,0.352343080926,0.0210613907996
0.155027911067,-0.09563652426,-0.191551685333,-2.58019566536,-0.00386383011937,2.52529430389,-0.753227949142,0.0467888116837,-6.86937855789e-05,0.000333743548254,-0.000156475434778,2.12819741137e-05,-3.99269374611e-05,-3.31090668624e-05,-0.000218602770474,0.448201154489,-0.0135270649854,0.185774648674,0.000166234479608,0.935633992223,0.35234261529,0.0210638576444
0.155025720596,-0.0956358760595,-0.191552698612,-2.5801949501,-0.00386451277882,2.52529454231,-0.753225922585,0.0467888116837,-0.000221914917347,0.000515685242135,-8.89947659743e-06,-0.000221762849833,4.98798690387e-05,7.99021072453e-05,0.000316608668072,0.4482014003,-0.0135285560255,0.185774660523,0.00016650517208,0.935634817333,0.352340420705,0.0210639145055
0.155029252172,-0.0956338569522,-0.191550180316,-2.58019900322,-0.00386297074147,2.52529382706,-0.753226220608,0.0467888116837,5.53685167688e-05,0.00207613431849,0.000217759108637,-0.000277657149127,2.96346988762e-05,0.000128127314383,-0.000267775118118,0.448199141501,-0.0135257429552,0.185772118503,0.000165013174756,0.935633972151,0.352342847542,0.0210608736811
0.155031174421,-0.0956364423037,-0.191547006369,-2.58019638062,-0.00386418611743,2.5252931118,-0.753227412701,0.0467888116837,0.000121536468214,-0.000626804656349,-0.00027162960032,0.000286102498649,4.15054200857e-05,0.000137609575177,0.00026293436531,0.448200667164,-0.0135235738456,0.185774251019,0.000166087585815,0.935632656124,0.352346223362,0.021062853003
0.155025735497,-0.0956351086497,-0.191552504897,-2.58019804955,-0.00386336352676,2.5252931118,-0.753228545189,0.0467888116837,-0.000487932935357,0.00143582071178,0.000312621617923,-9.89551044768e-05,6.27227200312e-05,-0.000171738560311,-8.25379902381e-05,0.448199532317,-0.0135283337149,0.185772959988,0.000165273100358,0.935634520894,0.352341348373,0.0210615742188
0.155022740364,-0.0956352651119,-0.191551610827,-2.58019757271,-0.00386311369948,2.52529501915,-0.7532299757,0.0467888116837,-6.77975767758e-05,-0.000176930450834,-3.33730567945e-05,-6.65733678034e-05,0.000109027751023,-0.000138781673741,-0.000271202006843,0.448200163162,-0.0135293001506,0.185773408956,0.000165756409554,0.935634654605,0.352340921592,0.0210627701187
0.155027419329,-0.0956337526441,-0.191551759839,-2.58019661903,-0.00386361614801,2.52529406548,-0.753229498863,0.0467888116837,-0.000208915560506,-0.000255845341599,-0.000405586790293,0.000535664788913,-2.02829505724e-06,8.72541750141e-06,2.62784014922e-05,0.448200167811,-0.0135274911527,0.185772937242,0.000165688037976,0.935633889548,0.352343013149,0.0210617674449
0.155027136207,-0.0956348404288,-0.191550970078,-2.58019518852,-0.00386358192191,2.5252931118,-0.753228962421,0.0467888116837,0.000164672455867,-0.000165302422829,0.000274354504654,-1.91675899259e-05,-8.14548111521e-05,9.05581619008e-05,0.000268235278782,0.448200877778,-0.0135271290168,0.185773986144,0.000165903136945,0.935633882562,0.352342974453,0.0210627234345
0.155036583543,-0.0956345722079,-0.191545113921,-2.58019351959,-0.00386400916614,2.52529382706,-0.753227829933,0.0467888116837,0.00185725232586,-0.000186092845979,0.000592500786297,-0.000227827724302,-0.000190351202036,0.000188626392628,0.000106969440822,0.448201994044,-0.0135204388483,0.185774643335,0.000166553281895,0.935631315142,0.352349740005,0.0210635892001
0.15502423048,-0.0956374779344,-0.191556155682,-2.58019661903,-0.00386142078787,2.52529621124,-0.75323009491,0.0467888116837,7.41143448977e-05,0.000260663538938,-0.00272373575717,-0.000105521532532,1.5255611288e-05,1.46484171637e-05,0.000128092244267,0.448201141032,-0.0135304869029,0.185774842349,0.000165748359878,0.935635366012,0.352338894682,0.021065074762
0.155026391149,-0.0956325232983,-0.191554069519,-2.58019781113,-0.00386420660652,2.52529525757,-0.753230571747,0.0467888116837,-0.000492291117553,0.000206435259315,0.000452983687865,-0.000326712848619,-3.78400400223e-05,-2.86429913103e-05,0.000134179063025,0.448200019146,-0.0135288519905,0.185772435679,0.00016575142632,0.935634198553,0.352342200737,0.0210616307573
0.155032500625,-0.0956314727664,-0.19155035913,-2.58019280434,-0.00386364408769,2.52529454231,-0.753229022026,0.0467888116837,-9.65817016549e-05,-0.000366201915313,-0.000614263350144,0.00042573758401,-7.07063518348e-05,-3.24866814481e-05,-7.77362656663e-05,0.448201896075,-0.0135246098457,0.18577358837,0.000166277448926,0.935632817546,0.352345796422,0.0210628229886
0.155023142695,-0.0956346765161,-0.191555544734,-2.5801923275,-0.00386293069459,2.52529525757,-0.7532299757,0.0475846938789,-0.000160898081958,-0.000227387863561,0.00025445848587,-0.000324831664329,8.18726839498e-05,-0.000123697609524,0.000182212708751,0.448202533288,-0.013530951292,0.185775217863,0.00016655669102,0.935635265647,0.352339161149,0.0210650692443
0.155030727386,-0.0956354662776,-0.19155035913,-2.58019852638,-0.00386432930827,2.52529430389,-0.7532299757,0.0475846938789,0.000514882791322,-0.00109012587927,6.06914636592e-06,5.97419639234e-05,7.45232537156e-05,6.48385830573e-05,-0.00015904288739,0.448199716614,-0.0135252123316,0.185773059946,0.000165752140895,0.935632868499,0.352345713405,0.0210619524709
0.155035287142,-0.0956351459026,-0.191545471549,-2.58019423485,-0.00386289553717,2.52529406548,-0.753230750561,0.0475846938789,-0.000265044043772,-0.000292152719339,9.18048390304e-05,-2.10729303944e-05,-1.6120959117e-05,9.6585979918e-05,0.000317070545861,0.448201783066,-0.0135211976552,0.185774810968,0.000166272875817,0.935631254382,0.352349884174,0.0210638786913
0.155030101538,-0.0956339910626,-0.191551655531,-2.58019208908,-0.00386433349922,2.52529644966,-0.753230452538,0.0475846938789,-0.000303867971525,-0.000814986065961,-5.70118354517e-05,-1.06862842131e-06,9.08810397959e-05,-0.000145858066389,0.000106989755295,0.448202956766,-0.0135265610134,0.185775076178,0.00016718458117,0.935633180528,0.352344699629,0.02106503911
0.155026242137,-0.0956343412399,-0.19155395031,-2.58019328117,-0.00386379263364,2.52529454231,-0.753230452538,0.0474448241293,0.000691818539053,4.55272165709e-05,0.000588529568631,-0.000296312588034,-5.98896476731e-05,-7.37804948585e-05,0.000331235060003,0.448201948598,-0.0135288987585,0.185774635429,0.000166469272824,0.935634251399,0.352341916971,0.0210640244764
0.155038908124,-0.0956351459026,-0.191545531154,-2.58019685745,-0.00386504759081,2.52529239655,-0.753231406212,0.0474448241293,1.3751014194e-07,-0.000216683285544,0.000441528740339,-0.000290717289317,2.00404956558e-05,6.28376801615e-05,0.000194313353859,0.448200106406,-0.0135192808076,0.185773402385,0.000165980365117,0.935630157966,0.352352932559,0.0210615896277
0.15504103899,-0.0956381261349,-0.191544175148,-2.58019781113,-0.00386344618164,2.52529382706,-0.753230750561,0.0474448241293,-0.000340724742273,-0.000232763166423,0.00400982098654,0.00040574526065,2.35834468185e-05,9.03723703232e-05,0.000193670202862,0.44820057403,-0.013517821802,0.18577451888,0.000165950086646,0.935629923977,0.352353445514,0.0210634028587
0.155029609799,-0.0956352055073,-0.191552191973,-2.58019709587,-0.0038637786638,2.52529430389,-0.753231704235,0.0474448241293,-0.00424789637327,9.8197349871e-05,-0.00211011199281,0.000242409820203,-0.000137159222504,4.03178419219e-05,1.22681713037e-05,0.448200306852,-0.0135265155314,0.18577349727,0.000165813364335,0.935633151709,0.352344924834,0.021062562954
0.155025109649,-0.0956326574087,-0.191555976868,-2.58019638062,-0.00386311579496,2.52529430389,-0.753232121468,0.0474448241293,0.00029123321292,-0.000644466781523,0.00058376416564,0.000657297321595,-7.35476987757e-06,-1.19952455861e-05,-3.06160181935e-05,0.448200152801,-0.0135302073313,0.185772628078,0.000165423842695,0.935634649163,0.352340996867,0.0210617552278
0.155029714108,-0.0956343784928,-0.191553279757,-2.58019685745,-0.00386481266469,2.52529358864,-0.753231167793,0.0474448241293,3.53971336153e-05,-0.000707595376298,0.000221615176997,0.00019666973094,-1.77494330273e-05,5.82314569328e-05,0.0030422299169,0.44820012699,-0.0135270139843,0.185773148673,0.00016587688464,0.935633286782,0.352344609705,0.0210618339068
0.15503680706,-0.0956345647573,-0.191549062729,-2.58019781113,-0.00386401242577,2.52529358864,-0.753231227398,0.0474448241293,0.00255041266792,0.000192047664314,0.000329038419295,0.000415156770032,-0.000100741475762,0.000104803635622,9.91632041405e-05,0.448199870061,-0.0135219411944,0.185772887224,0.000165570218642,0.935631403257,0.352349629353,0.0210615338183
0.155036583543,-0.0956349372864,-0.191547065973,-2.58019685745,-0.00386455655098,2.52529430389,-0.753231287003,0.0474448241293,-0.000684723374434,-0.000241798261413,-0.000338186771842,0.000276936218143,9.49751993176e-05,0.000116892930237,0.000343158695614,0.448200552721,-0.0135212285056,0.185773513169,0.000166154337087,0.935630989268,0.352350676207,0.0210624066854
0.155025884509,-0.0956340655684,-0.19155497849,-2.58019781113,-0.00386344804429,2.52529335022,-0.753232300282,0.0474448241293,-0.00024500102154,4.89397316414e-05,0.00261940690689,-0.000490577192977,-6.47575943731e-05,0.000105840816104,0.000249859469477,0.448199506915,-0.0135293722517,0.185772598059,0.000165230122044,0.935634262739,0.352342050431,0.0210612979579
0.155023247004,-0.0956350788474,-0.191556110978,-2.58019804955,-0.00386410066858,2.52529454231,-0.753234326839,0.0474448241293,7.39466995583e-05,5.38646709174e-05,1.28928627419e-06,8.47746268846e-05,8.53667297633e-05,-9.14165866561e-05,0.000205340547836,0.448199744497,-0.0135310610858,0.185773055781,0.000165703425095,0.935634460019,0.352341474051,0.0210621726419
0.155032336712,-0.0956400260329,-0.191550552845,-2.5801949501,-0.00386276375502,2.52529716492,-0.75323587656,0.0474448241293,0.00325975893065,-4.07124243793e-05,0.000803440751042,0.000347811495885,-0.000249405216891,-3.65799896827e-05,8.72153832461e-05,0.448202013827,-0.0135274036148,0.185776475576,0.000166744113826,0.935633142732,0.352344702546,0.0210666725051
0.155035272241,-0.0956455916166,-0.191548317671,-2.58018636703,-0.00386384595186,2.52529859543,-0.753232777119,0.0474507324398,-0.000473352876725,-0.000301628664602,-0.000164695040439,-0.000169767707121,5.85917878198e-05,-3.03943761537e-05,-0.000254148122622,0.448207910435,-0.0135223639415,0.185782766133,0.00016987286997,0.935631055876,0.352349772602,0.0210745309772
0.155029177666,-0.095637448132,-0.191552519798,-2.58018016815,-0.00386407529004,2.52529931068,-0.753236114979,0.0474507324398,6.78506621625e-05,0.000462885363959,0.00214719469659,-0.000256763829384,0.00010548960563,-0.000186415112694,-2.69188021775e-05,0.448209836261,-0.0135272964507,0.185781890337,0.000170562754631,0.935632217408,0.352346715825,0.0210740643955
0.155027940869,-0.0956399962306,-0.191554620862,-2.58018064499,-0.00386401545256,2.52530097961,-0.753234922886,0.0474507324398,-0.000458164024167,-6.27701592748e-05,-0.000158099355758,-5.21544534422e-05,-9.21922255657e-05,2.75781185337e-05,-0.000247253396083,0.448210102185,-0.0135281558003,0.185782605048,0.000170810130999,0.935632841607,0.352344984182,0.0210753015959
0.155028790236,-0.095642209053,-0.191553592682,-2.5801820755,-0.00386496284045,2.52529907227,-0.753236293793,0.0474507324398,0.000377485295758,0.000343122694176,0.000399641459808,-3.60139529221e-05,1.41938635352e-05,-4.10991087847e-05,0.00025199126685,0.448209361773,-0.0135277942928,0.185782977461,0.000170669449071,0.935632348297,0.352346312179,0.0210750010965
0.15503333509,-0.0956401228905,-0.191553428769,-2.58018183708,-0.00386424851604,2.52530121803,-0.753234505653,0.0466180816293,0.000318945734762,-0.000325091357809,-0.000311488634907,2.52728605119e-05,0.000160537092597,1.09978163891e-05,-5.90529416513e-05,0.448209697313,-0.0135257187612,0.185782361295,0.000170656280055,0.935631936933,0.352347395091,0.0210751589677
0.155034407973,-0.0956434234977,-0.19155305624,-2.58018422127,-0.00386493094265,2.52530026436,-0.753235816956,0.0466180816293,-0.000185795041034,0.000571747077629,-0.000170920946402,0.00077937025344,-1.43119621043e-06,0.000209623671253,0.000113973939733,0.448209020068,-0.0135250795626,0.185782746816,0.000170611990839,0.935631398928,0.352348826148,0.0210751187325
0.155027985573,-0.0956398695707,-0.191558122635,-2.58017683029,-0.00386370369233,2.52529978752,-0.753235697746,0.0466180816293,-0.00255366577767,0.000238169741351,-0.000255324790487,-0.000138628543937,-0.000117736992252,0.000536457519047,0.00592654384673,0.448211556095,-0.0135302290703,0.185784056958,0.000171071112042,0.935633546367,0.352343023665,0.0210767883715
0.155034840107,-0.0956380739808,-0.191553890705,-2.58018493652,-0.00386544177309,2.52529788017,-0.753236234188,0.0466180816293,0.00155003846157,0.000901598017663,5.7555436797e-05,0.000664797436912,-0.000114740163554,-0.000112990906928,0.000157862203196,0.448207238161,-0.0135252530548,0.185779904694,0.000169525014323,0.935631351597,0.352349195226,0.0210710578591
0.155035987496,-0.0956428125501,-0.191551536322,-2.58017683029,-0.00386340427212,2.52529907227,-0.753234744072,0.0466180816293,-0.000544677313883,0.000246638839599,5.43356254639e-05,-0.000723845732864,-2.07991834031e-05,5.7673360061e-06,0.000337882724125,0.448212041965,-0.0135237060214,0.185785337259,0.000171295679987,0.935631165295,0.352349281703,0.0210778688538
0.155032932758,-0.0956518799067,-0.191553652287,-2.58017706871,-0.00386431347579,2.52529263496,-0.753235340118,0.0466180816293,-0.000342738523614,0.000179224225576,0.000716976239346,1.74620454345e-05,1.36678613671e-06,1.13694659376e-05,0.00066473701736,0.448211787443,-0.0135257727914,0.185788600775,0.000171152672105,0.935631800239,0.352347519485,0.0210791434174
0.155027508736,-0.095673173666,-0.191555276513,-2.5801692009,-0.00386477075517,2.52528691292,-0.753236174583,0.0466180816293,-0.000173636493855,-0.00404994282871,0.00343980849721,0.000869163894095,1.40614165502e-05,-2.54202004726e-05,-6.41879742034e-05,0.448217243392,-0.0135285865001,0.185800535181,0.000173876104082,0.935632595182,0.352344726725,0.0210905153019
0.155033588409,-0.0957652628422,-0.191554039717,-2.58010554314,-0.00386592908762,2.52524185181,-0.753236472607,0.0466180816293,9.70706605585e-05,-0.00277771265246,0.00048637893633,0.00928818248212,7.49950486352e-05,-0.0129576390609,-0.000388593703974,0.448250889116,-0.013524436479,0.185861986988,0.000187207910403,0.9356300155,0.352348364942,0.0211439934171
0.155038058758,-0.0959988310933,-0.191546574235,-2.57950925827,-0.00386684434488,2.52375435829,-0.753237128258,0.0466180816293,0.000887488538865,-0.014130727388,-0.000301222898997,0.0374770574272,-0.000102163176052,-0.110803648829,-0.000143646335346,0.448244389075,-0.0135155151921,0.18605765078,4.1688949838e-05,0.935632361887,0.352359923557,0.0208462372915
0.155047416687,-0.0963252410293,-0.191540807486,-2.5787024498,-0.00386748556048,2.52108764648,-0.753238916397,0.0465530715883,0.000128264597151,-0.022196656093,0.000449651677627,0.0542321279645,-0.000343644642271,-0.191704794765,3.08013004542e-05,0.448083952219,-0.0134968796703,0.186278709319,-0.000303214413067,0.935640769225,0.352381101894,0.0200952167996
0.155044987798,-0.0969075858593,-0.191541790962,-2.57743525505,-0.00387220596895,2.51678609848,-0.753237783909,0.0465530715883,-7.36851070542e-05,-0.0394780747592,-0.00382262398489,0.0851258784533,-0.00157250138,-0.285349309444,0.000143762328662,0.447846459409,-0.013480165386,0.186610744209,-0.000798287445272,0.935656289179,0.352398307666,0.0190290224571
0.155042245984,-0.0979736447334,-0.191542461514,-2.57540798187,-0.00387798203155,2.51002907753,-0.753238856792,0.0465530715883,0.000781186216045,-0.073665894568,-0.000149038794916,0.128603503108,-0.00070747936843,-0.415089994669,-3.64447041648e-05,0.447490529339,-0.0134487691322,0.187239939662,-0.00159076577711,0.93567653409,0.352427806917,0.0173647233054
0.155035823584,-0.100825801492,-0.191546708345,-2.57066130638,-0.00389768066816,2.49543356895,-0.753240168095,0.0465530715883,-0.0020568119362,-0.122037068009,-0.000452213047538,0.214871391654,-0.00141543650534,-0.628128051758,-8.27199401101e-05,0.44695701519,-0.0133799069287,0.189002944066,-0.00317362725748,0.935703415115,0.352487164501,0.0142072368932
0.155029118061,-0.102929122746,-0.191549792886,-2.56699323654,-0.00391311943531,2.48500943184,-0.753241240978,0.0465530715883,0.000307474285364,-0.171722397208,-0.00168743322138,0.258856534958,-0.00248983968049,-0.750044167042,0.000291222211672,0.446677482456,-0.0133332184955,0.190548606333,-0.0043377297148,0.935714525513,0.352529600546,0.01193278128
0.155029714108,-0.107320815325,-0.19154445827,-2.56048750877,-0.00398713862523,2.46704506874,-0.753241658211,0.0465530715883,0.000421494973125,-0.224171802402,0.000794481427874,0.343010008335,-0.00454434426501,-0.908556759357,0.000152207678184,0.446421976942,-0.0132475976434,0.193286074751,-0.00595804244952,0.935705257447,0.352618693381,0.00895710220938
0.155045881867,-0.11143578589,-0.191535249352,-2.55405282974,-0.00438300287351,2.45029711723,-0.753243327141,0.0466082282364,-5.63700086786e-05,-0.254547297955,-2.86105296254e-05,0.399121105671,-0.0267864968628,-1.06161272526,-0.000185071927262,0.446296599191,-0.0131897067854,0.196149000384,-0.00738523120449,0.935638109816,0.352829823562,0.00615638773913
0.155055403709,-0.128518626094,-0.19151891768,-2.52839279175,-0.00542423501611,2.38947987556,-0.753244817257,0.0466082282364,-0.000139110750752,-0.419323176146,8.90328828973e-06,0.632991075516,-0.0133350519463,-1.40596020222,0.000428152328823,0.446810082262,-0.0130369924713,0.208658597447,-0.0119969129604,0.935393400535,0.353400277977,-0.00187177104796
0.155036211014,-0.137139111757,-0.191516697407,-2.51548457146,-0.00563160283491,2.36165118217,-0.753239452839,0.0466082282364,0.000262241781456,-0.482719779015,0.000375179632101,0.732395350933,-0.0151554280892,-1.49551177025,0.000610238290392,0.447448906477,-0.0129950086708,0.215344894605,-0.0138734233609,0.935301951887,0.353548829005,-0.00458389740371
0.155055701733,-0.144719615579,-0.19150878489,-2.50390696526,-0.00580522837117,2.33885622025,-0.753237783909,0.0466082282364,0.00398893747479,-0.525350630283,-5.59922809771e-05,0.791883289814,-0.00682796258479,-1.5372120142,0.000445223471615,0.448352086929,-0.0129710185287,0.221528437785,-0.0151588521566,0.935218725167,0.353693449767,-0.00609003908346
0.155031174421,-0.155665934086,-0.191515177488,-2.48732113838,-0.00593083165586,2.30776286125,-0.753236234188,0.0466082282364,-0.00276458216831,-0.567567884922,-0.000254680227954,0.885349810123,-0.00287101557478,-1.55669128895,-0.000338487676345,0.449785687816,-0.0129877732179,0.230662114982,-0.016731909478,0.93513057519,0.353829174835,-0.00746761489269
0.155054107308,-0.173533320427,-0.191503703594,-2.45931339264,-0.0060198623687,2.26134538651,-0.753229260445,0.0466082282364,-0.000528578821104,-0.635190308094,-0.00171671540011,0.991578996181,0.00214649084955,-1.5230486393,0.000758133712225,0.452920556766,-0.0130789240385,0.24657376515,-0.0183256786831,0.935019529573,0.3540477671,-0.00726822640034
0.155017778277,-0.184490352869,-0.191512182355,-2.44230103493,-0.00605912925676,2.23578166962,-0.753223359585,0.0466082282364,-0.00133666407783,-0.660085678101,-0.000346496584825,1.02520465851,-0.0035785571672,-1.47395527363,7.32440457796e-05,0.455061115657,-0.0132157128433,0.256646796882,-0.0187868640247,0.934983816276,0.354143710794,-0.00587782544169
0.155013635755,-0.187802001834,-0.19151198864,-2.43718338013,-0.00606731930748,2.2284758091,-0.753219664097,0.0466082282364,0.000949384877458,-0.664437294006,-0.000908315822016,1.05799901485,4.4093150791e-05,-1.41801285744,3.41959494108e-05,0.45676414265,-0.013329191732,0.264176731631,-0.0188667627838,0.934963500549,0.354216613384,-0.00422946703054
0.155005246401,-0.208147957921,-0.191522553563,-2.40568447113,-0.00609214836732,2.18737244606,-0.753214359283,0.0466082282364,-0.00434410339221,-0.707510590553,-0.00151323201135,1.06192457676,0.000744628778193,-1.29240477085,0.000237792293774,0.460199491845,-0.013615442093,0.279255208497,-0.0185285214744,0.934930021309,0.354347997146,0.000213893183286
0.154887035489,-0.224991098046,-0.191512644291,-2.3803563118,-0.00613381853327,2.15852570534,-0.75320827961,0.0466082282364,-0.00716020260006,-0.698712229729,-0.000167540667462,1.06029617786,-0.00354886008427,-1.12234210968,0.00172782468144,0.464022025241,-0.0140491825522,0.295767859076,-0.0174077386587,0.934900051717,0.354418642674,0.00680362739554
0.154738843441,-0.237642332911,-0.19155690074,-2.36162376404,-0.00615589506924,2.13962173462,-0.753208041191,0.0466082282364,-0.0174835063517,-0.715455889702,0.00202592182904,1.02846348286,-0.00698490720242,-0.989172041416,-0.000275862810668,0.466957567115,-0.0144839211539,0.30841736085,-0.016104128935,0.934871342797,0.35438656215,0.0128993682597
0.153497979045,-0.271095633507,-0.191524669528,-2.31583070755,-0.00671267788857,2.10126590729,-0.753205597401,0.046610198915,-0.0442821159959,-0.673002302647,0.00138555746526,0.828924179077,-0.0309620536864,-0.634469807148,-0.000199247879209,0.474199711381,-0.0162128523153,0.34172547226,-0.0109253910085,0.934649077061,0.353906854071,0.0325833839227
0.152287691832,-0.285195559263,-0.191484585404,-2.29852056503,-0.00801409780979,2.0893945694,-0.753205537796,0.046610198915,-0.0550015456975,-0.674543857574,0.00336716487072,0.816909134388,-0.0550186410546,-0.584379136562,-7.56340887165e-05,0.476794874264,-0.0174708722343,0.355433460549,-0.007840732179,0.934454397478,0.353537899472,0.0417666766073
0.151291891932,-0.293600648642,-0.191488221288,-2.28879141808,-0.00965053774416,2.08316707611,-0.753206253052,0.046610198915,-0.0892518311739,-0.627859354019,-0.00166331406217,0.703899502754,-0.156738966703,-0.455602437258,-0.000410747801652,0.478142472682,-0.018505292387,0.363449480501,-0.0055838682633,0.934289540752,0.353330643565,0.0472157861297
0.150029808283,-0.301680356264,-0.191500991583,-2.27985405922,-0.0120169334114,2.07779765129,-0.753205537796,0.046610198915,-0.108960747719,-0.608480095863,-0.00865413155407,0.662024080753,-0.22225420177,-0.37336987257,-0.000209017802263,0.479394011986,-0.0198891501675,0.371617236669,-0.00281115179623,0.934088073531,0.353104462982,0.0528091490122
0.141410261393,-0.330723434687,-0.192519053817,-2.25220012665,-0.0302370749414,2.06298565865,-0.753218650818,0.046610198915,-0.216552168131,-0.474341630936,-0.0443013012409,0.39448979497,-0.49123492837,-0.205453187227,-0.000380339130061,0.482036450631,-0.0282936234012,0.396739372854,0.0104079317871,0.933493635639,0.351663039347,0.0693859756719
0.137347981334,-0.338215768337,-0.193479165435,-2.24613904953,-0.0394101291895,2.05970239639,-0.753244698048,0.046610198915,-0.254763543606,-0.406836986542,-0.0655468329787,0.322538435459,-0.573318004608,-0.173846572638,-0.00121251214296,0.482235538143,-0.032398440864,0.402891677703,0.0156992816596,0.933458060002,0.350886767263,0.0727190416438
0.116046175361,-0.355048775673,-0.204899191856,-2.23218011856,-0.0889007076621,2.05079364777,-0.760373651981,0.046613484621,-0.409834176302,-0.0854353904724,-0.304371416569,0.137561678886,-0.874090075493,-0.10761474818,-0.244710341096,0.480887507285,-0.0564556249553,0.416425095919,0.039278650103,0.933901034893,0.347527435181,0.0742342653612
0.100850209594,-0.354798793793,-0.217436522245,-2.22827839851,-0.119977094233,2.04751420021,-0.772219359875,0.046613484621,-0.497248798609,0.0908522084355,-0.449006587267,0.098047234118,-0.929391026497,-0.0789799764752,-0.44610440731,0.47910070885,-0.0753334217987,0.417501881971,0.0521849538427,0.934450745607,0.345630728292,0.0679553822145
0.073438771069,-0.341612547636,-0.246781617403,-2.22240877151,-0.165233403444,2.04543232918,-0.802436590195,0.046613484621,-0.594970047474,0.402224868536,-0.712075829506,0.158957436681,-0.854244589806,-0.0257481578737,-0.734668433666,0.47568859043,-0.108302172234,0.413300743515,0.0673524458787,0.935765798938,0.341968211716,0.0535141049986
0.0628128424287,-0.333487600088,-0.259896606207,-2.21917462349,-0.17915019393,2.04530930519,-0.81573921442,0.046613484621,-0.641604423523,0.537361741066,-0.82423466444,0.223562121391,-0.783640086651,0.00174611387774,-0.828080236912,0.474081483626,-0.122686367935,0.410544263425,0.0717906183623,0.936594034683,0.339750395881,0.0469828638599
0.0524801202118,-0.323925852776,-0.273594558239,-2.21516418457,-0.190821006894,2.04535007477,-0.829521894455,0.046613484621,-0.653902173042,0.641380548477,-0.878891944885,0.26836425066,-0.669493257999,-0.000584983383305,-0.89106875658,0.472515511656,-0.136151814873,0.407609537344,0.0748934275823,0.937508415047,0.337345218741,0.040830739644
0.0381655097008,-0.309173077345,-0.293667346239,-2.20881509781,-0.203659489751,2.04557228088,-0.849329054356,0.0466141402721,-0.696520030499,0.753701329231,-1.01720023155,0.339358180761,-0.548747956753,0.0308055952191,-0.980086088181,0.469965016622,-0.15487531992,0.403154457039,0.077604611615,0.939071682303,0.333266137444,0.0324897071785
0.0186840500683,-0.285970062017,-0.323452472687,-2.19767665863,-0.216699510813,2.04729199409,-0.877867281437,0.0466141402721,-0.691257178783,0.903090894222,-1.12276077271,0.429804235697,-0.381550818682,0.0888216122985,-1.03977262974,0.466062112388,-0.181115201255,0.396846313565,0.0796477681884,0.941585824564,0.326485169925,0.0219043719287
0.00654725637287,-0.270092695951,-0.343419253826,-2.18978714943,-0.22233517468,2.04889082909,-0.895732939243,0.0466141402721,-0.711018621922,0.942552506924,-1.19258666039,0.482099384069,-0.282724618912,0.0912000313401,-1.05447137356,0.463095347865,-0.197863426903,0.392668475138,0.0799481888829,0.943508611193,0.321177247203,0.0156513023639
-0.00531332660466,-0.2535764575,-0.363705039024,-2.18148040771,-0.226258099079,2.05043029785,-0.913746714592,0.0466141402721,-0.706003904343,0.982882797718,-1.21247649193,0.511012911797,-0.202821522951,0.106188639998,-1.08128643036,0.459676155315,-0.21441228035,0.388351775902,0.0795937166476,0.94550955388,0.315571711822,0.00954034468838
-0.0194467101246,-0.233349844813,-0.388689130545,-2.17081141472,-0.229600012302,2.05311584473,-0.935471355915,0.0466141402721,-0.698176622391,1.03482758999,-1.25401222706,0.530690073967,-0.130738988519,0.14386343956,-1.08984804153,0.455033511959,-0.234418760092,0.383382498862,0.0790502649351,0.947984966683,0.308330370757,0.00281792743356
-0.0524955429137,-0.183998405933,-0.44971293211,-2.14570093155,-0.231280833483,2.06104421616,-0.988030731678,0.0466141402721,-0.651469647884,0.970337927341,-1.202475667,0.486194908619,0.00339997932315,0.151403188705,-1.05319023132,0.440635481983,-0.281318659029,0.371021712128,0.0760647220242,0.953992736107,0.289763080452,-0.0122218826708
-0.0615195631981,-0.170827746391,-0.466361671686,-2.13924098015,-0.231278315187,2.0628926754,-1.00274288654,0.0466174222529,-0.640541136265,0.929195165634,-1.17846679688,0.444369375706,-0.00232961867005,0.114729709923,-1.0445663929,0.435659928048,-0.293837537378,0.367630644157,0.0750505135461,0.955518544227,0.284745354971,-0.0164867997993
-0.0746560394764,-0.152411922812,-0.49067106843,-2.13071084023,-0.231254577637,2.06491160393,-1.0246142149,0.0466174222529,-0.611388087273,0.802482783794,-1.1073384285,0.36253118515,-7.01499538991e-06,0.0697686672211,-1.02505648136,0.427358352796,-0.311721997653,0.3626250808,0.0732334723254,0.957623465859,0.277605845158,-0.0230032735162
-0.0911508947611,-0.131548017263,-0.519665956497,-2.1213593483,-0.231226593256,2.06654191017,-1.05201506615,0.0466174222529,-0.583718955517,0.68808400631,-0.983977615833,0.27790158987,0.000282687513391,0.0397434905171,-0.930359303951,0.415783581731,-0.332852869323,0.356831531873,0.0707407014665,0.959960532312,0.269275162467,-0.0310228323766
-0.100794054568,-0.120766624808,-0.535864233971,-2.11715459824,-0.231204926968,2.06712627411,-1.06796193123,0.0466174222529,-0.535735547543,0.574774980545,-0.8801612854,0.22191528976,0.00460138451308,0.0256404895335,-0.914805471897,0.408371059396,-0.344404388093,0.353543068967,0.0689925560702,0.9611918883,0.264729911064,-0.0356125673516
-0.110894434154,-0.111026719213,-0.551418244839,-2.11361765862,-0.231188356876,2.06731414795,-1.08496034145,0.0466174222529,-0.52597284317,0.466694265604,-0.762839317322,0.158750206232,0.00175627693534,0.00334322918206,-0.882006883621,0.400436136461,-0.355531606149,0.350439538174,0.0670365924877,0.962237771071,0.260758911396,-0.04011679213
-0.118973374367,-0.104407526553,-0.562929809093,-2.11154389381,-0.23117031157,2.06728959084,-1.09882378578,0.0466174222529,-0.489569157362,0.365080803633,-0.686660051346,0.0986711978912,0.000476110551972,-0.00243606884032,-0.84296220541,0.393578429235,-0.364228483772,0.348029728028,0.0652538152461,0.962949378597,0.258003114391,-0.043644318213
-0.128887102008,-0.0980169326067,-0.576149642467,-2.11022305489,-0.231166779995,2.06728363037,-1.11582410336,0.0466174222529,-0.426362991333,0.24440099299,-0.555269539356,0.0385721772909,7.61339470046e-05,0.00153996457811,-0.76611250639,0.385851550517,-0.373056859715,0.345607420132,0.0631717040321,0.963624868974,0.255384847199,-0.047064075674
-0.145163834095,-0.0928026288748,-0.596045792103,-2.11018013954,-0.231180980802,2.06668543816,-1.14747285843,0.0466174222529,-0.294151186943,0.0165528263897,-0.35480004549,-0.00910774245858,0.000231599842664,-0.0291002355516,-0.661050796509,0.372095371059,-0.386705027961,0.342728593098,0.0594252913095,0.964156746161,0.253441380456,-0.0513601981034
-0.149930879474,-0.0929640978575,-0.60157597065,-2.11026978493,-0.231175541878,2.06613397598,-1.15895926952,0.0466272719204,-0.23167745769,-0.0240226201713,-0.254299938679,0.0059243417345,7.2784519034e-06,-0.028813989833,-0.614265501499,0.367982277032,-0.390425187114,0.342533583161,0.0584060908016,0.964032237085,0.254016670846,-0.0520202368627
-0.153550416231,-0.0939399525523,-0.605267703533,-2.11015820503,-0.231177866459,2.06580638885,-1.16980338097,0.0466272719204,-0.175440236926,-0.086587280035,-0.160543367267,0.00369580183178,5.25501345692e-05,-0.00851632189006,-0.596036911011,0.365078233631,-0.39308781295,0.342853440344,0.0578894492385,0.963617907744,0.255684126177,-0.052105343836
-0.157656624913,-0.100704669952,-0.608988285065,-2.10971474648,-0.231174513698,2.06575536728,-1.19545412064,0.0466272719204,0.00753794936463,-0.182726249099,0.00332151469775,0.0248979926109,0.00014499759709,9.64255959843e-05,-0.479444295168,0.362002892863,-0.396015175804,0.345783049652,0.0584119528907,0.961455094489,0.264025817517,-0.0498248172777
-0.157053694129,-0.104126557708,-0.608613789082,-2.10921287537,-0.231169998646,2.06576323509,-1.2037268877,0.0466272719204,0.0597857609391,-0.207879781723,0.038649469614,0.0341048277915,0.000228251810768,-0.00542294187471,-0.470664620399,0.362446155377,-0.395770864064,0.347473330611,0.0591735260129,0.960293086578,0.268321824235,-0.048364036442
-0.155536413193,-0.107540555298,-0.607597470284,-2.10848116875,-0.231167674065,2.06578707695,-1.21150147915,0.0466272719204,0.112057618797,-0.19399677217,0.0772866085172,0.0520532988012,0.000116449380585,0.00116890738718,-0.444733381271,0.363464748087,-0.395071348055,0.349189671334,0.0600706025413,0.959045199522,0.272808935921,-0.046894692206
-0.148102298379,-0.116714581847,-0.600718319416,-2.10470199585,-0.231081560254,2.06584143639,-1.23157286644,0.0466285869479,0.192363619804,-0.173964679241,0.195068374276,0.100273631513,0.00344516802579,0.00297174532898,-0.370142608881,0.369745557405,-0.390599829489,0.355248815668,0.0639021421454,0.954291299318,0.288928655532,-0.0420102841846
-0.14610773325,-0.118409335613,-0.59864616394,-2.10363268852,-0.230999648571,2.06586003304,-1.23513448238,0.0466285869479,0.206982642412,-0.165848001838,0.216001883149,0.111048966646,0.0120517378673,0.003305276623,-0.346077829599,0.371694680985,-0.389183613001,0.356697124238,0.0649216988195,0.95310290198,0.292761087173,-0.0408775829366
-0.141132712364,-0.121793724597,-0.593588232994,-2.10105228424,-0.230789765716,2.06598520279,-1.24267220497,0.0466285869479,0.243746295571,-0.146102339029,0.236344233155,0.12472512573,0.00396985188127,0.00877157878131,-0.33031770587,0.37585286155,-0.386120467759,0.359465827528,0.0669766172663,0.950668364098,0.300403916345,-0.0387463672816
-0.135777533054,-0.124673806131,-0.588572263718,-2.09835672379,-0.230605915189,2.06620621681,-1.2496843338,0.0466285869479,0.262120246887,-0.126757383347,0.248559623957,0.131603777409,0.00710587017238,0.00940932333469,-0.328423529863,0.380334225823,-0.382779315967,0.362231235386,0.0691315165619,0.948064076306,0.308303660711,-0.0366632393153
-0.12816798687,-0.128039076924,-0.580986142159,-2.09472346306,-0.230297803879,2.0665678978,-1.25831353664,0.0466285869479,0.269879281521,-0.0969684720039,0.273648172617,0.120784170926,0.00602109357715,0.0142196649686,-0.26796245575,0.386796499949,-0.377715121989,0.365798311006,0.0720223087508,0.944368983146,0.319099194786,-0.0339957981009
-0.123527437449,-0.129553422332,-0.576246142387,-2.09266924858,-0.230131447315,2.06681394577,-1.26282691956,0.0466285869479,0.274489253759,-0.0857075750828,0.286752134562,0.118109725416,0.0123141007498,0.010726261884,-0.262200564146,0.390725322029,-0.374497224727,0.367680921757,0.0736362465197,0.942142139065,0.325394860788,-0.0326201970529
-0.119965948164,-0.130574181676,-0.572454631329,-2.09116101265,-0.230029582977,2.06696009636,-1.26609861851,0.0466285869479,0.27479198575,-0.0715979859233,0.299755483866,0.113722033799,0.010559190996,0.0158569402993,-0.244048863649,0.393756921097,-0.371921972057,0.369037653445,0.074818135717,0.940404837374,0.330210310238,-0.0316565808367
-0.11319643259,-0.131769865751,-0.565505504608,-2.08856511116,-0.229951262474,2.06726384163,-1.27169680595,0.0466285869479,0.279428720474,-0.0313495509326,0.275328367949,0.102295435965,0.00275162281469,0.0137405321002,-0.217608869076,0.399340398869,-0.367022894034,0.371160182761,0.0768132950972,0.9371586073,0.338997611701,-0.0302337792316
-0.106101229787,-0.132512062788,-0.558250963688,-2.0862019062,-0.229856714606,2.06754183769,-1.27744281292,0.0466285869479,0.253114879131,-0.0185683686286,0.275180727243,0.0807563886046,0.00327609316446,0.00900084339082,-0.206122085452,0.405052310762,-0.361729632404,0.372984497938,0.0786152681852,0.933686552948,0.34814482429,-0.0290558334665
-0.10016323626,-0.13266210258,-0.551939070225,-2.08461070061,-0.229715570807,2.06773138046,-1.28211867809,0.0466298982501,0.24522779882,0.00172387063503,0.259054094553,0.0530879311264,0.00458484329283,0.0020949866157,-0.195232003927,0.409799149126,-0.357042991387,0.374118089086,0.0798372594437,0.930692636532,0.355855578104,-0.0283555202083
-0.097012206912,-0.132649689913,-0.548653483391,-2.08399939537,-0.229682415724,2.06779408455,-1.28470170498,0.0466298982501,0.240557223558,0.00237676431425,0.252284735441,0.035936228931,0.000349745387211,0.00249884231016,-0.195934131742,0.412219386339,-0.354512903545,0.374557382373,0.080355122207,0.92906676119,0.359982737134,-0.028114697887
-0.0930617973208,-0.13255392015,-0.544355690479,-2.08353710175,-0.229633823037,2.06793427467,-1.28789150715,0.0466298982501,0.225569948554,0.0111071895808,0.248060822487,0.0132613414899,0.0028217707295,0.0123791499063,-0.177399784327,0.41524699522,-0.351189480062,0.374934888398,0.080893395859,0.926975584318,0.365231502843,-0.0279011397541
-0.0883669406176,-0.132311910391,-0.539466202259,-2.08342862129,-0.229547470808,2.06811070442,-1.29136419296,0.0466298982501,0.219814836979,0.0155536141247,0.211413711309,0.000805835414212,0.00195837742649,0.00306612462737,-0.147883087397,0.418653573652,-0.347211386475,0.375097677188,0.0813025561834,0.924553334459,0.371239157827,-0.0277941266917
-0.0822318568826,-0.131537154317,-0.533587038517,-2.08356976509,-0.229511976242,2.06809806824,-1.29633498192,0.0466298982501,0.178028523922,0.0331703051925,0.176908999681,-0.00462252087891,-0.000123030142277,0.000415286544012,-0.161431252956,0.422783009784,-0.342116229024,0.374915982554,0.08149481649,0.921340797607,0.379081203951,-0.0280565508046
-0.0769734308124,-0.130260825157,-0.528333246708,-2.08369755745,-0.229495182633,2.06809449196,-1.30086064339,0.0466298982501,0.144723057747,0.0375614650548,0.133550345898,-0.00994085334241,-0.000378709548386,-0.000641737191472,-0.121272578835,0.426369506718,-0.337621470537,0.374486449231,0.0815336681756,0.918432354268,0.386028906939,-0.0285649133872
-0.0745582953095,-0.129462718964,-0.52614235878,-2.08382225037,-0.229489296675,2.06809020042,-1.30308747292,0.0466305576265,0.125186875463,0.0489015318453,0.109210878611,-0.00349534512497,0.000251474848483,-0.000112607915071,-0.120167389512,0.427920663496,-0.335628572622,0.374149932059,0.0814560564857,0.917091504468,0.389193728469,-0.028919278967
-0.0703556463122,-0.127143800259,-0.521868288517,-2.08425688744,-0.2294819206,2.06808114052,-1.30831336975,0.0466305576265,0.0523203797638,0.0546162649989,0.0613875649869,-0.00608868338168,-0.000131731940201,-0.000292327691568,-0.108123064041,0.430739176715,-0.331907721679,0.37304986628,0.0810281918371,0.914360286782,0.395570899212,-0.0300559721408
-0.0697334706783,-0.126404926181,-0.521077573299,-2.08437585831,-0.229480370879,2.06807971001,-1.30981314182,0.0466305576265,0.0304838195443,0.0481940023601,0.0466141626239,-0.00713138328865,-0.00013830998796,0.000163178308867,-0.0904207229614,0.431258213208,-0.33121018291,0.372639637721,0.0808270220988,0.91370694893,0.397085656019,-0.0304891036307
-0.0693034380674,-0.125546365976,-0.520379841328,-2.08456659317,-0.229480475187,2.06807398796,-1.31124413013,0.0466305576265,0.00723319267854,0.0474247038364,0.0231711994857,-0.00931639876217,0.000439575087512,0.000447063561296,-0.0687243789434,0.431572288852,-0.330757322855,0.372228394105,0.0806056157185,0.913248969506,0.398150585199,-0.0309057534599
-0.0692219361663,-0.124672196805,-0.520189583302,-2.08473086357,-0.229479536414,2.06807160378,-1.31266105175,0.0466305576265,-0.0048471307382,0.0437784381211,0.00170700834133,-0.00977763254195,-0.000193165411474,-0.000558330444619,-0.0820317715406,0.431659552932,-0.330611960841,0.371757719584,0.0803271928222,0.912900305021,0.398967902052,-0.0313877045761
-0.0696762427688,-0.123578116298,-0.520457267761,-2.08499789238,-0.229481399059,2.06804513931,-1.31502866745,0.0466305576265,-0.0265773236752,0.0335048921406,-0.0136555097997,-0.0087818512693,-1.68848910107e-05,-4.83466028527e-05,-0.0836427882314,0.431399754344,-0.330876282236,0.371117143299,0.0798897628497,0.912558173361,0.399783606191,-0.0320667105444
-0.0701716169715,-0.123134702444,-0.520745158195,-2.08515381813,-0.229481235147,2.06803202629,-1.31618440151,0.0466305576265,-0.0398556217551,0.0274044424295,-0.0264847520739,-0.00798150338233,-0.000197470319108,-0.0015401361743,-0.0712454095483,0.431099275906,-0.331210706609,0.370807896776,0.0796552987131,0.912477177228,0.399988583132,-0.0323970287183
-0.0709328502417,-0.122675023973,-0.521253228188,-2.08536815643,-0.229483932257,2.06802153587,-1.31727325916,0.0466305576265,-0.0395418554544,0.0166139937937,-0.0240202471614,-0.0111015969887,-1.57937290624e-06,-0.001675065374,-0.0507823675871,0.430669831264,-0.331695366207,0.3704934456,0.0794048830442,0.912509679129,0.3999379382,-0.0327199528309
-0.0715432167053,-0.122489482164,-0.521707653999,-2.08553195,-0.229483708739,2.06801104546,-1.31802773476,0.0466312132776,-0.0500800423324,0.0133578768,-0.0348958149552,-0.0108856232837,0.000131957407575,0.000344495958416,-0.0538298152387,0.430286468691,-0.332123993174,0.370310849031,0.0792349201423,0.912570558209,0.39981733536,-0.0329074724852
-0.0731516182423,-0.122286729515,-0.52323025465,-2.08597636223,-0.229487240314,2.0679833889,-1.32006287575,0.0466312132776,-0.0461857691407,-0.00043505555368,-0.0494358502328,-0.0126129323617,5.11124271725e-05,-0.00289301807061,-0.0573748312891,0.429152635438,-0.333388628634,0.369941323311,0.0788246823662,0.912790811858,0.399364162959,-0.0332846550542
-0.0740133151412,-0.12229205668,-0.524283766747,-2.08616375923,-0.229485601187,2.06796598434,-1.32110059261,0.0466312132776,-0.0482943914831,-0.000266007962637,-0.0573134981096,-0.0113051617518,-3.20785402437e-05,-5.94920384174e-05,-0.0609508603811,0.428434944331,-0.334218225458,0.369805173006,0.0786255182443,0.912979148677,0.398960644094,-0.033429120633
-0.0747992247343,-0.122309364378,-0.525200605392,-2.08625769615,-0.229487389326,2.06796073914,-1.32208359241,0.0466312132776,-0.0500197298825,-0.0013868228998,-0.0565760321915,-0.00320900720544,-0.000232475067605,-0.000620475213509,-0.0679484531283,0.42788139365,-0.334887683507,0.369738103162,0.0785033271279,0.913116203525,0.398663225187,-0.0335210240463
-0.07571002841,-0.12233363837,-0.526306390762,-2.08628320694,-0.229486823082,2.06795406342,-1.3231099844,0.0466312132776,-0.0480829328299,-0.00148365227506,-0.0644701570272,-0.00113282504026,0.000220511443331,0.000343392137438,-0.0497770942748,0.427199908851,-0.335745818228,0.369695008509,0.0783851563384,0.913317797192,0.398217245408,-0.0336064538128
-0.0767685323954,-0.122369863093,-0.527507305145,-2.08627009392,-0.229487448931,2.06795811653,-1.32399094105,0.0466312132776,-0.0571691468358,-0.0011695594294,-0.0552137084305,0.000408708583564,0.00134481862187,-4.74967855553e-05,-0.0433803237975,0.426445091056,-0.336714489803,0.369673877773,0.0782836760742,0.913596511872,0.397591630328,-0.0336745412672
-0.0783222690225,-0.122419297695,-0.529258191586,-2.0862736702,-0.229488521814,2.06795334816,-1.32553982735,0.0466312132776,-0.053535785526,-3.52485003532e-05,-0.0574725605547,-0.000856678117998,5.11795296916e-05,4.32654705946e-05,-0.0518703274429,0.425330286995,-0.338123029393,0.369629064363,0.0781163756418,0.913951909844,0.396796724966,-0.0337949269246
-0.0792395994067,-0.122447371483,-0.530341207981,-2.08627319336,-0.229488223791,2.0679564476,-1.32638883591,0.0466312132776,-0.0475730039179,-0.000428302475484,-0.0625877380371,2.79037267319e-05,0.00011038773664,-3.44676809618e-05,-0.045535326004,0.424655128488,-0.338974793287,0.369602043593,0.0780180274892,0.914184218093,0.396274914276,-0.0338614053463
-0.0800667256117,-0.122453227639,-0.531337976456,-2.08627128601,-0.229489147663,2.06795573235,-1.32702219486,0.0466312132776,-0.052196316421,-0.00012105096539,-0.0549959912896,0.000162975658895,-2.7197061172e-06,-6.88854997861e-05,-0.0319804251194,0.42403833883,-0.339750425338,0.369568488403,0.0779250759537,0.914423369273,0.395735536379,-0.0339259368622
-0.0828626528382,-0.122451663017,-0.534493803978,-2.08631801605,-0.229486718774,2.06795239449,-1.32925283909,0.0466312132776,-0.0350531414151,-0.000685161969159,-0.0334865488112,-0.000566193251871,-2.47371735895e-06,-8.71317679412e-05,-0.0183740276843,0.422005200095,-0.342262774271,0.369426625406,0.0775946053883,0.915169089516,0.394052421729,-0.0341658223707
-0.0833189114928,-0.122456490993,-0.535017132759,-2.0863506794,-0.229488343,2.0679526329,-1.32948052883,0.0466312132776,-0.0284826904535,-1.91835133592e-05,-0.0322964154184,-0.0064501427114,-5.87394642935e-05,6.30755221209e-06,-0.0129738952965,0.421663613298,-0.342670706909,0.369393191837,0.0775337586577,0.915318701293,0.393713417279,-0.034204328187
-0.0836656987667,-0.122467599809,-0.535476565361,-2.08639550209,-0.229487612844,2.06795191765,-1.32970678806,0.0466312132776,-0.0205561667681,-0.00228840461932,-0.03001033701,-0.00705785816535,0.000118934556667,-0.000141845826874,-0.0133058084175,0.421397198982,-0.342980492883,0.369361213132,0.0774786985282,0.915427003281,0.393469667492,-0.0342355572708
