imanlab/tactile_prediction_flat_dataset/train/data_sample_2021-11-24-15-28-02/robot_state.csv
position_panda_joint1,position_panda_joint2,position_panda_joint3,position_panda_joint4,position_panda_joint5,position_panda_joint6,position_panda_joint7,position_panda_finger,velocity_panda_joint1,velocity_panda_joint2,velocity_panda_joint3,velocity_panda_joint4,velocity_panda_joint5,velocity_panda_joint6,velocity_panda_joint7,ee_state_position_x,ee_state_position_y,ee_state_position_z,ee_state_orientation_x,ee_state_orientation_y,ee_state_orientation_z,ee_state_orientation_w
-0.0158837269992,-0.0194541905075,0.0045613325201,-2.50496053696,0.0332027636468,2.49323749542,-0.735012173653,0.0736996680498,-4.59680413769e-05,1.8578261006e-05,0.00208516977727,0.000103106875031,-5.05341376993e-05,-6.69500950607e-05,0.000208493322134,0.465667822804,-0.00322493603681,0.178303423027,-0.00793179995488,0.939780471582,0.34160955546,0.00725693372073
-0.0158830471337,-0.0194585639983,0.00456081004813,-2.50495910645,0.0332028381526,2.49323773384,-0.735011279583,0.0736996680498,0.00158576236572,-0.000257012230577,0.000259305961663,-0.000311226962367,0.000143256736919,8.0119476479e-05,-0.000157499409397,0.465669207627,-0.00322492618885,0.178305734893,-0.0079307540737,0.939780455811,0.341609569926,0.00725943784278
-0.0158811379224,-0.0194595884532,0.00456203240901,-2.50495815277,0.0332027897239,2.49323678017,-0.735009968281,0.0736996680498,0.000382969417842,-0.000295474223094,0.000256605126197,0.000227067808737,8.9417975687e-05,-4.88153782499e-05,7.7541313658e-05,0.465669618332,-0.00322347272893,0.178306497623,-0.00793057451683,0.939780131544,0.341610456474,0.00725989375818
-0.015882641077,-0.0194562766701,0.00456124171615,-2.50496125221,0.0332049168646,2.49323582649,-0.735011398792,0.0736996680498,5.32356352778e-05,0.000762175535783,-0.00301700178534,-5.3908333939e-05,4.41318334197e-05,-9.55270388658e-06,-0.000190465696505,0.465667432096,-0.00322437230773,0.178303665985,-0.00793248506377,0.939780584608,0.341609233418,0.00725670758375
-0.0158900674433,-0.0194525104016,0.00455762725323,-2.50496220589,0.0332046225667,2.49323487282,-0.735010921955,0.0736990123987,4.79564041598e-05,0.000602789223194,0.000288239563815,-0.000226527467021,5.54034777451e-05,0.000264481495833,0.000313711701892,0.46566615505,-0.00322949683948,0.178301455349,-0.00793341538408,0.939782529237,0.341603917775,0.00725408226111
-0.0158869251609,-0.0194561947137,0.00455916486681,-2.50496435165,0.0332047864795,2.49323391914,-0.735009372234,0.0736990123987,0.000909995986149,-0.000840324966703,0.000355319993105,-0.000376450218027,4.0122817154e-05,5.57699422643e-05,0.000144939098391,0.465665519082,-0.00322730025182,0.178302250176,-0.00793337118172,0.939782011167,0.34160533846,0.00725434563882
-0.015881549567,-0.0194539185613,0.00456406641752,-2.50496602058,0.0332037359476,2.49323368073,-0.735012292862,0.0736990123987,0.000171124920598,0.00107327313162,0.000374517432647,0.000267573079327,-8.1587691966e-05,0.000144023404573,-0.000352660164936,0.465664357366,-0.00322257806396,0.178300517418,-0.00793380103638,0.939779631979,0.34161191868,0.00725222868305
-0.0158817134798,-0.0194515194744,0.00456579588354,-2.50496315956,0.0332043804228,2.49323534966,-0.735009908676,0.0736990123987,0.000179276132258,6.47140768706e-05,-0.000391854147892,0.00015547015937,3.26119152305e-05,6.81168728534e-07,-0.000193210013094,0.465665707776,-0.00322184042795,0.178300664382,-0.00793359108889,0.939779855856,0.341611285572,0.00725326930482
-0.0158870667219,-0.0194517411292,0.00456252926961,-2.50496864319,0.0332046672702,2.4932346344,-0.735012233257,0.0736990123987,-0.000815939623863,0.000743409967981,0.00169440580066,-0.000185738856089,4.59535331174e-05,9.73278583842e-05,-0.000241332469159,0.465662969641,-0.00322579072271,0.178298569169,-0.00793472312001,0.939780987831,0.341608202647,0.00725056213262
-0.0158851090819,-0.0194512251765,0.0045629190281,-2.50497126579,0.0332051068544,2.49323415756,-0.735011816025,0.0736990123987,-8.27801486594e-05,-0.00041469198186,0.000344271422364,-0.00042615502025,-6.01522115176e-05,-0.000141835887916,-0.000546385592315,0.465661555968,-0.00322465157734,0.178297265642,-0.00793549748756,0.939780727893,0.341608934837,0.00724890940872
-0.0158828869462,-0.0194523409009,0.00456401146948,-2.50497245789,0.0332035943866,2.49323248863,-0.735011577606,0.0736990123987,-0.000216000858927,-0.000107354091597,-3.10798459395e-05,-5.02972870891e-05,4.62669668195e-05,3.67201064364e-05,-4.29888459621e-05,0.465660846106,-0.00322306636563,0.178297279655,-0.00793535415901,0.939779976855,0.34161102312,0.00724802229785
-0.0158835314214,-0.0194494593889,0.00456509320065,-2.50496935844,0.0332029275596,2.49323415756,-0.735009133816,0.0736990123987,0.00323647097684,0.000171890438651,-0.000133195339004,0.00180444575381,-7.53116401029e-05,7.09473024472e-05,4.23083693022e-05,0.465662294281,-0.0032231311566,0.178297251549,-0.00793481444997,0.939780253558,0.341610258255,0.00724878501403
-0.0158881228417,-0.0194514077157,0.00456499867141,-2.50497436523,0.0332037135959,2.49323153496,-0.735009014606,0.0736990123987,0.000301040214254,0.000405067403335,0.000199262023671,-0.000183351658052,9.97231181827e-05,7.39211900509e-05,0.000346376822563,0.465659542191,-0.0032251371496,0.178295907014,-0.00793609910019,0.939781191566,0.341607703583,0.00724616107287
-0.0158871859312,-0.0194467566907,0.00456370739266,-2.50497412682,0.0332050956786,2.4932308197,-0.735009431839,0.0736996680498,-0.000118810792628,0.000390860368498,-8.32099540276e-05,2.17240722122e-05,3.91388057324e-05,0.000630148220807,0.000182579198736,0.46565878147,-0.003225195074,0.178293771821,-0.0079374203482,0.939781380077,0.341607201613,0.00724392921841
-0.015885906294,-0.0194468777627,0.0045643360354,-2.50497436523,0.0332052484155,2.49323034286,-0.735009849072,0.0736996680498,-0.000141537399031,0.000484518706799,0.000144263380207,0.000205342454137,0.000123431789689,0.000151729109348,-7.35434587114e-05,0.465658590086,-0.00322429318775,0.178293692788,-0.00793757343832,0.939781003677,0.341608239218,0.00724366217772
-0.01588319242,-0.0194466318935,0.00456714769825,-2.50497579575,0.0332051999867,2.49322962761,-0.735011637211,0.0736996680498,-0.000161823714734,-9.57799275056e-05,0.000269100622972,-9.41264734138e-05,1.97910248971e-05,-4.92755170853e-05,-5.49177548237e-06,0.465657738086,-0.00322171651708,0.178292956983,-0.00793797825843,0.93977975437,0.341611690982,0.00724251677377
-0.0158844161779,-0.0194473043084,0.00456800591201,-2.50497150421,0.0332044512033,2.49323034286,-0.735011458397,0.0736996680498,-0.00031829578802,0.000183983152965,4.3124306103e-05,0.000233615326579,5.4922504205e-05,-1.93155538e-05,-9.6304465842e-05,0.46566002169,-0.00322196746253,0.178295003985,-0.00793674781231,0.939779730105,0.341611731862,0.00724508518627
-0.0158861894161,-0.0194448493421,0.00456564174965,-2.50497627258,0.0332032628357,2.49322962761,-0.735010504723,0.0736996680498,-0.000134071902721,0.000732779153623,0.00017891182506,-0.00147906586062,-7.69862599554e-05,-0.000162490425282,-7.86314340075e-05,0.46565670731,-0.00322390173993,0.178291274062,-0.00793815645558,0.939780454821,0.341609803501,0.00724045903395
-0.0158848818392,-0.0194438621402,0.00456658750772,-2.50498270988,0.033202920109,2.49322891235,-0.735009074211,0.0736996680498,7.60723105486e-06,0.000488103978569,0.000415912159951,1.28066758407e-05,3.731292054e-06,6.58712306176e-05,3.69525478163e-05,0.465653876058,-0.00322285310653,0.178288908523,-0.00793918641285,0.93978030802,0.341610248138,0.00723740494511
-0.0158834457397,-0.0194430723786,0.00456437561661,-2.50497770309,0.0332033224404,2.49322938919,-0.735010385513,0.0736996680498,0.000417072355049,2.9456206903e-05,-0.000444017583504,-0.000730494852178,-4.68738144264e-05,3.06460970023e-05,-0.000142176970257,0.465656216038,-0.00322324213468,0.178290384053,-0.00793853417789,0.939780325892,0.341610167391,0.00723961077024
-0.0158860906959,-0.0194427315146,0.0045665698126,-2.50498223305,0.0332030579448,2.49322748184,-0.735008776188,0.0736996680498,0.000147703191033,-0.000288408773486,-6.98904332239e-05,-0.000734039931558,6.00799357926e-05,-4.47191050625e-05,-0.000145181053085,0.465653610683,-0.00322340106662,0.178288439686,-0.00793960921944,0.939780589082,0.341609485196,0.00723645643322
-0.0158846490085,-0.0194405429065,0.00456775445491,-2.50497865677,0.0332035198808,2.49322843552,-0.735010564327,0.0737003237009,-0.000118581476272,-0.000277520477539,2.92456406896e-05,-1.6731552023e-05,-1.86431261682e-05,-3.49564470525e-05,-0.000327514251694,0.465655178432,-0.00322217627829,0.17828889882,-0.00793931263165,0.939779891516,0.341611387039,0.00723759285508
-0.0158835146576,-0.0194327309728,0.00456780940294,-2.5049841404,0.0332011952996,2.49322795868,-0.735009849072,0.0737003237009,6.82686950313e-05,0.00147183355875,-0.000379308243282,-0.000386405794416,8.52061748446e-06,3.50359878212e-05,-0.000112596986583,0.46565127484,-0.00322171379872,0.178283080716,-0.0079411102372,0.939779549053,0.341612429276,0.00723089213397
-0.0158863142133,-0.0194345042109,0.00456454046071,-2.50498557091,0.033204305917,2.49322485924,-0.735009729862,0.0737003237009,-0.000319727230817,-0.00012487253116,1.2548867744e-05,0.00037684707786,-3.6010704207e-05,0.000203168645385,-0.000350029789843,0.465650185443,-0.0032243021671,0.178283075938,-0.0079425170977,0.939781017878,0.341608374783,0.00722999466418
-0.0158875435591,-0.0194375570863,0.00456559611484,-2.50497984886,0.033204190433,2.4932281971,-0.73500841856,0.0737003237009,0.000164639684954,0.00026003018138,-0.000324056920363,-9.07686626306e-05,4.34829162259e-05,-1.09282473204e-06,0.000347699970007,0.465654086992,-0.00322446483267,0.178287024028,-0.00794029825354,0.939781224855,0.341607737791,0.00723562308332
-0.0158844720572,-0.0194336120039,0.0045659695752,-2.50498270988,0.033201508224,2.49322605133,-0.735010147095,0.0737003237009,-0.00050405022921,-0.000840050284751,-0.000502082169987,-0.000698447984178,-0.00019586677081,-6.95322751199e-06,4.69039041491e-05,0.465651662441,-0.003222981872,0.178283877519,-0.00794115453178,0.939780009095,0.341611157352,0.00723114299963
-0.0158821977675,-0.0194328539073,0.00456883432344,-2.5049905777,0.0332034491003,2.49322557449,-0.735008716583,0.0737003237009,0.000604539411142,0.0010566188721,0.00222277618013,-0.000239794899244,8.60762738739e-05,-2.44467519224e-05,0.000187445126357,0.465647746681,-0.00322042889128,0.178280420952,-0.00794331124927,0.939779664823,0.341612140604,0.00722706515131
-0.0158835742623,-0.0194281581789,0.00456838449463,-2.50498843193,0.0332041718066,2.49322390556,-0.735009968281,0.0737003237009,0.000288418639684,-0.000426041224273,-0.000301362306345,-0.000253247446381,-9.72459674813e-05,2.54042970482e-05,-0.000628905952908,0.465647665352,-0.00322121620824,0.178278921205,-0.00794428194043,0.939779867979,0.341611598672,0.00722519656227
-0.0158865619451,-0.0194303262979,0.00456787925214,-2.5049893856,0.0332037992775,2.4932243824,-0.73500841856,0.0737003237009,-3.55723750545e-06,-0.000120732838695,0.000336606870405,0.000120621007227,-2.97287515423e-05,-3.26104454871e-05,0.000250601122389,0.465647642313,-0.0032228692764,0.178279601793,-0.00794386590381,0.939780675438,0.341609371023,0.00722595217503
-0.0158860199153,-0.0194300357252,0.00456545548514,-2.50498390198,0.0332037769258,2.49322628975,-0.735009431839,0.0737003237009,-0.000181320414413,0.000291176722385,0.000313185213599,-1.51366002683e-05,-0.000132822038722,5.09075980517e-05,0.000235550367506,0.465650596939,-0.00322378692073,0.178281772395,-0.00794259784154,0.939780801882,0.34160898218,0.00722928312011
-0.01588665694,-0.019428819418,0.00456676073372,-2.50499153137,0.0332030132413,2.49322485924,-0.735009014606,0.0737003237009,0.000489344645757,0.000188638383406,3.77596952603e-05,-0.00035176955862,9.46494583332e-06,3.259380901e-05,-0.000285085145151,0.465646494206,-0.00322346933802,0.178278106596,-0.00794420408336,0.939780689343,0.341609357963,0.00722438917563
-0.0158850159496,-0.0194209758192,0.00456910533831,-2.50499606133,0.0332035310566,2.49322342873,-0.73500841856,0.0737003237009,-7.40870891605e-05,0.000297584279906,0.000939780380577,1.96895671252e-05,0.000160494251759,0.000134047382744,-0.000113393914944,0.465642843463,-0.00322153091616,0.178272563081,-0.00794681104841,0.93978022353,0.3416107144,0.00721797406788
-0.0158794671297,-0.0194251351058,0.00457413448021,-2.50499153137,0.0332036390901,2.4932243824,-0.735009014606,0.0737003237009,5.9751648223e-05,1.67233210959e-05,0.000164766970556,-0.000133544264827,-7.99316621851e-05,0.000184054268175,-0.000174133703695,0.465645937249,-0.0032167480398,0.178276312754,-0.00794507503642,0.939778307392,0.341615932553,0.0072223991762
-0.0158845074475,-0.0194218829274,0.00456920592114,-2.5049905777,0.0332021526992,2.49322485924,-0.735009074211,0.0737003237009,-0.000461796909804,-0.00030392134795,-0.00387826259248,-0.000414806854678,3.9373353502e-05,0.000162003867445,0.000576970458496,0.465645884141,-0.00322137882037,0.178275246694,-0.00794502359007,0.939779801463,0.341611843131,0.00722147360938
-0.0158905293792,-0.0194236189127,0.00456515420228,-2.50499248505,0.0332024618983,2.49322390556,-0.735009670258,0.0737016424537,0.000684524013195,-0.000128605548525,-0.00109243066981,0.000307142414385,0.000297474995023,0.000242034628172,0.000321380910464,0.465645012413,-0.00322602243248,0.178275227762,-0.00794531533336,0.939781461614,0.341607278354,0.0072210409661
-0.0158869810402,-0.0194213259965,0.00456827599555,-2.50499343872,0.0332023017108,2.49322390556,-0.735007464886,0.0737016424537,0.000480221526232,0.000432024389738,0.00190752092749,-0.000359298544936,1.1948930478e-05,-0.000173395645106,0.000353276991518,0.465644228307,-0.00322292541182,0.178273788373,-0.00794585045449,0.939780689617,0.341609423129,0.00721945987302
-0.015878289938,-0.0194185227156,0.00457735080272,-2.50499653816,0.0332024469972,2.49322342873,-0.735008239746,0.0737016424537,-4.92712570122e-05,1.31955266625e-05,3.09957395075e-05,0.000450101098977,0.00017792476865,-0.000122058874695,-0.00571964774281,0.465642284014,-0.00321464376538,0.17827123317,-0.0079470058599,0.939777564075,0.341618059342,0.00721639642204
-0.0158804021776,-0.0194211322814,0.00457525579259,-2.50499033928,0.0332030914724,2.4932243824,-0.735007882118,0.0737016424537,-0.000431018357631,0.00231188139878,-0.000203590854653,0.000254858809058,-6.98240473866e-05,-0.00020557861717,-3.40482220054e-05,0.465645490701,-0.00321621669673,0.17827435533,-0.00794580609106,0.939778265529,0.341616073453,0.00722037740449
-0.0158852227032,-0.0194188412279,0.00457229465246,-2.50499153137,0.0332028195262,2.49322462082,-0.735008180141,0.0737016424537,-0.00306336442009,0.000658595177811,-0.000382475234801,-0.000241474146605,-0.000123069214169,-7.66135053709e-05,0.00034582943772,0.465644920259,-0.00322022686729,0.178273438317,-0.00794595082535,0.939779651942,0.341612273639,0.00721954619618
-0.0158877130598,-0.0194196272641,0.004569564946,-2.5049943924,0.033203240484,2.49322247505,-0.735007882118,0.0737016424537,-1.41187001645e-05,0.000203627336305,-0.00328025710769,0.000256338244071,-6.84003243805e-05,3.21437692037e-05,-0.000123135178001,0.46564304122,-0.00322246803784,0.178272490819,-0.00794678057747,0.939780510213,0.341609934746,0.00721758068942
-0.0158853922039,-0.0194201972336,0.00457325018942,-2.50499510765,0.0332028605044,2.49322390556,-0.735008776188,0.0737016424537,-0.000116356823128,0.000517523207236,0.00464270077646,0.00017075696087,-7.41969633964e-05,3.71820497094e-05,4.15164467995e-05,0.465643287751,-0.00321983844835,0.178272613358,-0.00794647728878,0.939779429427,0.3416129025,0.00721817539585
-0.0158838685602,-0.0194160267711,0.00457437336445,-2.50499343872,0.0332024991512,2.49322271347,-0.735007762909,0.0737016424537,-0.00031195540214,0.000548527284991,0.00387283740565,-0.000330169248627,-8.19974302431e-05,-9.64365826803e-05,0.000100049706816,0.465643178282,-0.00321861853532,0.178271213808,-0.00794705225904,0.939779111334,0.341613801757,0.00721639776284
-0.0158818587661,-0.0194164309651,0.00457648234442,-2.50499510765,0.0332029908895,2.49322366714,-0.735008299351,0.0737016424537,0.000315587210935,-0.000120750337373,0.000137877010275,-8.34883758216e-05,-0.000165557459695,0.000148308361531,0.000125910373754,0.465642674994,-0.00321667835557,0.17827083819,-0.00794722719597,0.939778386303,0.341615794724,0.00721628015029
-0.0158903375268,-0.0194156803191,0.00457040267065,-2.50499773026,0.0332033336163,2.49322223663,-0.735008537769,0.0678559914231,-0.000341751467204,0.00026080783573,0.000262248853687,-0.000390095054172,-8.75651530805e-05,2.71391581919e-06,-1.23883974084e-05,0.465640962547,-0.00322338720977,0.178269340441,-0.0079481909665,0.939780889187,0.341608931669,0.00721415757059
-0.0158905051649,-0.0194160919636,0.00456990487874,-2.50499606133,0.0332026109099,2.49322295189,-0.735008358955,0.0678559914231,0.000148106468259,0.000314171891659,0.00014646766067,-0.00296731339768,-2.76440641755e-05,5.33460006409e-05,-0.000143612356624,0.465641966576,-0.00322375741362,0.178270245048,-0.00794748747976,0.939780929847,0.34160881024,0.00721538576194
-0.015886567533,-0.0194139759988,0.00457160128281,-2.50499510765,0.0332023091614,2.49322104454,-0.735007822514,0.0678559914231,0.000157802292961,0.00409051915631,0.000226083953748,0.000408375548432,1.05244353108e-05,-3.1666495488e-05,0.000283162808046,0.465641690912,-0.0032211386901,0.178269459642,-0.00794797765073,0.939780023345,0.341611324106,0.00721389651768
-0.0158819183707,-0.0194117464125,0.00457891495898,-2.50500011444,0.0332016013563,2.49322032928,-0.735007584095,0.0678559914231,0.000198942580028,0.000190044316696,-8.30851131468e-05,0.000391515874071,-9.47190856095e-05,0.000111546389235,-3.63968538295e-05,0.465638747724,-0.0032156701889,0.178266443983,-0.00794930218991,0.939778109012,0.341616641917,0.00720999784835
-0.0158844329417,-0.0194113329053,0.00457585090771,-2.50499629974,0.0332031361759,2.49322080612,-0.735008120537,0.0678559914231,4.92309955007e-05,-0.000609002832789,8.5479059635e-06,3.6055855162e-05,-0.000182945732377,0.000101782388811,3.17492667818e-05,0.465640689313,-0.00321811253965,0.17826774418,-0.0079489207206,0.939779005988,0.341614139987,0.00721204623612
-0.0158836264163,-0.0194119345397,0.00457640644163,-2.50499796867,0.0332015752792,2.49322104454,-0.73500752449,0.0678559914231,3.32075687766e-05,-0.000211459671846,-0.000280968350125,0.000467992125778,5.71552118345e-05,-0.000409884640248,-0.000352524395566,0.465640046966,-0.00321757189708,0.178267393974,-0.00794862347562,0.939778671593,0.341615078893,0.00721147440531
-0.0158837176859,-0.0194137375802,0.00457623135298,-2.50499939919,0.0332016274333,2.49322032928,-0.735006809235,0.0678559914231,2.35682964558e-05,-0.000311737705488,-0.000149517290993,6.81435194565e-05,-0.00028608168941,3.35658587574e-05,-0.000148542123497,0.465639493628,-0.0032176818223,0.178267612633,-0.00794870670493,0.939778844908,0.341614603416,0.00721132060278
-0.0158878825605,-0.0194139927626,0.00457359338179,-2.50499725342,0.0332015566528,2.49322080612,-0.735005795956,0.0678559914231,0.000208899975405,-0.000416090508224,0.000789706478827,-0.000464356446173,0.000132988599944,-0.000199743677513,-0.000258581421804,0.465640628504,-0.00322086253092,0.178268609641,-0.00794817654009,0.939780161672,0.341610964435,0.0072126890044
-0.0158878564835,-0.0194103904068,0.00457275891677,-2.50500035286,0.0332033000886,2.49322128296,-0.735004484653,0.0678559914231,0.000769110454712,-0.000352266768459,0.000299908861052,-0.000314802950015,-9.96932649286e-05,-0.000129094405565,0.000337864330504,0.465638712996,-0.00322110764956,0.178265770641,-0.00794977664678,0.939780779178,0.341609285808,0.00720997051702
-0.0158845689148,-0.0194077473134,0.0045750210993,-2.50499796867,0.0332024879754,2.49322199821,-0.735005736351,0.0678559914231,0.00014887364523,0.000545581860933,5.45170987607e-05,3.31591509166e-05,-8.70301028044e-06,-0.000200575435883,-0.000206844357308,0.465639666026,-0.00321844822805,0.178265476031,-0.00794940654125,0.9397794403,0.341612977017,0.00721000311086
-0.0158795490861,-0.0194082893431,0.00458202604204,-2.50500178337,0.0332038253546,2.49321937561,-0.735006570816,0.0678559914231,0.000355534401024,0.000637713936158,-0.000219172026846,0.00035892392043,1.58219390869e-05,-0.000105511062429,0.000396620103857,0.465637353653,-0.00321288846733,0.178264064457,-0.00795088263426,0.939777504399,0.341618323208,0.00720740084303
-0.0158820413053,-0.0194075293839,0.00457904022187,-2.50499987602,0.0332026034594,2.49321889877,-0.735006868839,0.0678559914231,-0.000631973787677,0.00047010826529,-0.000290133117232,0.000131334323669,0.000189162397874,0.000119875265227,-0.000434242159827,0.465638012489,-0.00321550931518,0.178264409105,-0.00795043304304,0.939778222341,0.341616354103,0.007207615669
-0.0158880539238,-0.0194096099585,0.00457454286516,-2.5049996376,0.033202689141,2.49321937561,-0.735005557537,0.0678559914231,-7.66344019212e-05,9.54678762355e-05,-0.0001257526892,-0.000113036709081,-0.000101784418803,-0.000129148276756,-0.000245703908149,0.465638517585,-0.00322039510271,0.178265513891,-0.00794996219032,0.939780244164,0.341610774203,0.00720898153246
-0.0158863700926,-0.0194093603641,0.00457493495196,-2.50499987602,0.0332017354667,2.49321889877,-0.735004961491,0.0678559914231,0.000249242963037,-0.000436736620031,0.000591882038862,-0.0016285238089,-2.10979196709e-05,3.95915485569e-05,-0.000494871637784,0.465638266804,-0.0032194822096,0.178265260911,-0.00794987512169,0.939779866431,0.341611827336,0.00720841509267
-0.015884751454,-0.0194067936391,0.00457702437416,-2.50500178337,0.0332051664591,2.49321913719,-0.735004484653,0.0678559914231,0.000600055034738,-0.00047458516201,-0.00034369432251,-0.00283159199171,-0.000328296184307,0.000129882537294,-0.000104088649096,0.465637040803,-0.00321753510563,0.178263348737,-0.00795158917137,0.939779786641,0.341612041239,0.00720678965578
-0.0158840194345,-0.0194068774581,0.00457916455343,-2.50500273705,0.0332021526992,2.49321913719,-0.73500430584,0.0678310394287,0.000104160761111,-0.000537673709914,-2.76291866612e-05,0.000159429124324,-6.27242343398e-06,-4.87477591378e-05,-9.2338937975e-05,0.465636605497,-0.00321638647845,0.178263012562,-0.00795088224989,0.939778929399,0.341614432001,0.0072060297029
-0.015885297209,-0.0194062665105,0.00457802880555,-2.50499629974,0.0332027971745,2.49321961403,-0.735005319118,0.0678310394287,-0.00024787519942,-7.66084340285e-05,0.000370815454517,-4.8821355449e-05,3.07068366965e-05,0.00017884906265,-0.000228913224419,0.465639648778,-0.00321750423213,0.178265277698,-0.00794994769286,0.939779233253,0.341613553786,0.00720906617343
-0.0158821009099,-0.0194011051208,0.00458071473986,-2.50500321388,0.0332033447921,2.49321866035,-0.7350050807,0.0678310394287,2.75083511951e-05,0.00177064631134,0.000268464471446,-5.94746870775e-06,8.71911652212e-06,-3.36462217092e-05,0.000530902529135,0.465635397075,-0.00321468064565,0.178260097817,-0.00795241744352,0.939778385304,0.341615956851,0.0072030051621
-0.0158817283809,-0.0194036792964,0.00457928609103,-2.50500369072,0.033202406019,2.49321889877,-0.735004544258,0.0678310394287,-0.000195214423002,0.000120566306578,0.000835168873891,0.000479290261865,-3.22192572639e-05,0.000197402230697,0.000145678088302,0.465635704717,-0.00321524447537,0.178261150868,-0.0079516905953,0.939778489343,0.341615666118,0.00720402207597
-0.0158874802291,-0.0194021072239,0.0045768795535,-2.50500321388,0.0332014672458,2.49321913719,-0.735003829002,0.0514261946082,-0.00320549751632,-0.000183526033652,0.00189184595365,-0.000513219449203,7.74732961872e-06,0.000128226092784,-0.000268087052973,0.465635622288,-0.00321908314728,0.178260605104,-0.0079516245758,0.939779919498,0.341611743648,0.00720353135631
-0.0158862974495,-0.0194044131786,0.00457715289667,-2.5049996376,0.0332027859986,2.49321866035,-0.735004246235,0.0514261946082,0.000501727918163,-0.000649024441373,3.21836669173e-05,0.000170028346474,-4.87841789436e-05,9.80710246949e-05,-5.16976542713e-05,0.465637571702,-0.00321834400537,0.178263029941,-0.00795104742975,0.939779753882,0.34161215637,0.00720620189492
-0.0158849135041,-0.0194057095796,0.00457841530442,-2.50499773026,0.0332029461861,2.49322009087,-0.7350050807,0.0514261946082,0.00385926268063,-0.000128903018776,-0.000281443179119,-0.000229898418183,-2.66745132649e-06,-6.42771919956e-05,9.56004660111e-05,0.465638993874,-0.00321713336078,0.178264504361,-0.00795025129197,0.939779169348,0.341613737241,0.00720836861243
-0.0158806331456,-0.0193987637758,0.00458185374737,-2.50500512123,0.033203151077,2.49321818352,-0.735003888607,0.0514261946082,0.000111967980047,-0.00043899618322,2.67683099082e-05,-2.61481818598e-05,-0.000126374245156,-0.000212675280636,0.000186170989764,0.465634037931,-0.00321346173767,0.178258222064,-0.00795320914026,0.939778133141,0.341616679497,0.00720075767589
-0.0158826056868,-0.0193982087076,0.0045811207965,-2.50500702858,0.0332011766732,2.49321866035,-0.735005378723,0.0514261946082,-0.000823301903438,-5.83997425565e-05,0.000961547950283,0.000110321358079,2.17834144678e-06,8.53216843097e-05,-6.5445623477e-05,0.465633142037,-0.00321483505927,0.178257261414,-0.00795298782858,0.939778087016,0.341616835356,0.00719962757394
-0.0158861167729,-0.0193982999772,0.00457664998248,-2.50500178337,0.0332035347819,2.49321937561,-0.735003948212,0.0514261946082,9.87748717307e-05,-0.000495650747325,-0.000208017008845,0.000362783728633,6.81996461935e-05,-4.98060762766e-05,-0.000159294097102,0.465635769285,-0.00321842678432,0.178259413191,-0.00795259627423,0.93977998858,0.341611547286,0.00720275814799
-0.0158855300397,-0.019399292767,0.00457908445969,-2.50500202179,0.0332016460598,2.49321937561,-0.735004603863,0.0514261946082,0.000258545071119,0.000515449151862,0.000502306269482,-0.00023068835435,-0.00018824635481,0.000578607665375,-0.00028375594411,0.465636006273,-0.00321710793644,0.178260107122,-0.00795179619247,0.939779087938,0.34161403352,0.00720323537612
-0.0158833805472,-0.0193924605846,0.00458223279566,-2.50500416756,0.0332019217312,2.49321913719,-0.735004067421,0.0514261946082,-0.000133750188979,-0.000599993916694,4.03310841648e-05,-0.000232258229516,-8.37622937979e-05,-3.71405476471e-05,-0.000391027657315,0.465633710574,-0.00321464109835,0.178255742252,-0.00795362511799,0.939778362668,0.341616084408,0.00719857411806
-0.0158826522529,-0.0193925276399,0.00458182627335,-2.50500297546,0.0332031734288,2.49321913719,-0.735004723072,0.0509428866208,-0.000216204629396,0.00320591079071,-0.000466953264549,9.22264225665e-05,0.000110692766611,-3.0623497878e-05,0.000127415318275,0.465634151857,-0.0032147408511,0.17825621845,-0.0079537617113,0.939778409443,0.341615940158,0.00719916224402
-0.015885297209,-0.0193936098367,0.00458074081689,-2.50500130653,0.0332005135715,2.4932179451,-0.73500418663,0.0509428866208,0.000380947458325,-0.00299617415294,0.000265126058366,-0.000612700532656,-0.000248378171818,0.000109166037873,-0.000569457421079,0.465634965318,-0.00321631711122,0.178257282686,-0.00795274394904,0.939778722939,0.34161508881,0.00719976106877
-0.0158854164183,-0.0193954929709,0.0045803738758,-2.50500512123,0.0332011729479,2.49321699142,-0.73500430584,0.0509428866208,5.76019665459e-05,9.17180950637e-05,0.000194401771296,-0.000438520102762,-1.80851657205e-05,0.000354075338691,-1.94679159904e-05,0.465633247152,-0.00321647626891,0.178256589938,-0.00795344719465,0.939778880171,0.341614666667,0.00719849064681
-0.0158848855644,-0.019390322268,0.00457947282121,-2.505007267,0.0332026779652,2.49321770668,-0.735004603863,0.0509428866208,0.000285761227133,-7.99854460638e-05,-0.000112628877105,0.000396931514842,1.92647257791e-05,4.33361929026e-05,-4.7323446779e-06,0.465631592146,-0.00321653554349,0.178253413057,-0.00795504299674,0.939779118358,0.341614035689,0.00719557473297
-0.0158827025443,-0.0193921755999,0.00457992311567,-2.50500535965,0.0332027971745,2.49321746826,-0.735005557537,0.0509428866208,-0.000419785588747,-4.14198393628e-06,0.000294581521302,0.000359923229553,3.40988881362e-05,7.48403690523e-05,0.000110870139906,0.465632736382,-0.00321531566487,0.178254997263,-0.00795445730523,0.939778508211,0.341615693018,0.00719722748997
-0.0158824045211,-0.0193923003972,0.00458282232285,-2.50500583649,0.0332033634186,2.49321866035,-0.735006153584,0.0509428866208,0.000154383553308,-0.00083612895105,-0.000186089484487,-0.000609462091234,-9.65451454249e-06,-0.000108159903903,-1.42670860441e-05,0.465632801989,-0.00321381046327,0.178254977017,-0.00795443753837,0.939777937123,0.341617255478,0.0071976570019
-0.0158843845129,-0.0193935856223,0.00458188401535,-2.50500774384,0.0332021340728,2.49321746826,-0.735004425049,0.0509428866208,-7.28994345991e-05,-0.000488346675411,0.000124554309878,0.000150861626025,8.82492895471e-06,-0.000123962076032,-0.000369650195353,0.465631827857,-0.00321522380914,0.178254724694,-0.0079544258047,0.939778569615,0.341615536264,0.00719668477914
-0.0158859938383,-0.019393587485,0.0045798337087,-2.50500535965,0.0332009345293,2.49321675301,-0.735005259514,0.0509428866208,5.52675737708e-05,-0.000375924515538,-2.27368291235e-05,-5.95806232013e-05,0.000123648904264,4.30657819379e-05,0.000467150064651,0.465632783602,-0.00321700144401,0.178255588269,-0.00795380382764,0.93977888401,0.341614671577,0.00719736231817
-0.0158829856664,-0.0193896144629,0.00458080135286,-2.505007267,0.0332019887865,2.49321675301,-0.73500341177,0.0509428866208,0.000313953467412,-0.000442815158749,-0.000100007462606,0.00138012378011,-1.41813779919e-05,-4.09661624872e-05,1.39954818223e-05,0.465631283316,-0.0032150678604,0.178252997079,-0.00795515797694,0.93977868159,0.341615252894,0.00719470404461
-0.0158815681934,-0.0193910896778,0.0045846933499,-2.50500416756,0.0332015231252,2.49321579933,-0.735004425049,0.0509428866208,-0.000165659163031,5.64270849281e-05,-0.00287684332579,0.000324841705151,9.91577326204e-05,-0.000141456825077,1.2218255506e-05,0.465632783069,-0.00321264702165,0.178254804195,-0.00795437748755,0.939777523882,0.341618421861,0.00719631975747
-0.0158812981099,-0.0193887241185,0.00458549242467,-2.50500655174,0.0332032181323,2.49321770668,-0.735005378723,0.0483602173626,5.21920992469e-06,-0.00330005981959,-0.000253255100688,-0.00170219084248,-6.30081049167e-05,-2.3091559342e-05,7.44670178392e-05,0.465631714504,-0.00321204712378,0.178252947543,-0.00795533177834,0.939777420594,0.341618708067,0.0071951667105
-0.0158834513277,-0.0193890873343,0.00458433572203,-2.50500965118,0.0332029387355,2.49321651459,-0.735005259514,0.0483602173626,-0.000410370004829,0.00252706697211,-0.00017289238167,0.000798015214968,6.87848005327e-05,-5.38368803973e-05,0.000531611440238,0.465630035711,-0.00321357461292,0.178251803066,-0.00795595750633,0.939777978832,0.341617196698,0.00719331976371
-0.015885906294,-0.0193916950375,0.00458108820021,-2.50500369072,0.0332026556134,2.49321651459,-0.735005736351,0.0483602173626,0.000412663473981,0.000148829145473,0.000107994681457,0.000322189356666,0.000173730411916,-5.43725691386e-05,-0.000341960345395,0.465633235224,-0.00321627543467,0.178255337477,-0.00795437018881,0.939778802948,0.341614882042,0.00719733142254
-0.0158821381629,-0.0193873271346,0.00458606239408,-2.5050110817,0.0332013070583,2.49321532249,-0.735004127026,0.0483602173626,-0.000261187495198,-0.000705158512574,0.000606287969276,0.000235994215473,-0.000129175256006,0.000206123440876,-7.13865665602e-05,0.46562883363,-0.00321224190908,0.178250317636,-0.00795628611644,0.939777447688,0.341618697504,0.00719107306248
-0.0158803537488,-0.0193875953555,0.00458464818075,-2.50500845909,0.0332020446658,2.49321627617,-0.735004484653,0.0483602173626,-0.000121740995382,3.92683614336e-05,-0.00174699060153,-0.000302914442727,6.25683023827e-05,0.000150381558342,-1.23718109535e-06,0.465630324682,-0.003212043507,0.17825154992,-0.00795581804201,0.939777410946,0.341618769889,0.00719295362412
-0.0158859677613,-0.0193867683411,0.00458111893386,-2.50500583649,0.0332018621266,2.49321699142,-0.735004901886,0.0483602173626,0.000348837522324,0.000235337560298,0.00196371809579,-0.000303473003441,0.000176191213541,-2.3626100301e-05,0.00013688634499,0.465631561637,-0.00321632036232,0.178252249901,-0.00795531484804,0.939778870341,0.341614741536,0.00719415578527
-0.0158878397197,-0.0193877443671,0.00458086933941,-2.505007267,0.0332024730742,2.49321818352,-0.735004544258,0.0483602173626,-0.000306870555505,0.000100230325188,-0.00251324078999,0.000396035553422,2.19264147745e-05,1.17344734463e-05,-0.000172415617271,0.465631291727,-0.00321727629379,0.178252255073,-0.00795533674603,0.939779376627,0.341613339517,0.00719456985654
-0.015881177038,-0.0193859860301,0.00458555063233,-2.50500822067,0.033201482147,2.49321651459,-0.735004842281,0.0483602173626,0.00294418749399,0.000272986711934,-0.000109137166874,-0.000273051933618,0.000252184079727,-1.44184823512e-05,-0.000103766629763,0.46563023917,-0.00321204403594,0.178250913974,-0.00795584989208,0.939777266509,0.341619178992,0.00719235963685
-0.0158816687763,-0.0193883441389,0.00458698580042,-2.50501012802,0.0332006178796,2.49321699142,-0.735004603863,0.0483602173626,0.000372855603928,0.00667262962088,-0.000212027982343,5.99700942985e-05,-0.000329312752001,2.86939848593e-05,-0.000303231558064,0.46562980823,-0.00321166326984,0.178251310992,-0.00795542268436,0.939777029848,0.341619833148,0.00719268423286
-0.0158865470439,-0.0193873737007,0.00458039436489,-2.50500893593,0.0332014486194,2.49321579933,-0.735003650188,0.0477895736694,-0.000235602579778,0.00113436556421,0.000265390670393,0.000145003345096,0.000179683367605,-0.000164392986335,-0.000322479201714,0.465629926415,-0.00321692400209,0.178251217971,-0.00795586690519,0.939779260726,0.341613691848,0.00719239314012
-0.0158817823976,-0.0193855836987,0.00458469241858,-2.50500702858,0.0332017280161,2.49321317673,-0.735004007816,0.0477895736694,0.000394045258872,0.000702727760654,0.0002075296361,-9.78364914772e-06,5.14327257406e-05,-0.00127598375548,0.000365891464753,0.465630007731,-0.00321267951345,0.178250892052,-0.00795641547555,0.939777688788,0.341618028216,0.00719121634718
-0.0158726517111,-0.0193871427327,0.00459748087451,-2.50499105453,0.0332067646086,2.49320745468,-0.735003769398,0.0477895736694,0.000620326318312,-0.000393848167732,0.000425630772952,0.000676166790072,-0.000178087706445,0.000237905958784,-5.46886330994e-05,0.465637067138,-0.00320176062785,0.178257909739,-0.00795546069343,0.939774375509,0.341627026526,0.00719779233907
-0.0158643051982,-0.0194049626589,0.00462372275069,-2.50499343872,0.0332031659782,2.49321603775,-0.735002338886,0.0388339534402,2.04661137104e-05,0.000399567536078,-0.000232063961448,4.88209661853e-05,1.97281933652e-05,-0.000105057260953,0.000197159868549,0.465640230273,-0.00318654701877,0.178265460701,-0.00795029109144,0.939768399889,0.341643374782,0.00720774547809
-0.0158678051084,-0.0193994045258,0.00463011488318,-2.50498461723,0.0332030728459,2.49321603775,-0.735003829002,0.0388339534402,7.06825157977e-05,-0.000234613908106,-0.000320506398566,0.00109033018816,-9.39240635489e-05,0.000340192113072,0.000274225109024,0.465643544946,-0.00318525867891,0.178266306164,-0.00794964926821,0.939767627761,0.341645482111,0.00720923909158
-0.0158685669303,-0.019402069971,0.00464358460158,-2.5049829483,0.033203676343,2.49321770668,-0.735003113747,0.0388339534402,0.00016851980763,0.000346486602211,0.000122111378005,-0.000383229693398,-0.000171507184859,4.44290308224e-05,0.000347854336724,0.465645150699,-0.00317937750762,0.178268346182,-0.00794866270438,0.939765645407,0.341650899525,0.00721200485207
-0.0158663839102,-0.0193977616727,0.00464899558574,-2.50498723984,0.0332037732005,2.49321699142,-0.735003590584,0.0388339534402,0.000163167322171,0.000508111203089,0.00112667214125,-0.000357824144885,-0.000223243652727,1.97504796233e-05,4.70746090286e-05,0.46564232557,-0.00317581178734,0.178264605008,-0.00795032511738,0.939764310774,0.341654624547,0.00720761669026
-0.0158667117357,-0.0193978603929,0.00464819232002,-2.50498890877,0.0332033075392,2.49321699142,-0.735003292561,0.0388339534402,0.000163199059898,0.000780978589319,-0.000290152122034,-0.000287619535811,6.51274385746e-05,-0.000118314608699,0.00080627319403,0.465641548058,-0.0031763563447,0.178264000755,-0.00795047410045,0.939764498537,0.341654121074,0.00720683644297
-0.0158660449088,-0.019401030615,0.00465198187158,-2.50498557091,0.0332029424608,2.49321675301,-0.73500418663,0.0388339534402,0.000232850274188,-0.000412550667534,8.22918955237e-05,0.000153335175128,-4.28850798926e-05,-0.00286809168756,-0.000402152421884,0.465643428847,-0.00317460586035,0.17826656333,-0.00794930586687,0.939763655507,0.341656411196,0.00720948679677
-0.0158673264086,-0.0193988997489,0.00465890439227,-2.50498628616,0.033203445375,2.49321722984,-0.735005795956,0.0388339534402,4.74256303278e-05,0.000384682149161,-0.000192898543901,0.00058429047931,-1.39043677336e-05,-3.94146736653e-05,-0.000416417839006,0.465643031237,-0.00317169783402,0.178265526335,-0.00794975135272,0.939762352409,0.341660003676,0.00720860759266
-0.0158644318581,-0.0193984210491,0.00466283550486,-2.50498580933,0.033204715699,2.49321651459,-0.735005378723,0.0388339534402,0.000265078851953,-0.000915809476282,0.000425827747677,-4.38546303485e-05,-0.000176248140633,-0.000147645536344,-5.27701740793e-05,0.465643050752,-0.00316844700621,0.178265426253,-0.00795023687405,0.939761426938,0.341662542877,0.00720837396262
-0.015863424167,-0.0194005705416,0.00466872518882,-2.50498890877,0.0332031585276,2.49321603775,-0.735003471375,0.0388339534402,-0.000114712267532,-0.000198468944291,0.00141475256532,-0.000277642771835,5.89700648561e-05,-0.000247928430326,1.43018169183e-05,0.465641896774,-0.00316556180869,0.178265234302,-0.00795002294674,0.939760473558,0.341665185409,0.00720765146471
-0.0158664416522,-0.0194006320089,0.00466682901606,-2.50498366356,0.0332035943866,2.49321699142,-0.735004842281,0.0388339534402,-6.01335450483e-05,-0.000677439616993,0.00175812910311,1.92362294911e-05,-2.61891909759e-05,0.000124480604427,0.000427547784057,0.46564440031,-0.00316754301964,0.178267124986,-0.00794911780498,0.939760940764,0.341663868142,0.00721017569648
-0.0158634539694,-0.0193966683,0.00467317271978,-2.50498771667,0.0332035981119,2.49321627617,-0.735003709793,0.0388339534402,-0.000119157441077,-0.000427314051194,0.000665527826641,-0.000290233205305,8.67615599418e-05,3.62233113265e-05,-0.000108364583866,0.465641859551,-0.00316326278792,0.178263843989,-0.00795056743747,0.939759644668,0.341667480252,0.00720634135611
-0.0158651024103,-0.0194018092006,0.00467421906069,-2.50499153137,0.0332031659782,2.49321699142,-0.735004842281,0.0388339534402,-0.000198823036044,-0.000190953956917,8.34046659293e-05,0.00036235243897,5.16683212481e-05,0.00475831190124,0.000120273209177,0.465641006505,-0.00316357293748,0.178264816182,-0.00795005012147,0.939759492164,0.341667892703,0.00720724442908
-0.0158686079085,-0.0193993747234,0.00467416411266,-2.50498604774,0.0332047194242,2.49321722984,-0.735003352165,0.0388339534402,0.000492223771289,-0.000844982860144,-0.000123221441754,0.000194255626411,1.04314176497e-05,-9.78774405667e-05,-0.000192666149815,0.465643520633,-0.00316589992776,0.17826602579,-0.00794984589265,0.93976080631,0.341664243252,0.0072091223198
-0.0158653408289,-0.0194000471383,0.00467716250569,-2.5049905777,0.0332038030028,2.49321675301,-0.735005617142,0.0388339534402,-0.000562535540666,1.89397360373e-05,-0.000589439412579,-0.000277167244349,7.31812833692e-05,-8.22692236397e-05,0.000186550474609,0.465641142148,-0.00316228122686,0.178264346163,-0.00795040149901,0.939758985513,0.341669287239,0.00720680978936
-0.0158648807555,-0.0194029100239,0.00467946194112,-2.50498628616,0.0332035645843,2.49321722984,-0.735003530979,0.0385561846197,5.81510466873e-05,-0.000970839289948,0.000680147553794,0.000592850672547,-0.000100136356195,-5.90323725191e-05,0.000357905926649,0.465643034667,-0.00316104057651,0.178266167743,-0.00794938086967,0.939758683545,0.341670093385,0.00720909275022
-0.0158640258014,-0.0194010362029,0.0046794526279,-2.50498437881,0.0332036204636,2.49321722984,-0.735004961491,0.0385561846197,-0.000295481469948,0.000300699059153,-0.000245283532422,-7.19621966709e-05,2.91440974252e-05,0.000115325776278,-0.000456223497167,0.46564433744,-0.00316066064079,0.178267262202,-0.00794898688403,0.939758431956,0.341670768048,0.00721034828431
-0.0158652793616,-0.0193977802992,0.00468229968101,-2.50498771667,0.0332033596933,2.49321699142,-0.735003650188,0.0385561846197,3.81043537345e-06,0.000117843250337,0.000434023386333,-5.45301554666e-05,-0.000245954055572,-2.51347937592e-05,0.000147514874698,0.465642077184,-0.00315979459279,0.178264270224,-0.00795013616587,0.939758308129,0.341671154345,0.00720691426113
-0.0158648565412,-0.0194018203765,0.00468413066119,-2.50498557091,0.033202752471,2.49321913719,-0.735004603863,0.0385561846197,-0.000654475588817,-0.000447236729087,5.76243728574e-05,0.000169723469298,7.97254506324e-06,0.000113264315587,-1.12183051897e-05,0.465644321752,-0.00315895221066,0.178267332679,-0.00794842522434,0.939757722401,0.341672720846,0.00721091122993
-0.0158622581512,-0.0194128025323,0.00468490086496,-2.50496459007,0.0332022868097,2.49322485924,-0.735004782677,0.0385561846197,0.000304848334054,-0.00155952037312,-0.000276586710243,0.00140265270602,-4.50799561804e-05,0.00334369018674,-0.000106695857539,0.465657186332,-0.00315760904724,0.17828112641,-0.00794156828842,0.939756940405,0.341674660701,0.00722844207556
-0.0158530771732,-0.0194975752383,0.00469955569133,-2.50489091873,0.0332039482892,2.4932448864,-0.735004127026,0.0374050475657,0.00184192939196,-0.00363497715443,0.000120178141515,0.0023137817625,-8.26402829261e-05,0.000213415827602,-0.00017606835172,0.46570953173,-0.00314724518901,0.17835108278,-0.007910137165,0.939752633536,0.341685461197,0.00731182505657
-0.0158470012248,-0.0196067243814,0.00473426515236,-2.50482130051,0.0332054160535,2.49325299263,-0.735004067421,0.0374050475657,-0.000272525910987,-0.00246720737778,0.0020468630828,6.67329295538e-05,0.000100555706013,0.000150415042299,-0.000298489787383,0.465761171841,-0.0031289787522,0.178429753999,-0.00787714240591,0.939745225323,0.341704720895,0.00739902124547
-0.0158471465111,-0.0196036696434,0.00476155709475,-2.5047929287,0.0332036651671,2.4932513237,-0.735004901886,0.0374050475657,1.3480645066e-05,-0.000187560726772,0.00234510353766,0.000891872216016,-6.97276409483e-05,0.000175695793587,-1.86471297638e-05,0.465773809291,-0.00311665201678,0.17843922745,-0.00787235882301,0.939740121936,0.341718634472,0.00740970527231
-0.015846317634,-0.019603613764,0.00482113240287,-2.50480151176,0.0332023948431,2.49325227737,-0.735002696514,0.0374050475657,-0.000617047597189,0.000282829685602,-4.44507804787e-06,-0.000116542665637,-4.74280614071e-06,-5.56158965992e-06,0.000195031185285,0.46577013823,-0.00308874694582,0.178435937366,-0.00787302756145,0.939730047129,0.341746414873,0.00740550931107
-0.0158493071795,-0.0196012146771,0.00482433987781,-2.5048058033,0.0332019627094,2.49325156212,-0.735004365444,0.0374050475657,-0.0006056886632,0.00105678394902,-0.000264106696704,-0.000485298398416,-5.14464300068e-05,-8.00069028628e-05,1.53959354066e-05,0.465767223408,-0.00308893791628,0.178432493293,-0.00787437191966,0.93972977643,0.341747218392,0.0074013489436
-0.0158494263887,-0.0195908434689,0.00482590962201,-2.50481033325,0.033202867955,2.49324989319,-0.735004961491,0.0374050475657,7.05330021447e-05,0.000888614915311,-6.75010232953e-05,0.000425848556915,6.86571220285e-05,-3.55441625288e-05,9.77330346359e-05,0.465763486048,-0.00308785476133,0.17842634008,-0.00787739422952,0.939729517526,0.341748012175,0.00739435005489
-0.0158503074199,-0.0195920541883,0.00482974899933,-2.50478553772,0.0332020968199,2.49325466156,-0.735004007816,0.0374050475657,0.000363439932698,-0.00104551983532,0.000512439117301,0.000700932636391,-5.0148988521e-05,0.000315011362545,-3.87463296647e-05,0.465776426109,-0.00308671522637,0.178436987752,-0.00787167666735,0.939728976905,0.341749321596,0.00740861306446
-0.0158471576869,-0.0196118317544,0.00483540538698,-2.50479197502,0.0332009159029,2.49325728416,-0.735005676746,0.0374050475657,7.49532337068e-05,-0.000509716337547,7.56288718549e-05,-0.000994815374725,3.59279852091e-06,1.16994806376e-05,-0.000196883353055,0.465777039677,-0.00308274575525,0.178443925476,-0.00786843053501,0.939726981943,0.341754724466,0.00741587495943
-0.0158487726003,-0.0196120236069,0.00483806245029,-2.5047852993,0.0332004725933,2.4932551384,-0.735003829002,0.0374050475657,-0.000309784401907,0.000819521897938,-0.000233504790231,0.000801107380539,7.34922869015e-05,1.26218537844e-05,-0.000189211627003,0.465779754917,-0.00308230971468,0.178446421773,-0.00786748631227,0.939727035931,0.341754551091,0.00741802501014
-0.0158500671387,-0.0196135081351,0.00483873486519,-2.50477814674,0.0332020260394,2.49325704575,-0.735004723072,0.0374050475657,-0.000698456191458,-0.000566506001633,-1.4222561731e-05,-0.000328826252371,-3.52287388523e-05,9.26585562411e-05,0.00018246761465,0.46578377852,-0.00308256474004,0.178450072112,-0.00786603054777,0.939727164075,0.341754121519,0.00742312427387
-0.0158476606011,-0.0196128804237,0.00484370067716,-2.50478219986,0.0332013107836,2.49325656891,-0.735004961491,0.0374050475657,0.000361174868885,0.000429880048614,0.000498385750689,-0.000100340483186,-3.65907726518e-05,-4.48323007731e-05,-2.31454760069e-05,0.465781684949,-0.00307916350264,0.178448156963,-0.00786672460412,0.939725786303,0.341757949061,0.00742058904016
-0.0158460158855,-0.0196107123047,0.00485151493922,-2.50477576256,0.0332014262676,2.49325656891,-0.735004067421,0.0353641249239,0.000197267552721,-0.00364111433737,5.01142551457e-07,-7.28132363292e-05,-5.4463152992e-06,0.00016147083079,0.000240717155975,0.465784417819,-0.00307480276828,0.178449653934,-0.00786597745389,0.93972432315,0.341761947214,0.00742253341516
-0.0158450417221,-0.0196119509637,0.00486014178023,-2.50477790833,0.0332005061209,2.49325847626,-0.735004782677,0.0353641249239,-0.000399986514822,-0.000103325190139,-0.000219837907935,-0.000305604713503,-0.000126817671116,-1.04013943201e-05,3.98410084017e-05,0.465784402038,-0.00307048459997,0.178450032153,-0.0078651598545,0.939722455968,0.341767081525,0.0074233875548
-0.0158450044692,-0.0196107346565,0.00486394995824,-2.50477600098,0.0332004837692,2.49326109886,-0.73500418663,0.0353641249239,-0.000532421341632,-0.000950106186792,-0.000205608957913,-0.000175798631972,2.85059322778e-05,4.83676813019e-05,0.000703955825884,0.465785500743,-0.0030688846893,0.178450342477,-0.0078647047348,0.939721939731,0.341768480534,0.00742481030646
-0.0158510357141,-0.0196132604033,0.00486087892205,-2.50478219986,0.0332003124058,2.49326086044,-0.735004901886,0.0353641249239,0.000659208744764,-0.000729465100449,-0.000172606669366,0.000211015998502,0.000111221132101,0.000177104986506,-0.00045319632045,0.465782718901,-0.00307289342181,0.178448716166,-0.00786546055518,0.939723305101,0.341764758465,0.00742252915559
-0.015845393762,-0.0196147318929,0.00486873462796,-2.50477266312,0.0332010127604,2.49326062202,-0.735005438328,0.0353641249239,0.000435457302956,-3.71279893443e-05,0.00233788299374,0.000186692894204,-0.000162959287991,0.00017619348364,-0.000560522545129,0.465787439055,-0.00306663780585,0.178453094977,-0.00786373837236,0.93972096039,0.341771135622,0.00742756783953
-0.0158412698656,-0.0196116175503,0.00487348157912,-2.50476312637,0.0332011282444,2.49325966835,-0.735004663467,0.0351487398148,-0.000131946522743,-0.000238215085119,-3.72045724362e-05,0.00229982030578,9.57605152507e-05,4.08204286941e-05,0.000197383007617,0.465791279104,-0.00306254544611,0.178455273221,-0.00786281949079,0.939719569096,0.341774927312,0.00743009248489
-0.0158398430794,-0.0196064561605,0.00487760035321,-2.50476670265,0.0332007184625,2.49325752258,-0.7350050807,0.0351487398148,-0.000392124580685,0.000815215986222,-0.000253161095316,-3.02804237435e-05,-9.26823777263e-05,-0.000197527479031,-3.17028498102e-05,0.465788341125,-0.00305994830475,0.178451282836,-0.00786463892426,0.939718528386,0.341777858993,0.0074249343987
-0.0158497169614,-0.0196016505361,0.00487388530746,-2.50477194786,0.0332019552588,2.49325156212,-0.735005259514,0.0351487398148,0.00380656635389,0.00144011795055,0.000329092465108,0.000129313368234,3.03253527818e-05,-4.19389289164e-05,-0.00030889743357,0.465783552296,-0.00306595619831,0.178445412013,-0.00786821976105,0.939720877057,0.341771501205,0.0074165350305
-0.0158498678356,-0.0195929817855,0.00487325852737,-2.5047814846,0.0332032591105,2.49324846268,-0.735003888607,0.0351487398148,0.000342643848853,0.000406892620958,0.000254270242294,-0.000485838361783,-9.1551708465e-05,-4.5892160415e-05,0.000137441034894,0.465777266782,-0.00306626974597,0.17843844027,-0.00787205870575,0.939721629005,0.341769533084,0.00740787514079
-0.0158487558365,-0.0195944160223,0.00487447390333,-2.50478434563,0.033203214407,2.49324417114,-0.735004365444,0.0351487398148,-2.67712457571e-05,-0.00242152856663,-9.9989498267e-05,-0.00017151539214,-0.000103599515569,5.38566237083e-05,0.000133377252496,0.465775208812,-0.00306513838746,0.178437608904,-0.00787309785963,0.939721149757,0.341770884802,0.00740520213394
-0.0158486347646,-0.0195893235505,0.00487326644361,-2.50477862358,0.0332015007734,2.49323940277,-0.735004127026,0.0351487398148,6.48668137728e-05,-0.000603934808169,0.000347414810676,0.000926203501876,-2.58166201093e-05,7.6740516306e-06,0.000109000960947,0.465776114402,-0.00306579934094,0.178437152515,-0.00787343694956,0.939721208751,0.341770757021,0.00740325238013
-0.0158432032913,-0.0195919722319,0.00488096522167,-2.50476551056,0.0332024469972,2.49322772026,-0.735004007816,0.0351487398148,-0.000241418296355,-0.000210909245652,-0.000372523994884,0.000355914264219,6.78584474372e-05,-0.00251886132173,-0.000202335577342,0.465781005427,-0.00305975634276,0.178443508013,-0.00787271766766,0.939719091689,0.341776527674,0.00740633847738
-0.0158459469676,-0.0196363721043,0.00488068396226,-2.50476169586,0.0332014746964,2.49321389198,-0.735004365444,0.0351487398148,0.000215330073843,-0.00342075270601,0.000397707306547,0.000666653970256,-0.000105073217128,-0.0052049132064,5.39246029803e-05,0.465785804564,-0.00306098302148,0.178463254487,-0.00786681640892,0.939719145084,0.341776195995,0.00742112524973
-0.0158488936722,-0.0197498071939,0.00488143088296,-2.50476288795,0.0332002602518,2.49311447144,-0.735004842281,0.0351487398148,-0.000390931818401,-0.00899341981858,-0.0014395598555,0.000940405589063,1.30992348204e-05,-0.0188790932298,2.56669063674e-05,0.465781075332,-0.0030613685402,0.178506706179,-0.00786516151154,0.939718880149,0.34177682668,0.00742737896418
-0.0158542376012,-0.0199156980962,0.00487716449425,-2.50474905968,0.0332007557154,2.4928290844,-0.735004127026,0.0351487398148,-0.000495673390105,-0.0113928113133,0.000324426655425,0.00115362950601,0.000118994896184,-0.0146390805021,-8.05538293207e-05,0.465749025197,-0.00306331165964,0.178567103046,-0.00788817226964,0.939720070378,0.341774117035,0.00737690168503
-0.0158590748906,-0.0207268260419,0.00487369438633,-2.50479626656,0.0332008600235,2.49111461639,-0.735003054142,0.0351487398148,-9.92597324512e-06,-0.025916704908,0.00042302539805,8.39445306156e-07,-0.000136650764034,-0.0735392421484,-8.60658474267e-05,0.46547983294,-0.003051985341,0.178769477821,-0.00807360054861,0.93971898345,0.341781884993,0.00694203818962
-0.0158588159829,-0.0212589185685,0.00487386900932,-2.50478577614,0.0332015529275,2.48979711533,-0.734999835491,0.0351487398148,0.000182717776624,-0.0388757176697,0.00010244265286,0.000451643951237,9.64168139035e-05,-0.0909118652344,-0.000117832889373,0.465263376803,-0.00303886894801,0.178915485749,-0.00823713769113,0.939717244331,0.341790362581,0.00655728623843
-0.0158589966595,-0.0221176706254,0.00487486086786,-2.50478458405,0.0331998988986,2.48789858818,-0.734999895096,0.0351487398148,-6.93763067829e-05,-0.0542374998331,4.85117780045e-05,-0.00075868901331,-1.57440335897e-05,-0.103736236691,-0.000440416421043,0.464997643601,-0.00302296233857,0.179134003536,-0.00842884493989,0.939713585366,0.341804081554,0.00610750122639
-0.0158611331135,-0.0233713258058,0.00487275607884,-2.50478839874,0.0331988409162,2.48549675941,-0.7349999547,0.0362460315228,0.000144603560329,-0.0747753530741,0.000210262747714,0.00153587886598,0.000211325837881,-0.132624834776,0.00277359760366,0.464663927706,-0.00300416768664,0.179501615572,-0.00865790743061,0.939708918791,0.341820224296,0.00557875724844
-0.0158642437309,-0.0260479804128,0.00487176701427,-2.50450205803,0.0331986173987,2.48019504547,-0.73499917984,0.0362460315228,-0.000258360931184,-0.0991407856345,-0.000557835737709,0.0226359814405,3.76173375116e-05,-0.227852299809,0.000195096610696,0.464049718666,-0.0029614121015,0.180386569907,-0.00912826761551,0.939696557243,0.341857774881,0.00450738017537
-0.0158610437065,-0.0277273971587,0.00487200496718,-2.50411272049,0.0331962928176,2.47630381584,-0.734999060631,0.0362460315228,0.000908356334548,-0.119832016528,0.000467457575724,0.0265609417111,-1.30069174702e-05,-0.266074508429,-3.36872494699e-06,0.463637502204,-0.00292742294011,0.180974487489,-0.00949207848613,0.939685344791,0.341888686348,0.00367138467945
-0.0158563833684,-0.0301089975983,0.00487927300856,-2.50357723236,0.0331963673234,2.47120904922,-0.734997332096,0.0362460315228,-0.000379060249543,-0.152167350054,0.000493921223097,0.0346377529204,-0.000721124466509,-0.317275643349,-0.000138232819154,0.463134815328,-0.00287990041444,0.181840287081,-0.00993195610328,0.939668589634,0.34193149169,0.00267443098719
-0.0158552378416,-0.0330627858639,0.00488011958078,-2.50273251534,0.0331952162087,2.4647693634,-0.734995543957,0.0362460315228,5.28501805093e-05,-0.159367948771,-0.000413866888266,0.0516694299877,0.000250520737609,-0.361894011497,-0.000229569632211,0.462564693957,-0.00282668742196,0.182976015526,-0.0104679622894,0.93964765823,0.34198033525,0.00146633475723
-0.0158634483814,-0.0388492830098,0.00487501453608,-2.50097823143,0.0331954620779,2.45298194885,-0.734993577003,0.0362460315228,-0.000867344904691,-0.226762920618,-0.00358699448407,0.0624722540379,0.000231693833484,-0.424540579319,-1.1580019418e-05,0.461659772718,-0.00273891348664,0.185317700387,-0.0113447798176,0.939608050326,0.342064009244,-0.000470106237048
-0.0158751197159,-0.0427210852504,0.00486570736393,-2.49979281425,0.0331936441362,2.44550848007,-0.73499161005,0.0362617895007,9.71615299932e-05,-0.227066740394,-0.000205913413083,0.080777771771,-0.000655503827147,-0.460365712643,8.72272066772e-05,0.461138682592,-0.00268998528207,0.186928493447,-0.0118506663629,0.939582818428,0.342112885934,-0.00156907174206
-0.0158698298037,-0.0467850640416,0.00486915465444,-2.49823832512,0.0331916585565,2.43737745285,-0.734992742538,0.0362617895007,0.000905694963876,-0.260663688183,0.00070989219239,0.101748287678,-0.000806588213891,-0.492101430893,-0.000673665956128,0.460662541807,-0.00262327628049,0.188719827282,-0.0123801807642,0.939547840217,0.342183049335,-0.00271062764642
-0.0158631596714,-0.0518241040409,0.00487760268152,-2.49625968933,0.0331885628402,2.42789030075,-0.734990239143,0.0362617895007,0.000555489095859,-0.297464609146,3.10842551698e-05,0.117895200849,-0.000381568621378,-0.548442900181,1.49114503074e-05,0.460188002619,-0.00254026069385,0.191155662654,-0.0129431946135,0.939503022219,0.342273941216,-0.00388507466033
-0.0158624183387,-0.067128226161,0.00487616332248,-2.48847579956,0.0331830196083,2.39887785912,-0.734985530376,0.0362617895007,-0.00151150801685,-0.354248911142,-0.000938751094509,0.190691888332,0.000625738350209,-0.62390601635,0.000509751494974,0.459496500002,-0.00233405817482,0.198712398976,-0.0142606606766,0.939379506675,0.342521210927,-0.00648041264528
-0.0158747695386,-0.0735810920596,0.00486155226827,-2.48476290703,0.0331807136536,2.38737082481,-0.734984874725,0.0362617895007,0.00055966823129,-0.35605931282,-0.000413133617258,0.226532712579,0.00123523641378,-0.640434801579,0.000213076535147,0.459494833243,-0.0022663186662,0.202207186159,-0.0146141948824,0.939334566049,0.342618051789,-0.00706177090627
-0.0158674884588,-0.0792037248611,0.00486786151305,-2.48082232475,0.0331765003502,2.37685513496,-0.734982192516,0.0362617895007,0.00109968555626,-0.360962629318,-6.52816743241e-05,0.260963469744,0.000305408233544,-0.668851673603,3.61750608135e-05,0.459673287566,-0.00218919212878,0.205504688227,-0.0148871168769,0.939287305909,0.34272727617,-0.00746622830417
-0.0158553905785,-0.0864407345653,0.00487768929452,-2.4756064415,0.0331727787852,2.36367106438,-0.734982073307,0.0362617895007,-0.000689584936481,-0.376797318459,6.96482893545e-05,0.282007992268,-0.000315594283165,-0.688784360886,-0.000584930239711,0.459998701543,-0.00209164006013,0.209852096911,-0.0151459374738,0.939227848721,0.34287238305,-0.00775740892382
-0.0158733427525,-0.104375585914,0.00485366303474,-2.46015667915,0.0331706814468,2.33084464073,-0.73497658968,0.0362617895007,-0.000338652025675,-0.396967679262,-0.000289806484943,0.375785052776,-0.000678952957969,-0.722699344158,-0.000148218809045,0.46163889334,-0.00190201870672,0.221729204218,-0.015367103453,0.939104166876,0.343209687465,-0.0073706176628
-0.0158645641059,-0.111667767167,0.00485344836488,-2.45318627357,0.0331657230854,2.31772828102,-0.734977304935,0.0362617895007,0.000364683597581,-0.408695608377,0.00102367158979,0.396497756243,-0.00211770064197,-0.742489874363,-0.000127965613501,0.462543096052,-0.00181832309203,0.226902523461,-0.015286709187,0.939051486121,0.343369427394,-0.00678667479943
-0.0158545970917,-0.1187947914,0.00486200163141,-2.44575548172,0.0331632196903,2.30427050591,-0.734975755215,0.0362617895007,0.000146710823174,-0.399902164936,0.000185904471437,0.415520519018,7.95364030637e-05,-0.748031079769,-0.000336945813615,0.463480304471,-0.00172801271559,0.232189375819,-0.0152166254441,0.938995134074,0.343537275041,-0.00622357132304
-0.0158665757626,-0.138717874885,0.004817860201,-2.42278718948,0.0331566147506,2.26680278778,-0.734972298145,0.0363156348467,0.000772421190049,-0.400894612074,0.00105653551873,0.494912654161,-0.000368549866835,-0.782222807407,0.000108402608021,0.46664147142,-0.00153301006228,0.248061126267,-0.0145956423758,0.938855953765,0.343982312708,-0.00355436826589
-0.0158723033965,-0.145144239068,0.00480398861691,-2.4147632122,0.0331613495946,2.2541706562,-0.73497158289,0.0363156348467,0.000421060743975,-0.40458419919,0.000231973041082,0.518788933754,0.000234840612393,-0.786386847496,0.000228918084758,0.467651222201,-0.00146672020474,0.253449497342,-0.0143870783364,0.93880686985,0.344133112087,-0.00265969016571
-0.0158867277205,-0.153254136443,0.00478157307953,-2.40406751633,0.0331517420709,2.2383620739,-0.734971523285,0.0363156348467,-0.00113780167885,-0.409305602312,-0.0025749723427,0.548635780811,-0.000289744028123,-0.804663062096,0.000427552789915,0.469074982613,-0.00139339405511,0.26054548362,-0.0139897197181,0.938744235536,0.344328467337,-0.00120592628377
-0.0158853661269,-0.16052685678,0.00474742660299,-2.39424657822,0.0331564694643,2.22392511368,-0.73496979475,0.0363156348467,-0.000888007809408,-0.405030190945,-0.00264905393124,0.538281738758,-0.000692322209943,-0.805430054665,2.99419425573e-05,0.470276395739,-0.00132363451892,0.267024354654,-0.0136442439751,0.938685754389,0.34450381929,8.5403513923e-05
-0.0159002617002,-0.172458037734,0.00470515387133,-2.37729978561,0.0331504493952,2.19974827766,-0.734965205193,0.0363156348467,4.88303430757e-06,-0.398469775915,-0.00216640881263,0.577160954475,-0.00389906880446,-0.811996996403,-9.84309008345e-05,0.472228143043,-0.00121017889131,0.278055814593,-0.013008733699,0.938581176363,0.34480512412,0.00236099392787
-0.0159087721258,-0.179090291262,0.00465241586789,-2.36748743057,0.0331558659673,2.18576312065,-0.734966874123,0.0363156348467,-0.00204486772418,-0.382685244083,-0.00471896259114,0.570733308792,0.00591466994956,-0.836254537106,0.00023054300982,0.4731576249,-0.0011584826466,0.283989597245,-0.0127052898193,0.938525959706,0.344957074108,0.00349503623813
-0.0159159172326,-0.185332074761,0.00461651803926,-2.35795211792,0.0331519134343,2.17243432999,-0.734964668751,0.0363156348467,-0.00128743611276,-0.379860877991,-0.00283490959555,0.601118266582,0.00120112264995,-0.834766626358,3.89167689718e-05,0.474115100204,-0.0010974313635,0.290434126673,-0.0123601909866,0.938461567459,0.345129856705,0.00474276060587
-0.0159280430526,-0.192444220185,0.00456073647365,-2.34644985199,0.0331491678953,2.15645337105,-0.734962761402,0.0363609455526,0.000336796045303,-0.357573181391,-0.00285076047294,0.608097732067,0.00204816134647,-0.846895635128,-9.77404342848e-05,0.475092685611,-0.0010347486313,0.297609805234,-0.0120181147448,0.938389412277,0.345318109612,0.00602318069135
-0.0159563049674,-0.210174769163,0.00447853002697,-2.31646418571,0.0331464298069,2.11468172073,-0.734962284565,0.0363609455526,0.000632856565062,-0.348340153694,-2.14572628465e-05,0.606140077114,7.3755349149e-05,-0.858749032021,0.000164249984664,0.477023359546,-0.000831388803433,0.316445760277,-0.0112613718118,0.938176730364,0.345857117509,0.00896984185967
-0.0159585941583,-0.221455216408,0.00445218384266,-2.29584169388,0.0331356525421,2.085958004,-0.734961867332,0.0363609455526,-0.00098558771424,-0.322151571512,-8.76571211847e-05,0.629639267921,-0.000474444997963,-0.886393666267,0.000100463395938,0.477808446428,-0.00067679801087,0.328451961372,-0.0109018560299,0.938026070914,0.346234445573,0.0104856190253
-0.0159721001983,-0.227896302938,0.00442790193483,-2.2834239006,0.0331426747143,2.06832170486,-0.734959602356,0.0363609455526,0.00142134923954,-0.328625917435,0.00123295537196,0.634539365768,0.000203136878554,-0.876395523548,0.000523022958077,0.478038047091,-0.000585006678104,0.335742735271,-0.0108061962968,0.937937282564,0.346458602335,0.0111048030915
-0.0159728918225,-0.236923366785,0.00440734112635,-2.26521801949,0.0331363677979,2.04301810265,-0.734955728054,0.0363609455526,-0.000603720487561,-0.304785817862,-0.000987818930298,0.603995144367,0.00201481906697,-0.869628250599,0.000493873434607,0.478256151474,-0.000440949464288,0.346326558349,-0.0106222684452,0.9377998582,0.346803891344,0.0120687202267
-0.0159708093852,-0.2425814569,0.00439915293828,-2.25339102745,0.0331300795078,2.02658319473,-0.734955310822,0.0363609455526,0.00012501978199,-0.278317719698,0.000505026429892,0.630357205868,-0.00148105854169,-0.858380556107,0.000113503978355,0.478250822411,-0.000343811935647,0.353128378152,-0.01053305218,0.937708644218,0.347034368547,0.0125976229227
-0.0159671287984,-0.246916934848,0.00440029008314,-2.24331617355,0.0331318154931,2.01286864281,-0.734952151775,0.0363609455526,-0.000434005138231,-0.270499676466,-0.00017283501802,0.622855901718,1.36071721499e-05,-0.860176026821,0.00248633814044,0.478228429309,-0.000257592585039,0.358730531102,-0.0104907813765,0.937632212128,0.347228970662,0.0129545322726
-0.0159754119813,-0.252115905285,0.00439236778766,-2.23178219795,0.0331361927092,1.99660897255,-0.734952330589,0.036378018558,-0.00261349603534,-0.272404253483,-2.81553111563e-05,0.619930803776,-0.00195735576563,-0.83622354269,-0.000126119921333,0.477975705203,-0.000164013216023,0.36521921534,-0.0105018891607,0.937546432337,0.347450445637,0.0132130635595
-0.015974085778,-0.263739109039,0.00437988620251,-2.20247793198,0.0331226587296,1.95753347874,-0.734947741032,0.036378018558,0.000142274686368,-0.251702040434,2.73264922726e-05,0.612003147602,0.000347252440406,-0.785351932049,7.98460532678e-05,0.477409713498,6.54241281892e-05,0.381206986431,-0.0103756223896,0.937326863111,0.348008985495,0.0141578194428
-0.0159757845104,-0.267511129379,0.00437720213085,-2.19220590591,0.0331178307533,1.94427287579,-0.734943509102,0.036378018558,0.000114229733299,-0.19388692081,0.000101209217974,0.603217840195,8.93782053026e-05,-0.769743442535,0.000201233138796,0.477153733084,0.000146603433838,0.387030008426,-0.0103004743313,0.937246522871,0.348211013249,0.0145583492727
-0.0159649457783,-0.270753443241,0.00438252370805,-2.18168020248,0.0331187807024,1.93059492111,-0.734944105148,0.036378018558,0.000139959549415,-0.190159156919,0.00030167211662,0.583860635757,-0.000312440330163,-0.752605855465,0.000203388350201,0.47685943706,0.000231468778531,0.392075682859,-0.0103507988035,0.937173010049,0.348404877305,0.0146168175615
-0.0159736517817,-0.274742275476,0.00438020704314,-2.1699051857,0.0331173501909,1.91605961323,-0.734941244125,0.036378018558,5.51928424102e-05,-0.197479382157,0.000446305115474,0.581200361252,-0.00072968006134,-0.711724698544,-0.000176092857146,0.476568731466,0.000311694927992,0.398314469579,-0.0101969914519,0.937086747669,0.348615715768,0.0152161465223
-0.0159748494625,-0.279547184706,0.00437401561067,-2.15308189392,0.0331117622554,1.89581871033,-0.73493874073,0.0363937802613,-0.000195220083697,-0.14833496511,-0.000128646817757,0.564785778522,-0.000580073858146,-0.641803503036,8.5711137217e-05,0.476165207596,0.000424794885244,0.406861417191,-0.0100357785789,0.936965951652,0.348914531823,0.0158977281914
-0.015974117443,-0.281967520714,0.00437067169696,-2.1440653801,0.0331092216074,1.88561594486,-0.734938919544,0.0363937802613,0.000792981125414,-0.154790773988,0.000395191338612,0.555192768574,0.000217496737605,-0.62918651104,-0.000127221428556,0.476025685884,0.000481125533269,0.411432690303,-0.00985595875883,0.936899714179,0.349070009904,0.016489800497
-0.015972930938,-0.284234464169,0.00436818553135,-2.13581967354,0.0331089906394,1.87638509274,-0.734935998917,0.0363937802613,0.000572159711737,-0.128448739648,-0.000328387977788,0.51900023222,0.000243458736804,-0.584758639336,0.000604849308729,0.475858346101,0.00053736932541,0.415975750581,-0.00964912873167,0.936833536245,0.349221740166,0.0171462988245
-0.015970652923,-0.286165356636,0.00437117461115,-2.12758708,0.0331106558442,1.86734676361,-0.734934389591,0.0363937802613,0.000487872312078,-0.119646027684,0.00042503233999,0.53790974617,-0.000159539835295,-0.548527956009,-0.000300340121612,0.47573433375,0.000599246834987,0.420776170669,-0.0094268381253,0.93676106974,0.349387214959,0.0178439528189
-0.0159775223583,-0.291834384203,0.00435676565394,-2.10074281693,0.0330964028835,1.83987629414,-0.734929740429,0.0363937802613,0.000971915200353,-0.0842629522085,-0.000762038573157,0.503358900547,-0.00232371571474,-0.458135575056,0.000192807259737,0.475524956423,0.000723736977639,0.432894159071,-0.00868391846156,0.936579466596,0.349774632259,0.0200299432196
-0.0159701500088,-0.293049097061,0.00436000945047,-2.0928041935,0.0330946408212,1.83268380165,-0.734929084778,0.0363937802613,-0.000696349714417,-0.0712026879191,-0.000375990348402,0.48620569706,-6.28417255939e-05,-0.440831810236,0.000275355560007,0.475630629708,0.000765647207683,0.436660514568,-0.00835404301832,0.936516777828,0.349896407672,0.0209532430824
-0.0159748289734,-0.294326245785,0.00435837404802,-2.08374810219,0.0330883190036,1.82469749451,-0.734926819801,0.0363937802613,0.000819359440356,-0.0597682148218,0.000881620391738,0.464316219091,0.000186522200238,-0.405397921801,9.83054269454e-05,0.475769425965,0.000802219037005,0.44092737747,-0.0079546652925,0.936447338115,0.350023725907,0.022056682127
-0.0159607101232,-0.295392870903,0.00436754152179,-2.07514500618,0.0330811180174,1.81753253937,-0.734925925732,0.0363937802613,0.000576200836804,-0.0512700565159,0.00396524881944,0.458987891674,0.000635143253021,-0.349274605513,-0.000292898475891,0.475969238776,0.000847694041958,0.444952415283,-0.00752154071015,0.936373930104,0.35015366947,0.0232313772847
-0.0159670580178,-0.296828508377,0.00435487506911,-2.06138634682,0.0330687575042,1.80748140812,-0.734924972057,0.0363937802613,-0.000298458908219,-0.0433340147138,-0.000396150746383,0.432289898396,0.000483706418891,-0.302955955267,0.00374902575277,0.476545843638,0.000883158997955,0.451399273759,-0.00661975288581,0.936256168559,0.350318717702,0.0256390604292
-0.0159762576222,-0.297379016876,0.00435646343976,-2.05465960503,0.0330526120961,1.80298173428,-0.734924376011,0.0363937802613,-0.000128647778183,-0.028600236401,0.000389914697735,0.403114765882,-0.000287994538667,-0.257937043905,0.000119763346447,0.476901152237,0.00089647003592,0.454520795787,-0.0061237849945,0.936194538323,0.350395135011,0.0269357516664
-0.0159685630351,-0.297767132521,0.00435405131429,-2.04861736298,0.0330462567508,1.79934954643,-0.734922409058,0.0363937802613,-0.00016463274369,-0.0280061550438,-0.000354643969331,0.407105267048,-0.00152420334052,-0.221827298403,0.00044348964002,0.477335366871,0.000913110731209,0.45750929816,-0.00558721375449,0.936129741405,0.350466050308,0.0283449742857
-0.0159782897681,-0.298182338476,0.00435321452096,-2.04092025757,0.0330204293132,1.79533433914,-0.73492193222,0.0363937802613,0.000149974643136,-0.0210447125137,0.000210952595808,0.387466609478,-0.00186499918345,-0.205257877707,0.000414181675296,0.47793128469,0.000917761087852,0.46089924014,-0.00488558398393,0.936051678268,0.350534249099,0.0301517259125
-0.0159739069641,-0.298624426126,0.00435540638864,-2.02908015251,0.0329715795815,1.78941488266,-0.734919726849,0.0364141352475,0.00113028066698,-0.0120534887537,0.000420022377511,0.338393032551,0.000445321784355,-0.169426754117,0.000231373676797,0.478925066614,0.000932827734035,0.466348932733,-0.00372943058547,0.935913954016,0.350648897778,0.0331136255785
-0.0159633085132,-0.298888593912,0.00436335522681,-2.02348327637,0.0329363718629,1.78691983223,-0.734920859337,0.0364141352475,-0.000798052176833,-0.0171095784754,0.000499349611346,0.327859759331,-0.00145489221904,-0.129709124565,0.000502693816088,0.479429837809,0.000943360600994,0.468984069707,-0.00311047101881,0.935837719493,0.350707233575,0.0346774241878
-0.0159619878978,-0.299163252115,0.00436721742153,-2.01810050011,0.0329181551933,1.78495061398,-0.734919726849,0.0364141352475,0.00118644325994,-0.0191058032215,0.000307893002173,0.301804691553,0.000651954673231,-0.108506716788,5.2731775213e-05,0.479990245951,0.000947682603921,0.471573869013,-0.00243967633781,0.935759082308,0.3507484521,0.0363938304171
-0.0159666649997,-0.299467355013,0.0043557882309,-2.01331973076,0.0329109318554,1.78317165375,-0.734918951988,0.0364141352475,-0.00178812968079,-0.0147486040369,-0.00075571006164,0.276525169611,-0.000388604035834,-0.101381078362,2.12908034882e-05,0.480461491888,0.000943483268972,0.473901672119,-0.00184401426211,0.935689528179,0.350774391054,0.0379345849419
-0.0159844290465,-0.299854069948,0.00433854525909,-2.00819706917,0.0328735597432,1.78136456013,-0.734918475151,0.0364141352475,2.18033892452e-05,-0.0220099315047,0.0027315786574,0.240819364786,-0.00263957888819,-0.0817007571459,0.000105565770355,0.480966135919,0.000924115506944,0.476437082855,-0.00116299725811,0.935611863645,0.350794237003,0.0396546468239
-0.0159794185311,-0.300437003374,0.00433266861364,-2.00190067291,0.032837100327,1.77909207344,-0.734916627407,0.0364141352475,0.000554832397029,-0.0199102386832,0.000202396520763,0.176591679454,-0.00228665745817,-0.0596123747528,0.000946349580772,0.481541549699,0.000923493875501,0.479602573798,-0.000318503847259,0.935503770067,0.350835754075,0.0417955511285
-0.0159756038338,-0.300820201635,0.00434027146548,-1.99885845184,0.0328192934394,1.77808248997,-0.734916210175,0.0364141352475,0.00020072508778,-0.0198800507933,0.000783222261816,0.158493056893,-0.00230162707157,-0.0535258799791,-0.00025037676096,0.481815765383,0.000928812330456,0.48119126134,0.000125705356332,0.935444112344,0.350859489857,0.0429175365469
-0.0159693863243,-0.301149308681,0.00434416206554,-1.99651193619,0.0328120328486,1.77720797062,-0.734914898872,0.0364141352475,0.000147098515299,-0.0241265092045,0.000256768049439,0.133918240666,-0.000126654602354,-0.0618652999401,-8.98758007679e-05,0.482016398397,0.000935914052838,0.482564480005,0.000488954804289,0.935393070195,0.350880369868,0.0438466746999
-0.0159712545574,-0.301514536142,0.00434621190652,-1.99430799484,0.0328034348786,1.77618324757,-0.734914839268,0.0364141352475,0.000380417739507,-0.0173481870443,0.000148540842929,0.107925839722,0.000273657176876,-0.0577939935029,-0.000199289555894,0.482115969959,0.000938491399297,0.483586328304,0.000735438539115,0.935357687493,0.350895390758,0.0444733629009
-0.0159709937871,-0.302137315273,0.00434256903827,-1.99190592766,0.0327943116426,1.7745603323,-0.734914958477,0.0365073829889,-0.00031969245174,-0.0231650918722,-0.000556743878406,0.0623201690614,0.0002197229187,-0.0545808300376,0.000280139938695,0.48210002119,0.000943837677206,0.484908794913,0.000990073143951,0.935317165426,0.350919494369,0.0451256908276
-0.0159749221057,-0.302443623543,0.00434008659795,-1.99119639397,0.0327875874937,1.77372848988,-0.734915673733,0.0365073829889,-0.000306211528368,-0.0214963629842,1.06650013549e-05,0.0401748493314,-0.000164219003636,-0.0665277987719,0.000212297440157,0.482001697865,0.00094462209645,0.485320929029,0.00102483541942,0.935309115027,0.350929892379,0.0452108325517
-0.0159771330655,-0.30307418108,0.00432954542339,-1.99065184593,0.0327564589679,1.77166652679,-0.734913170338,0.0365073829889,0.000337684439728,-0.000580521766096,-0.000700330128893,-0.00205668108538,-0.000410819338867,-0.0455596707761,7.09375817678e-05,0.48156556461,0.000946524271808,0.485676463043,0.000873636200961,0.935319569626,0.35095583929,0.0447943968338
-0.0159769002348,-0.303051918745,0.00432968232781,-1.99069547653,0.0327380560338,1.77074360847,-0.734914064407,0.0365073829889,0.000203745687031,0.00541328592226,-0.000196089313249,2.83260487777e-05,-0.000920791237149,-0.0733303129673,0.000550462806132,0.481338105829,0.000949652153235,0.485527717974,0.000674936853248,0.935338442655,0.350973408239,0.0442629477825
-0.015972469002,-0.302963525057,0.00433451868594,-1.99073255062,0.0327181145549,1.76933717728,-0.734913051128,0.0365073829889,0.00016891224368,0.00811816006899,-0.000605395878665,-0.00229735625908,-0.00216104416177,-0.0747564658523,8.68606366566e-06,0.481077042408,0.000958955682566,0.485336529883,0.000429715331979,0.935360105248,0.350997062372,0.0436159460175
-0.0159695409238,-0.302761346102,0.00433338619769,-1.99086487293,0.0326724499464,1.76800501347,-0.734914064407,0.0365073829889,-7.99491172074e-05,0.011071914807,-0.000320691848174,-0.0112492321059,-0.00311934039928,-0.0650370195508,0.000154326131451,0.480803391193,0.000959258724078,0.485033055058,0.00014529378519,0.935387419215,0.351020896568,0.0428332198362
-0.0159768685699,-0.302473723888,0.00432673515752,-1.99112093449,0.0325836390257,1.76624560356,-0.734910309315,0.0365073829889,-0.000428154453402,0.0107400557026,-0.000547624775209,-0.0111992368475,-0.00232328381389,-0.0544839166105,0.000169299572008,0.480430311626,0.000946081995428,0.484582758715,-0.000236213368977,0.935427800304,0.351044086288,0.0417471410887
-0.0159834306687,-0.302286326885,0.00431636814028,-1.99125432968,0.0325634032488,1.76564848423,-0.73490935564,0.036527082324,-0.000579586660024,0.0129036819562,0.000234558276134,-0.0126948393881,-0.000282812106889,-0.0353924557567,0.00056514958851,0.480309040222,0.000937367710524,0.484364105613,-0.000395966597673,0.935446271453,0.351045568027,0.0413173727281
-0.0159836933017,-0.301969885826,0.00431090546772,-1.99143099785,0.0325239412487,1.76499080658,-0.734909236431,0.036527082324,0.000502904993482,0.0168836060911,0.000801556452643,-0.01000355836,-0.000409621658036,-0.0272439867258,-0.000248888623901,0.480186675108,0.000930494765243,0.484055780757,-0.000588967181113,0.935466516307,0.351054697768,0.0407755913043
-0.0159802958369,-0.301691710949,0.00430871080607,-1.99156522751,0.032485216856,1.76436877251,-0.734908878803,0.036527082324,-5.24621536897e-05,0.0179921146482,0.00248690485023,-0.00751883955672,-0.00408842554316,-0.0391902439296,4.25819016527e-05,0.480073302538,0.000926962787359,0.483790777548,-0.000760779797887,0.935483162889,0.351066319754,0.0402878639893
-0.0159784760326,-0.30123758316,0.00430789170787,-1.99183011055,0.0324479900301,1.76327061653,-0.734906792641,0.036527082324,0.000497757515404,0.00777829950675,-1.38846844493e-05,-0.0103387385607,5.30379975316e-06,-0.029817039147,0.00012374544167,0.479862353694,0.000926539210704,0.483327521493,-0.00107629817733,0.935512877708,0.351082989883,0.039436418765
-0.0159777626395,-0.301045626402,0.00430760486051,-1.99199914932,0.032432295382,1.76288223267,-0.734905064106,0.036527082324,0.000234258288401,0.010259911418,-0.000861924665514,-0.0127939609811,-0.0022405218333,-0.019061230123,-0.000603321706876,0.479779044932,0.000925955701013,0.483111500825,-0.0012061264614,0.935525415214,0.351088439634,0.0390851632816
-0.0159824024886,-0.300846397877,0.00430091423914,-1.99217700958,0.0324132703245,1.76254844666,-0.734907150269,0.036527082324,0.000127554143546,0.00998091045767,-0.00365396682173,-0.00756744528189,0.000110547458462,-0.0128591852263,-7.86234377301e-05,0.47970673839,0.000918563717207,0.482893368126,-0.00132792435544,0.935538649304,0.351089717325,0.0387515464216
-0.0159788392484,-0.300456434488,0.00430309958756,-1.99244356155,0.0323818176985,1.76170325279,-0.734902441502,0.036527082324,3.71760361304e-05,0.00230795843527,3.19113096339e-05,-0.000471492006909,-6.1408005422e-05,-0.0178531371057,8.13724545878e-05,0.479538600202,0.000920120155924,0.482487219616,-0.00158800273301,0.935562131265,0.351103063526,0.038047539446
-0.0159820578992,-0.300354301929,0.0042991922237,-1.99247682095,0.032366450876,1.76138615608,-0.734901607037,0.036527082324,-0.000163129923749,0.0105942822993,-0.000283308996586,-0.00172637403011,-0.000403934071073,-0.0153428576887,7.96531239757e-05,0.479480618968,0.000915444014319,0.482389094742,-0.00166422959474,0.93557005025,0.351104614855,0.0378346472055
-0.0159900486469,-0.300249785185,0.00429388461635,-1.99248325825,0.0323248133063,1.76109588146,-0.734896957874,0.0365415289998,-0.00112150178757,0.00393303809687,-0.000304214365315,-0.00233567855321,-0.00477808481082,-0.0121749257669,-0.000427388411481,0.479433329786,0.00090234706347,0.482305717435,-0.00171918426058,0.935578308874,0.351103162639,0.0376409516553
-0.015993040055,-0.300166398287,0.00429533887655,-1.99249327183,0.0310682617128,1.76028811932,-0.734853088856,0.0365415289998,0.000576380640268,-0.000280446110992,0.000567360722926,0.000133624620503,-0.0672185644507,-0.0100563950837,0.000374376220861,0.479268510371,0.000657442714764,0.48217031273,-0.00130703760079,0.935573296986,0.351186849799,0.036995862377
-0.0159806441516,-0.300190746784,0.00430866889656,-1.9924826622,0.0296705551445,1.76007866859,-0.734803795815,0.0365415289998,0.000605022301897,-0.000703533354681,0.00044631244964,0.000786611577496,-0.100886315107,-0.00770700722933,0.000694251386449,0.479217938507,0.000394109315736,0.482157687757,-0.000695693892242,0.935550937084,0.351283108503,0.0366624807754
-0.0159760825336,-0.300211668015,0.00431720307097,-1.99246740341,0.0274908859283,1.75991475582,-0.734672904015,0.0365415289998,0.000618341029622,-0.00162642879877,0.000305582681904,0.000747771875467,-0.1540389359,-0.00709932530299,0.00852770451456,0.479176068039,-3.09499245521e-05,0.482146690226,0.000282041014712,0.935527537078,0.35139287735,0.0362104025869
-0.0159733816981,-0.300225198269,0.00431759655476,-1.99246776104,0.0243787784129,1.75981080532,-0.734529852867,0.0365415289998,-0.00109352334403,-0.000500741880387,-0.000732429441996,-0.000769521226175,-0.183735251427,-0.00305084651336,0.00478630838916,0.479142637565,-0.000646514349116,0.482127216955,0.00169443391683,0.935486195748,0.351560463536,0.0356082381332
-0.015991859138,-0.300180613995,0.00429933192208,-1.99248707294,0.0115332230926,1.75961685181,-0.73437577486,0.0365415289998,0.000351770722773,0.00062289001653,0.000596146623138,-0.000934032374062,-0.34029713273,-0.0042463792488,0.0024811073672,0.479068743846,-0.00321392161459,0.48203425324,0.00755189283056,0.935222726675,0.352421154547,0.0331775517278
-0.0159752070904,-0.300168961287,0.00431582890451,-1.99249613285,0.00482918554917,1.75954210758,-0.734325826168,0.0365415289998,0.000772961240727,0.00039770398871,0.000725627643988,0.000390290893847,-0.403649836779,-0.00200422550552,0.00412526307628,0.479036002369,-0.00452866804383,0.482007401089,0.0106193217442,0.935055040422,0.352902335725,0.0319255777353
-0.0159681811929,-0.300176262856,0.0043273922056,-1.99248623848,-0.00247335270979,1.75944042206,-0.734263718128,0.0365415289998,-0.000746326637454,0.000294281053357,0.000219887893763,0.000451086234534,-0.458024263382,-0.00552170956507,0.0039703999646,0.478997771238,-0.00596946095041,0.482005509919,0.0139634620899,0.934864618681,0.353409929227,0.0305710332725
-0.0159517973661,-0.300206422806,0.00434632599354,-1.99248087406,-0.0183343235403,1.75929546356,-0.734176635742,0.0365553200245,-0.00119590235408,-0.000352565199137,-0.000203022616915,8.26865580166e-05,-0.597573578358,-0.0121369883418,0.00629466958344,0.478930429449,-0.00910181105799,0.482044323995,0.02124009878,0.934399751853,0.35451479009,0.0276627047284
-0.0159648563713,-0.300216138363,0.00434403819963,-1.99247050285,-0.0294941104949,1.75924122334,-0.734150707722,0.0365553200245,-0.000506242504343,-0.000663796730805,-0.000133826542879,0.00110523845069,-0.642104506493,-0.00248407805339,-0.000338549114531,0.478899385867,-0.0113251646696,0.482104003051,0.0263660441379,0.934037741339,0.355276148574,0.0256356667629
-0.0159612223506,-0.300214380026,0.00434637488797,-1.99247193336,-0.0408765077591,1.75921106339,-0.7341350317,0.0365553200245,0.000175836030394,0.000760764873121,-0.000193562838831,-0.00136089755688,-0.696194350719,-0.000345078384271,0.00250388216227,0.478874522836,-0.0137198675358,0.482185987072,0.0319126182749,0.933607371914,0.356103033202,0.0234411887796
-0.0159778557718,-0.300191879272,0.00433357758448,-1.9924877882,-0.0532059185207,1.759152174,-0.734122216702,0.0365553200245,0.000270484539215,0.000538887979928,-6.74429684295e-05,-0.000839583401103,-0.762900710106,-0.000234623032156,-0.000274663034361,0.478848625549,-0.0160426837331,0.482274028605,0.0372433260637,0.933166628269,0.356874369061,0.0212993647893
-0.0159704070538,-0.300177574158,0.00433961721137,-1.99248564243,-0.0692127794027,1.75899720192,-0.734108150005,0.0365553200245,0.000655179552268,0.000740109360777,-0.000955267867539,-0.000523951079231,-0.829107999802,-0.00865061301738,0.000264672067715,0.478804445119,-0.0192106886717,0.482449572237,0.0445708197058,0.932500338169,0.357939168209,0.0183333818902
-0.0159538108855,-0.300175577402,0.00437629502267,-1.99250483513,-0.0959480851889,1.75868535042,-0.734094500542,0.0365553200245,-0.000222896400373,-0.000582302047405,0.00228293146938,-0.000292269221973,-0.951309859753,-0.0121928509325,-0.000230967387324,0.478724033286,-0.0246669511231,0.482866691721,0.0572329904806,0.931201111401,0.359743433484,0.0131733319677
-0.015961157158,-0.300199687481,0.00441214023158,-1.99247872829,-0.111516952515,1.75843954086,-0.734090387821,0.0365553200245,0.000344349944498,0.00020346097881,0.00332377012819,0.00102225597948,-0.995987296104,-0.0186115577817,0.000337131408742,0.478678890272,-0.0275455470477,0.483170914491,0.0639155299775,0.93044532606,0.360662106223,0.0104472513554
-0.0159619040787,-0.300208836794,0.00444156676531,-1.99247515202,-0.129823058844,1.75810158253,-0.73408895731,0.0365553200245,0.00106183509342,0.000852359284181,0.00349132972769,-0.00155322474893,-1.03272986412,-0.0211004987359,-7.00041273376e-05,0.478617760366,-0.0311473441469,0.483582507159,0.0722616646199,0.92943078012,0.361784246439,0.00698824052235
-0.0159640070051,-0.300212264061,0.00446957768872,-1.99248147011,-0.1489033252,1.75763309002,-0.734086275101,0.036565169692,0.000572278746404,0.00041907132254,0.0010796705028,0.000845126749482,-1.08050572872,-0.0319799110293,-6.73775721225e-05,0.478537152333,-0.0348978140085,0.48406197276,0.0809310863291,0.928295788895,0.362913293244,0.00332097201015
-0.0159550569952,-0.300177574158,0.00449771480635,-1.99249768257,-0.183836132288,1.75655388832,-0.734084546566,0.036565169692,-0.00340145011432,-0.00423159031197,-0.00146584853064,0.00083113409346,-1.17857992649,-0.0399255082011,-0.000138447925565,0.478370712133,-0.0417515090325,0.485080707408,0.096735387052,0.926010842536,0.364875072848,-0.00351643227897
-0.0159760583192,-0.300162136555,0.00449011847377,-1.99250221252,-0.202572777867,1.75590240955,-0.734081685543,0.036565169692,-0.00200637499802,0.00115300400648,-0.00256175082177,0.00102727941703,-1.17945492268,-0.0424409434199,-2.11633250728e-05,0.478276419874,-0.0454391026722,0.485721778513,0.10518728156,0.924682966452,0.365848326055,-0.00721452405161
-0.0159747377038,-0.300156950951,0.00448532495648,-1.99250125885,-0.222713142633,1.75503444672,-0.734084188938,0.036565169692,-0.00121199700516,-0.000374934490537,-0.00220688246191,0.00261420290917,-1.15328228474,-0.0543281808496,0.000381958612707,0.478149182649,-0.0493817737572,0.486479276054,0.114237984474,0.923167063269,0.366858982547,-0.0112580106881
-0.0159805808216,-0.300168842077,0.00447761174291,-1.99249386787,-0.248254343867,1.75363075733,-0.73408138752,0.036565169692,0.00252922670916,-0.00494535220787,0.00250537553802,-0.00206110300496,-1.22804963589,-0.0673457980156,0.000385406397982,0.477934986666,-0.0543750840188,0.487536296576,0.12565354029,0.921127987404,0.368051258644,-0.0165133075841
-0.0159618686885,-0.300174444914,0.00450446968898,-1.99249827862,-0.284260481596,1.75157320499,-0.734081089497,0.036565169692,-0.00169659021776,-0.00265973154455,-0.00231965398416,0.00249489117414,-1.2811601162,-0.0886263474822,-0.000228507851716,0.477645591911,-0.0613447888167,0.489223567077,0.141704060187,0.917997925357,0.369629003595,-0.0239617977208
-0.0159763358533,-0.300184369087,0.00449586566538,-1.99247264862,-0.307287335396,1.7498884201,-0.734079182148,0.036565169692,-0.0017325374065,-0.00104116671719,-0.000824270537123,-0.000844248628709,-1.23472416401,-0.0971493944526,-0.000269238516921,0.477398820931,-0.0658126611904,0.490416885649,0.15188884149,0.915871803675,0.370506043088,-0.0288771670886
-0.0159960277379,-0.300171375275,0.00446480698884,-1.9925057888,-0.327566891909,1.74827671051,-0.734080255032,0.0365723930299,0.000738716276828,-0.00212485180236,-0.00204702466726,-0.00347102270462,-1.31029295921,-0.112355858088,0.00056972366292,0.477156398804,-0.0697485285136,0.491503483746,0.160804778885,0.913913536442,0.371207687344,-0.0332975003981
-0.0159940570593,-0.300178021193,0.0044659068808,-1.99250614643,-0.351119875908,1.7461360693,-0.734080433846,0.0365723930299,0.000748215476051,-0.00407443800941,0.000885737594217,-0.00100606307387,-1.32730388641,-0.116071261466,-0.00212959316559,0.476836692021,-0.0742762623054,0.492871488535,0.171115381678,0.91152805625,0.371957487493,-0.0385195534715
-0.0159877575934,-0.300158113241,0.00447957823053,-1.99251115322,-0.434636771679,1.73754346371,-0.734078764915,0.0365723930299,0.000879658327904,0.00238413899206,4.59153161501e-05,0.0025751022622,-1.33364093304,-0.158213347197,-0.000467884412501,0.475600809151,-0.0901429293339,0.498485932805,0.20734316613,0.90215915574,0.373922046554,-0.0574453823348
-0.0159821547568,-0.300157248974,0.0044833580032,-1.99251151085,-0.460312247276,1.73435819149,-0.734080076218,0.036592092365,-0.00250840932131,0.000762091891374,-0.00249851634726,0.00263103190809,-1.31576097012,-0.168409898877,-0.000117638221127,0.475136720179,-0.0949652169233,0.500442228975,0.218338217881,0.899009034046,0.374274404351,-0.0634810935587
-0.0160065740347,-0.300151437521,0.00445563392714,-1.99253880978,-0.486559301615,1.7310795784,-0.734081447124,0.036592092365,0.00275461212732,-0.00186338624917,0.00126567366533,-0.00346884340979,-1.3034850359,-0.156761750579,-0.000534865772352,0.47466366334,-0.0998828032371,0.502557174399,0.229533259872,0.895659917497,0.374506194673,-0.0696627922867
-0.0160102788359,-0.300146818161,0.00444695353508,-1.99253833294,-0.523578763008,1.72651481628,-0.734081447124,0.036592092365,0.0002990210196,-0.000985652208328,-0.00109537283424,-0.00439496897161,-1.33932614326,-0.154583618045,1.64721041074e-05,0.474026455435,-0.106946077683,0.505913797632,0.245857623473,0.890496880629,0.374687793816,-0.0786027442822
-0.0160128865391,-0.300146013498,0.00444656470791,-1.99258375168,-0.548628330231,1.72368979454,-0.734080970287,0.036592092365,0.00117954879533,-0.000338780053426,0.00113820435945,-0.00539602991194,-1.31996810436,-0.143129438162,0.000154690860654,0.47369691903,-0.111240965351,0.508132485478,0.255954650791,0.88713475795,0.37472775591,-0.0840133715484
-0.0160020496696,-0.300135850906,0.0044500627555,-1.99263215065,-0.571054458618,1.72124421597,-0.734082758427,0.036592092365,0.00505072250962,0.00245235580951,0.00526087777689,0.00139923777897,-1.3171132803,-0.148093536496,0.000465678691398,0.473432631877,-0.115010827054,0.51019158387,0.264918776115,0.884039261509,0.374713634457,-0.0887824194169
-0.0160159803927,-0.300130546093,0.00444314489141,-1.99264967442,-0.593450903893,1.7187974453,-0.734082520008,0.036592092365,-0.00127040129155,0.00241763633676,-0.000596159370616,0.00236502708867,-1.3380625248,-0.14878256619,1.55456800712e-05,0.47312449536,-0.1195316654,0.512810332505,0.275728613886,0.880183011443,0.374589978305,-0.0945195518235
-0.0160115230829,-0.30011883378,0.00444448832422,-1.99267959595,-0.637116134167,1.71359968185,-0.734081089497,0.036592092365,-0.00138671288732,0.00297730136663,-0.00170847307891,0.00150736083742,-1.30446338654,-0.166375041008,-7.37066438887e-05,0.472583033023,-0.126602024231,0.517197162469,0.292785254958,0.873792715819,0.374160249853,-0.103765077752
-0.016017884016,-0.300118625164,0.00443983962759,-1.99270057678,-0.658099889755,1.71112418175,-0.734081149101,0.036592092365,-0.000741197727621,-0.000563860055991,-0.00204410171136,0.00512988027185,-1.27803421021,-0.153195053339,0.000289690477075,0.472302673586,-0.130424989654,0.519736165949,0.302116112868,0.870142148599,0.37381697502,-0.108808843535
-0.016019705683,-0.300116837025,0.00443196343258,-1.99272835255,-0.676184892654,1.7089959383,-0.734082102776,0.036592092365,-0.000437364709796,0.000116330622404,-0.000130366883241,-0.00156438560225,-1.28218650818,-0.153958648443,-0.000319264741847,0.472083917638,-0.13348721127,0.52185652104,0.309662425781,0.867105236117,0.373489571483,-0.112885921259
-0.0160394720733,-0.300123810768,0.00441210530698,-1.99275100231,-0.702152132988,1.70596289635,-0.734082937241,0.036592092365,-2.89331674139e-05,-0.00296512595378,-0.000773119158112,-0.00388412713073,-1.27140235901,-0.148263096809,-0.000257011241047,0.471784086256,-0.1378325733,0.525016682697,0.32046660115,0.862635229855,0.372924633967,-0.118696397611
-0.0160399805754,-0.300112903118,0.00440229708329,-1.99280750751,-0.728510320187,1.70283043385,-0.734082758427,0.036592092365,-0.000821216439363,0.000957755022682,0.000149719082401,-0.000842451059725,-1.24488711357,-0.151285082102,0.000379668228561,0.471485852069,-0.14215467651,0.528317382554,0.331372097625,0.857954889668,0.372263004998,-0.124604153157
-0.0160743054003,-0.300110340118,0.00436703301966,-1.99292504787,-0.7655377388,1.69866108894,-0.734082639217,0.036592092365,-0.00151645694859,0.000168909959029,2.06645454455e-05,-0.00631299661472,-1.23224973679,-0.133046239614,0.00011415238987,0.471126414107,-0.148095715673,0.53315602073,0.346632599409,0.851141130135,0.371185576799,-0.132762512995
-0.016115995124,-0.300102829933,0.0043104137294,-1.99297904968,-0.785074710846,1.69634521008,-0.734083712101,0.036592092365,-0.001505550812,0.005025066901,-0.00797495618463,-0.00172939570621,-1.13522231579,-0.142793819308,-0.000339085498126,0.470916452532,-0.151201141323,0.535794724943,0.354618323989,0.847457363785,0.370494203877,-0.137098159768
-0.0161294676363,-0.300087839365,0.00427047768608,-1.99305415154,-0.80426222086,1.69398999214,-0.734084129333,0.036592092365,-0.00204375525936,0.00328360055573,-0.00238263863139,-0.00481005059555,-1.12741339207,-0.130336254835,-0.000243390255491,0.470705578476,-0.154188831285,0.538429822652,0.362420515286,0.843761572508,0.369770335788,-0.141377782164
-0.0161737576127,-0.300078600645,0.00422378676012,-1.99318051338,-0.823140740395,1.69201540947,-0.734084248543,0.036592092365,-0.00276065431535,0.00361548480578,-0.00407466478646,-0.0075746695511,-1.13201034069,-0.114184297621,-0.000198603986064,0.470566041763,-0.157071797818,0.541075895929,0.370106297588,0.840035372924,0.369063007419,-0.145445511914
-0.016246361658,-0.300059944391,0.00395350717008,-1.99369430542,-0.874875128269,1.68753969669,-0.734086036682,0.0366800874472,0.000439580500824,-0.000844192574732,-0.0113231949508,-0.0142415100709,-0.984580814838,-0.0628367587924,0.00299632223323,0.470388213454,-0.164690233821,0.548571719852,0.391096170162,0.829409145697,0.367064691688,-0.156165830097
-0.0162887535989,-0.300065666437,0.00378811173141,-1.99394154549,-0.891272366047,1.68665444851,-0.734086453915,0.0366800874472,-0.00153815152589,-0.000521472888067,-0.0102754747495,-0.0126206753775,-0.934932649136,-0.0446450226009,-0.000484071322717,0.470430631091,-0.167028371295,0.55101517976,0.397744423722,0.825908066094,0.366446518092,-0.159349266677
-0.0163246244192,-0.300049960613,0.00362793798558,-1.99416923523,-0.905892133713,1.68589091301,-0.734085202217,0.0366800874472,-0.00265313894488,-0.000345001084497,-0.0166083946824,-0.012821206823,-0.891857147217,-0.0420123934746,0.000171373860212,0.470480602577,-0.169081872653,0.553212189616,0.403646775072,0.82273986508,0.365877866363,-0.162178241264
-0.016379924491,-0.300056487322,0.00338338781148,-1.99450159073,-0.923604488373,1.68494081497,-0.734086036682,0.0366800874472,-0.00661497376859,-0.000501560920384,-0.0110002635047,-0.0165029671043,-0.797262251377,-0.0373816229403,-0.00039288616972,0.470519648904,-0.171558910571,0.555893706826,0.410749805658,0.818857220622,0.365138068354,-0.165624998346
-0.0164828151464,-0.30003926158,0.00269972370006,-1.99536705017,-0.958353936672,1.68382966518,-0.73408716917,0.0367037281394,-0.00279656238854,5.73949691898e-05,-0.0112632457167,-0.0207939427346,-0.65230846405,-0.0149322608486,0.000158755137818,0.470719253725,-0.176137556076,0.560979913175,0.42409998563,0.811323540087,0.363786081894,-0.171909865213
-0.0165196675807,-0.300043582916,0.0024806226138,-1.99568676949,-0.968237638474,1.68360698223,-0.734086453915,0.0367037281394,-0.00178905192297,0.000493585423101,-0.0147747555748,-0.018695121631,-0.579858183861,-0.0100864777341,-0.000429072068073,0.470798032635,-0.177633884443,0.562674796702,0.428527788814,0.808749989229,0.36333941885,-0.17398809009
-0.0165334884077,-0.300041168928,0.00222180713899,-1.9960706234,-0.978026151657,1.68333959579,-0.734086036682,0.0367037281394,-0.000670762383379,-0.000302961270791,-0.0164693575352,-0.0230714138597,-0.512583076954,-0.0138296401128,0.00592695130035,0.470850627084,-0.178943840078,0.564131987097,0.432368518396,0.806478762246,0.362939003888,-0.17585434157
-0.0165648497641,-0.300040155649,0.00191847444512,-1.99655175209,-0.98754709959,1.68305528164,-0.734088480473,0.0367037281394,0.000664557795972,0.000239981760387,-0.0143970632926,-0.0306781958789,-0.441350698471,-0.0174879636616,5.72183489567e-05,0.470876125685,-0.180239997538,0.565504667901,0.436059006941,0.804258882922,0.362535705522,-0.177730283222
-0.0165921915323,-0.300040751696,0.00148345471825,-1.99728441238,-0.998929202557,1.68263101578,-0.734086573124,0.0367037281394,-0.000444055127446,0.000148101258674,-0.0124103194103,-0.0232140962034,-0.346431553364,-0.0108236931264,5.59478103241e-05,0.470865666701,-0.181809999438,0.567076797959,0.440404296723,0.801590546978,0.362036745323,-0.180072332974
-0.0166248362511,-0.300029247999,0.00121953675989,-1.99771237373,-1.00437355042,1.68242371082,-0.734085917473,0.0367037281394,-0.00241018715315,-0.000372088426957,-0.0174224190414,-0.0256016030908,-0.29803019762,-0.0142725072801,-0.0001059198039,0.470843291022,-0.18259190288,0.567787585808,0.442447354323,0.800314279738,0.361786183645,-0.181240583943
-0.0166423246264,-0.300027340651,0.000983729260042,-1.99812972546,-1.00892734528,1.68222808838,-0.734087526798,0.0367037281394,-0.000153458793648,-0.000573627825361,-0.0118542853743,-0.025570590049,-0.268231749535,-0.0103180902079,-0.00036252712016,0.470812371866,-0.183247236279,0.568357822864,0.444138711565,0.799240800689,0.361581218103,-0.182247002065
-0.0166611634195,-0.300028830767,0.000723791483324,-1.99873006344,-1.01402938366,1.68203926086,-0.734086275101,0.0367037281394,-0.000697786628734,0.00046090525575,-0.00618987157941,-0.0278215706348,-0.25516808033,-0.00747052067891,-0.000107973595732,0.47077308309,-0.18397182307,0.568937587937,0.446012107151,0.798018544702,0.361386655454,-0.183410161904
-0.0166776143014,-0.300002038479,0.000198140580324,-2.00019311905,-1.02405810356,1.68168461323,-0.73408639431,0.0367037281394,-0.00384002551436,0.00358165404759,-0.00890031922609,-0.0274926871061,-0.180644065142,-0.00342846871354,2.23233637371e-05,0.470684011507,-0.185404247292,0.569948485369,0.449690406318,0.795527215546,0.361074649477,-0.18584962991
-0.0166759267449,-0.299961745739,2.55577160715e-05,-2.00068902969,-1.02709949017,1.68160164356,-0.734086632729,0.0367037281394,0.000165896926774,0.00149269413669,-0.0106676081195,-0.0255573857576,-0.157518535852,0.000361037178664,0.000477723253425,0.470666729007,-0.185804457521,0.570196336775,0.450708348334,0.794815540817,0.361008625075,-0.186555656791
-0.0166813768446,-0.29989105463,-9.90809567156e-05,-2.00108575821,-1.02933263779,1.68152737617,-0.734086811543,0.0367037281394,0.000498360721394,0.00566310016438,-0.00698834238574,-0.0245223473758,-0.134822949767,-0.0117901600897,5.30734432687e-05,0.470655908704,-0.186138156808,0.570363664067,0.451532118476,0.794220935189,0.360965967092,-0.187177515571
-0.0166897308081,-0.299607813358,-0.000419590738602,-2.00211572647,-1.03505814075,1.68136119843,-0.73408639431,0.0367096364498,0.000690869987011,0.00985514558852,-0.0068165617995,-0.0153781324625,-0.0777821466327,-0.00230136653408,2.4689721613e-05,0.470660793762,-0.186917254479,0.570708979385,0.453455254116,0.792800950547,0.360897948475,-0.188673410301
-0.0166822187603,-0.299479156733,-0.000499770743772,-2.00235795975,-1.03628027439,1.68129909039,-0.734087228775,0.0367096364498,0.000337109348038,0.00430663814768,-0.00192338915076,-0.0145564191043,-0.0662188306451,-0.00180873728823,-1.93576597667e-05,0.470670077988,-0.18709136908,0.570740429155,0.453853286829,0.792484433367,0.360897387746,-0.189046798607
-0.0166841894388,-0.299375504255,-0.00053657538956,-2.00258088112,-1.03738534451,1.68125760555,-0.734087109566,0.0367096364498,0.000261521694483,0.00911411829293,-0.00424682209268,-0.0159337874502,-0.0570576749742,-0.000149833736941,1.3893828509e-05,0.47068314349,-0.187232741751,0.57077542581,0.454223245636,0.792190680558,0.360907037393,-0.189370744208
-0.0166788119823,-0.299220144749,-0.000570089847315,-2.002794981,-1.03852283955,1.68123102188,-0.734087824821,0.0367096364498,0.000404794060159,0.00578268105164,-0.000535130209755,-0.0122537305579,-0.0580304227769,-0.000262961606495,0.000106401974335,0.470715257871,-0.18737101187,0.570796721448,0.454601336524,0.791881093418,0.360933154162,-0.189708240684
-0.0166716054082,-0.298891693354,-0.000588216003962,-2.00329685211,-1.04059779644,1.68117082119,-0.734087586403,0.0367096364498,0.000311179464916,0.00750462664291,-0.000339187827194,-0.0100080110133,-0.0121812904254,-0.000261331966612,0.000150223990204,0.470779710758,-0.187602602766,0.570762154778,0.455268638503,0.791292587759,0.361027482764,-0.190382939581
-0.0166690535843,-0.298802375793,-0.000592667784076,-2.00342416763,-1.04075372219,1.68115270138,-0.734085023403,0.0367129184306,0.000571179843973,0.0033930442296,-0.000325351051288,-0.0083379317075,-0.00690033473074,-0.00116296659689,0.000134194473503,0.470788892959,-0.187622005927,0.570684662523,0.455287904186,0.791236171223,0.361065480347,-0.190499249846
-0.0166673325002,-0.298688083887,-0.000593102769926,-2.00352716446,-1.04093515873,1.68113672733,-0.734085083008,0.0367129184306,0.000457029702375,0.00546476105228,0.00042641555774,-0.00447629811242,-0.011553558521,-0.00064972077962,-0.000300550338579,0.470809156698,-0.187642971794,0.570608769637,0.455319843427,0.791168395049,0.361107590397,-0.190624548931
