imanlab/tactile_prediction_flat_dataset/test/data_sample_2021-11-25-13-27-35/robot_state.csv
position_panda_joint1,position_panda_joint2,position_panda_joint3,position_panda_joint4,position_panda_joint5,position_panda_joint6,position_panda_joint7,position_panda_finger,velocity_panda_joint1,velocity_panda_joint2,velocity_panda_joint3,velocity_panda_joint4,velocity_panda_joint5,velocity_panda_joint6,velocity_panda_joint7,ee_state_position_x,ee_state_position_y,ee_state_position_z,ee_state_orientation_x,ee_state_orientation_y,ee_state_orientation_z,ee_state_orientation_w
0.0690136104822,-0.00735846580938,-0.0839910507202,-2.51694321632,-0.0118293007836,2.55493855476,-0.719884157181,0.0560996904969,0.000519274268299,-0.000178207526915,-0.000146827558638,0.000131897555548,-0.000123594276374,-2.68451476586e-05,5.41437366337e-05,0.47136848444,-0.00752824723205,0.173713421226,0.0110120600882,0.936599848783,0.34965360415,0.0200453132584
0.0690136477351,-0.00735816033557,-0.0839912816882,-2.51693987846,-0.0118303159252,2.55493879318,-0.719884395599,0.0560996904969,-8.4648214397e-05,0.000370916503016,0.000511517515406,0.000279204541584,-3.50317968696e-05,-1.45897058701e-06,0.000256840983639,0.471370073605,-0.00752841501915,0.173714607234,0.0110129404897,0.936599661474,0.34965399716,0.0200467260583
0.0690124630928,-0.00735773472115,-0.0839915126562,-2.51694273949,-0.0118297049776,2.55493879318,-0.719883799553,0.0560996904969,0.000577294384129,-0.000473315565614,-0.000197075205506,0.000333422358381,-0.000109378095658,-0.000145175290527,5.63354296901e-05,0.471368634108,-0.00752903632403,0.173713287686,0.0110122040262,0.936600133985,0.349652839377,0.0200452484146
0.0690115839243,-0.00735812168568,-0.0839918330312,-2.51694393158,-0.0118304835632,2.55493879318,-0.719883859158,0.0560996904969,-2.22323633352e-05,5.89428709645e-05,-0.00114204571582,-0.000167590027559,4.08587902712e-06,-4.69337210234e-05,-0.000139602925628,0.471368119111,-0.00752962566738,0.173713003194,0.0110122616947,0.936600229189,0.349652608696,0.0200447922089
0.0690136775374,-0.00735764810815,-0.0839911475778,-2.51694083214,-0.0118285194039,2.5549390316,-0.719884932041,0.0560996904969,-2.61811214841e-06,-8.88316117198e-06,0.000301332765957,-0.000219444278628,-3.97117983084e-05,1.69099730556e-05,-0.00063936895458,0.471369303956,-0.00752865610549,0.173713670452,0.0110120494155,0.936599950082,0.349653295305,0.020045973206
0.0690143853426,-0.0073593123816,-0.0839913710952,-2.51694226265,-0.011828427203,2.5549390316,-0.719885468483,0.0560996904969,0.000248790922342,0.00409580953419,-0.000178236718057,-1.31343449539e-05,-0.000196095075808,-0.000132718327222,-0.0043591610156,0.471369178792,-0.00752798872506,0.173714238293,0.0110122124956,0.936599643083,0.349654083958,0.0200464712495
0.0690147280693,-0.00735777057707,-0.0839913412929,-2.51694226265,-0.0118291862309,2.55493855476,-0.719884693623,0.0560996904969,0.000604512926657,0.000213408202399,-0.00298803276382,0.000435449503129,-4.99845145896e-06,-0.000154662513523,-6.06763096584e-05,0.471368833978,-0.00752786623039,0.173713467658,0.0110121001557,0.936599624102,0.349654197588,0.0200454378025
0.0690182745457,-0.00735846208408,-0.083989970386,-2.51693964005,-0.0118291527033,2.5549390316,-0.719884037971,0.0560996904969,-0.000398863310693,0.00078857166227,-0.00194845825899,2.14984283957e-05,-7.17022267054e-05,8.84671535459e-05,-0.00445183273405,0.471370331314,-0.00752556031947,0.173714865609,0.0110126998496,0.93659884562,0.34965616031,0.0200472459105
0.06901922822,-0.00735651981086,-0.0839908272028,-2.51694273949,-0.0118304314092,2.5549390316,-0.719884216785,0.0560996904969,-1.2795287148e-05,0.00014549511252,0.0012280595256,0.000460545590613,-6.59542711219e-05,-0.000134581248858,0.000844250491355,0.471368548208,-0.00752557346828,0.173712740756,0.0110121995732,0.936598662698,0.349656809653,0.0200447409893
0.0690186470747,-0.00735790515319,-0.0839913189411,-2.51694345474,-0.0118313217536,2.55493831635,-0.719884335995,0.0560990348458,0.000232820792007,0.00072733941488,-0.0030115020927,-0.000354247429641,-0.000105466548121,-0.00303260958754,0.000208279001527,0.471368266037,-0.00752610042517,0.173713041805,0.0110123875875,0.936598702844,0.349656701984,0.0200446400536
0.0690187364817,-0.0073600304313,-0.0839906334877,-2.51694250107,-0.0118298400193,2.55493879318,-0.719886183739,0.0560990348458,0.000416016177041,0.000418469775468,0.00124773511197,0.000140087780892,2.5053806894e-05,-6.66611595079e-06,-0.000199463800527,0.471369091179,-0.00752553095265,0.173714474335,0.0110125783599,0.936598435684,0.349657307139,0.020046462069
0.0690187513828,-0.00735704554245,-0.0839917883277,-2.51694345474,-0.0118290744722,2.55493879318,-0.719888150692,0.0560990348458,0.000507541990373,0.000446565070888,9.11239185371e-05,0.000464978686068,-2.19871290028e-05,-0.000118894022307,0.000106847488496,0.471368229657,-0.00752617391075,0.173712683844,0.0110117900156,0.936598426842,0.349657459005,0.0200446593014
0.0690232515335,-0.00735828652978,-0.0839879661798,-2.51694536209,-0.0118293296546,2.55493879318,-0.719887852669,0.0560990348458,0.000178292553755,0.000100288270914,6.07064430369e-05,0.000115496019134,-8.25248753245e-06,3.91943694922e-06,-0.000175024149939,0.471367582154,-0.00752224012106,0.173712521729,0.0110116148122,0.936596994128,0.34966131802,0.020044383171
0.0690210834146,-0.0073585100472,-0.0839913263917,-2.51694130898,-0.0118290260434,2.55493927002,-0.719887733459,0.0560990348458,-0.00030481693102,0.000633998366538,-2.24962841457e-05,-0.000218059212784,6.22609222773e-05,-3.65939558833e-06,-0.000350783433532,0.471369606885,-0.0075248551191,0.173714258057,0.0110124293536,0.936597977424,0.349658531121,0.0200466053102
0.0690184682608,-0.00735756102949,-0.0839920341969,-2.51694250107,-0.0118297673762,2.55493950844,-0.719888389111,0.0560990348458,-0.00055493763648,-0.000281050888589,5.58228748559e-05,-0.000140160787851,0.000116409137263,1.87692876352e-05,8.79197832546e-05,0.471368914804,-0.00752645794129,0.173713369214,0.011012355372,0.936598355236,0.349657578528,0.0200456095346
0.0690216049552,-0.00735599920154,-0.0839900448918,-2.51694464684,-0.0118303429335,2.55493927002,-0.719889163971,0.0560990348458,0.000135129506816,0.000465769437142,0.000162173120771,0.000439980765805,-0.000194504638785,7.7520715422e-05,0.000279161118669,0.471367632979,-0.00752407287949,0.173711773495,0.0110118181033,0.936597279631,0.349660585277,0.0200437132357
0.0690251067281,-0.00735692633316,-0.0839899033308,-2.51694273949,-0.011830797419,2.55493998528,-0.719889104366,0.0560990348458,-0.00291296420619,-0.000508859986439,-1.18755224321e-05,-2.10569214687e-05,7.530431958e-06,-5.51369885216e-06,0.000119205753435,0.471368868808,-0.00752238172942,0.173713025388,0.0110125082484,0.936596551558,0.349662419715,0.020045353506
0.0690284371376,-0.00735784461722,-0.0839891284704,-2.51694345474,-0.0118313794956,2.55494022369,-0.719888627529,0.0560990348458,-0.000305335735902,0.000442335702246,-0.0040316414088,0.000247316842433,-7.30950923753e-05,-5.37015694135e-05,0.000286104652332,0.471368756392,-0.0075204602322,0.173713200619,0.011012663235,0.936595828861,0.349664340129,0.0200455365948
0.0690275281668,-0.00736001692712,-0.0839887335896,-2.51694130898,-0.0118304379284,2.55494093895,-0.719886720181,0.0560990348458,0.000232567443163,-0.000406391336583,-0.000450988009106,-7.94750158093e-05,8.44120731927e-05,-2.06398635783e-05,0.000190029109945,0.471370324089,-0.00752075970179,0.173715288094,0.0110132049977,0.936596378335,0.349662698493,0.0200482012784
0.0690272375941,-0.00735657801852,-0.0839916691184,-2.51694369316,-0.0118293073028,2.55493855476,-0.719889760017,0.0560990348458,-0.000221948328544,-0.00052266032435,-0.00247592595406,-0.000179711802048,9.78383395704e-05,-0.000120241631521,-0.000203943069209,0.471368011655,-0.00752226341365,0.173712467045,0.0110116442239,0.936596611952,0.349662343552,0.0200443348537
0.0690257847309,-0.00735836056992,-0.0839917734265,-2.51694393158,-0.0118292300031,2.5549390316,-0.719890415668,0.0560990348458,-0.000119752789033,-0.00203744717874,0.00377079192549,0.000120475277072,-0.000138768140459,0.000112280213216,-2.91427168122e-05,0.471368315939,-0.00752284123565,0.173713138362,0.0110119261229,0.936596765634,0.349661874044,0.020045189261
0.0690269097686,-0.00735823949799,-0.0839922353625,-2.51694345474,-0.0118304686621,2.55494093895,-0.719890415668,0.0560990348458,0.00019723593141,8.63079185365e-05,-0.000235476007219,0.000250985583989,-3.96380273742e-05,-8.00194611656e-05,-9.52351765591e-05,0.471368951392,-0.00752269339408,0.173713499455,0.0110126871675,0.936596483156,0.349662551056,0.0200461601216
0.0690306425095,-0.00735878059641,-0.0839889496565,-2.51694345474,-0.011830358766,2.55493974686,-0.719888985157,0.0560990348458,-4.76168133901e-05,0.000171524749021,2.09295558307e-05,0.000559506646823,-2.33871396631e-05,-0.00017009950534,-0.000106616571429,0.471368820914,-0.00751927713322,0.173713593368,0.0110124194205,0.936595493041,0.34966522774,0.0200458781294
0.0690309479833,-0.00735622365028,-0.0839898884296,-2.51694417,-0.0118285520002,2.55493927002,-0.719889760017,0.0560990348458,-0.000669071392622,0.00290722376667,0.000443348486442,-0.000476550048916,-7.85957163316e-05,8.91041636351e-05,-0.000311934447382,0.471367967469,-0.00751951048755,0.173712064984,0.0110113697153,0.936595765995,0.349664621539,0.0200442756744
0.0690276622772,-0.00735917547718,-0.0839916020632,-2.51694703102,-0.0118289198726,2.55494070053,-0.719889700413,0.0560990348458,-0.000215266263695,0.000191705112229,0.00252159126103,0.000480947113829,-0.000151331187226,4.69489823445e-05,-0.000300159590552,0.471367344615,-0.00752182991084,0.173712471718,0.0110116643516,0.936596581702,0.349662387905,0.0200449635244
0.0690293759108,-0.00735941808671,-0.0839926898479,-2.51694417,-0.0118285128847,2.55494093895,-0.719891011715,0.0560990348458,-0.000357812183211,-8.40191205498e-05,-0.000341437436873,-0.00324025587179,1.82917046914e-05,-2.20178590098e-05,0.000178490459803,0.471368800453,-0.00752153263036,0.173713727924,0.0110121556425,0.936596268178,0.349663120559,0.0200465625663
0.0690296217799,-0.00736028468236,-0.0839905738831,-2.51694321632,-0.0118292849511,2.55494117737,-0.719889938831,0.0560990348458,-0.000116868934128,-0.000442975870101,0.000508813478518,-0.000386584026273,0.000103452926851,1.42840854096e-05,0.000262586429017,0.471369460887,-0.00752045648031,0.173714532294,0.0110126737036,0.936595910852,0.349664009296,0.0200474707429
0.0690315961838,-0.0073574418202,-0.0839912220836,-2.51694321632,-0.01183105167,2.55494165421,-0.719890236855,0.0560990348458,0.000325647939462,0.000683419289999,0.000313009979436,0.00029687146889,-7.64390933909e-05,-0.000122809738968,-0.000345427775756,0.471369121019,-0.0075199467792,0.173713243918,0.0110128134821,0.936595394113,0.34966546438,0.0200461560236
0.0690357685089,-0.00735857570544,-0.083990290761,-2.51694488525,-0.0118302190676,2.55494141579,-0.719889461994,0.0560990348458,-0.000267398689175,0.000103175872937,-9.80681434157e-05,0.000253908132436,0.000185338925803,-6.69696310069e-05,-0.000224121788051,0.471368343237,-0.00751762421306,0.17371301685,0.0110122066754,0.936594859429,0.349666927733,0.0200459455134
0.0690325796604,-0.00735883181915,-0.0839908793569,-2.51694417,-0.0118299452588,2.55494117737,-0.719889342785,0.0560990348458,0.000138618372148,-0.000120625438285,0.000481267459691,9.16611534194e-05,-1.43174675031e-05,1.59929531947e-05,-0.00013645652507,0.471368795984,-0.00751924645927,0.173713476832,0.0110124365424,0.936595479617,0.349665240072,0.0200462807847
0.0690310075879,-0.00735730212182,-0.0839912742376,-2.51694273949,-0.0118284951895,2.55494117737,-0.719890236855,0.0560990348458,0.000220786343561,0.000328376248945,0.00306514417753,-0.000292325450573,-1.27383746076e-05,-1.71982719621e-05,-0.000371893402189,0.471369219132,-0.00752013096379,0.173713317416,0.0110121192616,0.936595876772,0.349664182445,0.020046347404
0.0690328031778,-0.00735871726647,-0.0839922055602,-2.51694369316,-0.0118282139301,2.55494117737,-0.71989095211,0.0560990348458,0.000242405032623,0.00464585376903,-7.17158991392e-06,-9.82724827736e-07,-0.000116433649964,3.04212608171e-05,0.000144823643495,0.471368996723,-0.00751968642235,0.173713608666,0.011012067079,0.936595637146,0.349664810758,0.0200466122332
0.069035038352,-0.00735670560971,-0.0839900001884,-2.51694417,-0.0118298530579,2.55494189262,-0.719893217087,0.0560990348458,-0.000521429406945,-0.000112274436106,0.000428587634815,-0.000264620699454,-1.98571578949e-05,3.89789529436e-05,-0.000155329296831,0.471368636934,-0.00751769346186,0.173712548294,0.0110122450427,0.936594244418,0.349668593556,0.0200456017045
0.0690377727151,-0.00735882623121,-0.0839889794588,-2.51694273949,-0.0118291135877,2.55494093895,-0.719891011715,0.0560990348458,9.64907594607e-05,0.000908093934413,-0.000881219166331,-0.000269881013082,3.33895368385e-05,-9.57359807217e-05,0.000192709252588,0.471369478251,-0.00751587588879,0.173714010874,0.011012383794,0.93659405604,0.349669016689,0.0200469460804
0.0690359547734,-0.007358613424,-0.0839887484908,-2.51694417,-0.0118281077594,2.55494022369,-0.719891488552,0.0560990348458,-0.000361248763511,0.000230954567087,-0.00382457417436,-0.00018810929032,0.000175881214091,8.77168422448e-05,0.000457832124084,0.471368598482,-0.00751656741882,0.173713281019,0.011011719513,0.936594419531,0.349668121932,0.0200459354447
0.0690343901515,-0.00735905673355,-0.0839902088046,-2.51694297791,-0.0118292020634,2.5549428463,-0.719892799854,0.0560990348458,0.000576856080443,0.000511138292495,-0.000112587222247,3.2069900044e-05,2.87002712867e-05,-4.90137099405e-05,-0.000267152034212,0.471369677071,-0.00751786797227,0.173713909463,0.0110127889196,0.936594316963,0.349668276039,0.0200474520022
0.0690341219306,-0.00735842529684,-0.0839916095138,-2.51694369316,-0.0118282409385,2.55494141579,-0.719893693924,0.0560990348458,-0.000277290993836,-0.00023935783247,-0.000253414647887,0.000324683933286,-3.44741965819e-05,1.33938374347e-05,0.000201511444175,0.471369287174,-0.00751809715763,0.173713750903,0.0110125288521,0.936594555788,0.349667664452,0.020047104493
0.0690349787474,-0.00735918711871,-0.0839901342988,-2.51694250107,-0.0118287904188,2.55494070053,-0.71989351511,0.0560990348458,-3.83476290153e-05,9.41047837841e-05,0.000247633754043,0.000285264075501,9.94705042103e-05,1.40723423101e-05,-0.000118870360893,0.471369568142,-0.00751771803703,0.173714249912,0.0110124104513,0.936594352215,0.349668212713,0.0200471174979
0.0690392926335,-0.00735963787884,-0.0839895009995,-2.51694321632,-0.0118300421163,2.55494308472,-0.719894766808,0.0560990348458,9.02636165847e-05,-3.51972958015e-05,0.00191710761283,3.21462794091e-05,4.24882200605e-05,7.56512527005e-05,-0.00012950663222,0.471369848446,-0.00751543791291,0.173714415608,0.0110130666535,0.936593064058,0.349671591452,0.0200480058728
0.0690366849303,-0.00735705485567,-0.0839900001884,-2.51694560051,-0.0118290809914,2.55494332314,-0.719894707203,0.0560990348458,0.000172444721102,-0.000760179304052,0.000645806838293,0.000102941681689,-2.99026578432e-05,0.000228538614465,-0.000180109185749,0.471368331594,-0.00751686670899,0.173712292366,0.0110120804359,0.936593802342,0.349669768513,0.0200458517492
0.0690385177732,-0.00735856220126,-0.0839909613132,-2.51694560051,-0.0118286190554,2.55494451523,-0.719894766808,0.0560990348458,-2.65398011834e-05,0.00303098699078,0.000298758415738,-2.98759459838e-05,-2.37920630752e-05,8.47409755806e-05,0.000180244765943,0.471368833768,-0.00751641660381,0.1737131166,0.0110123711058,0.93659367837,0.349670015029,0.0200471842138
0.0690377950668,-0.00735737523064,-0.0839921757579,-2.51694297791,-0.0118289263919,2.55494379997,-0.719894826412,0.0560990348458,0.00017257858417,-0.000104615537566,1.3900871636e-05,0.000230377539992,5.03104311065e-05,-0.000180104645551,-0.00049528334057,0.471369724684,-0.00751737496695,0.173713514902,0.0110126502705,0.936593955539,0.349669247973,0.0200474609362
0.0690361708403,-0.00735792377964,-0.083991445601,-2.51694297791,-0.0118296490982,2.55494523048,-0.71989685297,0.0560990348458,-0.000177092442755,-0.000268408010015,-0.000686634099111,-0.000202056908165,0.00012934213737,0.00013804747141,-0.00343586807139,0.471370018266,-0.00751779143463,0.173713875655,0.0110131783922,0.936593591881,0.349670160276,0.020048247975
0.0690413117409,-0.00735783716664,-0.0839890763164,-2.51694440842,-0.0118291154504,2.55494475365,-0.719896018505,0.0560990348458,8.18141634227e-05,3.47647655872e-05,0.000268082570983,0.000816292886157,1.54216486408e-05,-0.000130467655254,-6.87607898726e-05,0.471369372181,-0.00751425397437,0.173713266465,0.0110126319547,0.936592562198,0.349672980138,0.0200474691521
0.0690419003367,-0.00735617335886,-0.083988301456,-2.51694631577,-0.0118298409507,2.55494570732,-0.719898343086,0.0560990348458,2.9954186175e-05,7.48607781134e-05,0.000602500746027,-0.000274439982604,-3.29217727995e-05,0.00225318386219,-8.70510120876e-05,0.471368415181,-0.00751365175256,0.173711832428,0.0110124239144,0.93659183714,0.349675004438,0.020046148757
0.0690403431654,-0.0073585533537,-0.0839916914701,-2.51694393158,-0.0118281794712,2.55494642258,-0.719900667667,0.0560990348458,-0.000230579025811,-0.000486793753225,-0.00164683640469,-0.000199293528567,1.70065277416e-06,0.000123573336168,-0.000324604916386,0.471370044448,-0.00751589180381,0.17371395165,0.0110129396623,0.936592480737,0.349673108439,0.0200488679725
0.0690395459533,-0.00735945487395,-0.0839919447899,-2.51694464684,-0.0118261398748,2.55494713783,-0.719901919365,0.0560990348458,0.000229241792113,-0.000163503864314,0.000272815435892,-0.000745118537452,-0.000182817384484,0.000182179064723,8.8381144451e-05,0.471369993611,-0.00751627412532,0.17371416455,0.0110125420134,0.936592730252,0.349672416496,0.0200494983869
0.0690403431654,-0.00735706975684,-0.0839898660779,-2.51694417,-0.0118273757398,2.55494737625,-0.719902813435,0.0560990348458,5.58671126782e-05,-6.39931677142e-05,0.000255304941675,0.000251327845035,-4.42588716396e-05,2.35157767747e-05,0.000586670008488,0.471369914163,-0.00751501005409,0.173713255068,0.0110126495512,0.936591908292,0.349674667906,0.020048570572
0.0690432712436,-0.0073558264412,-0.0839904621243,-2.51694417,-0.01182585489,2.55494809151,-0.719904184341,0.0560990348458,-0.000379459321266,0.000719085044693,0.000197184665012,-8.56486658449e-05,-6.05302411714e-05,-8.5900472186e-05,0.000207947101444,0.47136988809,-0.00751385123219,0.173712740378,0.0110121817615,0.936591484243,0.349675824139,0.0200484711683
0.0690401270986,-0.00735612213612,-0.0839894935489,-2.51694417,-0.0118267619982,2.55494737625,-0.719904959202,0.0560990348458,0.000304051383864,-0.00142759503797,0.000732680317014,-0.000460354320239,-2.70540549536e-05,0.000167483594851,0.000240095658228,0.471369764943,-0.0075149177307,0.173712809866,0.0110123722222,0.936591603403,0.349675516349,0.020048168141
0.0690423846245,-0.00735871773213,-0.0839908793569,-2.51694464684,-0.0118266502395,2.55494737625,-0.719905853271,0.0560990348458,4.71477287647e-05,-0.000271794357104,2.21948812396e-05,-1.01857267509e-05,6.25625980319e-05,2.44814436883e-05,0.000110422668513,0.471369956979,-0.00751446780444,0.173713842087,0.011012619886,0.936591290648,0.349676286923,0.0200492028376
0.0690398216248,-0.00735840760171,-0.0839899256825,-2.51694440842,-0.0118257785216,2.55494737625,-0.719906151295,0.0560990348458,0.000469989870908,-0.000224005460041,-0.000115247778012,-0.000382185913622,-0.000164472789038,5.33789498149e-05,-0.000222187591135,0.471370028925,-0.00751507921189,0.173713842398,0.0110124168422,0.936591557212,0.349675573769,0.0200492999919
0.0690384730697,-0.0073585822247,-0.0839889496565,-2.51694250107,-0.0118268067017,2.55494832993,-0.719909548759,0.0484547764063,-0.000358970777597,-0.000505394593347,-0.000137743845698,-0.000537775980774,-6.348714669e-05,1.69524555531e-05,0.000332381780026,0.471371146516,-0.00751542955727,0.173714711877,0.0110132653739,0.936590937592,0.349677135945,0.0200505333868
0.0690412893891,-0.00735672516748,-0.083991728723,-2.51694393158,-0.0118275675923,2.55494809151,-0.71991032362,0.0484547764063,0.000246351613896,-0.000169654071215,-0.000141263473779,0.000212918079342,9.73973365035e-05,-1.15689135782e-05,-0.00799478217959,0.471370119393,-0.00751545494905,0.173713255967,0.0110128998857,0.936590720798,0.349677828284,0.0200487865712
0.0690418183804,-0.00735591957346,-0.0839908123016,-2.51694536209,-0.011826781556,2.55494785309,-0.719910502434,0.0484547764063,0.000310448725941,0.000346651213476,0.000128441068227,-0.000177922061994,-0.000207343880902,-6.41481165076e-05,4.34859284724e-05,0.471369270633,-0.00751473522666,0.173712294578,0.0110122636311,0.936590574874,0.349678300908,0.0200477097525
0.0690446794033,-0.00735893333331,-0.0839898139238,-2.51694393158,-0.0118261771277,2.55494952202,-0.719912648201,0.0484547764063,-0.000204042138648,0.000100989265775,-0.000168454163941,-0.000150821782881,-9.40461832215e-05,0.00017778945039,9.12945324671e-05,0.47137081792,-0.00751286651994,0.173714433288,0.0110130728561,0.936589550139,0.349680850331,0.0200506706477
0.0690409392118,-0.00735833868384,-0.0839926674962,-2.51694369316,-0.0118269827217,2.5549492836,-0.719912350178,0.0484547764063,-0.000304025481455,-0.000378630618798,-0.000112629109935,-0.000650294707157,3.05801768263e-05,-3.20864164678e-05,0.000328308611643,0.471370735675,-0.00751601803667,0.173714223327,0.0110132576277,0.936590645015,0.349677934896,0.0200502708066
0.0690440237522,-0.00735969934613,-0.0839907675982,-2.51694583893,-0.0118263419718,2.55494832993,-0.719913184643,0.0484547764063,5.82463944738e-05,7.15388232493e-05,-0.000227700133109,-0.000425927166361,-3.8245212636e-05,-8.23182926979e-06,0.000194171676412,0.47136976382,-0.00751360880168,0.173713930008,0.0110126857307,0.936589738998,0.349680420093,0.0200495647402
0.0690428167582,-0.0073553067632,-0.083989277482,-2.51694512367,-0.0118265487254,2.55494880676,-0.719914078712,0.0484547764063,3.56133823516e-05,-0.000109904663987,-6.12048606854e-05,0.000192437437363,0.000263845577138,-1.90432638192e-05,-0.00229111569934,0.471369510757,-0.00751354080558,0.173712193679,0.011012342662,0.936589533078,0.34968107276,0.020047989372
0.0690450444818,-0.00735765881836,-0.0839906409383,-2.51694440842,-0.0118270022795,2.55495047569,-0.719915211201,0.0468026027083,0.000272786215646,-0.000324608612573,1.22837786876e-06,-2.76259524981e-05,-8.16531319288e-05,1.94809254026e-05,-0.0008075843798,0.471370589589,-0.00751313385771,0.173713741353,0.011013221894,0.93658907018,0.349682159126,0.020050182975
0.0690438821912,-0.00735897338018,-0.0839906930923,-2.51694464684,-0.01182736177,2.55495023727,-0.71991610527,0.0468026027083,0.000206497614272,0.000237396277953,-0.000288249138976,0.000429861160228,7.37528825994e-05,0.000110201995994,8.36312174215e-05,0.471370624604,-0.00751370715771,0.17371424233,0.0110134400566,0.936589066743,0.349682140875,0.0200505420354
0.0690421685576,-0.00735764345154,-0.0839900374413,-2.51694583893,-0.0118262376636,2.55495071411,-0.719918072224,0.0468026027083,0.000126471190015,0.000312588876113,0.000262193963863,-0.000644288316835,-3.27550947077e-06,-1.59988849191e-05,-0.000173980515683,0.471369940855,-0.00751415884605,0.173713197717,0.0110128512634,0.936589089322,0.349682148907,0.0200496706101
0.0690433159471,-0.00735871167853,-0.0839894711971,-2.51694560051,-0.0118270451203,2.55495095253,-0.719918251038,0.0468026027083,0.00013191056496,-0.00431938841939,-0.000106455961941,8.49679636303e-05,-0.000111730158096,0.000132615183247,6.75957999192e-05,0.471370287972,-0.00751338061411,0.173713816512,0.0110132909575,0.936588626628,0.349683336535,0.0200503298971
0.0690446048975,-0.00735942972824,-0.0839895680547,-2.51694607735,-0.0118273263797,2.55495095253,-0.719919860363,0.0468026027083,-8.92874741112e-05,0.000139785464853,-0.00101526861545,0.000474922999274,-0.000185862896615,3.28093155986e-05,0.000273260899121,0.471370184059,-0.00751282067027,0.173713967295,0.0110133852608,0.936588094116,0.34968475462,0.0200504208969
0.0690433830023,-0.00735855521634,-0.0839900821447,-2.51694440842,-0.0118261985481,2.55495142937,-0.719923257828,0.0449672192335,0.00333775440231,0.000549778051209,-0.000266065588221,0.0002595797705,4.9702837714e-05,1.22290566651e-05,0.000218599598156,0.47137092884,-0.00751360642062,0.173714255632,0.0110133974193,0.936587952723,0.349685094582,0.020051089887
0.0690435916185,-0.00735900690779,-0.0839915499091,-2.51694560051,-0.0118272444233,2.55495071411,-0.719923496246,0.0449672192335,0.000339697959134,0.000103922422568,9.08920264919e-05,9.55801588134e-05,0.00199096719734,-0.000278365478152,-0.000146450198372,0.471370269909,-0.00751423423935,0.173713931314,0.011013407199,0.936587995951,0.34968502362,0.0200503028402
0.0690447688103,-0.00735893147066,-0.0839906558394,-2.51694750786,-0.011826986447,2.55495023727,-0.719922602177,0.0449672192335,9.56036310527e-05,0.000516053929459,0.00376913929358,-0.00197314750403,-2.45917144639e-05,-2.9657050618e-05,4.47342899861e-05,0.471369263638,-0.00751323314597,0.173713103168,0.0110128696542,0.936587852423,0.34968548834,0.020049197616
0.0690448731184,-0.00735791074112,-0.0839904546738,-2.5169467926,-0.0118268216029,2.55495095253,-0.719924628735,0.0449672192335,-0.00034899142338,0.000448370701633,2.21583504754e-05,-0.000294762692647,0.000703706929926,0.000973597110715,-0.000203948991839,0.471369597757,-0.00751309834966,0.173712973526,0.0110129553967,0.936587463135,0.349686517667,0.0200493830179
0.069043815136,-0.00735806487501,-0.0839918404818,-2.5169467926,-0.0118266176432,2.55495071411,-0.71992456913,0.0449672192335,-0.000243444301304,5.55077276658e-05,-0.00330237369053,-7.82643255661e-05,2.79632513411e-05,0.000223463255679,0.000737374590244,0.471369552619,-0.00751423703983,0.173713022133,0.0110128995723,0.936587931492,0.349685266615,0.0200493547305
0.0690427795053,-0.00735867815092,-0.0839907601476,-2.51694583893,-0.0118271037936,2.55495142937,-0.71992701292,0.0449672192335,4.89769045089e-05,-0.000508839788381,0.00034659638186,-0.000327661662595,7.23752746126e-05,-0.000113380672701,0.000344644009601,0.471370438174,-0.00751431048369,0.173713805571,0.0110135497066,0.936587358187,0.349686720355,0.0200504239419
0.0690435618162,-0.00735981715843,-0.0839918032289,-2.51694631577,-0.0118262208998,2.55495071411,-0.719927966595,0.0449672192335,0.000235659215832,-0.000348116387613,-0.000207584831514,0.000819542736281,0.00197209161706,-3.98053998651e-05,0.000159164774232,0.471370056443,-0.00751430416095,0.173714031682,0.0110131657074,0.936587410846,0.34968659064,0.0200504373453
0.0690445229411,-0.00735767139122,-0.0839907005429,-2.5169479847,-0.0118279820308,2.5549519062,-0.719929337502,0.0449672192335,-1.8217955585e-05,0.000758377427701,-0.00021338777151,-8.77588245203e-05,6.31123330095e-05,0.00013653334463,-7.79883048381e-05,0.471369192534,-0.00751342902834,0.173712488269,0.0110132359382,0.936586580247,0.349688894858,0.02004901079
0.0690453350544,-0.00735713401809,-0.0839899331331,-2.51694917679,-0.0118268141523,2.55495071411,-0.719928264618,0.0449672192335,0.000521678943187,0.0014694792917,-0.000235149302171,0.000107520347228,1.30477856146e-05,6.62624006509e-05,0.00014188500063,0.471368215711,-0.00751276123603,0.173711663754,0.0110123802792,0.936586766645,0.349688493628,0.020047771362
0.0690439119935,-0.00735931750387,-0.0839893370867,-2.51694774628,-0.0118266483769,2.55495166779,-0.719929218292,0.0449672192335,0.000103362996015,0.000236688079895,-0.00147922267206,0.00011491276382,-5.92891738052e-05,8.73906465131e-05,-0.000205064468901,0.47136951394,-0.0075128000906,0.173713297096,0.0110130802744,0.936586563891,0.349688891848,0.0200499128666
0.0690497756004,-0.00735880574211,-0.0839893594384,-2.51694488525,-0.0118271093816,2.55495142937,-0.719930112362,0.0449672192335,8.13800797914e-05,4.35509173258e-05,0.000391700014006,0.000113809444883,4.00839271606e-05,1.88557914953e-05,-7.541548257e-05,0.471370795031,-0.00751029073701,0.17371418724,0.0110135895116,0.936585381122,0.349691987339,0.0200508950274
0.0690492019057,-0.00735864043236,-0.0839912369847,-2.51694869995,-0.011827188544,2.55495142937,-0.71993035078,0.0433846525848,7.29672901798e-05,0.000302633823594,-0.000533985788934,0.000186695760931,-5.16476466146e-05,8.56069709698e-06,0.000423643243266,0.471368935047,-0.00751142153178,0.173712616565,0.0110129138839,0.936585796413,0.349691003923,0.0200490186053
0.0690456479788,-0.00735736684874,-0.0839901641011,-2.51694869995,-0.0118264490739,2.55495071411,-0.719932198524,0.0433846525848,0.000331469578668,-0.00016163282271,-4.22497105319e-05,-1.62767792062e-05,1.85453899348e-07,3.49502406607e-05,-8.97669306141e-05,0.471368560675,-0.00751257044657,0.173711948447,0.0110124557528,0.936586034003,0.349690433239,0.020048124977
0.069049872458,-0.00735843367875,-0.0839902386069,-2.51695013046,-0.0118267890066,2.55495214462,-0.719933867455,0.0433846525848,0.00017430059961,0.000605656008702,-0.00102531071752,-0.000445806595962,6.05627246841e-06,-6.89999287715e-05,-0.000457230344182,0.471368387865,-0.00751060901644,0.173712029906,0.0110126665497,0.936584955624,0.349693286601,0.0200486175541
0.0690458267927,-0.00736016128212,-0.0839905664325,-2.51694822311,-0.0118265999481,2.55495262146,-0.719934880733,0.0433846525848,0.000132578410557,-0.000281129090581,-0.000694784743246,-0.000678718439303,6.08211448707e-05,0.000175097593456,0.00031762252911,0.471369639552,-0.00751265638398,0.173713634149,0.0110133457879,0.936585529413,0.349691617826,0.0200505465611
0.0690456032753,-0.00735730212182,-0.0839907824993,-2.51694917679,-0.0118269957602,2.5549530983,-0.719934999943,0.0433846525848,-6.78257274558e-05,0.000594095559791,-0.00303205056116,0.000150981359184,-1.01018713394e-05,-2.6395153327e-05,0.000216353102587,0.471368830423,-0.0075129069759,0.173711964703,0.0110129611277,0.936585560062,0.349691641593,0.0200489116269
0.069047704339,-0.00735766626894,-0.0839906707406,-2.51694989204,-0.0118266651407,2.55495262146,-0.719938576221,0.0433846525848,-0.00156730902381,0.00015071418602,0.000388855842175,5.14361563546e-05,-7.02437901055e-05,2.88596675091e-05,-0.000125261212816,0.471368413603,-0.00751179183966,0.173711663058,0.0110126764446,0.936584529833,0.349694438679,0.0200484083788
0.0690471827984,-0.00735829723999,-0.0839914903045,-2.51694893837,-0.0118269696832,2.5549519062,-0.71993803978,0.0433846525848,0.000150546940858,0.000369704706827,0.00296614645049,-0.00127667561173,-0.000253822276136,-1.22125129565e-05,-7.7357115515e-05,0.471368852451,-0.00751248416567,0.173712408583,0.011012946817,0.936584881287,0.349693458738,0.0200489338759
0.0690475702286,-0.00736010493711,-0.0839906707406,-2.51694989204,-0.0118272490799,2.55495238304,-0.719939231873,0.0433846525848,-2.80329586531e-05,-0.000369636749383,-0.000301909749396,-0.000220737769268,3.69684094039e-05,9.78019670583e-05,-0.000210203259485,0.471368797405,-0.00751190296895,0.173712931559,0.0110131922278,0.936584408296,0.349694682522,0.0200495495208
0.0690478906035,-0.00735781155527,-0.083989366889,-2.51694965363,-0.0118271810934,2.55495238304,-0.719938874245,0.0425421483815,0.000139466501423,0.000321772415191,0.000114912909339,2.77271936966e-07,9.35982461669e-05,-3.38052973348e-06,-0.000264029105892,0.471368558737,-0.00751116259753,0.173711947939,0.0110128762139,0.936584216268,0.34969526248,0.020048577989
0.069047190249,-0.00735605647787,-0.0839899256825,-2.516954422,-0.0118265831843,2.5549530983,-0.719938695431,0.0425421483815,0.000697752577253,-0.000260577449808,0.000320071005262,-0.00024428559118,-9.11157912924e-05,-1.01479020032e-06,-3.36417542712e-05,0.471366155192,-0.00751171141321,0.173709327552,0.0110117357412,0.936584610527,0.34969439558,0.020045906966
0.0690482184291,-0.00735775334761,-0.0839915573597,-2.51695609093,-0.0118265887722,2.55495238304,-0.71993881464,0.0425421483815,0.00019589344447,0.000232243633945,-0.000291364645818,0.000515396357514,1.86362503882e-05,5.61470806133e-05,-0.000101754594652,0.47136547242,-0.00751196291968,0.173709401206,0.0110115496055,0.936584702811,0.349694171534,0.0200456059449
0.0690514743328,-0.00735815241933,-0.0839884355664,-2.51695418358,-0.0118266241625,2.55495262146,-0.719941437244,0.0425421483815,-0.000301498133922,-0.000310710543999,8.78503778949e-05,-0.000295815087156,5.84319641348e-05,3.56586024282e-05,-0.000181457755389,0.471366542762,-0.00750897183755,0.173710359153,0.0110119782306,0.936583098325,0.349698386245,0.0200468105074
0.0690524354577,-0.00735660595819,-0.0839895159006,-2.51695585251,-0.0118274232373,2.55495381355,-0.719941437244,0.0425421483815,-0.000194347958313,-0.000432970671682,-0.000220989328227,-0.000367709901184,3.21581901517e-05,-4.82556388306e-05,0.000134566842462,0.471365757747,-0.00750907043162,0.173709096325,0.0110118771382,0.936583022195,0.349698653095,0.0200457678132
0.0690447464585,-0.00735824927688,-0.0839924141765,-2.51695680618,-0.0118271559477,2.55495405197,-0.71994549036,0.0425421483815,-0.000103705948277,-5.1443304983e-05,-0.000485977594508,0.000441326003056,-4.33399327449e-05,-6.94768677931e-05,-0.000384220853448,0.471365536621,-0.00751401972659,0.1737095175,0.011012044693,0.936584194421,0.349695485075,0.0200461726131
0.0690495297313,-0.00735730724409,-0.0839899107814,-2.51695823669,-0.0118265077472,2.55495214462,-0.719944775105,0.0404999181628,0.00200703344308,0.000549565535039,-0.000185569908354,-0.00011777675536,0.000102280166175,9.14809206733e-05,-7.08699517418e-05,0.471364351669,-0.00751055574211,0.17370832928,0.0110110680259,0.936583183477,0.349698332379,0.0200442716753
0.0690500661731,-0.00736018782482,-0.0839893966913,-2.51696062088,-0.0118270907551,2.55495405197,-0.719946980476,0.0404999181628,-0.000874226097949,-0.000226802541874,0.00016056743334,0.000418195326347,-0.000154534121975,-3.00661740766e-05,-0.000104679820652,0.471364092419,-0.00751004095736,0.173708936473,0.0110115511767,0.936582504892,0.349700071823,0.0200453666687
0.0690474286675,-0.00735944695771,-0.0839915722609,-2.51696014404,-0.0118268411607,2.55495166779,-0.71994882822,0.0404999181628,0.000139669675264,0.000574686797336,-0.00359049695544,0.000223723822273,8.6964770162e-05,-0.000182791016414,-0.000336407654686,0.471363731021,-0.00751248614203,0.173708409246,0.0110110867851,0.936583119632,0.34969851328,0.0200440884861
0.0690512508154,-0.00735959131271,-0.0839911177754,-2.51696133614,-0.0118278441951,2.55495333672,-0.719950556755,0.0404999181628,0.000136855713208,0.000681783480104,0.000418491661549,0.000419945252361,0.000498179520946,-0.000103061043774,-0.000260571599938,0.471363499293,-0.0075103288192,0.173708306193,0.0110114458881,0.936581885634,0.349701793925,0.0200443152216
0.0690749809146,-0.00736579205841,-0.0839802846313,-2.51695799828,-0.0118258595467,2.55495262146,-0.719952702522,0.0404999181628,0.000318134669214,0.000110037173727,-0.000329797505401,-0.000160821611644,0.000117253068311,-6.85354898451e-05,-0.000369531015167,0.471366179959,-0.0074939105507,0.173712457364,0.0110119905178,0.936575667703,0.349718167838,0.0200488778073
0.0690827220678,-0.00736328074709,-0.0839831233025,-2.51695632935,-0.0118262181059,2.5549519062,-0.719952046871,0.0404999181628,0.00129979616031,-0.000168304337421,-0.00283207115717,0.003151292447,4.07113911933e-05,-0.000228418357437,0.000106740364572,0.471366457797,-0.00749165298833,0.173711860004,0.0110118402729,0.936574888958,0.349720301907,0.0200481138343
0.069091193378,-0.00736532127485,-0.0839821025729,-2.51695680618,-0.0118267638609,2.55495333672,-0.719953656197,0.0404999181628,0.00185469654389,-0.000804648268968,-0.000533593876753,0.00205688877031,-7.58708411013e-05,1.34666943268e-05,-3.25924133904e-06,0.471366933452,-0.00748718094994,0.17371277234,0.011012367531,0.936572838147,0.349725696595,0.0200495245566
0.0690986812115,-0.00736617157236,-0.0839825496078,-2.51695847511,-0.0118275154382,2.55495095253,-0.719954311848,0.0389823615551,3.74323826691e-05,0.000441898533609,0.00304351793602,0.000242973081185,-5.74330479139e-05,-4.44455545221e-05,-0.00071953528095,0.471365814824,-0.00748387483164,0.173712285643,0.0110118973581,0.93657141904,0.349729599223,0.0200479990702
0.0690995305777,-0.00736779719591,-0.0839813798666,-2.51695680618,-0.011826287955,2.55495285988,-0.719954252243,0.0389823615551,-5.73915895075e-05,0.000405737373512,7.45234283386e-05,0.000220093876123,0.000101846278994,5.77556193093e-07,-3.05998873955e-05,0.471367292466,-0.00748286096916,0.173713888763,0.0110124254594,0.936571199798,0.349730021591,0.0200505829973
0.0691099911928,-0.00736503768712,-0.0839822813869,-2.51695728302,-0.011826726608,2.55495285988,-0.719956338406,0.0389823615551,-9.72574634943e-05,-0.000184970675036,-8.14680151962e-06,-0.000155666479259,-0.00265644746833,-2.08856090467e-05,-0.000118464595289,0.471366698393,-0.00747840195111,0.173712405859,0.0110119856491,0.936569131505,0.349735662958,0.0200490355242
0.0691105350852,-0.00736452545971,-0.0839833244681,-2.51695775986,-0.0118261938915,2.55495262146,-0.71995472908,0.0389823615551,-4.2865784053e-05,-7.61185001465e-05,-0.000168768121512,-0.0004865694209,-4.94354499097e-05,-3.41150989698e-05,0.000195656597498,0.471366335212,-0.00747861249883,0.173711954898,0.0110116268053,0.936569589467,0.3497344775,0.020048518513
0.0691168904305,-0.00736490357667,-0.0839812755585,-2.51695728302,-0.0118263177574,2.5549519062,-0.719958126545,0.0389823615551,0.000122934681713,6.6519191023e-05,-5.62040040677e-05,-0.000253540376434,-0.000571481941734,-4.98480346778e-07,-0.00462585128844,0.47136653153,-0.00747465833452,0.173712249741,0.0110116305518,0.936567507346,0.349740048456,0.0200486001588
0.069116294384,-0.00736541347578,-0.0839824527502,-2.51695799828,-0.0118270684034,2.5549519062,-0.719958484173,0.0389823615551,-0.000178009227966,-0.000391105830204,-4.87808247271e-05,-0.000115936869406,5.35092040082e-05,3.89243105019e-05,0.000161426418344,0.471366432604,-0.00747550852142,0.173712366795,0.0110118226647,0.936567608029,0.349739776675,0.0200485323833
0.0691207721829,-0.00736457435414,-0.0839822366834,-2.51695728302,-0.0118264760822,2.55495333672,-0.719958662987,0.0389823615551,0.000189370752196,-1.98795278266e-05,-0.000122943223687,-6.20728751528e-05,-6.63721511955e-05,-0.00010063310765,-0.000185196782695,0.471366808184,-0.00747329246604,0.173712234804,0.0110118523734,0.936566867198,0.349741726558,0.0200491088318
0.0691251754761,-0.00736572546884,-0.0839811861515,-2.51695752144,-0.0118264118209,2.5549530983,-0.719959616661,0.0389823615551,-0.000664836901706,0.000144095989526,-0.000277174491202,-0.000188120946405,-2.87035982183e-05,-0.000307603564579,0.000125843929709,0.471366867301,-0.00747070534496,0.173712659197,0.0110118717753,0.936565749908,0.349744697294,0.0200494683293
0.0691245123744,-0.00736659625545,-0.0839818045497,-2.51695728302,-0.0118256825954,2.55495166779,-0.719960689545,0.0389823615551,-2.86822250928e-05,0.000132295317599,0.000181098730536,-0.000103367339761,6.81935416651e-05,-1.95760840143e-05,4.01785428039e-06,0.471366744471,-0.0074712248207,0.173712961977,0.011011635273,0.936565838675,0.349744471308,0.0200493937635
0.0691279172897,-0.00736589822918,-0.0839843377471,-2.51695609093,-0.0118263550103,2.55495142937,-0.71996229887,0.0389823615551,-0.000425298610935,-0.000460689305328,4.9528265663e-05,7.15260466677e-05,0.00239964132197,3.66610147466e-05,-0.00024172119447,0.47136721366,-0.00747089974218,0.173713135819,0.0110118652282,0.936565363521,0.349745734423,0.0200494293112
0.0691293030977,-0.00736479368061,-0.0839819982648,-2.51695895195,-0.011826611124,2.55495142937,-0.719962120056,0.0389823615551,-0.000118063064292,4.56690431747e-05,0.000130829794216,-1.18583520816e-05,0.000199271235033,3.70397792722e-05,-2.59163025476e-05,0.471365620992,-0.00746918257622,0.173711380351,0.0110111517072,0.936564713358,0.349747616938,0.0200473530103
0.0691330209374,-0.00736562907696,-0.0839835032821,-2.51695871353,-0.0118264257908,2.5549519062,-0.719963312149,0.0388470850885,0.000322278938256,2.18858458538e-05,-0.000146705904626,-0.000781704846304,0.00179493741598,0.000112806919788,0.000421643693699,0.471366069805,-0.00746808913446,0.17371203022,0.0110114071697,0.936564161143,0.349749032145,0.0200483209893
0.0691326409578,-0.00736476480961,-0.0839819535613,-2.51695919037,-0.0118261845782,2.55495214462,-0.7199639678,0.0388470850885,0.000255994964391,-0.000368434382835,0.000190729973838,8.72210730449e-05,0.000105203587736,-6.44028405077e-05,-0.000126585931866,0.471365765705,-0.00746753417615,0.173711461398,0.0110111758192,0.936563887083,0.349749801903,0.0200478221824
0.0691331997514,-0.00736657949165,-0.0839806944132,-2.51695919037,-0.0118256378919,2.55495333672,-0.719964742661,0.0388470850885,0.000165513760294,0.000122830519103,-4.63545147795e-05,-1.93453688553e-05,0.00560365617275,-5.89673109062e-05,-6.74737384543e-05,0.471366323937,-0.00746663318862,0.173712430621,0.0110114930331,0.936563481716,0.349750792148,0.0200493095927
0.0691383555532,-0.00736559834331,-0.0839828923345,-2.51695680618,-0.0118262311444,2.55495166779,-0.719965398312,0.0388470850885,-0.000392488145735,-0.000944969011471,-0.000430868967669,-0.000170996412635,1.3678133655e-05,-5.41994158993e-05,0.000220104950131,0.471366965774,-0.00746529213638,0.173712738825,0.0110116187999,0.936562768538,0.349752708595,0.0200491235545
0.0691429972649,-0.00736416503787,-0.0839813575149,-2.51695942879,-0.0118268569931,2.55495047569,-0.719966053963,0.0388470850885,0.000163360906299,-0.000224311414058,3.23391759594e-05,-0.000411899876781,-6.19312850176e-05,-5.31076693733e-05,-0.000323661923176,0.471365280116,-0.00746240855557,0.173710923508,0.0110108441722,0.936561536707,0.349756174886,0.0200466228312
0.0691407173872,-0.00736748799682,-0.0839804634452,-2.51695823669,-0.0118261137977,2.55495238304,-0.719966888428,0.0388470850885,-0.000275545491604,-0.000182253701496,-5.97754951741e-05,5.19069290021e-05,0.00562046421692,2.25263574976e-05,2.68558551397e-07,0.471366825517,-0.00746282796132,0.173713164206,0.0110117655608,0.936561520834,0.349756014849,0.02004965024
0.0691395103931,-0.00736605329439,-0.0839811712503,-2.51695919037,-0.0118265021592,2.55495381355,-0.719967544079,0.0388470850885,0.000332623138092,7.71636186983e-05,8.37465850054e-05,0.000173673135578,4.83904150315e-05,-8.88574868441e-05,-0.000199465925107,0.471366527663,-0.00746371757552,0.173712282594,0.011011698918,0.936561831697,0.34975520961,0.0200492127245
0.0691432803869,-0.00736504653469,-0.0839822217822,-2.5169608593,-0.011826605536,2.55495214462,-0.719968020916,0.0388470850885,0.000609280308709,0.000218137472984,0.000290883239359,-0.000328078545863,-9.76875453489e-05,-0.000132548142574,0.000393886410166,0.471365093641,-0.00746265012085,0.173710940819,0.0110109605683,0.936561317858,0.349756725774,0.020047171914
0.0691451355815,-0.00736622000113,-0.0839801132679,-2.51696038246,-0.0118268439546,2.55495238304,-0.719968676567,0.0388470850885,0.000351298367605,0.000708594045136,0.000176269779331,0.000235325016547,-7.50037579564e-05,-4.53072898381e-05,-0.00561664206907,0.471365587903,-0.00746078638086,0.173711702602,0.0110112942493,0.936560456829,0.34975897002,0.0200480592652
0.0691453740001,-0.00736562674865,-0.0839809700847,-2.51695966721,-0.011826403439,2.55495262146,-0.719969391823,0.0388470850885,-0.000413379340898,0.000269260577625,0.000544462469406,0.000276153092273,-2.19810390263e-05,6.76683557685e-05,0.000479016540339,0.471365880609,-0.00746106761216,0.173711726715,0.0110112749492,0.936560499374,0.349758845297,0.0200482582352
0.0691412910819,-0.00736794015393,-0.083985298872,-2.51696062088,-0.0118267172948,2.55495238304,-0.719969332218,0.0388470850885,-0.000327960093273,-2.79193973256e-05,0.00013715508976,0.000141923301271,5.01543690916e-05,6.64017570671e-05,-0.000233010796364,0.471365680024,-0.00746500998092,0.173712415751,0.0110115403043,0.936561925661,0.349754990219,0.0200487377364
0.0691411420703,-0.00736486259848,-0.0839856564999,-2.5169608593,-0.0118268663064,2.5549519062,-0.719970047474,0.0388470850885,1.4482964616e-05,0.000144743113196,-0.000247746735113,7.93662838987e-05,-7.60984185035e-05,2.34488088608e-05,0.000332614086801,0.47136493734,-0.00746526458613,0.17371072874,0.0110109935081,0.936561848526,0.349755324822,0.0200468040549
0.0691455081105,-0.007365826983,-0.0839831158519,-2.51695942879,-0.0118262451142,2.55495238304,-0.719970226288,0.0388470850885,-4.09842905356e-05,-0.00232016597874,-2.91976466542e-05,-0.00011135981913,-1.21488947116e-05,-0.000262319983449,0.000469097285531,0.471365959521,-0.00746200512371,0.173711890046,0.0110112831539,0.936560726523,0.349758231155,0.0200483566214
0.069152854383,-0.0073657091707,-0.0839794650674,-2.51695942879,-0.0118268616498,2.55495452881,-0.719971895218,0.0388477444649,-0.000487613753648,0.000212413302506,-0.000134495261591,0.000206403012271,-0.000131104403408,0.00122120545711,-1.71678711922e-05,0.47136648386,-0.00745685775706,0.173712045884,0.0110117308655,0.93655839956,0.34976439465,0.0200492872396
0.069154471159,-0.00736641185358,-0.0839813798666,-2.51696014404,-0.0118270246312,2.55495238304,-0.71997243166,0.0388477444649,0.00346075021662,0.000286645023152,0.000242643698584,-0.0003581600904,4.48880273325e-05,-2.38866523432e-05,-0.000114594346087,0.47136574711,-0.00745694229718,0.173711751043,0.0110113168755,0.936558307231,0.349764721006,0.0200481341535
0.0691517442465,-0.0073658619076,-0.0839808061719,-2.51696109772,-0.0118262963369,2.5549530983,-0.719973325729,0.0388477444649,0.00203674053773,-2.62203666352e-05,-0.000787462515291,-0.000153399509145,-0.000100651130197,-7.38157614251e-05,0.000278597901342,0.4713653885,-0.00745796990858,0.173711324156,0.0110110787297,0.936558690871,0.349763711628,0.0200479528504
0.0691514834762,-0.00736664235592,-0.0839840471745,-2.51696109772,-0.0118266725913,2.55495047569,-0.719975948334,0.0388477444649,0.00144490879029,-0.000145101148519,0.00060627917992,-0.000268975883955,7.75251028244e-05,-0.000143521509017,1.09028687802e-05,0.471364922734,-0.00745962479208,0.173711433352,0.0110108751162,0.936558812247,0.349763445802,0.020047032163
0.0691507607698,-0.00736547354609,-0.0839812010527,-2.51696133614,-0.0118271578103,2.55495381355,-0.719974696636,0.0388477444649,-2.27428572543e-05,-0.000457071524579,4.94318919664e-05,1.30042030833e-06,4.14873284171e-05,0.000117988507554,0.00028584478423,0.47136535644,-0.00745866335306,0.17371111857,0.0110113632369,0.936558566033,0.349764040734,0.0200478867896
0.0691549926996,-0.00736736645922,-0.0839815139771,-2.51696014404,-0.0118268569931,2.55495285988,-0.719973444939,0.0388477444649,-0.000361170677934,-2.01793591259e-05,0.000132314860821,0.000362923688954,6.43581879558e-05,4.75562592328e-05,0.000165709061548,0.471366048908,-0.00745678865257,0.17371238064,0.0110115466202,0.936558123505,0.349765158223,0.0200489630073
0.0691570043564,-0.00736416177824,-0.0839811265469,-2.51695942879,-0.011827471666,2.55495452881,-0.719974935055,0.0388477444649,-0.000122231023852,-0.000464548473246,-0.000449579121778,-4.77707908431e-05,-5.37460255146e-06,-8.32666555652e-05,-0.000406180770369,0.471366103814,-0.0074563520558,0.173711523862,0.0110116738483,0.936557356212,0.349767241889,0.020048385266
0.0691557824612,-0.00736668007448,-0.0839824005961,-2.51695871353,-0.0118266511708,2.55495333672,-0.719976961613,0.0388477444649,-0.000376396608772,0.000580703897867,-0.000138083938509,0.000165234043379,4.38247934653e-06,-2.83126300928e-05,4.78007787024e-05,0.471366722193,-0.00745684162709,0.173712664235,0.0110117718252,0.936557542146,0.349766675595,0.0200495251901
0.0691545680165,-0.00736644631252,-0.0839822217822,-2.51696205139,-0.0118269687518,2.55495381355,-0.719977676868,0.0388477444649,0.000273339130217,0.000296313839499,5.19833738508e-05,0.000392245623516,-0.000246968498686,6.57193886582e-05,0.000136033646413,0.471365191427,-0.00745732368779,0.173711295302,0.0110113192787,0.936557582639,0.349766666583,0.0200480393596
0.0691528990865,-0.00737460097298,-0.0839834213257,-2.51695418358,-0.0118269817904,2.55495452881,-0.719977140427,0.0388477444649,0.000202893934329,0.000162981217727,-2.13339590118e-05,0.000883758126292,0.0002062022686,8.44000242068e-05,0.000479466834804,0.471370363089,-0.00745864302623,0.173718273657,0.0110140580167,0.936558011154,0.349764980429,0.0200559322964
0.0691568851471,-0.00738132698461,-0.0839821472764,-2.51695084572,-0.0118271624669,2.55495429039,-0.719978690147,0.0388477444649,-0.000430780462921,0.000132577639306,-0.000278703053482,0.000517509703059,-0.000339340913342,6.96526403772e-05,-0.000205230971915,0.471373430383,-0.00745683446461,0.173722900548,0.0110157888566,0.93655676098,0.349767987586,0.0200609173695
0.0691550150514,-0.00738000916317,-0.0839832574129,-2.51694917679,-0.0118278749287,2.55495524406,-0.719979405403,0.0388477444649,0.000618532649241,-0.00048325501848,0.000696608272847,-6.28141642665e-05,-1.65011642821e-05,-9.88222745946e-05,5.66658018215e-05,0.471373775199,-0.0074575887502,0.173722843278,0.0110161026309,0.936556977353,0.349767387976,0.0200610979062
0.0691620782018,-0.00738143036142,-0.0839791819453,-2.51694989204,-0.0118271727115,2.55495500565,-0.71998077631,0.0388477444649,-0.000149704268551,-6.55329786241e-05,-0.000165859848494,-0.000260216300376,4.94864070788e-05,-5.80704327149e-05,0.000436137692304,0.471373693026,-0.00745228848276,0.173723208674,0.0110158611789,0.936554886908,0.349772972472,0.020061456192
0.0691553801298,-0.00737815117463,-0.0839828848839,-2.51695108414,-0.011826925911,2.55495429039,-0.719982326031,0.0388477444649,0.000796257751063,-0.000364226754755,0.000604146218393,-0.00033870927291,-0.000106178595161,1.97844783543e-05,-6.80705343257e-05,0.471372373349,-0.00745720204906,0.17372113078,0.0110150924948,0.936556522108,0.349768761464,0.0200589587103
0.0691548809409,-0.00737924221903,-0.08398552984,-2.51695108414,-0.0118271494284,2.55495500565,-0.719982206821,0.0388477444649,0.000469524762593,-0.00040568417171,0.000555598293431,0.000498572539072,-3.82946054742e-05,0.000197877758183,-0.000303758512018,0.471372676622,-0.00745868005147,0.173721712538,0.0110154550286,0.936557042184,0.349767310419,0.02005977903
0.0691575482488,-0.0073818648234,-0.0839826241136,-2.51695227623,-0.0118270432577,2.5549557209,-0.719983577728,0.0388477444649,-3.31754904437e-06,0.000485308119096,0.000261892564595,-0.000165525998455,-2.78830375464e-05,-0.000129659965751,-0.00203328719363,0.471372721575,-0.00745601423228,0.173722548841,0.0110156775642,0.936555821684,0.349770510273,0.0200608461159
0.0691606253386,-0.00737888738513,-0.0839821323752,-2.51695346832,-0.0118276868016,2.55495548248,-0.719982385635,0.0388477444649,-0.000514150247909,0.000626979453955,-0.000168545244378,-0.000236039457377,-0.000104718732473,9.06610694074e-06,-0.00205304264091,0.47137205078,-0.00745356944474,0.173721304125,0.0110153722102,0.936554965711,0.349772895222,0.0200593925692
0.0691623538733,-0.00737835094333,-0.0839809030294,-2.51695156097,-0.0118273915723,2.5549557209,-0.719982683659,0.0383178144693,0.000354267569492,-5.41094195796e-05,0.000547487288713,-0.000461713876575,-3.63915933121e-05,-8.06247335277e-05,-0.00015352506307,0.471372552267,-0.00745300035369,0.173721178727,0.0110153329398,0.936554812959,0.349773299398,0.0200594984419
0.0691646039486,-0.00737995188683,-0.08398155123,-2.51695251465,-0.0118271298707,2.5549557209,-0.719984471798,0.0383178144693,-5.41946283192e-05,0.000479965121485,8.91150630196e-05,0.000490082311444,3.97361727664e-05,-3.64775369235e-05,-0.000491207814775,0.471372364827,-0.00745220738247,0.173721557336,0.0110153167382,0.936554252003,0.349774781866,0.0200598481609
0.0691582635045,-0.00737850740552,-0.083983309567,-2.51695251465,-0.0118269827217,2.5549557209,-0.719983994961,0.0383178144693,0.000202774943318,-0.000371304689907,0.000179112059413,0.000375095522031,-6.03668959229e-05,-6.79609293002e-05,-7.09170417394e-05,0.471372074827,-0.0074560316837,0.173720878256,0.0110151423946,0.936555786968,0.349770718457,0.0200591308838
0.0691594779491,-0.00738041941077,-0.0839837044477,-2.5169532299,-0.0118268346414,2.55495524406,-0.719985246658,0.0383178144693,9.3884744274e-05,-0.000416670634877,-0.000407739222283,-0.000196414563106,-3.37843084708e-05,4.22973134846e-05,-0.000242054826231,0.471371886516,-0.0074557532016,0.173721292029,0.0110151441229,0.936555488852,0.349771505101,0.0200593321289
0.0691604018211,-0.00738165760413,-0.0839845314622,-2.51694607735,-0.0118275713176,2.55495738983,-0.719987630844,0.0383178144693,0.000110877568659,-5.73968645767e-05,-0.000414062145865,0.00122549734078,0.00011380356591,0.000358682096703,-1.44174225625e-06,0.471376003422,-0.0074556396188,0.17372503975,0.0110172364887,0.936554792597,0.349773016048,0.020064343852
0.0691608414054,-0.00740348827094,-0.0839816853404,-2.51692724228,-0.011827214621,2.55496168137,-0.719988584518,0.0383178144693,-0.000319632992614,-0.00218658149242,-0.000337075878633,0.00140580290463,-9.56320873229e-05,0.000144079240272,-0.000119067444757,0.47138311576,-0.00745390046272,0.173733426649,0.011020862678,0.93655404154,0.349774314107,0.0200747786371
0.0691628754139,-0.00743510434404,-0.0839817672968,-2.516913414,-0.0118266465142,2.55496573448,-0.719989299774,0.0383178144693,-0.000137772629387,-0.00198385259137,1.2046340089e-05,-0.000113660447823,-2.28878707276e-05,-7.09537343937e-05,8.23311347631e-05,0.471401867765,-0.00745278386643,0.173763743794,0.01103197671,0.936552782406,0.349775359159,0.0201091787176
0.0691630467772,-0.00750523898751,-0.0839821472764,-2.51692533493,-0.0118276644498,2.55496478081,-0.719989061356,0.0383178144693,-0.000114050737466,-0.00647439295426,0.000388106214814,-0.000852144497912,7.10704553057e-05,-0.00028728635516,-0.000144234916661,0.471407129752,-0.00745207137511,0.173791932416,0.0110398771757,0.936552166798,0.349775175491,0.0201366897656
0.0691639855504,-0.00758715858683,-0.0839822515845,-2.51693415642,-0.0118260905147,2.55496311188,-0.719992280006,0.0383178144693,0.00354890408926,0.00028468677192,-1.49024697293e-06,-0.000370688008843,0.00548150995746,0.000725314137526,2.76351947832e-05,0.471415590794,-0.00745063596381,0.173826799601,0.0110492220916,0.936551000117,0.349776015239,0.0201712102036
0.0691649392247,-0.00758895277977,-0.0839815139771,-2.5169301033,-0.0118269789964,2.5549633503,-0.719992280006,0.0383178144693,-0.00190168782137,-0.000504563096911,1.39237727126e-05,0.000783168768976,-4.50347906735e-05,0.000114253693027,0.000278451101622,0.471417867529,-0.00744989212109,0.173829252555,0.0110504791899,0.93655051532,0.349777113514,0.0201739860029
0.0691640004516,-0.0075917923823,-0.083982206881,-2.51692247391,-0.011826723814,2.55496358871,-0.7199909091,0.0384163148701,-2.56625735346e-05,1.56332043844e-05,0.000128039580886,-0.00078240520088,7.99672925496e-05,-0.000555270293262,-0.000286249764031,0.471421887955,-0.00745049764509,0.173833536801,0.0110521874648,0.936550870285,0.349775821612,0.0201789698131
0.069169268012,-0.00759382499382,-0.0839813649654,-2.51692819595,-0.0118267806247,2.55496287346,-0.719995379448,0.0384163148701,0.000294541998301,0.000797996937763,-0.000147961400216,-3.10420364258e-05,-0.00446178205311,-4.00684511987e-05,0.000168829094036,0.471419324522,-0.00744765144039,0.173831906353,0.0110512704175,0.936549088791,0.349780759085,0.0201765697638
0.0691696181893,-0.00759463803843,-0.0839821994305,-2.51693463326,-0.0118272732943,2.55496239662,-0.719995081425,0.0384163148701,-0.00044100463856,0.000683597696479,0.000211619539186,-0.000582870154176,-0.000135510228574,2.47309508268e-05,0.000152577253175,0.471416440059,-0.00744792670444,0.173830057,0.0110503585259,0.936549285753,0.349780401092,0.0201741327079
0.0691704973578,-0.00759172672406,-0.0839826017618,-2.51693344116,-0.0118280611932,2.55496239662,-0.719995856285,0.0384163148701,0.000389827095205,-0.000622984720394,0.000407635292504,0.000220127840294,0.000874332559761,-0.000129317995743,-8.49387797643e-05,0.471416548205,-0.00744777992122,0.173829156004,0.0110503735478,0.936548969387,0.349781300891,0.0201732103952
0.0691706761718,-0.00759286619723,-0.0839823037386,-2.51693105698,-0.01182689704,2.5549621582,-0.719996809959,0.0384163148701,-0.000189439044334,-0.000374326336896,-0.000285366550088,0.000392045738408,-0.000534042890649,-8.86985581019e-05,-4.48968312412e-05,0.471417816034,-0.00744750442144,0.173830600795,0.0110506216095,0.936548854811,0.349781504008,0.0201748718454
0.0691757574677,-0.00758952926844,-0.0839834660292,-2.51693701744,-0.0118271112442,2.55496168137,-0.719997286797,0.0367004424334,0.000850612064824,-0.00039436831139,2.42420846917e-05,0.000246012757998,-4.5388507715e-05,-0.000238524313318,3.82727506576e-07,0.471414377212,-0.0074456587845,0.1738266535,0.0110489974576,0.936548152754,0.349783700327,0.0201702726815
0.0691771358252,-0.00759021192789,-0.0839812383056,-2.51694178581,-0.0118270022795,2.55496168137,-0.719997346401,0.0367004424334,0.00158860743977,0.000232948208577,0.000258254847722,-0.00013090808352,0.000715633388609,5.24822280568e-05,-8.55132529978e-05,0.471412244202,-0.00744391403838,0.173825108668,0.0110481707561,0.936547568614,0.349785397999,0.0201684079274
0.0691776871681,-0.0075833722949,-0.0839820429683,-2.51694583893,-0.0118270823732,2.5549621582,-0.719999194145,0.0367004424334,-0.000444825156592,0.00135014706757,-0.000160332856467,-0.000495160522405,2.4557022698e-05,0.000217689361307,8.30322751426e-05,0.471409330315,-0.00744408225931,0.173820355845,0.0110465860882,0.936547379819,0.349786239571,0.0201634467241
0.0691716745496,-0.00758259836584,-0.0839848741889,-2.51694846153,-0.0118272323161,2.55496168137,-0.719998896122,0.0367004424334,-0.000111455279693,-0.000374404859031,-0.000259691441897,-0.000272364297416,-0.00567042408511,-0.000124335041619,0.000416681839852,0.471407791207,-0.00744824420612,0.173818918419,0.0110460306629,0.936548996342,0.349782036914,0.0201615722477
0.0691684707999,-0.00757873011753,-0.0839899331331,-2.51694703102,-0.011826233007,2.55496072769,-0.720000088215,0.0367004424334,0.000125815349747,0.000535827944987,-0.000356604577973,-0.000400182820158,-4.6182431106e-05,2.95780428132e-05,-0.000240330628003,0.471407590931,-0.00745213774746,0.173817565907,0.0110453819679,0.93655041105,0.349778360394,0.0201599946876
0.0691783428192,-0.00757299177349,-0.0839849561453,-2.51695036888,-0.0118272397667,2.55496096611,-0.720000565052,0.0367004424334,0.000883082218934,-0.00526070408523,0.00165006041061,-0.000264006026555,-0.000770390150137,-9.05571141629e-05,-0.000109549146146,0.47140525367,-0.00744523105545,0.173813589108,0.0110441440436,0.936547671615,0.349785977704,0.0201557724287
0.0691903606057,-0.0075755128637,-0.0839751288295,-2.51695179939,-0.0118268039078,2.55496144295,-0.720002114773,0.0367004424334,0.00040514182183,-7.16447102604e-05,-0.000143335419125,-0.000227854543482,9.4742354122e-05,4.16179173044e-05,-0.000191798884771,0.47140523934,-0.00743488629182,0.173814263107,0.0110440414729,0.936543627072,0.349796757458,0.0201566836859
0.069175735116,-0.00757463276386,-0.0839879661798,-2.5169479847,-0.0118268067017,2.55496144295,-0.719999849796,0.0367004424334,-0.000588145689107,0.000632467214018,-0.00114646891598,-0.000335243588779,-6.55046551401e-06,-0.0001316324051,0.000113779504318,0.471406708962,-0.007447854444,0.173815338667,0.0110448180576,0.936548796634,0.349782820857,0.0201579125296
0.0691796392202,-0.00758063746616,-0.0839862376451,-2.5169274807,-0.011826085858,2.55495905876,-0.720002114773,0.0372861884534,0.00100845424458,0.000595677061938,0.00276490417309,0.000635242788121,0.00073958496796,-0.000197718196432,-0.00291459774598,0.471416913238,-0.0074447635535,0.173825941701,0.0110487919517,0.936547115165,0.349786536929,0.0201693713715
0.06918156147,-0.00760800205171,-0.0839859172702,-2.51689624786,-0.0118253231049,2.55495262146,-0.720001757145,0.0372861884534,0.000351133348886,-0.00626774644479,5.6390374084e-05,0.00298849283718,-3.08305898216e-05,-0.00044056767365,0.000107434228994,0.471434784754,-0.00744407895996,0.173850399879,0.0110569534169,0.936546555312,0.349786353854,0.0201940549981
0.0692022368312,-0.00773471454158,-0.0839793756604,-2.516456604,-0.0118246879429,2.55492687225,-0.72000169754,0.0372861884534,0.0011760990601,-0.00437140418217,-0.000447607919341,0.0119623290375,0.000197809640667,0.00055529596284,-9.6852396382e-05,0.47165865699,-0.0074330193941,0.174079553008,0.0111499024014,0.936536499074,0.349795594838,0.0204476672503
0.0691943094134,-0.00786517933011,-0.0839887261391,-2.51617336273,-0.0118243554607,2.55489897728,-0.72000348568,0.0372861884534,-0.000107904706965,-0.00850003864616,3.47018649336e-05,0.023537741974,0.000105724087916,-0.00338087091222,0.000308986229356,0.471807868007,-0.00744175881386,0.174249104919,0.0112150627668,0.936535389275,0.349785837338,0.0206289768522
0.0691925510764,-0.00806185044348,-0.0839895308018,-2.51567935944,-0.0118249589577,2.55480527878,-0.72000002861,0.0372861884534,-0.000429692212492,-0.0136932441965,0.000567409850191,0.0251584853977,-0.000178701171535,-0.00878319796175,-0.000414485723013,0.47202312967,-0.00744430159833,0.174489622988,0.0113033480015,0.936531224632,0.349779636713,0.0208735487917
0.0692210495472,-0.0106680467725,-0.0839825123549,-2.51189041138,-0.0118236644194,2.5514228344,-0.719999074936,0.0372861884534,-0.000404868042096,-0.0779260098934,-0.000331382470904,0.0899774953723,5.48268581042e-05,-0.112519286573,-0.000337901059538,0.473533283496,-0.00742517131197,0.176910860566,0.0117751206569,0.936497033987,0.349764895624,0.02234209798
0.0692228600383,-0.0123907998204,-0.0839846879244,-2.51018476486,-0.0118248146027,2.54889178276,-0.720000743866,0.037361048162,-0.000171559891896,-0.112752147019,-9.52678383328e-05,0.110560581088,7.74318759795e-05,-0.171691507101,-0.000331455172272,0.474094793495,-0.00741769156967,0.17822587027,0.0118862998445,0.936489959392,0.349750417376,0.0228016899679
0.0692240446806,-0.0143877463415,-0.0839857086539,-2.50811338425,-0.0118261501193,2.54543781281,-0.719998598099,0.037361048162,-0.00063339213375,-0.126778498292,-0.000686672807205,0.134361580014,0.000305895955535,-0.244599446654,-0.000238814187469,0.474646970487,-0.00741027150699,0.179683499056,0.0119299371687,0.936488465724,0.349733284195,0.0231010774016
0.0692385062575,-0.0270366631448,-0.0839838460088,-2.49599194527,-0.0118276057765,2.52082633972,-0.719998300076,0.037361048162,0.00169323419686,-0.259012550116,0.00129180762451,0.241650789976,-0.000374448311049,-0.497386783361,-0.000207038887311,0.476877899934,-0.0073488002727,0.187971950031,0.0115659442819,0.936515934034,0.349659426832,0.023289893677
0.0692532733083,-0.0375900641084,-0.0839900001884,-2.48544740677,-0.0118282288313,2.49960780144,-0.719998896122,0.037361048162,0.000334404176101,-0.324465930462,0.00337391067296,0.316227018833,-0.000166551981238,-0.639222800732,0.00533165736124,0.478671850449,-0.00730919388819,0.195168412261,0.0112175974217,0.936542524222,0.349596102788,0.02334160307
0.069290921092,-0.0550631582737,-0.0839897841215,-2.46718502045,-0.011831744574,2.46433234215,-0.719995617867,0.037361048162,0.000271252647508,-0.404034912586,0.000385909399483,0.441485792398,0.000192565246834,-0.777318537235,0.000154550594743,0.481570379314,-0.00725359217878,0.207263353525,0.0107598746452,0.936573428197,0.349503440763,0.0237019677236
0.0693126767874,-0.0611400492489,-0.0839881449938,-2.46033120155,-0.0118319084868,2.45231747627,-0.719995379448,0.037361048162,0.00136186764576,-0.408845156431,0.000130399435875,0.469840347767,0.000107559171738,-0.817707180977,0.000561382272281,0.482862909273,-0.00723631977329,0.212154793072,0.0107337424465,0.936572946928,0.349469679808,0.0242248722805
0.0693599656224,-0.0685533210635,-0.0839915946126,-2.4514913559,-0.0118333939463,2.43728089333,-0.719990432262,0.0373669601977,0.00437382329255,-0.421312898397,-0.00143740489148,0.510723531246,-0.000892344978638,-0.852194309235,-4.72530919069e-05,0.484483245884,-0.00721623511584,0.218292594596,0.0107238759508,0.936568915416,0.349432644135,0.0249096780252
0.0694083198905,-0.0776105225086,-0.0839940831065,-2.44030117989,-0.0118322651833,2.41912817955,-0.7199857831,0.0373669601977,0.000899119884707,-0.447980642319,-8.65414913278e-05,0.576658427715,-0.00150062830653,-0.874317288399,-0.000649476947729,0.486359222209,-0.00720374596587,0.225294262679,0.0108159059301,0.936557453179,0.349385672092,0.0259384829451
0.0695231258869,-0.0870080888271,-0.0839973464608,-2.42777109146,-0.0118390973657,2.40019750595,-0.719977617264,0.0373669601977,0.00752427102998,-0.448316633701,-0.000401428318582,0.620175123215,-0.00257648550905,-0.924056053162,-0.0018126697978,0.4886179984,-0.00717442320153,0.233360891439,0.0110630003295,0.936522141671,0.349358498035,0.0274322387097
0.0699604675174,-0.109507091343,-0.0840009152889,-2.39449572563,-0.011837345548,2.35294342041,-0.719938755035,0.0373669601977,0.00991759542376,-0.462389647961,-0.000171717969351,0.717306911945,0.00503149069846,-1.00819969177,-0.000121008895803,0.494259067359,-0.00707508222812,0.254229171675,0.0118900224127,0.93638824594,0.349334736974,0.0316373428192
0.0701963156462,-0.117470376194,-0.0839954465628,-2.38156437874,-0.0118344947696,2.33580040932,-0.719913840294,0.0373669601977,0.0099787870422,-0.460069864988,-0.000243825619691,0.757348656654,0.000520028464962,-1.02270424366,-0.000254331884207,0.496360836711,-0.00701602813043,0.262201129444,0.0123125494118,0.936313004242,0.349351050186,0.0334694283565
0.0704875662923,-0.125220611691,-0.0839830338955,-2.36803150177,-0.0118403052911,2.3181180954,-0.7198767066,0.0373669601977,0.0183003973216,-0.447483062744,0.001317316317,0.817601084709,-0.00407418748364,-1.05357861519,0.00210050190799,0.49829878128,-0.00694307599631,0.269871637614,0.0126999899688,0.936232620733,0.349388892436,0.0351367565289
0.0708435624838,-0.133879646659,-0.0839638113976,-2.35185265541,-0.0118333417922,2.29803848267,-0.719733178616,0.0373669601977,0.012210172601,-0.44994187355,0.00139578105882,0.871196866035,-0.000267975119641,-1.06238913536,0.0137849366292,0.500842479947,-0.00684701060949,0.279976046725,0.0132964811207,0.936131166613,0.34938896649,0.0375365457581
0.0713093131781,-0.146810159087,-0.083602681756,-2.32639789581,-0.0118302525952,2.26724147797,-0.719445109367,0.0373669601977,0.0105487080291,-0.429841160774,0.0215512141585,0.91729080677,0.000236503910855,-1.04786479473,0.00331096234731,0.5043538424,-0.00660486492896,0.295029148142,0.014262529326,0.935934751283,0.349463720461,0.0412047250321
0.0715029388666,-0.154382646084,-0.0832127258182,-2.30999302864,-0.0118287699297,2.24816083908,-0.719355106354,0.0373669601977,0.0130451712757,-0.429989844561,0.0250982269645,0.933590173721,0.000532310688868,-1.05563795567,0.0130972974002,0.506468664685,-0.0064342786174,0.304527784574,0.0149238377402,0.935775592861,0.349576766037,0.0435591919766
0.0719782188535,-0.169639542699,-0.0818898677826,-2.27485442162,-0.0118257887661,2.20920443535,-0.718420684338,0.0373669601977,0.0145525373518,-0.384703665972,0.0415065139532,0.972232401371,-0.000171258798218,-1.03492081165,0.0343220047653,0.510669909687,-0.0058108727286,0.324822907617,0.016547642574,0.935428433352,0.349707717028,0.0490340079739
0.0729375630617,-0.186241313815,-0.079781383276,-2.2313182354,-0.0118153346702,2.16357731819,-0.716517388821,0.0373669601977,0.0232348106802,-0.369250506163,0.0570551231503,0.970089137554,-0.000199629284907,-0.99407106638,0.0491625741124,0.51512301329,-0.00462596207934,0.349457848658,0.0186867157209,0.934933720455,0.349884393474,0.0559522644837
0.0735450685024,-0.193067863584,-0.0786056742072,-2.21203613281,-0.0118042258546,2.14413356781,-0.715381085873,0.0373735278845,0.0368951968849,-0.316370874643,0.0574038028717,0.949181377888,-0.000939159537666,-0.956558465958,0.0635236054659,0.515980193468,-0.00427475699789,0.354936802677,0.0191893106072,0.934801561286,0.349948859018,0.0575639395256
0.0741082206368,-0.198125213385,-0.0775560289621,-2.19686722755,-0.0117850694805,2.12893533707,-0.714083850384,0.0373735278845,0.0373198762536,-0.311118453741,0.0742541775107,0.946168065071,0.0035856240429,-0.940539062023,0.0947061926126,0.517931495282,-0.00323466630859,0.368184778313,0.0203851729981,0.934508991058,0.350016822538,0.0613645987443
0.0754036828876,-0.207266122103,-0.0750377327204,-2.1683344841,-0.0117415450513,2.10079741478,-0.711149871349,0.0373735278845,0.0496334098279,-0.274368792772,0.0907731354237,0.919072329998,0.00808945484459,-0.879437923431,0.115324676037,0.519898243687,-0.00146875389216,0.384494362883,0.0218612233965,0.934107020562,0.350145782528,0.0660612724126
0.0761578306556,-0.211555406451,-0.0735067054629,-2.15440821648,-0.0117066511884,2.08685517311,-0.709102153778,0.0373735278845,0.0459098555148,-0.272762149572,0.104447692633,0.860817074776,0.00280673056841,-0.872193813324,0.146580383182,0.520585356941,-0.00040320686034,0.392119947446,0.0224823399804,0.933956180355,0.350117485962,0.068103915266
0.0770333111286,-0.216075822711,-0.0716889351606,-2.13999819756,-0.0116724995896,2.07254505157,-0.706347942352,0.0373735278845,0.053998477757,-0.24220611155,0.109805434942,0.811227560043,0.000643588660751,-0.815061271191,0.169643506408,0.521173566485,0.000873555746879,0.400088828699,0.0231429948618,0.933842704999,0.349939696589,0.0703165168719
0.080176256597,-0.227119803429,-0.065500035882,-2.10294556618,-0.011614613235,2.03389906883,-0.697463095188,0.0373735278845,0.0628530457616,-0.200315162539,0.139363512397,0.665589988232,0.00480157975107,-0.719968736172,0.184807941318,0.521679388104,0.00542804046564,0.420141131713,0.0244473668285,0.933511859974,0.349789873238,0.0748663997369
0.0813821479678,-0.23042742908,-0.0629074424505,-2.09128642082,-0.0115987854078,2.0214779377,-0.694081127644,0.0373814068735,0.0661488845944,-0.17567665875,0.152008056641,0.606847584248,0.000137128256029,-0.667605698109,0.193232953548,0.521596150639,0.00731960877856,0.426352517753,0.0248036141961,0.933371926281,0.349873239082,0.0760943113021
0.0825277194381,-0.233402341604,-0.0602346882224,-2.08176350594,-0.0115920603275,2.01039814949,-0.690728902817,0.0373814068735,0.0740847289562,-0.176074162126,0.163056597114,0.517222344875,7.61574992794e-05,-0.637883663177,0.199088901281,0.521234210883,0.00923635172242,0.431461651188,0.0249932982392,0.933259816856,0.350007582281,0.0767863354775
0.0837469920516,-0.236247614026,-0.0575386993587,-2.07392835617,-0.0115786110982,2.00058722496,-0.687402307987,0.0373814068735,0.0846481472254,-0.17777825892,0.171256393194,0.470867037773,0.00254952744581,-0.585518240929,0.212295159698,0.520694435925,0.0112150673046,0.435791796214,0.0250938315998,0.933143929728,0.350213785741,0.0772205282943
0.085567779839,-0.239438071847,-0.053972300142,-2.06508827209,-0.0115679465234,1.98909294605,-0.683221399784,0.0373814068735,0.0835392251611,-0.139941051602,0.168469414115,0.374559700489,0.00139957736246,-0.525155007839,0.192766860127,0.519924396283,0.0139523233214,0.440618365965,0.0251496754282,0.932935499857,0.350703227765,0.0774989848484
0.0881377458572,-0.243397369981,-0.0486907213926,-2.05585622787,-0.011559035629,1.97425913811,-0.677081108093,0.0373814068735,0.0872243568301,-0.120857968926,0.179158836603,0.237246662378,-0.000207737626624,-0.462074249983,0.195840224624,0.518360995956,0.0179493739574,0.445646749226,0.0248878079552,0.932724572647,0.351447277676,0.0767481549946
0.0898448005319,-0.245347246528,-0.045394923538,-2.05212163925,-0.0115523766726,1.96633768082,-0.673586905003,0.0373814068735,0.102676920593,-0.0964290648699,0.178897932172,0.182151272893,-0.000113543435873,-0.411115944386,0.18413425982,0.517233720003,0.0204998247892,0.447633089646,0.0245689903403,0.932556543818,0.352143116423,0.0756959875886
0.0915095433593,-0.246724337339,-0.0426354557276,-2.04964733124,-0.0115536963567,1.96002614498,-0.670563876629,0.0373814068735,0.10462488234,-0.083703763783,0.166120290756,0.134399980307,-0.00223664566875,-0.375562995672,0.186803102493,0.516221780496,0.0227519121934,0.448867125062,0.024218826243,0.932410469002,0.352801228759,0.0745349476495
0.0933195278049,-0.248067751527,-0.0398555323482,-2.04804420471,-0.0115512078628,1.95388638973,-0.667130172253,0.0373814068735,0.10618570447,-0.067255564034,0.165186583996,0.0654705539346,0.00179763580672,-0.349194258451,0.197286441922,0.514972369908,0.0252153898126,0.44968375209,0.0237184708553,0.932328064219,0.35338875354,0.0729260129622
0.0964221209288,-0.249412804842,-0.0348178036511,-2.04744362831,-0.0115529634058,1.94354748726,-0.661235868931,0.0373814068735,0.0931752845645,-0.0122202178463,0.150937795639,-0.0106479469687,-0.000397768628318,-0.303896129131,0.173693314195,0.512685765834,0.0291851051251,0.449446474621,0.02259128751,0.932239668558,0.354475602056,0.069035362874
0.0993907749653,-0.249169901013,-0.0304438471794,-2.04829001427,-0.0115550588816,1.93372011185,-0.656162559986,0.0373814068735,0.0826980173588,0.0265825279057,0.132174193859,-0.0462381355464,-0.00027619645698,-0.298600375652,0.140253156424,0.510219820313,0.0329545249732,0.447681598587,0.0210754453676,0.932202184602,0.355675363454,0.0636392028736
0.1008098647,-0.248293220997,-0.0280892029405,-2.04943132401,-0.0115560889244,1.92837107182,-0.653612494469,0.0373814068735,0.0653947666287,0.0649280399084,0.109320357442,-0.0722161903977,0.000244929920882,-0.266813576221,0.125183150172,0.508922695404,0.0347119757505,0.446116911703,0.0201667168988,0.932215011484,0.356278863274,0.0602813998072
0.102725915611,-0.246122598648,-0.0253413319588,-2.05252313614,-0.0115647949278,1.92070293427,-0.649908661842,0.0373814068735,0.052231464535,0.0791779011488,0.0724571794271,-0.113477960229,0.000401116441935,-0.218298047781,0.116023607552,0.506746572015,0.0369668421121,0.442585402297,0.0184533003558,0.932410944063,0.356854282271,0.0540770561973
0.103646293283,-0.243022546172,-0.0238150600344,-2.05653333664,-0.0116051370278,1.91435933113,-0.646667540073,0.0373860038817,0.0134696448222,0.10614027828,0.029055070132,-0.138363838196,-0.00765178212896,-0.190881192684,0.0679070055485,0.504790781012,0.0380783134254,0.438295756337,0.0166557884092,0.93288678559,0.356619534692,0.0476165637807
0.103634402156,-0.240715429187,-0.0235901083797,-2.05937385559,-0.0118490802124,1.91071808338,-0.645219504833,0.0373860038817,-0.011147919111,0.127415984869,-0.0019451987464,-0.148336797953,-0.017639324069,-0.178175657988,0.0682678222656,0.503632780001,0.0380610298784,0.435311298325,0.0155561150786,0.933288310595,0.356160212788,0.0433686419206
0.103175669909,-0.238370612264,-0.0237887911499,-2.06209445,-0.0122079635039,1.90765166283,-0.644028663635,0.0373860038817,-0.0409412011504,0.13048030436,-0.0155102433637,-0.1545342803,-0.0201822575182,-0.167707204819,0.0635089054704,0.502643085461,0.037591970527,0.43244208125,0.0145804544821,0.933760356407,0.355422048378,0.0394230181816
0.10134896636,-0.234110087156,-0.0250673666596,-2.06683468819,-0.0130703411996,1.90280795097,-0.642449617386,0.0373860038817,-0.0759143382311,0.152126446366,-0.0661944299936,-0.159266576171,-0.038408074528,-0.143601328135,0.0418297089636,0.501074834609,0.0357528211533,0.42743368414,0.0129765114235,0.934782096285,0.353477001462,0.0326810608723
0.0998234152794,-0.231485769153,-0.0264813601971,-2.06943655014,-0.0137657644227,1.90043759346,-0.641892313957,0.0373860038817,-0.0975966751575,0.159920826554,-0.0993847697973,-0.149820223451,-0.0474942810833,-0.125218003988,0.0155849838629,0.500323049778,0.0340909542507,0.424583827862,0.0121419675416,0.935470350846,0.352007035765,0.0289627652281
0.0979527905583,-0.228834286332,-0.0284980200231,-2.07192802429,-0.0147701958194,1.89829480648,-0.641820907593,0.0373860038817,-0.119652286172,0.162320628762,-0.133283376694,-0.143771275878,-0.0753401368856,-0.125508055091,0.000133242603624,0.499661629566,0.031906040448,0.421806088291,0.0114392789683,0.93620088362,0.350362403744,0.025362060918
0.0954576581717,-0.225711777806,-0.0314771644771,-2.07449746132,-0.016749791801,1.89594912529,-0.641824424267,0.0373860038817,-0.147110626101,0.167108401656,-0.179031401873,-0.127535775304,-0.123943045735,-0.115802556276,-0.000343148567481,0.499012912814,0.0287539701476,0.418741878382,0.0109871023414,0.93713144791,0.34815341058,0.0212869750895
0.0904617458582,-0.220733046532,-0.0379887856543,-2.07806301117,-0.0210488047451,1.89264595509,-0.641900897026,0.0373860038817,-0.191893935204,0.164047762752,-0.252683877945,-0.10995798558,-0.139663293958,-0.103280313313,-0.00502534629777,0.498201635099,0.022157889272,0.414173629316,0.010733054139,0.938961319999,0.343522257397,0.0151294234276
0.0868776664138,-0.217889383435,-0.0425620786846,-2.07986855507,-0.023544671014,1.89098751545,-0.642205536366,0.0373860038817,-0.227015256882,0.17106552422,-0.292466491461,-0.10167363286,-0.15185405314,-0.0906978100538,-0.0340709127486,0.497817720557,0.0176060312298,0.411703558419,0.0105756057444,0.940196672201,0.340262047575,0.0118369257892
0.0819361880422,-0.214695438743,-0.048964921385,-2.08180999756,-0.0271489489824,1.88942992687,-0.643319129944,0.0373892858624,-0.255773097277,0.151670306921,-0.342103123665,-0.0977568924427,-0.195357888937,-0.0708021000028,-0.0739426836371,0.497444731131,0.0112728658896,0.409000185678,0.0106830586027,0.941745335394,0.33605639569,0.00822764392456
0.077185317874,-0.211998552084,-0.0555824376643,-2.08337140083,-0.0307136867195,1.88826596737,-0.645164847374,0.0373892858624,-0.278983294964,0.145586982369,-0.395793825388,-0.0778701156378,-0.203631624579,-0.0607611611485,-0.114481687546,0.497123964572,0.00494868867056,0.406765951669,0.0109075434003,0.94314192384,0.332170187573,0.00522524341708
0.0610527507961,-0.204815849662,-0.0787989646196,-2.08620643616,-0.0403835363686,1.88553416729,-0.65510648489,0.0373892858624,-0.375342041254,0.139796972275,-0.531072258949,-0.0338195711374,-0.184882938862,-0.0459366105497,-0.302282333374,0.496140341928,-0.0163967953594,0.40144177855,0.0111769854832,0.947365010566,0.319954205585,-0.00197933504381
0.0543595030904,-0.202556937933,-0.0881774947047,-2.08658599854,-0.043293248862,1.8849157095,-0.660906136036,0.0373892858624,-0.40605121851,0.130887567997,-0.567974865437,-0.0165517404675,-0.16042457521,-0.0314565226436,-0.371064126492,0.495733344817,-0.0249118013367,0.400008215044,0.0110727811099,0.948814949248,0.315614647499,-0.0038703455341
0.0476470217109,-0.200467824936,-0.0977620780468,-2.08668613434,-0.0459318086505,1.88458359241,-0.667360782623,0.0373892858624,-0.438290953636,0.130539566278,-0.635096013546,0.00426109042019,-0.155902460217,-0.00864202715456,-0.438854247332,0.49529694548,-0.0334859377591,0.39880741366,0.0109242446922,0.950190202636,0.311432651059,-0.00537989177017
0.0248733665794,-0.1950597018,-0.13180013001,-2.08628249168,-0.0530137121677,1.88455688953,-0.693035066128,0.0373892858624,-0.495164364576,0.0980485454202,-0.755208015442,0.0145636033267,-0.118288204074,0.000234044709941,-0.618259370327,0.492973627012,-0.0629485714151,0.3959250584,0.00989231745172,0.954474936174,0.298004046626,-0.0085630692967
0.0188287328929,-0.193908512592,-0.141030371189,-2.08603405952,-0.0543187968433,1.88455116749,-0.700570642948,0.0373892858624,-0.5065330863,0.0939174294472,-0.781521856785,0.0258297212422,-0.0977957099676,-0.000411504792282,-0.640186548233,0.492158320527,-0.0700873561462,0.395391456981,0.00944070232142,0.955445398333,0.294877473294,-0.00906859293948
0.00782204419374,-0.191830992699,-0.158010423183,-2.08517456055,-0.0563434511423,1.88454902172,-0.714514553547,0.0373938828707,-0.534202635288,0.0991029217839,-0.846604168415,0.0611698664725,-0.0964786633849,0.000519709137734,-0.686972141266,0.490237022051,-0.0849398599917,0.394469895591,0.00840420195226,0.957441615611,0.288336843828,-0.00983800121483
-0.01991484873,-0.186996310949,-0.201126843691,-2.0810148716,-0.0607118308544,1.88455784321,-0.751756668091,0.0373938828707,-0.573506355286,0.0852788314223,-0.896875739098,0.104217588902,-0.0565171353519,0.00262237410061,-0.796393334866,0.484265223903,-0.120644433771,0.393294828534,0.00608121868091,0.961880301357,0.273204352123,-0.0104252728622
-0.0289191845804,-0.185659125447,-0.215650379658,-2.07925629616,-0.0616906881332,1.88455939293,-0.764750778675,0.0373938828707,-0.566715657711,0.0781232714653,-0.919717431068,0.113680079579,-0.061171438545,0.00249128462747,-0.825212597847,0.481807135716,-0.132362942578,0.393175377336,0.00524611157884,0.963244353812,0.268381023479,-0.0102185660414
-0.0378864817321,-0.184328258038,-0.230486527085,-2.07721114159,-0.0627456307411,1.88455820084,-0.77807790041,0.0373938828707,-0.571153759956,0.0857925415039,-0.944346666336,0.141787976027,-0.0607497654855,-0.00118620670401,-0.844738543034,0.479095446326,-0.14420477299,0.393171548042,0.00450681549862,0.964575667716,0.263582190569,-0.00989436058926
-0.0496513471007,-0.182622343302,-0.250337660313,-2.07404947281,-0.0642186850309,1.88455200195,-0.795754611492,0.0373938828707,-0.547479212284,0.0668935775757,-0.927234172821,0.157071992755,-0.0698739662766,-0.000177922236617,-0.838939607143,0.47514814741,-0.159906239717,0.393378210122,0.0037077173401,0.966311877679,0.257180496343,-0.0092628226003
-0.0752977877855,-0.179837211967,-0.294683545828,-2.06596779823,-0.0661872252822,1.88455712795,-0.835103034973,0.0373938828707,-0.518516838551,0.0473556183279,-0.928126096725,0.184562981129,-0.0220347922295,-0.000302698026644,-0.838545143604,0.464868858109,-0.194182312506,0.394709918677,0.0020574266981,0.970046656129,0.242819367704,-0.00663372367054
-0.0845335796475,-0.179249182343,-0.311264395714,-2.06265091896,-0.0665333494544,1.88455867767,-0.850130259991,0.0374057032168,-0.512791156769,0.0230094324797,-0.926136374474,0.181451395154,-0.0206063836813,-0.000716876704246,-0.827136993408,0.460526402002,-0.20665008858,0.395526727898,0.00153873458493,0.971327877808,0.237681471223,-0.00522532480933
-0.0929080620408,-0.178979486227,-0.326878339052,-2.05955123901,-0.066926561296,1.88455653191,-0.864076912403,0.0374057032168,-0.476951539516,0.00990748405457,-0.90178078413,0.181815713644,-0.020883185789,-0.00343496026471,-0.806662857533,0.456172015569,-0.218167261681,0.396400134337,0.00116870342118,0.972492599222,0.232899817404,-0.00380175465563
-0.114393793046,-0.179467722774,-0.368497222662,-2.05136632919,-0.0675610527396,1.88455426693,-0.900052905083,0.0374057032168,-0.408972322941,-0.0349021553993,-0.823183178902,0.168931126595,0.0024660883937,0.000785420939792,-0.698977351189,0.443301786351,-0.247969045629,0.399162843155,0.000452221832098,0.975529878584,0.219865606914,0.000605041900971
-0.120952799916,-0.180232957006,-0.382229655981,-2.04843974113,-0.0675810500979,1.88456344604,-0.911700487137,0.0374057032168,-0.38312381506,-0.0467184744775,-0.800540983677,0.174262404442,-0.00496165314689,-0.000868663017172,-0.681517124176,0.438783172623,-0.257416592311,0.400432303986,0.000403061861491,0.97646456939,0.215663312993,0.00247333608358
-0.133100122213,-0.182283118367,-0.407780557871,-2.04296827316,-0.0675539374352,1.88457095623,-0.933516085148,0.0374057032168,-0.328958034515,-0.0883838906884,-0.665353834629,0.125977739692,0.00516315829009,-0.00152077141684,-0.590808212757,0.429812715643,-0.274750662394,0.403045712081,0.000515944573893,0.978127465146,0.207912115244,0.0062408139998
-0.142545253038,-0.185695752501,-0.427349805832,-2.03948402405,-0.0673128888011,1.88456130028,-0.951059341431,0.0374057032168,-0.262537270784,-0.11931540072,-0.55227792263,0.08576079458,0.0161625351757,-4.1534212869e-06,-0.512867391109,0.422176335634,-0.287717764029,0.405503662342,0.000696088251649,0.979276437443,0.202290933809,0.00977508696657
-0.146733134985,-0.1880133003,-0.436133474112,-2.03817296028,-0.0668142214417,1.88454306126,-0.959346473217,0.0374201498926,-0.238286271691,-0.14969830215,-0.485885888338,0.0630246326327,0.0437685698271,0.000418197218096,-0.461654305458,0.41835841284,-0.293644677059,0.406904735145,0.00071082380513,0.979760955666,0.199816899036,0.0118815419012
-0.150587186217,-0.190640181303,-0.443636536598,-2.03724360466,-0.065807133913,1.88454735279,-0.967100143433,0.0374201498926,-0.217232257128,-0.15608780086,-0.400342255831,0.0431521162391,0.072552844882,0.000198080117116,-0.446799486876,0.415305777597,-0.298098171511,0.408149082924,0.000600695819307,0.980092444661,0.19805437615,0.0138889476155
-0.154341697693,-0.194033846259,-0.45063751936,-2.03659081459,-0.0643163844943,1.88452851772,-0.975833117962,0.0374201498926,-0.17163041234,-0.17568744719,-0.307971477509,0.0222958493978,0.0680148974061,-0.000181117749889,-0.420003175735,0.412107890634,-0.302438896213,0.409697274388,0.000417023293999,0.980290616222,0.196876562466,0.0164241494667
-0.159043967724,-0.203055649996,-0.460363328457,-2.03637266159,-0.0584505647421,1.88411676884,-0.994159758091,0.0374201498926,-0.0395743586123,-0.193106859922,-0.110918082297,0.000233951883274,0.184461116791,-0.0226054750383,-0.354151755571,0.407596685919,-0.307415585083,0.413420426048,-0.000648191560709,0.979931370219,0.19801527821,0.0228918937406
-0.159311667085,-0.205770984292,-0.461523473263,-2.03636145592,-0.0559045188129,1.88367879391,-0.99877923727,0.0374201498926,-0.00145866442472,-0.203158453107,-0.0542594790459,0.00144637015183,0.193701550364,-0.0378399156034,-0.333158224821,0.407128200502,-0.307537314795,0.414568843049,-0.00121774832622,0.979635229512,0.199228995008,0.0249227091665
-0.158901959658,-0.210233047605,-0.461751967669,-2.0363535881,-0.0509307533503,1.88271701336,-1.00595855713,0.0374201498926,0.0477097816765,-0.193167045712,0.0211543347687,-0.00120515504386,0.237710565329,-0.0513714030385,-0.307474166155,0.407159869575,-0.306543387317,0.416517175865,-0.00236858677637,0.978942045425,0.202141065178,0.0283875141573
-0.157320067286,-0.213550165296,-0.460964918137,-2.03631067276,-0.0461795404553,1.88172876835,-1.01132953167,0.0374398492277,0.118414580822,-0.177964255214,0.066507384181,0.00231700274162,0.294865250587,-0.0583019703627,-0.297277837992,0.407922792901,-0.304699093709,0.418017689199,-0.0035878761281,0.978202325217,0.205264126589,0.0312085904045
-0.152389630675,-0.218535348773,-0.457640945911,-2.03631925583,-0.0363938771188,1.88011062145,-1.01938080788,0.0374398492277,0.197926416993,-0.148578107357,0.153172701597,-0.00436021527275,0.349319010973,-0.0495806261897,-0.239168718457,0.41068613505,-0.299550132597,0.420371955481,-0.0062315654539,0.976609425035,0.211861157488,0.0361945875595
-0.148672267795,-0.220857828856,-0.454443305731,-2.03625607491,-0.0303685758263,1.87911713123,-1.02324795723,0.0374398492277,0.237633734941,-0.131174519658,0.224167823792,0.00617418810725,0.353891849518,-0.0593037046492,-0.212893813848,0.412971432879,-0.29561994811,0.421587765079,-0.00790290695923,0.975526201556,0.21627379047,0.038882147448
-0.145398199558,-0.222457244992,-0.451294779778,-2.03624248505,-0.025741584599,1.87828350067,-1.0258102417,0.0374398492277,0.280498445034,-0.120987936854,0.272288292646,-0.000737509108149,0.369299560785,-0.0663124248385,-0.194841653109,0.415022583087,-0.292108538578,0.422454841558,-0.00921945773298,0.974602696814,0.220002749896,0.0407844908677
-0.137819841504,-0.22493340075,-0.444051772356,-2.03627204895,-0.01641619578,1.87677979469,-1.030159235,0.0374398492277,0.342714071274,-0.083570599556,0.317531585693,0.00113031850196,0.379070043564,-0.0628485009074,-0.155797064304,0.419690569963,-0.28421043592,0.42391043093,-0.0119429892345,0.972577785169,0.228019030235,0.0442395563828
-0.119211658835,-0.227656066418,-0.425053358078,-2.03625321388,0.00186321896035,1.87400579453,-1.03531849384,0.0374398492277,0.446837723255,-0.0189893655479,0.481580525637,-0.00307306204922,0.412398278713,-0.0367040298879,-0.0691652148962,0.430934118369,-0.264838002996,0.426113967937,-0.0174379618056,0.967796686745,0.246160032192,0.0497064267165
-0.111321628094,-0.227775469422,-0.416517615318,-2.03626132011,0.00890029221773,1.87335419655,-1.0361058712,0.0374398492277,0.479398012161,-0.00202996330336,0.522834599018,0.000677100848407,0.400187075138,-0.0363355688751,-0.0373240895569,0.435693187266,-0.256452699384,0.426629666322,-0.0195712255103,0.965782348486,0.253457987709,0.0513855100533
-0.102760285139,-0.227700561285,-0.407081723213,-2.03623795509,0.0158143248409,1.87270915508,-1.0365742445,0.0374398492277,0.514489412308,0.00546469679102,0.578250944614,-0.00113190489355,0.405657708645,-0.0324186421931,-0.0152396345511,0.440696895295,-0.247308602487,0.427106713964,-0.0216664687778,0.96355162089,0.261352754917,0.0528542827125
-0.0919949486852,-0.227289766073,-0.395052999258,-2.03633880615,0.0236588027328,1.87217187881,-1.03672647476,0.0374398492277,0.566935181618,0.0302832517773,0.630171656609,-0.00397884799168,0.3934866786,-0.0200756080449,-0.00108200777322,0.446750499471,-0.235749642289,0.427502877069,-0.024050446824,0.960682829412,0.271230659219,0.0542586995017
-0.0741986483335,-0.225722700357,-0.375342339277,-2.03648710251,0.0350423268974,1.87166559696,-1.03671479225,0.0374398492277,0.613480985165,0.055578365922,0.692148804665,-0.00307999365032,0.375432014465,-0.0122277624905,0.00241853110492,0.456114616831,-0.21671414211,0.427713664912,-0.027560660138,0.955769498221,0.28747876138,0.0556869619299
-0.0633257329464,-0.224594801664,-0.363057047129,-2.03654766083,0.0414901860058,1.87150073051,-1.03670167923,0.0374398492277,0.652007102966,0.0800285488367,0.743913173676,-0.00105658965185,0.373986184597,-0.00840251520276,-0.000199123969651,0.461511249781,-0.204892742663,0.427764449288,-0.0295243770885,0.952591514225,0.297535669028,0.0563049156768
-0.0500362403691,-0.222737818956,-0.348117381334,-2.03656196594,0.0487829707563,1.87144267559,-1.03656637669,0.0374680869281,0.672807812691,0.104448750615,0.767973840237,-0.00040375959361,0.345459669828,-0.00186832109466,0.00814191997051,0.467732424799,-0.190425234093,0.427597471717,-0.0317833217892,0.94859383871,0.309754807216,0.0566701748065
-0.0389186665416,-0.221125125885,-0.335423141718,-2.03656744957,0.0543272048235,1.87142777443,-1.03614449501,0.0374680869281,0.714365541935,0.106769107282,0.825960993767,-0.000552436278667,0.342480868101,0.000529695127625,0.0384954288602,0.47260847782,-0.178185147166,0.427403965577,-0.0334947650672,0.945139480073,0.319955229288,0.0567284307908
-0.00314331357367,-0.214812621474,-0.294028282166,-2.03657412529,0.0689481645823,1.87139379978,-1.03252530098,0.0374680869281,0.749471783638,0.146585434675,0.875814557076,0.001248259563,0.244317367673,0.000275024562143,0.10218141228,0.486170612727,-0.138310220751,0.42601419286,-0.0381816203351,0.933548289528,0.352125897167,0.0551099557016
0.00525078549981,-0.213133364916,-0.284151226282,-2.03655743599,0.0716505497694,1.87139451504,-1.03115940094,0.0374680869281,0.754802048206,0.151467829943,0.890052497387,0.00228355429135,0.238414138556,-0.00122521049343,0.137841776013,0.489483084309,-0.126667085522,0.425431710863,-0.0392649575522,0.930077339509,0.361218198192,0.0541831949875
0.0212486088276,-0.209784686565,-0.265142560005,-2.03663015366,0.07647369802,1.87137377262,-1.02717149258,0.0374680869281,0.762612521648,0.172083780169,0.9139944911,-0.000426961138146,0.217261984944,0.00188632891513,0.24103012681,0.49395677937,-0.108905220159,0.424374357604,-0.040863691584,0.924897040187,0.374355428581,0.0524751039847
0.0598705522716,-0.200959548354,-0.218013614416,-2.03672385216,0.0856198891997,1.87134802341,-1.01065707207,0.0374884419143,0.763971567154,0.187879994512,0.955820322037,-9.44124112721e-05,0.146725192666,0.000175307242898,0.431279659271,0.502124439608,-0.0658877739488,0.42133375754,-0.0439522018035,0.912814766979,0.403256505087,0.0471338087544
0.072855964303,-0.197860375047,-0.201679244637,-2.03672337532,0.0878685265779,1.87135255337,-1.00282502174,0.0374884419143,0.764734506607,0.188509225845,0.977885782719,0.000719663512427,0.115972295403,0.000536578474566,0.492431998253,0.504133117988,-0.0505936522475,0.420137710683,-0.0447296460758,0.908708993839,0.41259237262,0.0448860447531
0.0870386511087,-0.194339886308,-0.183554679155,-2.03675103188,0.0900508239865,1.87134540081,-0.992614686489,0.0374884419143,0.750249266624,0.188349738717,0.960548818111,-0.00396416522563,0.114524118602,-0.00356416893192,0.574855148792,0.505804271812,-0.0337302923968,0.418703128598,-0.0454991733848,0.904397598225,0.422153244568,0.0422071951883
0.101156428456,-0.190660431981,-0.165221184492,-2.03675055504,0.0923377647996,1.8713593483,-0.980860114098,0.0374884419143,0.720281779766,0.198692202568,0.953496992588,0.00104474590626,0.108560949564,-0.000216986300074,0.665675461292,0.506943204375,-0.0167287386567,0.417163787736,-0.0463163598865,0.900291147112,0.431016989989,0.0394334788595
0.116982370615,-0.186563566327,-0.144324839115,-2.03679275513,0.0939654186368,1.871347785,-0.965179502964,0.0374884419143,0.70983093977,0.173996955156,0.951924085617,-0.00542263081297,0.0570363849401,0.00382763240486,0.754275202751,0.507515468321,0.00237010039707,0.415359086031,-0.0468369692355,0.896020111111,0.440066957986,0.0359907066073
0.150189951062,-0.177682086825,-0.0983469858766,-2.03715085983,0.0962396413088,1.87134027481,-0.923556923866,0.0374884419143,0.626884579659,0.159468352795,0.892757356167,-0.0118615012616,0.0350632295012,-0.00414640456438,0.907851815224,0.506256059838,0.0433177739617,0.411115168881,-0.0473228342741,0.888216360469,0.456126971566,0.0279362100991
0.162102371454,-0.174746438861,-0.0809562727809,-2.03750920296,0.0968270003796,1.87134742737,-0.905113101006,0.0374884419143,0.573816716671,0.142152965069,0.851812541485,-0.0193459745497,0.0311183929443,0.00345078902319,0.947328269482,0.504875634686,0.0583690781607,0.409551925773,-0.0472934538757,0.88593304813,0.460723528287,0.0248956543721
0.168358623981,-0.173186689615,-0.0716298371553,-2.03773021698,0.0971184298396,1.8713542223,-0.894544005394,0.0374884419143,0.573035776615,0.138843119144,0.863121271133,-0.0241913869977,0.0242964271456,-0.00119393516798,0.969888687134,0.503952713152,0.0663485345973,0.408694396327,-0.0472505821245,0.884882722027,0.462827805713,0.0232459174475
0.17846749723,-0.170638993382,-0.0561429522932,-2.03815865517,0.0974314659834,1.871352911,-0.875568091869,0.0374976359308,0.502380073071,0.125595599413,0.780569255352,-0.0255071297288,0.00935459509492,-0.000222077665967,1.01468777657,0.502835394582,0.0747365361444,0.4077728196,-0.0471707364216,0.883944107691,0.464711466147,0.0214706545481
0.201103314757,-0.165826633573,-0.0190504044294,-2.04004621506,0.0975347608328,1.87143445015,-0.822931289673,0.0374976359308,0.379499912262,0.0788770839572,0.667169749737,-0.038484338671,-0.00197724904865,-0.000478098168969,1.03708291054,0.496356098849,0.109414824698,0.403906729626,-0.0461142420021,0.882198770564,0.468410686194,0.0137925570588
0.207142710686,-0.164781421423,-0.0084771970287,-2.0408141613,0.0975437834859,1.87148046494,-0.805188715458,0.0374976359308,0.330578863621,0.0447937846184,0.594511449337,-0.0512315444648,0.000402613921324,-0.000453446264146,1.04488682747,0.494350836728,0.117674302275,0.402993566198,-0.0457550678806,0.882554092601,0.467827628483,0.0119187707569
0.212205931544,-0.164198964834,0.000587620947044,-2.0415968895,0.0975426435471,1.87156629562,-0.788526594639,0.0374976359308,0.294248759747,0.0348732508719,0.526431679726,-0.0497795157135,-0.000114376598503,0.011367674917,1.03925049305,0.492494776443,0.124656479786,0.402307423216,-0.045387476829,0.883220791309,0.466639904574,0.0104023976458
0.218020796776,-0.163480311632,0.0108188660815,-2.0425298214,0.0975043550134,1.87187755108,-0.76681548357,0.0374976359308,0.259579658508,0.0301002580673,0.459514379501,-0.048691868782,-0.00322534074076,0.0143627328798,1.02330732346,0.490308310794,0.132548253835,0.401488403599,-0.0449181177729,0.88462379254,0.464055795269,0.00867910808541
0.22396607697,-0.163156926632,0.021946452558,-2.04375338554,0.0967847108841,1.87246155739,-0.738551676273,0.0375048592687,0.184495717287,0.00223665474914,0.344691753387,-0.0376873761415,-0.054566308856,0.0281476639211,1.00755941868,0.487838012258,0.140769246878,0.400731117169,-0.0439990566017,0.887263910374,0.459107184217,0.00688690343591
0.226849749684,-0.163156792521,0.0272596534342,-2.0444149971,0.0953821614385,1.87307786942,-0.720481991768,0.0375048592687,0.137362107635,-0.000650786969345,0.250044345856,-0.0372907444835,-0.104109019041,0.0450097471476,0.989544391632,0.486690066114,0.144518136111,0.400419591401,-0.0430135612002,0.889496572701,0.454872899719,0.0060270624269
0.228653341532,-0.163185492158,0.0304822232574,-2.04483795166,0.0936450436711,1.87384212017,-0.705695331097,0.0375048592687,0.10552701354,-0.0019372520037,0.192893832922,-0.0230437666178,-0.127091690898,0.0585506856441,0.982242465019,0.486055068069,0.146790353943,0.400245933391,-0.0418843958811,0.891803236255,0.450446831578,0.00550788372978
0.230089113116,-0.163267716765,0.0352051891387,-2.04515028,0.0850614383817,1.87764549255,-0.657869815826,0.0375048592687,-0.024833695963,-0.000282754655927,-0.00776254944503,0.00235110451467,-0.239592090249,0.116651065648,0.938508212566,0.486272990279,0.14831251634,0.400323968435,-0.0373369108279,0.90050029792,0.433217584312,0.00526240024732
0.229162499309,-0.163273394108,0.0347196161747,-2.04512405396,0.0809229537845,1.87970840931,-0.643121242523,0.0375048592687,-0.0844881013036,0.0014967971947,-0.0464763976634,0.00150845735334,-0.284217953682,0.148920968175,0.915448069572,0.48710832494,0.146989098029,0.400465990652,-0.0352658356643,0.903782861282,0.426498152229,0.00567329803232
0.227003410459,-0.16323338449,0.0334624424577,-2.04516601562,0.0753546431661,1.88261377811,-0.626837849617,0.0375048592687,-0.148149877787,0.00114406459033,-0.0908911377192,-0.00227582012303,-0.33451244235,0.163074195385,0.894602954388,0.488050814497,0.145266282519,0.400571804016,-0.03331464653,0.906583365628,0.420664730536,0.00615789370422
0.224042132497,-0.163204401731,0.0315804481506,-2.04515194893,0.0691245570779,1.88548159599,-0.611759543419,0.0375048592687,-0.200068488717,0.00150024401955,-0.130202814937,0.00571643561125,-0.392482995987,0.166997328401,0.869119942188,0.490034722247,0.141126313025,0.400798719936,-0.0295218021903,0.911505919569,0.410164595813,0.00710111309509
0.210389614105,-0.162984773517,0.0216399878263,-2.045119524,0.0472056083381,1.89561343193,-0.569359064102,0.0375048592687,-0.322396069765,0.00297091901302,-0.257948100567,0.00401731999591,-0.458010345697,0.222203075886,0.795430660248,0.496264299718,0.126057891549,0.401447794349,-0.0192369075643,0.923477393382,0.383036928782,0.0101072336207
0.206376388669,-0.162945970893,0.0181745477021,-2.04509425163,0.0416408218443,1.89838290215,-0.560107350349,0.0375048592687,-0.349118292332,0.00421756925061,-0.308612942696,0.00266403076239,-0.46763792634,0.241456612945,0.752314567566,0.498004373491,0.121471867673,0.401663756159,-0.0166788676857,0.926357071984,0.37611459331,0.0110545439299
0.198956862092,-0.162642344832,0.0115459328517,-2.04509806633,0.0321499742568,1.90352725983,-0.545508384705,0.0375048592687,-0.393085181713,0.0255190692842,-0.359663367271,-0.000528494943865,-0.484585136175,0.270871222019,0.717564344406,0.501281370743,0.112530352122,0.401950499885,-0.0121360209153,0.931387417229,0.363599725719,0.0128621602439
0.177443683147,-0.161365941167,-0.00936766900122,-2.04501771927,0.00741161219776,1.91630327702,-0.513917565346,0.0375068299472,-0.482779413462,0.0356321707368,-0.485503613949,0.00131824240088,-0.502726495266,0.263608276844,0.580119490623,0.509023565955,0.0876522110898,0.402451274396,-0.00138862524204,0.942671486695,0.333295615233,0.0168098913105
0.168516099453,-0.160710677505,-0.0185390971601,-2.04501962662,-0.00162989564706,1.92101383209,-0.503581225872,0.0375068299472,-0.519011557102,0.0361152887344,-0.540278553963,0.000955369556323,-0.504893243313,0.2642531991,0.562127828598,0.511820575925,0.0769691400879,0.402543712553,0.00252180417291,0.946806749812,0.321278976329,0.0181779556523
0.161065250635,-0.160163983703,-0.0263146534562,-2.04501652718,-0.00871584191918,1.9245454073,-0.495806455612,0.0375068299472,-0.534009873867,0.042969994247,-0.556865930557,0.00311386049725,-0.509767115116,0.237229049206,0.530385136604,0.514042719043,0.0673708310299,0.402591198995,0.00575839703282,0.950261185606,0.310808423326,0.0192000956461
0.132423296571,-0.157617345452,-0.056980740279,-2.0447511673,-0.032406937331,1.93597793579,-0.472233682871,0.0375068299472,-0.597832620144,0.0574114173651,-0.660719335079,0.00584494555369,-0.422694951296,0.220431163907,0.431233346462,0.520084660004,0.0334309948391,0.402441364675,0.0153753401601,0.96085301636,0.275778141546,0.0217139633254
