imanlab/tactile_prediction_flat_dataset/test/data_sample_2021-11-25-13-17-40/robot_state.csv
position_panda_joint1,position_panda_joint2,position_panda_joint3,position_panda_joint4,position_panda_joint5,position_panda_joint6,position_panda_joint7,position_panda_finger,velocity_panda_joint1,velocity_panda_joint2,velocity_panda_joint3,velocity_panda_joint4,velocity_panda_joint5,velocity_panda_joint6,velocity_panda_joint7,ee_state_position_x,ee_state_position_y,ee_state_position_z,ee_state_orientation_x,ee_state_orientation_y,ee_state_orientation_z,ee_state_orientation_w
-0.226046651602,-0.00229101628065,0.199199408293,-2.52811837196,0.0845119580626,2.56635546684,-0.879632472992,0.0726352110505,-0.00185286265332,0.000682476209477,-0.000741879688576,-0.000291968462989,1.21738730741e-05,0.00999187864363,-0.000341747218044,0.467772775346,-0.00881070569581,0.168183264855,-0.0122403283956,0.923931879971,0.381300250007,0.0284635655204
-0.22606664896,-0.00228965142742,0.199197739363,-2.52812194824,0.084511578083,2.56643033028,-0.879630506039,0.0726352110505,-0.00106435047928,-0.000132882647449,4.66473866254e-05,-0.000116097719001,6.60048463033e-05,0.00112096720841,0.000309455674142,0.467786663257,-0.008822652622,0.168188470444,-0.0122235248289,0.923936068797,0.381288328872,0.0284944935913
-0.226105347276,-0.00229085399769,0.199191704392,-2.52812218666,0.0845121666789,2.56647467613,-0.879629969597,0.0726352110505,-0.000114374743134,0.00140360440128,-0.000127427105326,0.00406674994156,-3.58430370397e-05,0.000602853309829,-2.04865118576e-05,0.46779583849,-0.00884471180485,0.168193204025,-0.0122123533645,0.923944582402,0.381266538413,0.028514793443
-0.226141110063,-0.00228962581605,0.199192523956,-2.52812886238,0.0845111086965,2.56652140617,-0.879630804062,0.072647690773,-0.00202835397795,-0.000418292795075,0.000114887232485,3.94874696212e-05,-1.78340415005e-05,8.56829501572e-05,-0.000347601482645,0.467802116128,-0.00886215678868,0.168194564347,-0.0122023308946,0.923950828858,0.381250437455,0.0285319574662
-0.226160183549,-0.00229117483832,0.19919078052,-2.52812314034,0.0845129340887,2.56658697128,-0.879629611969,0.072647690773,-0.000548952608369,-0.000316735298838,0.0013170306338,0.000745148223359,-4.87720317324e-05,0.0030165000353,0.000252539495705,0.467818968032,-0.00887360069519,0.168203805309,-0.0121855312327,0.92395491226,0.381238642987,0.0285644834595
-0.226169332862,-0.00228255544789,0.199185818434,-2.52812862396,0.084511436522,2.56659793854,-0.879632890224,0.072647690773,-0.000285876274575,4.56730558653e-05,-0.000632344221231,9.55535142566e-05,8.90377559699e-05,0.000105325721961,1.59792853083e-05,0.467817162351,-0.0088801564583,0.168198796073,-0.0121859461261,0.923956887407,0.381233936452,0.0285632335296
-0.226182147861,-0.00228776992299,0.199186116457,-2.52812504768,0.0845122560859,2.56662797928,-0.879630863667,0.072647690773,-0.000313570606522,-0.000292130018352,-0.000241546251345,-0.000467271718662,-6.27982444712e-05,0.000117360126751,-7.18383525964e-05,0.467826039034,-0.00888697373086,0.168205461474,-0.0121767245295,0.923959535247,0.381226526135,0.0285804139366
-0.226184397936,-0.00228625582531,0.199184313416,-2.52812695503,0.0845127403736,2.56663441658,-0.879629611969,0.072647690773,-0.000297031830996,0.00107447360642,-5.91748575971e-05,-0.000202929251827,7.3658018664e-05,8.5252970166e-05,0.000212906787056,0.467826222319,-0.00888892987758,0.168204653606,-0.0121761242946,0.923960637594,0.381223766331,0.0285818446015
-0.226188674569,-0.00228382926434,0.199183881283,-2.52813410759,0.0845141857862,2.56663537025,-0.879630625248,0.072647690773,-0.000919101177715,0.000542187772226,-0.000471521023428,5.81049862376e-05,6.54511532048e-05,9.67045070865e-06,-0.000214235144085,0.467822562083,-0.00889091038634,0.168200876031,-0.0121783377601,0.923961689375,0.381221417997,0.0285782224803
-0.226192951202,-0.00228814105503,0.199181333184,-2.52813649178,0.0845137313008,2.566644907,-0.879631400108,0.072647690773,-0.000160400493769,-6.24469103059e-05,0.000295101781376,0.000285379675915,0.000121963836136,2.04052194022e-05,0.000405670056352,0.467824086194,-0.00889449271879,0.168202848579,-0.0121751173982,0.923962711044,0.381218679569,0.0285830919825
-0.226190522313,-0.00228814478032,0.199184641242,-2.52814126015,0.0845120921731,2.56665015221,-0.879629909992,0.072647690773,0.00028757416294,0.000273711979389,-0.000147524551721,-9.22452818486e-05,-1.88811827684e-05,-0.000334484211635,-9.52065674937e-05,0.467822959978,-0.00889195550454,0.168201510433,-0.0121745417257,0.923961697221,0.381221163242,0.0285829841418
-0.226190045476,-0.00228566396981,0.199184194207,-2.52815008163,0.0845124572515,2.56665492058,-0.879629850388,0.072647690773,0.000311985233566,0.000116451941722,3.85806852137e-05,-0.00179064588156,-6.63989412715e-05,0.000170680272277,-0.000282310211333,0.467818853504,-0.00889176681674,0.168196850917,-0.0121762707807,0.92396181047,0.381221091792,0.0285795395298
-0.226193159819,-0.00228626327589,0.199181690812,-2.5281662941,0.0845132172108,2.56665897369,-0.87962949276,0.072647690773,-0.000478265457787,0.000225383555517,-5.00076021126e-05,-0.000263280642685,0.000120236800285,1.2624827832e-05,4.18172239733e-05,0.467812463918,-0.00889435076622,0.168191836704,-0.01217831241,0.923963352953,0.3812176396,0.0285748499042
-0.226191356778,-0.00228838971816,0.199182018638,-2.52822232246,0.0845116749406,2.56666827202,-0.879630208015,0.072647690773,-4.77634057461e-05,-0.000283867440885,2.47842508543e-05,-0.00181612663437,0.000100533317891,-0.000114739312266,2.77766957879e-05,0.467791399744,-0.00889273018068,0.168174547851,-0.012185543206,0.923963189194,0.381219189376,0.0285563808211
-0.226192057133,-0.00228636339307,0.199182897806,-2.52824211121,0.0845108926296,2.56666946411,-0.879630208015,0.072647690773,-0.000724285258912,0.000586421054322,-0.000100892284536,-4.51744526799e-05,0.000100372853922,6.03429834882e-05,3.59115838364e-05,0.467777548342,-0.00889295786176,0.1681628372,-0.0121910113057,0.92396358117,0.381219004816,0.0285438253294
-0.226192995906,-0.00228500063531,0.199180781841,-2.52826714516,0.0845125764608,2.56667351723,-0.879630982876,0.072647690773,0.000536906882189,-0.000937184842769,-0.000349907379132,-0.000466510013212,-3.27715897583e-05,-0.000125216334709,0.000118140182167,0.467766870391,-0.00889375641092,0.168153723597,-0.0121955492239,0.923964496832,0.381217328378,0.0285346351039
-0.226192235947,-0.00228515663184,0.199182778597,-2.52832126617,0.0845118835568,2.5666782856,-0.879630327225,0.072647690773,-0.000260844564764,0.000114899346954,0.00038133317139,0.000192768362467,0.000136867442052,-2.58630498138e-05,0.000191819679458,0.467741911999,-0.00889193154556,0.168133360069,-0.0122052454384,0.923964735587,0.381218134388,0.0285119811888
-0.226191326976,-0.00228488375433,0.199182555079,-2.52832722664,0.0845115706325,2.56667852402,-0.879630386829,0.072647690773,-0.00332269235514,0.000703242316376,0.00197766115889,-0.00217450293712,3.01403542835e-05,0.000131733671878,0.000339902966516,0.467739057663,-0.00889154446811,0.168130956631,-0.0122064088189,0.923964632882,0.38121855322,0.0285092113367
-0.226189538836,-0.00228574499488,0.199182838202,-2.52833747864,0.0845125317574,2.56668257713,-0.879632115364,0.072647690773,-0.000267129566055,0.000140456366353,-0.000101572724816,-0.00178806320764,5.68394934817e-05,-0.000167492180481,-0.000180286209797,0.467735155832,-0.00889053552974,0.168127786035,-0.0122075373548,0.923964171308,0.38121981727,0.0285067847202
-0.226188734174,-0.0022879508324,0.199183657765,-2.52834630013,0.0845113024116,2.56669187546,-0.879629731178,0.072647690773,0.000425104342867,0.000744893972296,-0.000199510657694,-0.000313536991598,6.12119183643e-05,5.09934070578e-05,-0.000159339993843,0.467733348453,-0.00888990204284,0.168126520258,-0.0122061682855,0.923964131395,0.381219894616,0.0285076302651
-0.226192936301,-0.00228675012477,0.199183017015,-2.52834796906,0.0845128595829,2.56669354439,-0.879628539085,0.072647690773,3.98161646444e-05,0.000662444101181,0.0024762970861,-0.000188857753528,3.20191393257e-05,4.08176820201e-05,-1.12741317935e-05,0.467732592083,-0.00889220648541,0.16812525409,-0.0122068923256,0.923965604269,0.381216327653,0.0285072818872
-0.226190567017,-0.0022849868983,0.199183300138,-2.52835416794,0.0845127925277,2.56669354439,-0.879630506039,0.072647690773,-0.00372252450325,-0.000767013174482,0.000155530564371,-0.000208732162719,0.000129120919155,-1.55231361987e-06,0.000231599944527,0.467729025457,-0.00889086742863,0.168121840491,-0.0122089435052,0.923964919747,0.381218214882,0.0285033524543
-0.226187691092,-0.00228844163939,0.199185729027,-2.52835845947,0.0845107361674,2.5666987896,-0.879629790783,0.072647690773,-0.000119224110676,0.000257759529632,3.94804883399e-05,0.00044708076166,2.69156080321e-05,-2.88049886876e-05,1.01154591903e-05,0.467729002779,-0.00888864192398,0.168122479201,-0.0122068607963,0.923963630988,0.381221267533,0.0285051929492
-0.226190373302,-0.00228818994947,0.199184432626,-2.52835893631,0.0845122784376,2.56669950485,-0.879629135132,0.072647690773,-0.000225955052883,0.000288370531052,-0.000668587104883,-0.000247376476182,5.98643928242e-05,0.000240471097641,-0.000287177419523,0.467728857499,-0.00889043568467,0.168122252477,-0.0122072051436,0.923964755313,0.381218516129,0.0285053981733
-0.22619150579,-0.00228667771444,0.199186041951,-2.52836346626,0.0845114886761,2.56670260429,-0.879629671574,0.072647690773,0.000570145202801,5.10510471941e-05,4.68504294986e-05,-0.000190380742424,5.63376124774e-05,0.000121668716019,-0.000191649800399,0.467727099969,-0.00889021319483,0.168120108108,-0.0122076343343,0.923964511791,0.381219198359,0.0285039839196
-0.226190909743,-0.00228393427096,0.199184581637,-2.52836275101,0.0845118165016,2.56670618057,-0.879631102085,0.072647690773,-7.47321246308e-05,0.000120828808576,-0.000162076423294,2.43837748712e-05,7.23453049432e-05,0.000112085901492,-0.000282510707621,0.467727762187,-0.0088906003485,0.168119473823,-0.0122074957411,0.923964462163,0.381219260105,0.0285048261629
-0.226190909743,-0.00228473474272,0.199184209108,-2.52836275101,0.0845137089491,2.5667078495,-0.879629135132,0.072647690773,-0.000126770624775,-0.00030449058977,-8.58720668475e-05,-0.000548325595446,1.23401223391e-05,-0.000140941352583,-0.00040651706513,0.467728252826,-0.00889076118149,0.168120005291,-0.0122073726776,0.923965178176,0.381217432562,0.0285061109864
-0.226191490889,-0.00228693778627,0.199185729027,-2.52836608887,0.0845119506121,2.56670761108,-0.879630804062,0.072647690773,0.000153846893227,-0.000138370509376,-0.000351121765561,-6.67618587613e-05,-9.91528067971e-05,-0.000185345081263,-9.15084237931e-05,0.467726903433,-0.00889035820985,0.168119681643,-0.012207033372,0.923964372739,0.38121947483,0.0285050510961
-0.226189047098,-0.00228628865443,0.199184983969,-2.52836871147,0.0845112577081,2.56670808792,-0.879628419876,0.072647690773,7.98342734925e-05,0.000497984932736,-0.000102471116406,-0.000102596604847,0.000122266385006,-8.10172059573e-05,0.000174584347405,0.467725699944,-0.00888962515457,0.168118433363,-0.0122075066566,0.923964503444,0.381219235943,0.0285038065379
-0.226191341877,-0.00228722509928,0.199183553457,-2.52836918831,0.0845136940479,2.56671237946,-0.879628658295,0.072647690773,0.000152110136696,0.000165225705132,-0.000419769436121,1.89353759197e-05,4.06168946938e-05,-0.000134080881253,0.000204582174774,0.467726516919,-0.00889139457827,0.168119097111,-0.0122068849562,0.923965514306,0.38121662776,0.0285061876721
-0.226192951202,-0.00228777341545,0.199183881283,-2.52837157249,0.0845120847225,2.56671309471,-0.879630029202,0.072647690773,-0.00237961648963,-0.000786544813309,-0.000517586944625,0.000142515491461,6.02378931944e-05,0.000538386637345,0.0001767702488,0.467725694609,-0.00889243061537,0.168118799777,-0.0122064142783,0.923965459062,0.381216810175,0.0285057403688
-0.226188421249,-0.00228689284995,0.199184522033,-2.52837276459,0.0845121145248,2.56671237946,-0.879630029202,0.072647690773,3.51962407876e-05,0.000419522693846,0.000470725644846,6.63434457238e-06,-6.23807209195e-05,-0.000119153875858,8.06992011348e-06,0.467724771375,-0.00888958875632,0.168117560887,-0.0122073441565,0.92396432663,0.381219639535,0.0285042098508
-0.226192951202,-0.00228745630011,0.199184626341,-2.52837777138,0.0845127701759,2.56671643257,-0.879630506039,0.072647690773,-0.000437780749053,0.000622228952125,3.11904404953e-05,0.000168089638464,0.0001191954143,6.55282783555e-05,-0.000173525419086,0.4677232849,-0.0088916884979,0.168116278106,-0.0122073424671,0.923965225018,0.381217473962,0.0285040519366
-0.226190805435,-0.00228581065312,0.199183300138,-2.52838301659,0.0845121368766,2.56671690941,-0.879627466202,0.072647690773,0.000380940793548,0.000161141142598,-0.00014049213496,-0.000618347723503,-8.15922103357e-05,-7.90341073298e-06,7.74354557507e-05,0.46772060475,-0.00889121713789,0.168113544924,-0.0122086683634,0.923965644829,0.381216634974,0.0285010963724
-0.226180538535,-0.0022893063724,0.199184238911,-2.52841711044,0.0845116749406,2.56671929359,-0.879629313946,0.0726483464241,-0.000243490372668,-0.000842579116579,0.000147897590068,-0.0017972876085,-1.30857642944e-05,3.48340763594e-05,-0.000159695424372,0.467705378282,-0.00888574991666,0.168102213788,-0.0122140352187,0.92396351528,0.381222611634,0.0284878892867
-0.226180374622,-0.00228952919133,0.199186131358,-2.52843999863,0.0845126509666,2.56672239304,-0.879629671574,0.0726483464241,9.48059314396e-05,-0.000197368775844,-0.000605581095442,-0.00222036638297,4.24220124842e-05,-0.000134065776365,-4.59755392512e-06,0.467695092379,-0.00888453839473,0.168093781729,-0.0122181588061,0.923963511148,0.381223153416,0.0284790035655
-0.226178362966,-0.00228912546299,0.199184685946,-2.52846646309,0.0845120549202,2.56672167778,-0.879632413387,0.0726483464241,0.000173802764039,0.000423335586675,-0.00240421085618,-0.000315325160045,-8.22027213871e-05,-2.80665699393e-06,0.000273329584161,0.467680345331,-0.00888348050295,0.168081551977,-0.0122244958596,0.923963136929,0.381224944706,0.0284644429902
-0.226179227233,-0.00228622625582,0.199185520411,-2.52850317955,0.0845131501555,2.56672286987,-0.879628360271,0.0726483464241,0.000441493000835,-0.000275668659015,-0.000424610509071,-0.00285476027057,7.40923787816e-05,8.39149652165e-05,-1.38944542414e-05,0.467664284878,-0.00888334534682,0.168067931753,-0.0122319813991,0.92396466775,0.381222142221,0.0284490657724
-0.226177051663,-0.00228661112487,0.199185267091,-2.52862811089,0.0845115110278,2.56672239304,-0.879630208015,0.072647690773,-0.000209569610888,0.000346543616615,-0.00100763130467,-0.00270588044077,3.17074081977e-05,2.968777153e-05,0.000158071328769,0.467604166737,-0.00888092167043,0.16801984597,-0.0122569318486,0.923965462212,0.381223687545,0.0283917593248
-0.2261762321,-0.00228847772814,0.199185326695,-2.5286386013,0.0845126360655,2.56672358513,-0.879627764225,0.072647690773,-0.000237660948187,0.000500042806379,-0.00349787506275,-0.000478422094602,-5.82355241932e-05,-7.6720607467e-06,0.00012480832811,0.467599688802,-0.0088804248274,0.168016769472,-0.0122585723313,0.923966050958,0.381222460071,0.0283883726394
-0.22617700696,-0.00228671054356,0.199184089899,-2.52866268158,0.0845113173127,2.56672477722,-0.879628181458,0.072647690773,-4.90502243338e-05,-0.000234280669247,0.00016117253108,-0.000677166040987,2.80864987872e-05,2.6075360438e-05,-2.35820039052e-06,0.467588053675,-0.00888108055792,0.168006780947,-0.0122633270841,0.923966511083,0.381222035952,0.0283770363919
-0.226175174117,-0.00228823861107,0.199185490608,-2.52866792679,0.0845125243068,2.5667257309,-0.879628300667,0.072647690773,6.25958055025e-05,-0.000214600324398,-6.74964985592e-06,-0.000272019766271,-9.88596439129e-05,2.52384907071e-05,0.00023665415938,0.467586014309,-0.00887952830438,0.168005550503,-0.0122640730282,0.923966106217,0.381223084344,0.0283758122562
-0.226174339652,-0.00228966609575,0.19918692112,-2.52867031097,0.0845119655132,2.56672787666,-0.87963026762,0.072647690773,0.000474198255688,0.00082387519069,-0.000586259178817,0.000206009761314,9.93207722786e-05,-7.68528625485e-05,0.000421774137067,0.467585573784,-0.00887857143518,0.168005488914,-0.0122635030291,0.92396522129,0.381225220011,0.0283761810397
-0.226176679134,-0.00228643929586,0.199184805155,-2.52866888046,0.0845122784376,2.56672811508,-0.879629611969,0.072647690773,-7.74429281591e-05,-9.86194136203e-05,-0.000597438949626,0.00045884764404,0.000131835564389,-3.49737529177e-05,-0.000365466810763,0.467585756017,-0.00888054485233,0.168004588198,-0.0122641173124,0.92396626199,0.381222714647,0.0283756876871
-0.226172938943,-0.00228835106827,0.199186742306,-2.52868151665,0.0845122635365,2.56672763824,-0.879627048969,0.072647690773,0.000191582075786,-0.000401933735702,0.00025846491917,-6.12278963672e-05,-3.9431375626e-05,6.47057167953e-05,-0.000167681806488,0.467579933438,-0.00887778840728,0.16800054097,-0.012266352451,0.923965822592,0.381224098855,0.0283704320461
-0.226172119379,-0.00228837318718,0.199186563492,-2.52868390083,0.0845120251179,2.56672811508,-0.879628241062,0.072647690773,-0.000200424430659,-0.000768914818764,-0.00292290351354,-0.00021240786009,-2.39016335399e-05,0.000208248267882,-0.00020394155581,0.467578896885,-0.00887748179874,0.167999676566,-0.0122666505424,0.923965468294,0.381225014572,0.0283695370637
-0.226176798344,-0.00228680367582,0.199184760451,-2.5286898613,0.0845121070743,2.5667283535,-0.879629254341,0.072647690773,0.000324230990373,-0.000345113803633,-0.00182198488619,0.000160631592735,5.56328996026e-05,6.80182492943e-05,-0.000324131164234,0.467575771419,-0.00888037988567,0.167996681917,-0.0122681747969,0.923966625656,0.381222398493,0.0283663379974
-0.226173534989,-0.00228879787028,0.199186250567,-2.52869272232,0.0845126658678,2.56672954559,-0.879628539085,0.072647690773,0.000734789820854,-0.000304182933178,0.00021480700525,0.000527607568074,-0.000115591450594,3.51246344508e-05,0.000229838871746,0.467574791974,-0.00887840048499,0.16799644804,-0.0122682542365,0.923966083782,0.381223716374,0.0283662425207
-0.226171389222,-0.00228959694505,0.199187383056,-2.52869272232,0.0845126584172,2.56673145294,-0.879627645016,0.072647690773,0.00170689856168,-0.000116480878205,-0.00214613345452,0.00031754016527,3.15266220241e-06,4.24944373663e-05,-0.000165237433976,0.467575581136,-0.00887674573078,0.167997155382,-0.0122674938257,0.923965477476,0.381225113482,0.0283675441557
-0.226175010204,-0.00228827889077,0.199185818434,-2.52869725227,0.0845131725073,2.56673192978,-0.87962859869,0.072647690773,-0.000231348414673,-0.000441702955868,-0.000525588809978,-0.000564729445614,-9.94571928459e-06,-0.000171616164153,0.000157617134391,0.467573248575,-0.00887905196003,0.167994851646,-0.0122687268785,0.923966440407,0.381222910634,0.0283652504348
-0.226177379489,-0.00228528655134,0.199184536934,-2.52869987488,0.0845124572515,2.56673169136,-0.879629015923,0.072647690773,0.000109771070129,-0.000394064380089,-0.000300811021589,-2.62696048594e-05,-8.38434152683e-06,-3.2396572351e-05,-5.07895747432e-05,0.467571419445,-0.00888064029203,0.167992446021,-0.0122699443786,0.923967023319,0.381221650896,0.028362666561
-0.226175770164,-0.00228515360504,0.199184045196,-2.52870202065,0.0845126137137,2.56673145294,-0.879628896713,0.072647690773,2.82357741526e-05,-0.000633338349871,-0.000191781320609,0.000348588509951,1.9998236894e-05,-0.00554892513901,7.40576797398e-05,0.467570325533,-0.008880072082,0.167991534732,-0.0122705317508,0.923966889705,0.381222039709,0.028361539137
-0.226174488664,-0.00228730333038,0.199185431004,-2.52870106697,0.0845134407282,2.56673240662,-0.879630625248,0.072647690773,0.000101951736724,-0.000579652376473,0.00110813218635,8.87703645276e-05,-8.68598654051e-05,0.000151899381308,-0.00033279354102,0.467571361192,-0.00887890414525,0.167992979853,-0.0122697128417,0.923966133158,0.381223763787,0.0283633660005
-0.226171955466,-0.00228807376698,0.199187010527,-2.52870297432,0.0845113769174,2.56673407555,-0.87962859869,0.072647690773,0.000589793431573,-0.000291593198199,-0.000868679548148,-0.000414684414864,8.10041456134e-05,2.34972121689e-05,-0.000175989975105,0.467570952199,-0.00887712081157,0.167992752327,-0.0122690515916,0.923965432137,0.381225492427,0.0283632543202
-0.226173877716,-0.00228512496687,0.199186235666,-2.52870726585,0.0845128893852,2.56673359871,-0.879629075527,0.072647690773,-0.000352161645424,0.000415273039835,-0.0016703188885,-0.000109888627776,-3.39692701345e-06,-0.000102301848528,-9.66501684161e-05,0.467568045361,-0.00887835555065,0.167989474347,-0.0122714329628,0.923966356293,0.381223427418,0.0283598737995
-0.22617264092,-0.00228542718105,0.199185460806,-2.52870893478,0.0845129042864,2.56673240662,-0.879628777504,0.072647690773,-3.68695618818e-05,0.000273194978945,0.000305423222017,0.000632911338471,-3.63855815522e-06,-1.42334938573e-05,-3.23574422509e-05,0.467567289256,-0.00887788017504,0.16798908428,-0.0122717705916,0.92396618024,0.381223914199,0.0283589200428
-0.226173222065,-0.0022893936839,0.199185088277,-2.52870798111,0.0845117270947,2.56673574448,-0.879629909992,0.072647690773,-0.000208282886888,-0.000484199059429,-0.00014591292711,0.000271657307167,-1.03243337435e-05,1.94819294848e-05,0.000323004496749,0.467569086603,-0.00887862228763,0.167991586396,-0.0122693209402,0.923965890131,0.381224443687,0.0283623140095
-0.226172462106,-0.00228731590323,0.199185982347,-2.52870988846,0.0845107659698,2.56673622131,-0.879628300667,0.0726483464241,5.19796449225e-05,0.000449593178928,-0.000170826810063,-0.000395610084524,-3.13535783789e-05,-0.000120773453091,-0.000604287080932,0.467569463961,-0.00887742094509,0.167991398123,-0.0122695479876,0.923965828201,0.38122456291,0.0283626308167
-0.226173490286,-0.00228521344252,0.199186727405,-2.52871251106,0.0845122262836,2.56673526764,-0.879627943039,0.0726483464241,0.00035827193642,-0.00023142361897,0.00391454063356,7.6263648225e-05,2.93787215924e-05,-3.95591123379e-05,0.00017227686476,0.467566147532,-0.00887773468412,0.167987880265,-0.0122717334479,0.923966197535,0.381223914314,0.0283583710389
-0.226173266768,-0.00228637643158,0.199186787009,-2.52871537209,0.0845117270947,2.56673717499,-0.879627406597,0.0726483464241,-0.00032765956712,7.72339917603e-05,0.00178465072531,-0.000207098564715,-6.29452842986e-05,1.8966227799e-05,-2.23167808144e-05,0.46756536685,-0.00887767939953,0.167987491128,-0.0122714163691,0.923966187625,0.38122395278,0.028358314066
-0.226174890995,-0.0022861964535,0.199185147882,-2.52871322632,0.0845127105713,2.56673741341,-0.879627287388,0.0726483464241,-1.68102887983e-05,0.000582050706726,-0.000260311819147,-0.00011682123295,-1.82658800441e-06,-9.59232638706e-05,-0.000164221710293,0.467566396521,-0.00887918727388,0.167988262152,-0.0122711816052,0.92396695271,0.381222020275,0.0283594665424
-0.226175427437,-0.00228677457199,0.199184328318,-2.52871727943,0.0845126435161,2.56673812866,-0.879626989365,0.072647690773,0.000227372758673,-0.000115499358799,0.000576655729674,-0.000540118257049,0.000116035334941,-9.14203701541e-05,-3.84078293791e-06,0.467564680644,-0.008879811565,0.167987031755,-0.0122716382932,0.923967304634,0.381221249386,0.0283581656907
-0.226172104478,-0.0022883429192,0.199185684323,-2.52871155739,0.0845110118389,2.56674003601,-0.879627466202,0.072647690773,0.000225221781875,-0.000611718394794,-0.000220256421017,-0.000315679208143,3.71301466657e-05,-0.000110315711936,-0.000432526430814,0.467568127819,-0.00887787727713,0.167990137102,-0.0122692230552,0.923965965649,0.381224284687,0.0283620333624
-0.226172015071,-0.00228610355407,0.199187174439,-2.52871203423,0.0845124572515,2.5667386055,-0.879628539085,0.072647690773,0.000146211619722,-0.000452216016129,-0.000212384285987,-0.000858033774421,-5.05598472955e-05,-0.000103358455817,-6.39993522782e-05,0.46756725237,-0.00887694915817,0.167988793371,-0.0122706730723,0.923965720426,0.381224950562,0.0283604444849
-0.226172149181,-0.00228520808741,0.199187815189,-2.52871632576,0.0845110937953,2.56673741341,-0.879628837109,0.072647690773,9.93821013253e-05,5.04911222379e-05,0.00373882241547,0.000103408085124,-4.04500242439e-05,-1.74693104782e-05,7.94498009782e-06,0.467564787467,-0.00887665554474,0.167986609816,-0.0122717418127,0.92396543671,0.3812258284,0.0283574251734
-0.226174920797,-0.00228933896869,0.199185699224,-2.52871751785,0.0845126733184,2.56674098969,-0.879626691341,0.072647690773,0.000175874301931,0.000319051556289,0.000422011711635,-4.59591719846e-05,-0.000171191160916,-9.74007780314e-05,-0.000254004437011,0.467565607283,-0.00887909706416,0.167988388566,-0.0122703109597,0.923966967234,0.381221947088,0.0283603538421
-0.226175397635,-0.00228874431923,0.199185803533,-2.52871656418,0.0845127180219,2.56674194336,-0.879628062248,0.072647690773,0.000188515201444,-0.000958740711212,-7.90252379375e-05,-0.000139638315886,-3.79216835427e-05,6.06541616435e-05,-0.000272671983112,0.467566556429,-0.00887903580128,0.167989176923,-0.0122696032718,0.923966510723,0.38122297487,0.0283617173615
-0.226175054908,-0.00228515360504,0.199186056852,-2.5287168026,0.0845119133592,2.56674218178,-0.879627227783,0.072647690773,0.000759914924856,-0.000230960562476,-0.000168688682606,-0.000360289937817,-7.78722023824e-05,-4.84820811835e-05,-0.000360659905709,0.467565532061,-0.00887891129162,0.167986862151,-0.0122709011519,0.923966743798,0.381222539854,0.028359409909
-0.226174816489,-0.00228668306954,0.199187815189,-2.52871966362,0.084511756897,2.5667412281,-0.87962782383,0.072647690773,-0.000140945645398,-0.000475319393445,-0.00310036749579,5.84764711675e-05,7.90813191998e-06,3.70543748431e-05,0.000125023667351,0.467564214606,-0.00887798118411,0.167986365659,-0.0122712417947,0.923966251257,0.381223806949,0.0283582767813
-0.22616802156,-0.00228575221263,0.199188873172,-2.5287168026,0.0845121070743,2.5667424202,-0.879628360271,0.072647690773,0.000670166802593,0.000937233970035,-0.000266750110313,-5.76629099669e-05,-3.60187368642e-05,0.000122705867398,3.11764815706e-05,0.467565767378,-0.0088743264366,0.16798715886,-0.0122708418179,0.923964671473,0.381227540789,0.0283597274022
-0.226170733571,-0.002286975272,0.199188157916,-2.5287168026,0.0845127031207,2.56674289703,-0.879629194736,0.072647690773,-0.000144608507981,-0.000352976931026,0.000287762726657,-0.00208651693538,-5.48600037291e-05,9.07887515496e-05,0.000278575404081,0.467566038326,-0.00887595916844,0.167987765958,-0.0122704664808,0.923965238951,0.38122611736,0.028360535751
-0.226174682379,-0.00228752521798,0.199186816812,-2.52872133255,0.084513194859,2.5667424202,-0.879628181458,0.072647690773,0.000245418923441,0.00123665563297,3.53029972757e-05,7.55642031436e-05,8.11353966128e-05,3.89017623093e-05,0.000266491202638,0.467563800984,-0.00887836020851,0.167986225249,-0.0122714031974,0.923966574152,0.381222997495,0.0283585679769
-0.226173043251,-0.00228551938199,0.199185281992,-2.52871870995,0.0845120176673,2.56674218178,-0.879627466202,0.072647690773,-0.000156442969455,0.000810404424556,0.00110315356869,-0.000239259446971,-7.06051359884e-05,-8.18201951915e-05,0.000132639004732,0.467564530385,-0.00887810074018,0.167985957635,-0.0122713287989,0.9239663878,0.381223462493,0.0283584208521
-0.226171135902,-0.00228768959641,0.199187278748,-2.52871990204,0.0845124796033,2.56674265862,-0.879627883434,0.072647690773,0.0017455565976,-3.19732134813e-05,4.832475679e-05,0.000445068028057,-6.70125809847e-05,5.64016590943e-05,-8.40261054691e-06,0.467564598999,-0.00887654878087,0.16798687372,-0.0122708898208,0.923965735027,0.381224994883,0.0283592792304
-0.226170733571,-0.00228821672499,0.199187785387,-2.5287194252,0.084513142705,2.56674337387,-0.879628241062,0.072647690773,0.000314145698212,0.000648704532068,-0.000153915592819,-7.63229691074e-05,6.60803780193e-05,-0.000105087776319,-0.000167248319485,0.4675650771,-0.00887613785969,0.167987369141,-0.0122706471586,0.923965577976,0.381225321916,0.028360104854
-0.226173818111,-0.00228709587827,0.199187815189,-2.52871990204,0.0845120027661,2.56674194336,-0.879627287388,0.072647690773,0.00248273019679,0.00067349371966,-0.000116243725643,-0.000194288295461,-3.64707375411e-05,2.97244660032e-05,0.000165957360878,0.467564239095,-0.0088777738246,0.167986397937,-0.0122711962703,0.92396633311,0.381223581846,0.0283586556203
-0.226175293326,-0.00228727026843,0.199186086655,-2.52872204781,0.084511987865,2.56674385071,-0.879628181458,0.072647690773,0.000155363959493,-0.000330027454766,0.00033481605351,-0.000314660224831,3.49312140315e-05,-0.000120783108287,6.70013032504e-05,0.467563704985,-0.00887905883806,0.167985967847,-0.012270964438,0.9239666535,0.381222814698,0.028358629881
-0.226173818111,-0.00228908099234,0.199186548591,-2.52872204781,0.0845117121935,2.56674361229,-0.879628658295,0.072647690773,5.23671842529e-05,0.000804894021712,-9.19884769246e-05,2.84852703771e-05,-2.95462978102e-05,-5.56200939172e-05,7.60685434216e-05,0.467563961113,-0.00887822663401,0.167986772862,-0.0122704472335,0.923966129996,0.381224056294,0.0283592194869
-0.226172149181,-0.00228661950678,0.199186742306,-2.52872109413,0.0845120027661,2.56674408913,-0.879627764225,0.0726483464241,0.000115895330964,-0.000258237181697,0.000154206252773,1.94230487978e-05,-1.76965550054e-05,6.87281572027e-05,-1.76219637069e-05,0.467564143843,-0.0088772759289,0.167986060838,-0.0122709661808,0.923966004648,0.381224368577,0.0283588809687
-0.226172491908,-0.00228656316176,0.199185788631,-2.52872157097,0.0845111086965,2.56674528122,-0.87962859869,0.0726483464241,0.00038728673826,-0.000619023339823,8.28003612696e-05,-0.000385874154745,5.10745303473e-05,6.12041185377e-05,-9.49621535256e-05,0.467564145218,-0.00887794387965,0.167985964097,-0.0122705452783,0.923965959143,0.381224478298,0.028359070723
-0.226170763373,-0.00228506745771,0.19918756187,-2.52872300148,0.0845118016005,2.56674575806,-0.87962770462,0.0726483464241,-0.000261041452177,7.83344221418e-05,0.000220051748329,0.000245973904384,2.689023313e-05,-1.5293553588e-05,-0.000139645475429,0.467563352557,-0.00887621447196,0.167984774673,-0.0122713918678,0.923965604097,0.381225385631,0.0283580750644
-0.226171821356,-0.00228896504268,0.199188157916,-2.52872347832,0.0845114737749,2.56674599648,-0.879626810551,0.0726483464241,-6.75031042192e-05,-7.85963202361e-05,0.00106030539609,3.73068760382e-05,8.46022958285e-05,-6.7180932092e-05,0.000583552464377,0.46756389475,-0.00887668098904,0.167986449935,-0.0122701890525,0.9239657103,0.381225054725,0.0283595836188
-0.226173102856,-0.00228841416538,0.199185624719,-2.52872419357,0.0845125764608,2.56674599648,-0.879627883434,0.0720941200852,0.000188509817235,-0.00033882225398,8.00537163741e-05,-0.000223760333029,-5.23516464455e-05,8.8795350166e-05,-3.54399780917e-05,0.467563333897,-0.00887829312379,0.167985871393,-0.0122707433654,0.923966476992,0.381223212932,0.0283591229949
-0.226173818111,-0.0022877829615,0.199185177684,-2.52872204781,0.0845118016005,2.56674599648,-0.879628300667,0.0720941200852,0.000158551163622,0.000440266710939,-0.000306324771373,-0.000249084783718,-1.68220904015e-05,-1.04020034541e-06,-0.000152821376105,0.46756424486,-0.00887888092439,0.167986512945,-0.0122702847609,0.923966555371,0.381222988686,0.0283597822215
-0.226171582937,-0.00228507770225,0.199186056852,-2.52872681618,0.0845126062632,2.56674671173,-0.879628360271,0.0720941200852,-1.66645113495e-05,-0.000192128311028,4.2697894969e-05,-0.00108096550684,7.37743393984e-05,0.000236437903368,2.06127024285e-05,0.467561907029,-0.00887722816921,0.16798361308,-0.0122719829097,0.923966116942,0.381224188952,0.0283571969655
-0.226172417402,-0.00228788820095,0.199186488986,-2.5287232399,0.0845132470131,2.56674623489,-0.879627943039,0.0720941200852,0.000191890998394,7.93431318016e-05,-0.00022512000578,0.000228859731578,8.35557002574e-05,0.000219309382373,-1.55230850396e-06,0.46756377567,-0.00887753748977,0.167986022882,-0.0122708352735,0.923966264191,0.381223696074,0.0283595217296
-0.226172700524,-0.00228967471048,0.19918628037,-2.52872395515,0.0845112428069,2.56674790382,-0.879628717899,0.0720941200852,-0.000312989781378,-0.000462414231151,0.000266935501713,0.000235352636082,8.62665183377e-05,7.89583573351e-05,0.00041601608973,0.467564063025,-0.00887795658914,0.167986720848,-0.012269549685,0.923965886419,0.381224586052,0.0283604223775
-0.22617405653,-0.00228784838691,0.199186593294,-2.5287232399,0.0845108553767,2.56674814224,-0.879628896713,0.0720941200852,-0.000135951559059,0.000311311276164,-0.000185929849977,0.000406834500609,-0.000110419328848,0.0049315947108,-0.00507170706987,0.467564153445,-0.00887840943972,0.167986183052,-0.0122697618487,0.923966003926,0.38122432064,0.0283600699588
-0.226175323129,-0.002287379466,0.199187129736,-2.52872610092,0.0845114663243,2.56674766541,-0.87962692976,0.0720941200852,-0.00292850774713,3.35631957569e-05,-0.000285630550934,0.000251988676609,1.2553511624e-05,0.00082003971329,0.000566261995118,0.467562595884,-0.00887865750315,0.167984819858,-0.0122707610408,0.923966659065,0.381222822724,0.0283584286861
-0.226172342896,-0.00228837924078,0.199187383056,-2.52872419357,0.0845139250159,2.56674718857,-0.879627227783,0.0720941200852,0.000334581534844,-1.72336003743e-05,0.000727390812244,0.000162152209668,-7.35561070542e-06,-5.73295146751e-05,0.00032592957723,0.46756351947,-0.00887729330315,0.167985957136,-0.0122708246188,0.923966313805,0.381223560389,0.0283597338451
-0.2261698246,-0.00228537037037,0.199187532067,-2.52872729301,0.0845118388534,2.56674790382,-0.87962859869,0.0720941200852,7.60577750043e-05,0.000564396381378,-0.00048175061238,-0.000241073095822,-7.63301250117e-06,-5.03737028339e-05,-7.67620585975e-05,0.467561833776,-0.00887542761509,0.167983526422,-0.0122716882193,0.92396514988,0.381226537626,0.0283572595441
-0.226174637675,-0.00228706304915,0.19918641448,-2.5287270546,0.0845121368766,2.56674718857,-0.87962782383,0.072073765099,0.000198161884327,0.000116232266009,-0.000578520004638,-0.00041569309542,-1.17691752166e-05,7.77153618401e-05,-0.00535833649337,0.467561986914,-0.00887860504202,0.167984262798,-0.0122713144497,0.923966615607,0.381222961322,0.0283577419561
-0.226174086332,-0.00228674593382,0.199187546968,-2.52872633934,0.0845121592283,2.56674814224,-0.879627466202,0.072073765099,0.000255046383245,-0.000596205878537,-0.000721436052117,7.26211001165e-05,-2.58810650848e-05,7.04436970409e-05,-0.000482543022372,0.467562499013,-0.00887783870942,0.167984485261,-0.0122710709366,0.92396635599,0.38122355318,0.0283583497408
-0.226172909141,-0.0022883603815,0.19918692112,-2.52872610092,0.0845123007894,2.5667488575,-0.879627108574,0.072073765099,-0.000201957518584,-0.000619322876446,0.00297572929412,-0.000385916006053,-8.93474280019e-05,-0.000280840991763,-2.9448990972e-05,0.46756288686,-0.00887755589562,0.167985323344,-0.0122705319495,0.923966282281,0.381223679447,0.0283592870987
-0.22617252171,-0.00228704675101,0.199187725782,-2.52872776985,0.084512591362,2.56675052643,-0.879627048969,0.072073765099,-0.000189334648894,0.000666463398375,-0.000118552765343,0.000653774477541,-4.34622124885e-05,5.44155664102e-05,-0.000199713249458,0.467562386824,-0.00887705729678,0.167984301423,-0.0122708546139,0.923966174991,0.381223957092,0.0283589107974
-0.226171821356,-0.0022885913495,0.199187830091,-2.52872514725,0.0845105648041,2.56675100327,-0.879627168179,0.072073765099,-0.000303876033286,5.44323993381e-05,-2.80186086457e-05,-0.000335091201123,2.00189133466e-05,-9.51321271714e-05,0.000102961646917,0.467563754699,-0.00887708770465,0.167985852038,-0.0122693821305,0.923965760619,0.381224893308,0.0283604631771
-0.226173356175,-0.00228658993728,0.199187397957,-2.52872776985,0.0845123976469,2.56675052643,-0.87962782383,0.072073765099,-1.89107304323e-05,-0.000378612487111,0.000122279932839,0.000305138208205,6.51617301628e-06,0.000140799194924,-0.000671404006425,0.46756250113,-0.00887760474493,0.16798372327,-0.0122712140851,0.923966493511,0.381223204553,0.0283584937286
-0.226176917553,-0.00228816317394,0.19918499887,-2.52872753143,0.0845119357109,2.56675124168,-0.879627525806,0.072073765099,-0.000134412926855,8.87167479959e-05,-0.000179971393663,1.70253661054e-05,0.000138302581036,0.000187301644473,0.00468429084867,0.467562768259,-0.00888047855708,0.167984972372,-0.0122700451205,0.923967321784,0.381221140611,0.0283597584947
-0.226170614362,-0.00228774989955,0.199189677835,-2.52872920036,0.0845126658678,2.56675171852,-0.879627108574,0.072073765099,-0.000262411049334,-0.000797248911113,0.000100480807305,7.56299778004e-05,-7.10737585905e-05,0.00227096164599,0.00442928494886,0.467562101306,-0.00887528800713,0.167984185769,-0.0122707328816,0.923965445615,0.381225718079,0.0283590546829
-0.226171344519,-0.00228808796965,0.199188709259,-2.52872490883,0.0845127254725,2.56675219536,-0.879627227783,0.072073765099,0.000167232909007,0.0004075851175,-0.000309618801111,-3.926349018e-05,-1.84792843356e-05,-6.83315283823e-06,-0.000150155145093,0.467564307321,-0.00887615876993,0.167986042589,-0.0122696422144,0.923965688971,0.381224990249,0.0283613817881
-0.22617264092,-0.00228842766955,0.199186593294,-2.52872657776,0.0845127105713,2.56675338745,-0.87962770462,0.0719713196158,8.88276408659e-05,0.000173270018422,0.000388844317058,-0.00114236050285,-7.44158171528e-07,0.000669818371534,-2.29638226301e-06,0.467563784081,-0.00887777550377,0.167985669312,-0.0122695462911,0.923966260367,0.381223613972,0.0283613076289
-0.226170584559,-0.00228677527048,0.199187159538,-2.52872776985,0.084511347115,2.56675243378,-0.879626870155,0.0719713196158,-0.000142515506013,-9.44071871345e-05,-0.00148900935892,0.00042617940926,1.17855170174e-05,7.82356000855e-05,-0.0038194085937,0.467562758167,-0.00887651023331,0.167984358223,-0.0122701951016,0.923965753892,0.381224956537,0.0283594806552
-0.226172804832,-0.00228697177954,0.199186816812,-2.52872800827,0.0845101699233,2.5667526722,-0.879628062248,0.0719713196158,-3.00342617265e-05,-7.06046012056e-06,0.000316737714456,0.000171216815943,9.15919590625e-05,-2.30067071243e-05,-0.000134105692268,0.467562698282,-0.00887777163643,0.167984376624,-0.0122697813218,0.923965836256,0.381224773527,0.0283594363408
-0.22617302835,-0.00228687981144,0.199185431004,-2.5287296772,0.084511987865,2.56675410271,-0.879628002644,0.0719713196158,-0.000214759798837,-1.8557153453e-05,1.86359138752e-05,-0.0037579019554,-1.36546314025e-05,0.00014584379096,-0.000185156153748,0.467562180524,-0.00887845326419,0.167983832591,-0.0122702485297,0.923966449009,0.38122326857,0.0283595008814
-0.226174071431,-0.00228808028623,0.199185281992,-2.52872896194,0.0845128670335,2.56675457954,-0.879628539085,0.0719713196158,-0.000490745238494,0.000438613409642,5.40457549505e-05,0.000201943650609,-0.000167648191564,-5.67106799281e-05,-0.000338780519087,0.467562812914,-0.00887903671386,0.167984705817,-0.012269841227,0.923966680459,0.381222635574,0.028360645377
-0.226172685623,-0.00228952546604,0.199186354876,-2.52872800827,0.0845121145248,2.56675624847,-0.879625022411,0.0719713196158,0.000248020456638,0.000477623660117,-0.000229377328651,-0.000127743813209,9.56306539592e-05,0.000130667176563,0.000404117454309,0.467563879689,-0.00887802925234,0.167985893967,-0.0122687323716,0.923966729208,0.381222431728,0.0283622769303
-0.22617149353,-0.00228995434009,0.199185281992,-2.52872633934,0.0845117941499,2.56675481796,-0.879627227783,0.0719713196158,-0.000168911152286,-0.000865115202032,-0.000308519898681,-0.000226849020692,-6.16003380856e-05,2.87191651296e-05,0.000184286138392,0.467564445088,-0.008877988585,0.167986595996,-0.0122684955951,0.923966214731,0.381223665459,0.0283625567916
-0.226173624396,-0.00228636804968,0.199185296893,-2.52873158455,0.0845112353563,2.56675767899,-0.879628479481,0.0675473585725,0.000294003344607,0.000333735981258,0.000371358066332,-0.000309760740492,-0.000137236012961,0.00153392262291,0.000159116796567,0.46756193633,-0.00887887552192,0.167983205153,-0.0122697388091,0.923966400811,0.381223370974,0.0283599151684
-0.226172059774,-0.00228831171989,0.199187040329,-2.52873373032,0.0845115408301,2.56675601006,-0.879625976086,0.0675473585725,-5.64859547012e-05,-0.000405357277486,0.000392735295463,0.000203277159017,2.19441571971e-05,0.000113203044748,-0.000322364183376,0.467560890117,-0.00887731793792,0.167983106346,-0.0122701609971,0.923966307131,0.381223653168,0.0283589912296
-0.226169377565,-0.00228873291053,0.199187189341,-2.52873110771,0.0845113024116,2.56675648689,-0.879626572132,0.0675473585725,-0.000206947370316,-0.000322785082972,-8.14059894765e-05,-9.41953403526e-05,3.24030297634e-05,-0.000371447298676,-0.005791998934,0.46756254266,-0.00887619124935,0.167984577619,-0.0122692820414,0.923965710919,0.381225000265,0.0283606879278
-0.226170822978,-0.00228818599135,0.199187770486,-2.52872657776,0.0845116972923,2.56675839424,-0.8796261549,0.0675473585725,-0.000294271158054,0.000984878977761,-0.000319855462294,-0.000122319281218,3.27545712935e-05,-0.000117151976156,2.52667432505e-05,0.467564838767,-0.00887653876615,0.167986038281,-0.0122682505002,0.923965812365,0.381224595767,0.0283632663035
-0.226172164083,-0.00228575454094,0.199187189341,-2.5287322998,0.084512501955,2.56675815582,-0.879627227783,0.0675473585725,-0.000260597851593,-0.00051423010882,0.000189106198377,-0.000234278690186,-9.2156296887e-06,-0.000127473147586,-0.000267067807727,0.467561351402,-0.00887702058927,0.167982591984,-0.0122704097203,0.923966084262,0.381224146107,0.0283595184515
-0.226170539856,-0.00228968122974,0.199185416102,-2.52872991562,0.08451166749,2.56676197052,-0.879624903202,0.0675473585725,0.000529764278326,3.76960524591e-05,0.000112199704745,-0.00027877886896,-3.80970413971e-05,-0.000105293031083,0.000119752927276,0.467564220626,-0.00887761071679,0.167985779455,-0.0122676400254,0.923966454202,0.381223010227,0.0283639326173
-0.226170197129,-0.00228726561181,0.19918628037,-2.5287322998,0.0845130831003,2.56676054001,-0.879625082016,0.057113584131,-0.000386083644116,0.000349218753399,0.000865143665578,-0.000288364448352,5.78378785576e-06,0.000212522689253,-0.000128000436234,0.467561938462,-0.00887745429075,0.167983170992,-0.0122695869924,0.923966623923,0.381222760081,0.0283609236529
-0.226172611117,-0.00228761066683,0.199184671044,-2.52873516083,0.0845113098621,2.56676125526,-0.879627645016,0.057113584131,0.000301186431898,-0.00071306724567,0.000373683666112,0.000130943401018,0.000151364904013,0.00022423354676,-3.1011957617e-05,0.467561185006,-0.00887878142119,0.167982738574,-0.0122693034385,0.923966516852,0.381223069994,0.0283603687576
-0.226175889373,-0.00228606606834,0.199185431004,-2.52872943878,0.084512963891,2.56676220894,-0.87962603569,0.057113584131,0.000305102526909,0.000554805388674,-0.000307204172714,0.000887016300112,1.5662270016e-05,0.000223127572099,3.60749800166e-05,0.467563877905,-0.00887992508423,0.16798433475,-0.0122687681833,0.92396748935,0.381220535854,0.0283629807598
-0.22616994381,-0.00228745560162,0.199189662933,-2.52873015404,0.0845129862428,2.56676220894,-0.879627585411,0.057113584131,2.88384580927e-05,-0.000193621875951,0.000134609741508,0.00191844499204,-7.70319238654e-05,-0.000134698071633,-0.00018093365361,0.467563847392,-0.00887520927011,0.167984693808,-0.0122686353517,0.923965250283,0.381225953048,0.0283631673298
-0.22616943717,-0.00228587561287,0.199188247323,-2.52873468399,0.0845125988126,2.5667617321,-0.879627108574,0.057113584131,0.000391605542973,0.000369334593415,-0.000298529514112,7.5966948998e-07,-1.96694691112e-05,-0.000143518482218,-1.14573376777e-05,0.467561302603,-0.00887552262054,0.167982176453,-0.0122700215223,0.923965541125,0.381225424247,0.0283602005792
-0.226168751717,-0.00228645466268,0.199187189341,-2.52873206139,0.0845124796033,2.56676292419,-0.879626810551,0.057113584131,-0.000207754754229,-1.79639312137e-06,0.000198360852664,0.000176313435077,1.41922628245e-05,0.000308626622427,-0.000120463329949,0.467562908646,-0.00887578693754,0.167983568101,-0.0122690119942,0.923965601494,0.381225165627,0.0283621468981
-0.226169466972,-0.00228629889898,0.199186056852,-2.52873206139,0.0845117270947,2.56676197052,-0.879626393318,0.057113584131,0.000244959432166,-0.000113376045192,0.000444295554189,0.000262752233539,7.94758379925e-05,9.79459437076e-05,-0.00030305821565,0.467562511691,-0.00887691752005,0.167983227503,-0.0122692811999,0.923966206438,0.381223742669,0.0283614493366
-0.226170554757,-0.00228786491789,0.199188277125,-2.5287296772,0.0845131576061,2.56676387787,-0.879624903202,0.057113584131,-0.000510925834533,-0.000493944738992,-0.00015382647689,9.3344515335e-06,4.65457487735e-05,0.0001187311791,6.33610470686e-05,0.467564482874,-0.0088761981328,0.167985226475,-0.0122680830005,0.923966149139,0.381223707559,0.0283643061335
-0.22617405653,-0.00228658784181,0.19918371737,-2.52873277664,0.0845112204552,2.56676411629,-0.879626095295,0.057113584131,-0.000122324243421,0.00107142748311,6.24572567176e-05,-0.000202985625947,6.79264994687e-05,-3.69226581824e-05,-5.19595159858e-05,0.467562758033,-0.00887997187238,0.167983465863,-0.0122684109462,0.923967222718,0.381221244357,0.0283622983901
-0.226174026728,-0.00228486489505,0.19918563962,-2.5287361145,0.0845102146268,2.56676483154,-0.879626274109,0.057113584131,4.49886501883e-05,-0.000767172605265,0.00129212834872,-2.01642742468e-05,-3.43548308592e-05,-5.01907161379e-05,5.92262731516e-05,0.467561041227,-0.00887901665903,0.167981455733,-0.0122691894167,0.923966729203,0.381222567638,0.0283602525355
-0.226167216897,-0.00229000602849,0.199189513922,-2.52873110771,0.0845119506121,2.56676578522,-0.879625678062,0.057113584131,-0.000455441942904,-0.000409490428865,1.7179410861e-05,-0.000371831585653,-9.26110078581e-05,-0.000203141054953,0.000207182078157,0.467564582516,-0.00887422304792,0.167985835127,-0.0122670554063,0.923964931415,0.381226625831,0.0283651953539
-0.22617007792,-0.00228964257985,0.199187397957,-2.52873325348,0.0845116227865,2.5667655468,-0.879626810551,0.057113584131,-5.36120423931e-05,0.000223734037718,-0.000509190664161,3.62812534149e-05,7.27362275939e-05,-9.49534478423e-06,0.000326674839016,0.467563395463,-0.00887651710283,0.167984817663,-0.0122674848228,0.923965650183,0.381224961804,0.0283639609001
-0.226169079542,-0.00228747236542,0.199187994003,-2.52873682976,0.0845117270947,2.56676530838,-0.879627048969,0.0572482012212,-0.00108060927596,-0.000208449870115,8.53728051879e-05,0.000401878322009,-4.94750065627e-06,-4.12419012719e-06,0.00026122565032,0.467561289702,-0.00887563500019,0.167982421743,-0.0122689396184,0.923965395129,0.38122572798,0.0283613422398
-0.226168215275,-0.00228672567755,0.199187368155,-2.52873110771,0.0845130160451,2.56676793098,-0.879625856876,0.0572482012212,-3.2754316635e-05,-0.000560138723813,-0.000363526516594,0.000361041078577,7.03556506778e-05,3.73120456061e-05,-0.00025436168653,0.46756449108,-0.00887557734218,0.167984543273,-0.0122677247261,0.92396569002,0.381224783354,0.028364957868
-0.226171508431,-0.00228803162463,0.199186369777,-2.52873730659,0.0845115631819,2.56676673889,-0.8796261549,0.0541992969811,0.000222497037612,0.000428308558185,3.90036548197e-05,-0.000336418277584,-8.79785002326e-05,-0.000402267090976,-0.000249983888352,0.467561419846,-0.00887758761863,0.167982631428,-0.0122684546349,0.923966306781,0.381223486282,0.02836198413
-0.226172566414,-0.00228704931214,0.19918641448,-2.52873873711,0.0845121145248,2.5667655468,-0.879625320435,0.0541992969811,-0.000280386739178,0.000151927742991,0.000460505951196,0.000178916525329,-7.50017352402e-05,5.5369677284e-05,-0.000128455634695,0.467560274768,-0.00887793995602,0.167981523653,-0.0122693136487,0.923966731264,0.381222540262,0.0283604996129
-0.226171195507,-0.002286470728,0.199188321829,-2.52873516083,0.0845124870539,2.56676673889,-0.879625976086,0.0541992969811,0.000418087089201,0.000191543833353,-3.85529056075e-05,-0.000333931966452,6.35692776996e-05,-0.000104296246718,-7.21044125385e-06,0.46756222495,-0.00887645751874,0.167982746601,-0.0122687362204,0.923966038698,0.381224094188,0.0283624247394
-0.226169109344,-0.00228711590171,0.199186861515,-2.52873301506,0.0845134407282,2.56676626205,-0.879625797272,0.0541992969811,-1.18570442282e-05,9.04516200535e-05,-0.000180729752174,0.000147013022797,-2.23854476644e-06,-0.000267483119387,0.00013750330254,0.467563268645,-0.00887616078571,0.167983826279,-0.0122684787061,0.92396606211,0.381223960544,0.0283635697686
-0.226170942187,-0.00228745746426,0.199186354876,-2.52874398232,0.0845121145248,2.56676578522,-0.879626452923,0.0541992969811,0.000255130493315,7.31948239263e-05,-0.000299338455079,-0.000432251137681,6.0982620198e-05,-0.000142252858495,-0.000275644735666,0.467558127208,-0.0088771660185,0.167979935552,-0.0122701562375,0.92396628891,0.381223721856,0.0283586636021
-0.226169213653,-0.00228734803386,0.199185073376,-2.5287361145,0.0845127999783,2.56676697731,-0.879625320435,0.0541992969811,0.00053799705347,-0.000488466292154,-0.000575094658416,0.000470539031085,9.40178069868e-05,7.61257542763e-05,-4.21639815613e-05,0.467561598431,-0.00887717845882,0.167982058467,-0.0122689194103,0.92396637969,0.381223315956,0.0283616972802
-0.226168870926,-0.0022889515385,0.199189051986,-2.52874159813,0.0845122858882,2.56676530838,-0.879625737667,0.0541992969811,-0.000410720065702,-0.000473638763651,-5.86830865359e-05,-0.000322050473187,0.000151163971168,0.0050410842523,-0.000137538474519,0.467559247417,-0.00887501172925,0.167981259842,-0.0122696558982,0.923965537369,0.381225473486,0.0283598192308
-0.226172596216,-0.00228764582425,0.199187487364,-2.52874708176,0.0845109820366,2.56677556038,-0.879625558853,0.0541992969811,-0.000213852326851,0.000273657758953,-5.78789949941e-05,0.00110559118912,3.63716826541e-05,-0.00106805376709,5.82442044106e-05,0.467558541096,-0.0088776838545,0.167979531037,-0.0122683438649,0.923966431003,0.381223248548,0.0283611806354
-0.226173698902,-0.00229136575945,0.199185505509,-2.52873134613,0.0845115631819,2.56678318977,-0.879625320435,0.0541992969811,-0.000235424202401,-0.000120129974675,0.000169718550751,0.000800596433692,-5.71070122533e-05,0.00409255782142,-0.000620977662038,0.467569349296,-0.0088796490001,0.167988717499,-0.0122616799956,0.9239666963,0.381221815747,0.0283746755812
-0.226171225309,-0.00230092206039,0.199184790254,-2.52870845795,0.0845114514232,2.56680345535,-0.879625022411,0.0541992969811,4.41895281256e-05,-0.00127776176669,0.000413334608311,0.000115964423458,1.51846252265e-05,-0.00170781079214,0.000336486758897,0.467585214765,-0.00887997340324,0.168003197559,-0.0122502310539,0.923966026589,0.3812221742,0.028396604197
-0.226166471839,-0.00230208807625,0.199188351631,-2.52873563766,0.0845106393099,2.56719493866,-0.879624783993,0.0541992969811,3.12861302518e-05,0.000293969322229,-0.000236578416661,0.000449499872047,4.65068987978e-05,0.00893927644938,9.00456725503e-05,0.467653118922,-0.00888531146682,0.168029587528,-0.0121667197941,0.923963044868,0.38122052193,0.0285512869981
-0.226173132658,-0.00230380799621,0.199186742306,-2.52871060371,0.0845122337341,2.56738138199,-0.879624664783,0.0530816502869,0.000114339971333,-0.00021317244682,1.62001215358e-05,0.000260321103269,0.000128081956063,0.0052890824154,0.000225077368668,0.467708305765,-0.00889461537425,0.168059378833,-0.0121145343378,0.923963657666,0.381213145404,0.0286519602229
-0.226171031594,-0.00230004102923,0.199185803533,-2.52873277664,0.0845113545656,2.56749820709,-0.879624962807,0.0530816502869,0.00215074955486,0.000402650068281,0.000251583987847,-0.000976429495495,0.000101530720713,0.00120741943829,4.57529749838e-05,0.467721132995,-0.00889608369811,0.168059279487,-0.0120931794107,0.923962948453,0.38121262813,0.0286907081766
-0.22617033124,-0.00230318959802,0.199187755585,-2.52873134613,0.0845135077834,2.56750822067,-0.879624783993,0.0530816502869,0.000323023617966,-0.000104064769403,-0.000148942766828,0.000369737186702,-5.43379901501e-05,0.00129212543834,0.000210602665902,0.467725404308,-0.00889569425367,0.168063322796,-0.012089558501,0.923962837093,0.38121243778,0.0286983485614
-0.226173311472,-0.00230183708481,0.199186578393,-2.5287258625,0.0845125168562,2.56753802299,-0.879625678062,0.0530816502869,0.000197304631001,-0.000364950159565,-0.000135019625304,0.00251385639422,3.8584585127e-05,-9.73175410763e-05,0.000100743149233,0.467734158521,-0.00889845676093,0.168067692752,-0.0120815284965,0.923963113426,0.381210891832,0.0287133649871
-0.226172506809,-0.00230117491446,0.199187085032,-2.52873373032,0.0845113396645,2.56754589081,-0.879624843597,0.0530816502869,-9.89186228253e-05,0.00124866294209,0.000895847799256,-2.36136588683e-06,8.46857874421e-05,0.000101572484709,-0.000141293625347,0.467731957737,-0.00889797007531,0.168065108671,-0.0120812065642,0.923962928968,0.381211390359,0.0287128174269
-0.226170882583,-0.00230034161359,0.199187114835,-2.52872800827,0.0845119804144,2.56758570671,-0.879625082016,0.0530816502869,0.000372708658688,-0.000410812557675,-0.000188446967513,-0.00080916058505,3.67552420357e-05,0.00137304153759,-8.8929424237e-05,0.467743110699,-0.00889821730959,0.168070777769,-0.0120711326148,0.923962415188,0.381211454175,0.0287327333465
-0.226172104478,-0.00229875114746,0.199188023806,-2.52873420715,0.0845130309463,2.56759858131,-0.87962526083,0.0530816502869,7.74582003942e-05,-0.000649162277114,0.00034649000736,-0.00021088118956,7.33576962375e-05,0.000148217761307,0.000355205964297,0.46774262953,-0.00889850444194,0.168068900641,-0.0120700891307,0.923962651041,0.381210739637,0.0287350673941
-0.226171642542,-0.00230276933871,0.199187725782,-2.52873015404,0.084512129426,2.56760501862,-0.879624843597,0.0530816502869,0.000997152761556,-0.000239780463744,0.000227896904107,0.000421400851337,-1.61233929248e-05,0.000152121661813,-7.68000463722e-05,0.467746599327,-0.00889883135242,0.16807292395,-0.0120663761447,0.923962424551,0.38121093755,0.0287412831954
-0.226172536612,-0.00229974626563,0.199185997248,-2.5287296772,0.0845121145248,2.56763720512,-0.879626452923,0.0516140013933,-5.84126282774e-05,-0.000285615999019,-0.00012653900194,0.000524534611031,3.34494106937e-05,0.000164921482792,7.33221750124e-05,0.467753204683,-0.00890076653523,0.168074829213,-0.0120595447513,0.923962501498,0.38120997056,0.0287544993902
-0.226178884506,-0.00230273115449,0.199183762074,-2.52871608734,0.0845129191875,2.56765675545,-0.879625678062,0.0516140013933,-0.000367289962014,-0.000634369906038,-0.000411997782066,0.00119203713257,-2.11110509554e-05,0.000145522368257,0.000337608100381,0.467764329523,-0.00890552349894,0.168083330392,-0.0120514309872,0.923964086824,0.381205162536,0.0287706970464
-0.226187899709,-0.00232958141714,0.19917242229,-2.52870464325,0.0845107883215,2.56798267365,-0.879624247551,0.0516140013933,0.000935522140935,0.000993764027953,0.00030890328344,-0.000761484028772,-4.26386977779e-05,0.000909565482289,-7.22678305465e-05,0.467843657584,-0.00892398899008,0.168131148381,-0.0119639406081,0.923965688086,0.381191904424,0.028931004976
-0.226176962256,-0.00232928083278,0.199182748795,-2.52871751785,0.0845120176673,2.56798815727,-0.879624187946,0.0516140013933,0.000428488827311,6.35808464722e-05,0.000731710344553,-0.000211373815546,-0.000168306331034,0.000172879721504,0.000173782420461,0.467838796586,-0.00891448487383,0.168126918358,-0.0119661475545,0.923962229676,0.381200521746,0.0289270003218
-0.226194620132,-0.00234936340712,0.199166968465,-2.52869224548,0.0845116451383,2.56806397438,-0.879625320435,0.0516140013933,0.00101565837394,-0.000185720127774,0.00431619305164,0.000172006344656,-8.67561029736e-05,0.00365966116078,0.000108850312245,0.46787009222,-0.00893312420822,0.168153198003,-0.0119368509778,0.923967359212,0.381184954156,0.0289803572805
-0.226186588407,-0.00236490485258,0.19917242229,-2.52868747711,0.0845114514232,2.56810688972,-0.879623353481,0.0516140013933,0.00126550986897,-0.000108178202936,0.000583500019275,0.00058644101955,0.000162865995662,0.00429068598896,-0.000120728087495,0.467885294388,-0.00892844491327,0.168167274614,-0.0119202605477,0.923964465031,0.381190237314,0.0290099536078
-0.226185321808,-0.0023752944544,0.199175551534,-2.52868485451,0.0845134854317,2.56816697121,-0.879625320435,0.0516140013933,-0.0004437409807,0.00107386824675,-0.00055308220908,0.00092612777371,-0.000129623702378,0.00281766150147,0.000126633982291,0.467900005006,-0.00892833808041,0.168177878872,-0.0119044125627,0.923963313158,0.381191246849,0.0290398675673
-0.226199790835,-0.00237191049382,0.199162825942,-2.52869272232,0.0845119655132,2.56821203232,-0.879621803761,0.0498107932508,-0.000133401234052,0.000683059042785,-9.5307623269e-05,0.000194133564946,-1.44434698086e-05,-7.25030768081e-05,-0.000198862340767,0.467905066104,-0.00894203965996,0.168177643522,-0.0118957095126,0.923968881662,0.381176887,0.0290547468465
-0.226196616888,-0.0023742960766,0.199163571,-2.52869033813,0.0845095217228,2.56821775436,-0.87962603569,0.0498107932508,0.000111752160592,-0.000125541439047,0.000665166298859,-4.24113823101e-05,-2.62375142484e-05,0.000247350748396,-0.000276013917755,0.467908040233,-0.00894034708288,0.168180384327,-0.0118923051203,0.923966673406,0.381181988818,0.0290594321541
-0.226186841726,-0.00237511610612,0.199172392488,-2.52869057655,0.0845107808709,2.56822752953,-0.879623353481,0.0498107932508,0.00018236017786,8.45747927087e-05,0.000265258393483,0.000335264368914,0.000174399159732,0.000270884687779,-0.00014833129535,0.467910122056,-0.00893209902835,0.168181432959,-0.0118907101177,0.923963970525,0.381188272682,0.0290635964305
-0.226186797023,-0.00237181130797,0.199170947075,-2.52869272232,0.0845100879669,2.56823658943,-0.879625439644,0.0498107932508,-0.000113115544082,0.000190100021427,0.000149684943608,-0.000448861828772,-8.22833462735e-05,-0.000138882314786,0.000244461436523,0.467910481514,-0.00893286435655,0.168179964854,-0.0118897540844,0.923963765529,0.38118867671,0.029065205472
-0.226195782423,-0.00237018172629,0.199168428779,-2.52869415283,0.084512360394,2.56824445724,-0.879623651505,0.0498107932508,-0.000574834295548,0.00167250493541,-0.000507025280967,0.000511182763148,0.000100345561805,-0.000155707355589,0.00071986776311,0.467911121603,-0.00893826521982,0.168179431722,-0.011889104261,0.923966648909,0.38118151783,0.029067697726
-0.226191535592,-0.0023701263126,0.199168339372,-2.52869224548,0.0845113620162,2.56825065613,-0.879624605179,0.0498107932508,0.000215473759454,0.00428419187665,-0.000593514821958,-5.3599702369e-05,2.5136381737e-05,-0.000140208401717,-9.30798487389e-05,0.467913388287,-0.00893654365379,0.168180739809,-0.0118870751205,0.92396546713,0.381184183094,0.029071140982
-0.226187318563,-0.00237503484823,0.199170202017,-2.52869153023,0.0845120698214,2.5682554245,-0.879623889923,0.0498107932508,-0.000406383536756,-0.00036112125963,0.000670786132105,0.000305279303575,5.97573853156e-05,3.89756060031e-05,0.000149534564116,0.467915597496,-0.00893397926806,0.168183726015,-0.0118846667139,0.923964456641,0.381186366153,0.0290756169906
-0.22618894279,-0.00237219501287,0.199169993401,-2.52869296074,0.0845122411847,2.56825494766,-0.879624426365,0.0498107932508,-0.00038452912122,-0.000291464966722,0.000100716490124,-0.000780030270107,1.14394269985e-05,-6.77019997966e-05,-0.000142730976222,0.467914335935,-0.00893469379749,0.168181827221,-0.0118858994719,0.923964789135,0.381185673233,0.0290736312938
-0.226190507412,-0.00237044063397,0.199167445302,-2.52870392799,0.0845117494464,2.56825470924,-0.879625022411,0.0498107932508,0.000259246880887,0.00152343395166,0.000336316559697,-0.000409228436183,1.50667019625e-05,-8.18383632577e-05,0.00020536746888,0.467908691033,-0.00893642772283,0.168176764463,-0.0118884996163,0.923965566797,0.381184153963,0.0290677725365
-0.226182028651,-0.00236743898131,0.199174046516,-2.52870726585,0.084511756897,2.56825399399,-0.87962436676,0.0488139726222,0.00189040717669,1.01665018519e-05,9.3781905889e-05,-0.000433716719272,0.000104224607639,3.30638977175e-05,-7.14046036592e-05,0.46790658511,-0.00892920206002,0.168174030007,-0.0118904375946,0.923962909003,0.38119077674,0.0290646123447
-0.22618688643,-0.00236659101211,0.199173629284,-2.52871227264,0.0845123678446,2.56825256348,-0.879624783993,0.0488139726222,0.000187061683391,-0.000240465407842,0.00014077173546,1.44211153383e-05,7.6466552855e-05,-0.000148061357322,-0.00010945321992,0.467903691057,-0.00893151117894,0.16817157118,-0.0118921061141,0.923964017666,0.381188277917,0.0290614578459
-0.226185336709,-0.00236269831657,0.199174106121,-2.52871322632,0.0845115631819,2.56825470924,-0.879624903202,0.0488139726222,0.000366861437215,0.000238108928897,0.000238709209953,0.000190558814211,1.96475284611e-05,0.000163971912116,0.00011260354222,0.467903080658,-0.00893049719588,0.168169625528,-0.0118927477285,0.923963540077,0.381189505842,0.029060273199
-0.226197630167,-0.0024305623956,0.199165314436,-2.52868080139,0.084511525929,2.56828403473,-0.879625320435,0.0488139726222,2.55303202721e-05,-0.000230063582421,0.000110771572508,-0.000120133394375,-4.32055967394e-05,-9.37667064136e-05,-0.000215816282434,0.467935654148,-0.00894402733847,0.168216066906,-0.0118593400185,0.92396599502,0.381180358493,0.0291158047041
-0.226195797324,-0.00244897068478,0.199165984988,-2.52868127823,0.084511063993,2.56829214096,-0.879621565342,0.0488139726222,0.000288719427772,-0.000330581591697,-0.000490572070703,0.000422719458584,-0.000134388290462,0.000213550316403,0.000230008125072,0.467940134629,-0.00894375604856,0.168225096459,-0.0118521840473,0.92396589535,0.381180000116,0.0291265713409
-0.226189777255,-0.00245550181717,0.199170663953,-2.52867770195,0.0845117717981,2.56833100319,-0.879624962807,0.0488139726222,-0.000271592958597,-0.000180675895535,0.000238526830799,4.03264311899e-05,-7.08518782631e-05,-5.94419252593e-05,0.000128737170598,0.46795119883,-0.00893997948093,0.16823303084,-0.0118408483375,0.923962971176,0.381185819761,0.0291477735484
-0.226189061999,-0.00245505920611,0.199168220162,-2.52868080139,0.0845130831003,2.56833696365,-0.879623711109,0.0488139726222,-0.000392572605051,0.00173866515979,-0.00041993544437,-7.91536222096e-05,-0.000173357140739,0.0021095869597,-6.77976786392e-05,0.467951032482,-0.00894121118796,0.168232233914,-0.0118403993989,0.923963889398,0.381183494098,0.0291492631298
-0.226192548871,-0.00245351134799,0.199167639017,-2.52868580818,0.0845120027661,2.5683426857,-0.879623949528,0.0488139726222,-0.000337000034051,-0.000381189747714,-0.000126759900013,0.000135380265419,-0.000148354083649,-2.83923486677e-06,5.65386217204e-05,0.467949541339,-0.00894280931947,0.168230313593,-0.0118402100054,0.923964417801,0.381182257733,0.0291487587546
-0.226201534271,-0.00245612300932,0.199162393808,-2.52868509293,0.0845122858882,2.56834769249,-0.879625022411,0.0488139726222,-0.000241546338657,0.000187483965419,-0.000268280447926,0.00019604137924,7.8926444985e-05,-0.000100618432043,-6.35330798104e-05,0.467951249544,-0.00894968619383,0.168232271947,-0.0118379886353,0.923966900754,0.381176022926,0.0291524881441
-0.226195544004,-0.00245372299105,0.199165463448,-2.52869009972,0.0845126360655,2.56834888458,-0.879623889923,0.0488139726222,0.000687294523232,6.1491089582e-05,0.000528402684722,-3.79831435566e-05,-1.23238542074e-05,7.53976491978e-05,0.00018287023704,0.467948794121,-0.00894530952948,0.168229353887,-0.0118396535369,0.923965541046,0.381179478036,0.029149730199
-0.226186320186,-0.0024480111897,0.199170783162,-2.52869820595,0.0845099315047,2.56834959984,-0.879624962807,0.0488139726222,0.0003552933631,-0.000481965980725,0.000308710965328,-0.00371658592485,-8.84384098754e-06,-3.03918513964e-05,0.000410205830121,0.467944250359,-0.00893832981433,0.168223668483,-0.0118422945718,0.923962341443,0.381187620155,0.0291436026816
-0.226183652878,-0.00244932295755,0.199172079563,-2.52870607376,0.0845130085945,2.56834793091,-0.879624843597,0.0488139726222,0.000164234166732,0.000792592705693,-0.000147512881085,-0.000480461661937,3.50533009623e-05,-0.000228282340686,4.99489797221e-05,0.467940369807,-0.00893624385724,0.168221075228,-0.0118447358696,0.923962181492,0.381188195312,0.029140158589
-0.226184725761,-0.00244653294794,0.199172228575,-2.52871084213,0.0845105648041,2.56834340096,-0.879623174667,0.0488139726222,-0.000582817243412,-1.66030567925e-05,9.83443242148e-05,-7.03023251845e-05,4.91483988299e-05,2.76260616374e-05,0.00253992481157,0.467936641717,-0.00893650643875,0.168217512293,-0.0118469690426,0.923962430656,0.381187951299,0.0291345418438
-0.226187318563,-0.00244466145523,0.199170574546,-2.52871274948,0.0845133066177,2.56834506989,-0.879623770714,0.0488139726222,-7.83214272815e-05,0.000706230697688,0.000279877276625,0.000493371102493,2.24617797357e-05,-5.54278958589e-05,8.74073230079e-05,0.467935754954,-0.00893831942175,0.168216086001,-0.0118481273801,0.923963587009,0.381185153069,0.0291340096888
-0.226192697883,-0.00243829353712,0.199169531465,-2.52871179581,0.0845116376877,2.56834435463,-0.879623353481,0.0488139726222,6.04186971032e-05,-0.000698481861036,-0.000201417045901,0.000385369552532,-4.15161775891e-05,-0.000102563186374,-0.000151140528033,0.467934973445,-0.00894115747883,0.168213465231,-0.0118494376662,0.923964708394,0.381182596139,0.0291313671735
-0.226178392768,-0.00243796757422,0.199175968766,-2.52871990204,0.0845122933388,2.56834077835,-0.87962436676,0.0479701571167,0.000729013409,0.000448857987067,0.000240810768446,-0.00031598872738,-3.07149675791e-05,-0.000136500035296,0.000378544151317,0.467930446402,-0.00893121839993,0.168209839079,-0.0118524619268,0.923960800227,0.38119239194,0.0291259128633
-0.226177051663,-0.00243670237251,0.199176803231,-2.52871990204,0.0845111086965,2.56834125519,-0.879623830318,0.0479701571167,-3.11419316859e-05,6.69084110996e-05,0.000134993315442,-0.000329634523951,-1.80478746188e-05,-1.4049528545e-05,-0.000213505103602,0.467930359446,-0.00893021883866,0.168209302927,-0.0118524568108,0.923960321801,0.381193587383,0.0291254463699
-0.226175814867,-0.00243451888673,0.199177607894,-2.5287258625,0.0845118463039,2.56834077835,-0.879623949528,0.0479701571167,-0.000542810477782,-0.000933930336032,-0.000249130185694,-0.000749436963815,-0.000149700135808,-0.000189349826542,-0.000123691686895,0.467927062263,-0.00892906196939,0.168205955928,-0.0118546230918,0.923960138804,0.381194249619,0.029121702452
-0.226180389524,-0.00243429327384,0.199176445603,-2.52871990204,0.0845128446817,2.56834506989,-0.879624903202,0.0479701571167,-0.000617755751591,-0.000395851617213,-0.000101233585156,0.00142697105184,-6.83570397086e-05,0.00282537867315,-0.000180758259376,0.467930762745,-0.00893187799501,0.16820857206,-0.0118526271575,0.923961098505,0.381191627439,0.0291263889285
-0.226200520992,-0.00246723880991,0.199161738157,-2.52866816521,0.0845131278038,2.56835889816,-0.879624247551,0.0479701571167,-0.000235006358707,-0.00115392566659,0.000117286130262,0.000411360873841,0.000136721864692,-0.000323433283484,-5.76196471229e-05,0.467963575868,-0.00895039226679,0.168244987715,-0.0118289375985,0.923966666368,0.381175548432,0.0291697897901
-0.22619971633,-0.0024847141467,0.19916318357,-2.52867627144,0.0845118388534,2.56836938858,-0.879623353481,0.0479701571167,0.00025409515365,-0.00286056101322,0.00154121464584,-0.000864995585289,-1.40715237649e-05,-0.000236555279116,-0.000335469521815,0.467964741837,-0.00895020463088,0.168250871878,-0.0118227871864,0.923966054734,0.381176619382,0.0291776613425
-0.226191475987,-0.00248766550794,0.19916729629,-2.5286822319,0.0845124348998,2.56837844849,-0.879620671272,0.0479701571167,-0.000244115581154,0.00138346478343,6.14896271145e-05,0.000546949217096,1.60242743732e-05,7.33115439289e-06,-0.000271548866294,0.467964399916,-0.00894466083398,0.16825079739,-0.0118213841084,0.92396430775,0.381180709211,0.0291801214951
-0.226190030575,-0.00248562870547,0.199168875813,-2.52867293358,0.0845127478242,2.56839108467,-0.879624664783,0.0479701571167,-9.91886190604e-05,-0.000396779039875,-0.000142052522278,0.000236181847868,-1.57203812705e-05,0.00122942938469,-2.06783370231e-05,0.467971273395,-0.00894359544066,0.168254678431,-0.0118171861632,0.923962848935,0.381183683641,0.0291891573707
-0.226193666458,-0.00248692254536,0.19916471839,-2.52868437767,0.0845116972923,2.56841111183,-0.87962436676,0.0471769049764,0.000242939087912,-0.00051252078265,-0.000143016615766,-7.59720423957e-05,2.53731977864e-05,9.29216985242e-05,-7.95635933173e-05,0.46797018737,-0.00894769556547,0.168252785128,-0.0118140697227,0.923964285668,0.381179986859,0.0291932161294
-0.226192310452,-0.00248934468254,0.199168697,-2.528683424,0.0845112130046,2.56841516495,-0.879622817039,0.0471769049764,0.000581143132877,-0.000721717835404,0.000473388237879,0.000450724037364,6.7977431172e-05,0.000148758786963,-6.21044600848e-05,0.467971946641,-0.00894542654723,0.168254652901,-0.0118121995895,0.923963426419,0.38118188951,0.0291963246675
-0.226187497377,-0.00249199802056,0.199171453714,-2.52867698669,0.0845100581646,2.56842398643,-0.879623651505,0.0471769049764,-1.36429935083e-06,-0.000399862910854,-0.00031937318272,6.35398610029e-05,2.62147350441e-05,0.000128854735522,-0.000208335550269,0.467977416139,-0.00894234026935,0.168259204912,-0.0118078617601,0.923961479444,0.381186150993,0.0292040558648
-0.226193860173,-0.00248845550232,0.199168205261,-2.52868485451,0.0845109596848,2.56843042374,-0.879623830318,0.0471769049764,-0.000612745003309,0.0011003917316,-0.000175311448402,-0.000478148605907,-1.49436573338e-06,-0.000124297046568,0.00027160657919,0.467974359366,-0.00894672785078,0.168255167892,-0.0118090617579,0.923963543547,0.38118126572,0.0292020307934
-0.226189166307,-0.00248938868754,0.199170291424,-2.52868294716,0.0845117196441,2.56843924522,-0.879622340202,0.0471769049764,-0.00012172870629,-0.00065905804513,0.000195689994143,0.000432760920376,-8.47212868393e-05,-0.000190851060324,8.19445267553e-05,0.467977376053,-0.0089438040033,0.168257186293,-0.0118066460801,0.923962569149,0.381183305025,0.0292072178218
-0.226187974215,-0.00248868297786,0.199170529842,-2.52868413925,0.0845123082399,2.56844449043,-0.879624068737,0.0471769049764,-3.73872608179e-05,-0.000292436656309,-9.67076994129e-06,-0.000485783035401,6.5107960836e-05,-3.02233729599e-05,-0.000460180017399,0.467977508033,-0.00894315258843,0.168256705768,-0.0118060740911,0.923961961346,0.381184697842,0.029208499004
-0.226192161441,-0.00248819333501,0.199167594314,-2.52868485451,0.0845116451383,2.56844782829,-0.879624724388,0.0471769049764,-7.64283686294e-05,8.80489533301e-05,-0.000290288182441,-0.000225768424571,-4.29341962445e-05,0.000287045550067,-0.000229166311328,0.467978051316,-0.00894661863902,0.168256732305,-0.0118052327395,0.923963190535,0.381181653298,0.0292096882747
-0.226183891296,-0.002491671592,0.199176818132,-2.52868485451,0.0845129862428,2.5684492588,-0.879623830318,0.0471769049764,-0.000677587697282,0.000346495624399,-0.00048928585602,9.92763489194e-06,2.30462064792e-05,0.000105711864308,0.000175628010766,0.467979066322,-0.00893935061391,0.16825835729,-0.0118044556265,0.923960490637,0.381188062231,0.0292117692886
-0.226207152009,-0.00249212654307,0.199159443378,-2.5286898613,0.0845120698214,2.56844878197,-0.879622876644,0.0471775606275,-0.00198593735695,0.000496912223753,-0.000714238383807,-0.000384852843126,-5.73985962546e-05,-0.000174063199665,-0.000191452752915,0.467976274975,-0.00895753144901,0.168256694828,-0.0118046915877,0.923968034995,0.381169933227,0.0292096088834
-0.226207569242,-0.00249143689871,0.199158728123,-2.52868795395,0.0845124423504,2.5684504509,-0.879624128342,0.0471775606275,0.000582433945965,-0.000630103575531,3.25599103235e-05,0.000369296380086,-1.45005233207e-05,-4.09060085076e-05,4.26064161729e-06,0.46797742961,-0.0089580857356,0.168257278126,-0.0118041722509,0.923968042112,0.381169825795,0.0292109955404
-0.226193830371,-0.00261059193872,0.199165567756,-2.52870988846,0.0845111981034,2.56843757629,-0.879624724388,0.0471775606275,0.000519537832588,-0.00372841255739,0.00174943625461,0.000218911838601,0.000126815182739,-0.000412332417909,-0.0059951916337,0.467983437399,-0.00895230892988,0.168302135555,-0.0117771386555,0.923962658657,0.381181213424,0.0292435741219
-0.226195290685,-0.00265854503959,0.199166074395,-2.52870368958,0.084512270987,2.56843471527,-0.879623711109,0.0471775606275,0.000547569536138,-0.00438706064597,-0.000316863530315,0.000224424613407,6.30812282907e-05,-4.91004357173e-05,-0.000363478029612,0.467992655085,-0.00895435258317,0.168324166675,-0.0117641520939,0.923962556896,0.381180370375,0.0292629988759
-0.226183921099,-0.00298641156405,0.199170157313,-2.52873849869,0.0845116302371,2.56832528114,-0.879623115063,0.0471769049764,-0.000497628061567,-0.0107277976349,0.00466000661254,-3.47244676959e-05,0.0001484015811,-0.00920470897108,0.000100431600004,0.468006053792,-0.00895779453908,0.168464432714,-0.011697562617,0.923956542672,0.381191360946,0.0293363307993
-0.226187735796,-0.00324568967335,0.199169129133,-2.52875065804,0.0845129489899,2.56813812256,-0.879622876644,0.0471769049764,2.43239828706e-05,-0.0129935042933,-0.000203718314879,0.00158423476387,-5.38561071153e-05,-0.00346125848591,-0.000160357521963,0.468001774068,-0.00896306061879,0.168548337921,-0.0116724676367,0.923955243831,0.381194093606,0.0293517219061
-0.22618085146,-0.00355828530155,0.199170321226,-2.52876067162,0.0845120251179,2.56791853905,-0.879623711109,0.0471769049764,0.000430338550359,-0.0184638574719,-8.72952878126e-05,0.000131777836941,8.52892335388e-05,-0.0117386523634,-0.000415884162067,0.468000169297,-0.00896516926527,0.168666409162,-0.0116354061786,0.92395055677,0.381204604983,0.0293774537751
-0.226177483797,-0.00378662883304,0.199173480272,-2.52875447273,0.0845102444291,2.56771159172,-0.879623174667,0.0471769049764,-3.48142602888e-05,-0.0234930049628,0.00039375727647,0.00271206535399,-0.000111382149043,-0.0231820940971,0.000497010885738,0.467995517945,-0.00896545840271,0.168753371416,-0.0116162461621,0.923947093385,0.381213254114,0.0293817293744
-0.226171985269,-0.00428993906826,0.199176266789,-2.52873444557,0.0845123007894,2.56712985039,-0.879622876644,0.0471769049764,0.000214172250708,-0.0294764172286,0.000262450892478,0.00105274515226,-5.65517575524e-06,-0.0372137203813,0.000102958940261,0.467961377018,-0.00896557793718,0.168935365107,-0.0116035722926,0.923941886124,0.38122952039,0.0293394042482
-0.226187467575,-0.0053480793722,0.199168607593,-2.52863192558,0.084513373673,2.56559991837,-0.879622936249,0.0471769049764,-0.000645584077574,-0.0459845550358,-0.000574898615014,0.00935028120875,-4.76022614748e-06,-0.0791733935475,0.000196772176423,0.467852290803,-0.00897791021475,0.169311660165,-0.0116351916237,0.923938659739,0.381251485635,0.0291424045085
-0.226185038686,-0.0076207825914,0.199167922139,-2.52805256844,0.0845117792487,2.56160354614,-0.879623770714,0.0471769049764,0.000369510817109,-0.0767915844917,0.000217551118112,0.0236500930041,1.06366987893e-05,-0.148581370711,0.000197463334189,0.467628511914,-0.00896578571322,0.170220112524,-0.0118046407643,0.923918511926,0.381340320687,0.0285445840573
-0.226184949279,-0.00906134583056,0.199168354273,-2.52754688263,0.0845115557313,2.55859041214,-0.879625201225,0.0471769049764,-0.000540260632988,-0.0899853110313,-7.54266220611e-05,0.0373698472977,9.89779891825e-06,-0.204275235534,0.000349078938598,0.46754093723,-0.00895602164555,0.170510425765,-0.0118902903595,0.923911240197,0.381373692598,0.0282974823803
-0.22618496418,-0.0146012511104,0.19917114079,-2.52494978905,0.084510192275,2.54653787613,-0.879623353481,0.0471769049764,0.000144074758282,-0.138007760048,-0.000490077247377,0.0776967257261,-4.4845030061e-05,-0.318834751844,-0.000127571751364,0.466990970084,-0.00887741690913,0.17314347681,-0.0126753807219,0.923852133706,0.381642817593,0.0261787935847
-0.226192459464,-0.017717462033,0.199167728424,-2.52316451073,0.0845095068216,2.53967475891,-0.879623770714,0.0471769049764,4.16700386268e-05,-0.173109740019,0.000366242602468,0.0988339409232,8.59466963448e-05,-0.368136078119,7.90051053627e-05,0.466851925281,-0.00884318563562,0.174609915271,-0.0130175127255,0.923818035562,0.381777508361,0.0252332186952
-0.22619600594,-0.0206991750747,0.199165701866,-2.52137494087,0.0845112428069,2.53349328041,-0.879624128342,0.0471769049764,0.000776111613959,-0.200876817107,1.1154303138e-05,0.118292175233,-0.000192563049495,-0.398816347122,-1.1721044757e-05,0.46683281487,-0.00881762301734,0.176085002991,-0.0132381049127,0.923782050257,0.381902446054,0.0245356390318
-0.226197108626,-0.0321905687451,0.199165448546,-2.51357603073,0.0845094099641,2.51096129417,-0.879623651505,0.0471769049764,-0.000772823230363,-0.264255821705,-8.8173779659e-05,0.180927306414,0.000267281313427,-0.496165513992,-3.92133260902e-05,0.467390871795,-0.00874182599713,0.182278665767,-0.0135946917771,0.923621732051,0.382383484207,0.0228243538236
-0.226198062301,-0.0362528450787,0.199161931872,-2.51057481766,0.084508523345,2.50320482254,-0.879623711109,0.0471769049764,0.000110700857476,-0.28270599246,0.00051522400463,0.20833478868,-3.71614078176e-06,-0.524010062218,0.000782538321801,0.467718594095,-0.00872023260727,0.184597448545,-0.013619912733,0.923561863074,0.382550972144,0.0224217850879
-0.22619278729,-0.0423124246299,0.199161559343,-2.50611567497,0.0845083519816,2.49215197563,-0.879623770714,0.0471775606275,-0.000198385459953,-0.314537346363,0.000424570520408,0.231321677566,-0.000104066450149,-0.557918250561,0.000200430542463,0.468281115365,-0.00869047518981,0.188111024323,-0.013538423675,0.923469615748,0.382798637143,0.0220404845426
-0.226204246283,-0.0481104850769,0.199136763811,-2.50168323517,0.0845083892345,2.48174715042,-0.879622399807,0.0471775606275,0.000484666932607,-0.326605021954,0.00110760412645,0.253943264484,-0.000105246297608,-0.5747397542,-0.00139476219192,0.468899097651,-0.00868138842572,0.191570037672,-0.0133844646634,0.923387008156,0.383015550294,0.0218260667478
-0.226189389825,-0.0588812492788,0.199090451002,-2.49338674545,0.0845066383481,2.46381902695,-0.879622876644,0.0471775606275,-0.000679893011693,-0.370289504528,-0.0027550261002,0.308699458838,5.36128754902e-05,-0.611281394958,0.000123721270938,0.470288074457,-0.00866750462779,0.198190650739,-0.0127527908934,0.923222062875,0.383420454347,0.0220713347239
-0.226203426719,-0.0656740739942,0.199007257819,-2.48758554459,0.0845051333308,2.45261240005,-0.879621207714,0.0471775606275,0.00042095957906,-0.3899487257,-0.00547043373808,0.327473223209,4.98755161971e-06,-0.642011642456,0.000212147686398,0.471381067727,-0.00869112979025,0.202633916002,-0.0122116420989,0.923124849367,0.383645454721,0.0225289376844
-0.226188093424,-0.0721972957253,0.198911815882,-2.48223257065,0.084505431354,2.4423456192,-0.879622101784,0.0471775606275,-0.000338360114256,-0.410394787788,-0.00889924447984,0.349221795797,-4.32160450146e-05,-0.651386022568,-0.000220060857828,0.472391212978,-0.00870949383096,0.206878909935,-0.0116195781392,0.923029598857,0.38385979399,0.0230868637605
-0.226207464933,-0.0802869200706,0.198739901185,-2.47529840469,0.0845049545169,2.42987895012,-0.879621982574,0.0471775606275,0.000809807213955,-0.434679865837,-0.00611784309149,0.363938987255,-0.000144544814248,-0.674455225468,0.000302350061247,0.473766607052,-0.00877231085469,0.212318515441,-0.0107601520168,0.922922646047,0.384084019134,0.0240306985129
-0.226209208369,-0.101949974895,0.198099955916,-2.45573139191,0.0845044106245,2.39620757103,-0.879621624947,0.0471775606275,-0.000227598764468,-0.477153331041,-0.0208953041583,0.443199694157,4.88784316985e-05,-0.723066985607,-0.000178908449016,0.477444808377,-0.00893513423101,0.227434466762,-0.00830997909741,0.922635254976,0.384645922882,0.0268820426235
-0.226184979081,-0.110146909952,0.197763770819,-2.44811320305,0.0845030918717,2.38371372223,-0.879621386528,0.0471775606275,-0.000343316234648,-0.479597091675,-0.0175466332585,0.44288995862,0.000192377818166,-0.757149994373,-0.000236050822423,0.478830138689,-0.00901019878256,0.233330030132,-0.00727818059411,0.922529438111,0.384828618785,0.0281673170906
-0.226207315922,-0.117836415768,0.197439670563,-2.44081330299,0.0845034793019,2.37154769897,-0.879621446133,0.0471775606275,0.000525609299075,-0.489663779736,-0.021344428882,0.48262065649,-0.000142187884194,-0.755940377712,5.87273425481e-05,0.480020387819,-0.00908367074315,0.238913120406,-0.00637984783566,0.922437806241,0.384983797125,0.0292449447202
-0.226213097572,-0.1277808249,0.19692851603,-2.4311401844,0.084502749145,2.35625743866,-0.8796210289,0.0471769049764,-0.000154811350512,-0.505225837231,-0.0293265618384,0.48567995429,-9.46892905631e-05,-0.781083106995,-0.00047991212341,0.481634822432,-0.00920249104994,0.246321643805,-0.00506621267381,0.922320408114,0.385151939703,0.0309415786744
-0.226244881749,-0.153080806136,0.195439592004,-2.40569806099,0.0844983160496,2.31555509567,-0.879610478878,0.0471769049764,-0.00221747648902,-0.513682901859,-0.0329074375331,0.529544055462,5.74765908823e-06,-0.842863678932,-0.000223878014367,0.485079481502,-0.00946438188306,0.265572663599,-0.0019585875744,0.922036675564,0.385526832407,0.0348366764491
-0.226300165057,-0.163336545229,0.194776087999,-2.39515781403,0.0844987779856,2.29844331741,-0.879414081573,0.0471769049764,-0.00496874470264,-0.503134667873,-0.0343629717827,0.519424498081,0.000162559794262,-0.873320043087,0.0331538021564,0.486174075343,-0.0095647456937,0.27349861828,-0.000792411756201,0.921970904342,0.38555830423,0.0362466184858
-0.226344183087,-0.169402301311,0.194372624159,-2.38886189461,0.0845002904534,2.28796982765,-0.878872275352,0.0471769049764,-0.00555203715339,-0.505327522755,-0.0307364258915,0.540122151375,5.3693427617e-05,-0.868722081184,0.0487865358591,0.486697791651,-0.00961568857475,0.278199284517,-0.000178259730818,0.92201894494,0.385377173612,0.0369522277612
-0.226716548204,-0.190296709538,0.193020269275,-2.36587285995,0.0844956412911,2.25047564507,-0.876509606838,0.0471769049764,-0.0108697600663,-0.491560608149,-0.0263731125742,0.544883012772,0.000293244462227,-0.924807786942,0.0530271828175,0.488199610376,-0.0097780893725,0.293789287196,0.00177791504513,0.922270775944,0.384543842042,0.0392363108314
-0.227029964328,-0.199480384588,0.192493319511,-2.35522866249,0.0844900086522,2.23303604126,-0.875398159027,0.0471775606275,-0.0206831935793,-0.467655360699,-0.0277096573263,0.563220858574,0.000269844429567,-0.921022772789,0.0747558176517,0.488754419405,-0.00984978553368,0.303317825483,0.002786131078,0.922451108526,0.383996294089,0.0402869167386
-0.227491348982,-0.211066797376,0.191827297211,-2.34134602547,0.0844758674502,2.2097659111,-0.873278558254,0.0471775606275,-0.0204548183829,-0.459383249283,-0.0222658645362,0.539610385895,2.52292556979e-05,-0.930647373199,0.0926916226745,0.488968635554,-0.00989102803638,0.312576321498,0.00355687426895,0.922774920574,0.383141602816,0.0409427219411
-0.228253602982,-0.22857773304,0.190871939063,-2.31910276413,0.0844619050622,2.17231488228,-0.869447350502,0.0471775606275,-0.0240193419158,-0.407586693764,-0.0133024128154,0.545713365078,0.000125768376165,-0.951883256435,0.0868464931846,0.488850470354,-0.00985264443744,0.327264958661,0.00452423554016,0.923373543939,0.381618279622,0.0415730440092
-0.228688672185,-0.235886707902,0.190664276481,-2.30933237076,0.0844314023852,2.15536499023,-0.867782115936,0.0471775606275,-0.0230391602963,-0.407666921616,-0.0101263802499,0.551770746708,-0.00261666858569,-0.921219289303,0.097466416657,0.488510306686,-0.00975013686817,0.333672262995,0.00477171542737,0.923630507887,0.381005501664,0.0414574844553
-0.229539275169,-0.252896130085,0.190090164542,-2.28508019447,0.0834723263979,2.11341834068,-0.862020552158,0.0471769049764,-0.0123759703711,-0.347647666931,-0.0111642358825,0.512574732304,-0.0375205799937,-0.885543763638,0.137888118625,0.487235004899,-0.0094785237839,0.349110085637,0.00542124119611,0.924485998601,0.379010632327,0.0405855738059
-0.229718282819,-0.258801192045,0.189882531762,-2.27595329285,0.0827077403665,2.09780979156,-0.859515368938,0.0471769049764,-0.00682867364958,-0.311333954334,-0.0156452134252,0.496094375849,-0.045563519001,-0.858602464199,0.13778206706,0.486596933895,-0.0093435623595,0.355015918895,0.00574251613154,0.924837518185,0.378209144748,0.0400053868726
-0.229852721095,-0.264593243599,0.189723208547,-2.26689958572,0.0817535817623,2.08175969124,-0.856639921665,0.0471769049764,-0.00342801748775,-0.298669874668,-0.00776453316212,0.465156316757,-0.0477726869285,-0.833224117756,0.152876228094,0.485836805629,-0.00918981366921,0.360202480473,0.00597268549534,0.925201511431,0.377399839166,0.039189939461
-0.229926288128,-0.277089327574,0.189610719681,-2.24592018127,0.078699067235,2.04407572746,-0.849247097969,0.0471769049764,0.00250788545236,-0.234769448638,0.000412544381106,0.390202641487,-0.0872992873192,-0.712851464748,0.153021663427,0.483592992266,-0.00869287895027,0.372437533943,0.00656347808837,0.926108908226,0.375439005913,0.0363972991075
-0.22993645072,-0.279695987701,0.189610660076,-2.24136090279,0.0777715072036,2.03573179245,-0.847351968288,0.0471769049764,-0.0048572155647,-0.196096241474,0.000412494089687,0.360819041729,-0.0754996612668,-0.675247311592,0.161466181278,0.482871796435,-0.00858972015811,0.375635890319,0.00676859439968,0.926404596979,0.374800063592,0.0354065084572
-0.229918003082,-0.283457517624,0.189635336399,-2.23427462578,0.0760897174478,2.02191662788,-0.843963861465,0.0471769049764,0.00694115972146,-0.175893545151,0.003799674334,0.326316803694,-0.099215939641,-0.637088656425,0.16649620235,0.481916051464,-0.00847609245728,0.378845107966,0.00685595477093,0.92678042284,0.374011579426,0.0338582613737
-0.229815647006,-0.286486119032,0.189660310745,-2.22838234901,0.0737540796399,2.01060605049,-0.841105699539,0.0471769049764,0.00141465500928,-0.149930372834,-0.000499137095176,0.287885397673,-0.142595872283,-0.571335077286,0.142819076777,0.480892343275,-0.00849645904926,0.382283833617,0.007427575432,0.927098982429,0.373370524321,0.0320430827685
-0.229795843363,-0.290543228388,0.189700976014,-2.22072052956,0.06836630404,1.99429404736,-0.836481332779,0.0471769049764,7.72416897235e-05,-0.0974634364247,0.0066827130504,0.216301053762,-0.195870533586,-0.474650025368,0.145085826516,0.479378955677,-0.00889779139849,0.385970340892,0.00868294622726,0.927500533966,0.372595089717,0.0289873203364
-0.229755163193,-0.291913419962,0.189731404185,-2.2176117897,0.0650906190276,1.9871083498,-0.834339797497,0.0471775606275,0.00604990078136,-0.0801236853004,0.000129052146804,0.177318617702,-0.208266720176,-0.431166827679,0.135179921985,0.478588704454,-0.00922601693361,0.387401713048,0.00948154381798,0.927655787452,0.372332720979,0.027077387353
-0.229741036892,-0.293018639088,0.189729660749,-2.21512937546,0.0617270693183,1.98065769672,-0.832338809967,0.0471775606275,0.000809063669294,-0.0598895438015,-0.000283435103483,0.128987282515,-0.222090855241,-0.380517035723,0.11755900085,0.477790081476,-0.00962722438645,0.388481822235,0.010281461673,0.927800957355,0.372089095832,0.0250874375658
-0.229724809527,-0.293901950121,0.189743593335,-2.2129445076,0.0571448355913,1.9737290144,-0.830066025257,0.0471775606275,-0.000527256983332,-0.0253015421331,0.000106838568172,0.0897487848997,-0.236862018704,-0.319615960121,0.101584166288,0.476802010623,-0.0102299515404,0.389269716062,0.0113713810918,0.927926078744,0.371916263832,0.0224092940477
-0.229680448771,-0.294226020575,0.189801111817,-2.21127843857,0.0491894930601,1.96482956409,-0.82676678896,0.0471775606275,0.000965199142229,-0.00093081680825,-0.000242169102421,0.0256726592779,-0.294459193945,-0.280322730541,0.126660898328,0.475185916361,-0.0114067914998,0.389347150468,0.0132599530236,0.928037967264,0.37183662151,0.0175280218388
-0.229659512639,-0.294116348028,0.189865723252,-2.21113443375,0.043611895293,1.96002960205,-0.824489295483,0.0471775606275,0.000912768999115,0.0145492590964,0.00667701242492,-0.0036644206848,-0.32605946064,-0.253329664469,0.124136671424,0.474196519244,-0.0122017800599,0.388924756965,0.0144922975914,0.928100963155,0.371766058288,0.0144420597358
-0.229666680098,-0.293748319149,0.189975619316,-2.21133327484,0.038010854274,1.95606553555,-0.822776138783,0.0471775606275,-0.000170621657162,0.0352819077671,0.00580741651356,-0.015963902697,-0.370036661625,-0.243769600987,0.0999022722244,0.473251872122,-0.0130621623814,0.38829020116,0.015854835669,0.928051235775,0.371943673455,0.0112885527024
-0.22965939343,-0.292896270752,0.190155252814,-2.21169567108,0.0308787487447,1.95157909393,-0.821106374264,0.0471775606275,0.000325059576426,0.0545177347958,0.0140136722475,-0.0278617646545,-0.419246345758,-0.251818299294,0.0947714671493,0.472098895463,-0.0142192585724,0.387258164391,0.0177015962218,0.927856494375,0.372449764934,0.00708178093403
-0.229684337974,-0.289558529854,0.190974116325,-2.21381211281,0.00577515829355,1.94085741043,-0.815857768059,0.0471775606275,0.000988052226603,0.0848936289549,0.0254657454789,-0.0607249177992,-0.589880764484,-0.187021687627,0.113188996911,0.469209518006,-0.0180605710657,0.383908275098,0.0246162757877,0.926949665008,0.374345225832,-0.00489990695616
-0.229685738683,-0.287998467684,0.191419675946,-2.21492743492,-0.00538008566946,1.93762147427,-0.813688755035,0.0471775606275,-0.000753426167648,0.0884009897709,0.0225783884525,-0.0672428905964,-0.654682993889,-0.171644419432,0.128452509642,0.46819108085,-0.0197908771034,0.38245899678,0.0280331829451,0.926429897039,0.375295795607,-0.00973919964471
-0.229679390788,-0.286585777998,0.191850155592,-2.21597146988,-0.0164582505822,1.93490958214,-0.811601281166,0.0471775606275,-0.000333569856593,0.0972569584846,0.0316380225122,-0.0665261000395,-0.726082861423,-0.167066693306,0.13085347414,0.467357809943,-0.0214081797277,0.381265737626,0.0313575740428,0.925905476309,0.376193516171,-0.0139351916014
-0.22968763113,-0.279167503119,0.194328084588,-2.21976923943,-0.0714189633727,1.92489802837,-0.80077457428,0.0471775606275,-0.000646176980808,0.113334707916,0.0433651357889,-0.0560154467821,-0.905995488167,-0.12075600028,0.195786967874,0.464158408348,-0.0300516186918,0.375975275284,0.0503194249799,0.922621454944,0.380870852958,-0.0342782641951
-0.229702040553,-0.277202636003,0.195117399096,-2.2207262516,-0.0876362100244,1.9228669405,-0.797242045403,0.0471775606275,4.25360885856e-05,0.112703315914,0.0460275113583,-0.0531442835927,-0.953935742378,-0.107203125954,0.208961799741,0.46350586851,-0.0325599135475,0.374801867575,0.0561819112713,0.921575603754,0.382071255009,-0.0395418157074
-0.229692921042,-0.272153228521,0.197245374322,-2.2231259346,-0.13473290205,1.91857039928,-0.786988079548,0.0471775606275,0.00323885912076,0.107217550278,0.043164562434,-0.05280033499,-1.05908334255,-0.0812006741762,0.244352057576,0.462149935136,-0.0398845355712,0.372266144704,0.0738546901378,0.918210189285,0.385457518246,-0.0534605868504
-0.229676455259,-0.270299434662,0.198070809245,-2.22396564484,-0.153925076127,1.91719448566,-0.782279610634,0.0471775606275,0.001233291463,0.0922918766737,0.0466815903783,-0.0434006489813,-1.08350455761,-0.0809700191021,0.270373791456,0.461739738734,-0.0430404033715,0.37149534741,0.0816782959203,0.916722030444,0.386611816393,-0.0589972709547
-0.229680940509,-0.268935710192,0.198790445924,-2.22466850281,-0.171444877982,1.91601836681,-0.777764379978,0.0471775606275,-0.00204730080441,0.0844230502844,0.043031219393,-0.0453657917678,-1.09116840363,-0.0812911987305,0.294497311115,0.461467749727,-0.0454427962027,0.371118633343,0.0877135811175,0.915588658098,0.387348431329,-0.0629676843854
-0.229703009129,-0.267448246479,0.199645161629,-2.22536611557,-0.191919982433,1.91487503052,-0.77259606123,0.0471775606275,0.00144235999323,0.0857489928603,0.0510127320886,-0.0334590673447,-1.14407479763,-0.0610697902739,0.284903734922,0.461183548191,-0.0491674876922,0.370752511954,0.0972634296257,0.913690945091,0.388545237115,-0.0688569568836
-0.229679733515,-0.264309853315,0.201673686504,-2.22700715065,-0.249866008759,1.91173636913,-0.757709920406,0.0471775606275,3.50575937773e-05,0.049982573837,0.0357726886868,-0.0298139993101,-1.20428442955,-0.0758459195495,0.317986696959,0.46076015182,-0.0579138601676,0.370912096821,0.119939090826,0.908940820764,0.390873852136,-0.0816016558417
-0.229637846351,-0.263516932726,0.202287912369,-2.22743368149,-0.270462423563,1.91053318977,-0.752398848534,0.0471775606275,0.00533398427069,0.0406095460057,0.038164190948,-0.0241927895695,-1.30669414997,-0.0671012178063,0.321990638971,0.46067935713,-0.0611562694901,0.371306645333,0.128458882698,0.907044473424,0.391617768482,-0.0860474390919
-0.229615539312,-0.262891381979,0.20290414989,-2.22787332535,-0.294177174568,1.90927302837,-0.74624556303,0.0471775606275,0.00877827685326,0.0306378994137,0.035327102989,-0.0252158306539,-1.28620111942,-0.0687156245112,0.350935190916,0.46065434224,-0.0649155568714,0.372011557762,0.138389830253,0.904790183199,0.392354053803,-0.0908915585307
-0.229602873325,-0.262200951576,0.204051434994,-2.22842621803,-0.352614223957,1.90528297424,-0.730281174183,0.0471769049764,0.0024635642767,0.00274276267737,0.0240853987634,-0.00734745291993,-1.32361543179,-0.10240650177,0.352198690176,0.460679416199,-0.074290242856,0.374720093811,0.163139058078,0.899041576006,0.393261266821,-0.102251983051
-0.229584380984,-0.262215197086,0.204479038715,-2.22848892212,-0.380984723568,1.90308535099,-0.72308576107,0.0471769049764,-0.000227059761528,0.000462687661638,0.0176914241165,0.00244603701867,-1.33565592766,-0.0970018804073,0.333241075277,0.460764673204,-0.0788449447994,0.376475905473,0.175249916734,0.895941436164,0.393719927314,-0.107522221705
-0.229601547122,-0.262265384197,0.204772025347,-2.22846341133,-0.40250569582,1.90150368214,-0.717813670635,0.0471769049764,-0.000953717913944,-0.00258125504479,0.0159507971257,0.00785381346941,-1.36821711063,-0.1085017398,0.329911202192,0.460902306081,-0.0822950038206,0.377951454649,0.184472094978,0.89346184008,0.394070133047,-0.111376462549
-0.229603081942,-0.262419104576,0.205105215311,-2.22843265533,-0.430078357458,1.89937698841,-0.711177408695,0.0471769049764,0.000267299503321,-0.00747937569395,0.0215456020087,-0.00183462991845,-1.39607739449,-0.0982779935002,0.329905450344,0.461099048827,-0.0866917603714,0.379985212555,0.196298285618,0.890137186927,0.394474488999,-0.116243919053
-0.229606553912,-0.262716561556,0.205572754145,-2.2284321785,-0.47167429328,1.89572477341,-0.700564861298,0.0471769049764,0.000800720823463,-0.00812301784754,0.0160996988416,-0.00234513520263,-1.37511491776,-0.13397705555,0.364531010389,0.46138129855,-0.093282181041,0.383267566626,0.214139041093,0.88497304906,0.394598981154,-0.123526585243
-0.229605868459,-0.262847214937,0.205839112401,-2.22843360901,-0.492611646652,1.8934776783,-0.695157885551,0.0471769049764,0.00205850088969,-0.00761995092034,0.0215925071388,-0.000573613331653,-1.41821503639,-0.158978357911,0.348430067301,0.461483543402,-0.0965703493571,0.384993230987,0.223078603422,0.882258577893,0.39453000056,-0.127286357321
-0.229606479406,-0.263054162264,0.206213787198,-2.22841715813,-0.520771145821,1.89002764225,-0.6882417202,0.0471769049764,-0.00338734150864,-0.00873230025172,0.0152272554114,0.00115989230108,-1.39720189571,-0.174717068672,0.339266717434,0.46158162651,-0.100971055121,0.387428218938,0.235051844102,0.878410987182,0.394460956128,-0.132458755632
-0.229603886604,-0.263211220503,0.206499382854,-2.22841930389,-0.544415473938,1.88695931435,-0.682551324368,0.0471769049764,-0.00327665521763,-0.012129580602,0.0192468240857,0.00144524290226,-1.38571929932,-0.180689379573,0.330594241619,0.461664174248,-0.10465090666,0.389549340496,0.24507361797,0.87504661744,0.394351201713,-0.13681910853
-0.229612380266,-0.263356178999,0.206979736686,-2.22841405869,-0.58603990078,1.88111209869,-0.67268627882,0.0471769049764,0.00066445406992,-0.00654964381829,0.0136077459902,0.000215165462578,-1.38216853142,-0.191281199455,0.32084390521,0.461821931369,-0.111294083361,0.39355660172,0.263198748435,0.868636881692,0.393985606171,-0.144816188266
-0.229599699378,-0.26341766119,0.207200810313,-2.22844290733,-0.609242200851,1.87780678272,-0.667042791843,0.0471769049764,0.00258794892579,-0.00381104112603,0.012320456095,-0.00317166070454,-1.35771334171,-0.198293507099,0.342829465866,0.461932754476,-0.114637348271,0.395685784685,0.27241376107,0.865275092379,0.393635804508,-0.148797212219
-0.229613736272,-0.2634550035,0.207390218973,-2.22842860222,-0.630745947361,1.87454199791,-0.661426961422,0.0471769049764,0.00105098320637,-0.00184010958765,0.00968800392002,-0.00114545039833,-1.34910523891,-0.204965785146,0.353803098202,0.462039258919,-0.117925608801,0.397858717061,0.281490895107,0.86196562989,0.393024841729,-0.152674825396
-0.229600891471,-0.263479977846,0.207599908113,-2.22842764854,-0.656017661095,1.87039935589,-0.654659569263,0.0471769049764,-0.00149355607573,-0.00173419620842,0.0114944428205,0.00262963306159,-1.32266223431,-0.214331954718,0.340416520834,0.462138600882,-0.121761443799,0.400481534913,0.292138069194,0.857998274112,0.392126614068,-0.15726101981
-0.22962243855,-0.263637036085,0.207977458835,-2.22842383385,-0.718338668346,1.86019432545,-0.638623893261,0.0471769049764,0.000350169837475,-0.00522958161309,0.000864646979608,0.00123406818602,-1.19432330132,-0.195206969976,0.319200724363,0.462546738316,-0.131072746518,0.40743717765,0.318372832375,0.847606365517,0.389764942334,-0.168182871095
-0.229633718729,-0.263708144426,0.208048626781,-2.22843813896,-0.740506350994,1.85668671131,-0.632929265499,0.0471769049764,-0.000971372413915,-0.0031018150039,0.00176225416362,-0.0041933581233,-1.20705997944,-0.195665165782,0.313437610865,0.462768240577,-0.134317048202,0.410062498849,0.32770891613,0.843739322178,0.388811491468,-0.17186170679
-0.229630321264,-0.263793468475,0.208099886775,-2.22843599319,-0.760134160519,1.85356771946,-0.627689063549,0.0471769049764,0.00121912383474,-0.00528333242983,0.000755535264034,-0.000188202830032,-1.19111049175,-0.190836817026,0.341621130705,0.462964380132,-0.136798877526,0.412166037941,0.334969245773,0.840704499165,0.38796756513,-0.174621641088
-0.229640781879,-0.263920009136,0.208165019751,-2.22841954231,-0.782656788826,1.84978032112,-0.621113061905,0.0471769049764,-0.000345605978509,-0.00715084932745,0.00315643358044,-0.00385547848418,-1.18309056759,-0.193191125989,0.343045979738,0.463233082589,-0.140370203735,0.415317368499,0.345552817939,0.836331711701,0.386361796242,-0.17851352912
-0.229663386941,-0.264355570078,0.208203881979,-2.22842645645,-0.834737300873,1.84104371071,-0.605558753014,0.0471769049764,-0.000122458164697,-0.0122907115147,0.000428216677392,-0.00172313197982,-1.06244587898,-0.174649938941,0.324148446321,0.463882464031,-0.1476555237,0.422250356573,0.367684584775,0.826926785888,0.382550271011,-0.186159680658
-0.229648470879,-0.264604926109,0.208216875792,-2.22842550278,-0.855425596237,1.8375005722,-0.599075496197,0.0471769049764,0.00199277512729,-0.0146446526051,0.000390679226257,0.000230326186283,-1.0151706934,-0.169538989663,0.313437491655,0.464168952881,-0.150458310874,0.425155109074,0.376517949794,0.823104662252,0.380807795806,-0.188993044232
-0.229643881321,-0.264864802361,0.208230137825,-2.22843575478,-0.872618794441,1.83441960812,-0.593789041042,0.0471769049764,0.00118151737843,-0.0167931225151,0.000949312059674,-0.000994656351395,-1.01692247391,-0.187377080321,0.304863363504,0.464389420148,-0.152763790832,0.42763694067,0.383848482067,0.819851877473,0.379326765442,-0.191349017477
-0.229627087712,-0.265729159117,0.208324477077,-2.22844171524,-0.919757008553,1.82522773743,-0.578265964985,0.0471769049764,0.000384684186429,-0.0197141375393,0.00257027777843,-0.00395753979683,-0.938677430153,-0.185075223446,0.31259393692,0.464925863479,-0.158939618856,0.434749987546,0.404037855312,0.810846966004,0.374505330801,-0.197550920135
-0.229600310326,-0.266690701246,0.20843064785,-2.22842693329,-0.965705633163,1.81576156616,-0.564043998718,0.0471775606275,0.00193899904843,-0.0235600527376,0.00464212661609,0.00149700604379,-0.898990273476,-0.210787728429,0.279057651758,0.46546087631,-0.164718372751,0.442069999123,0.42361033944,0.80149611447,0.369797141293,-0.203490375066
-0.229587942362,-0.267100781202,0.208594083786,-2.22841000557,-0.982715368271,1.81158411503,-0.558971643448,0.0471775606275,0.00109429564327,-0.0246660336852,0.00821068510413,0.000142138334922,-0.88958543539,-0.22556398809,0.258316218853,0.465565334059,-0.166794806526,0.444898239062,0.430829744357,0.797886460323,0.367941736042,-0.205868419948
