imanlab/tactile_prediction_flat_dataset/train/data_sample_2021-11-24-16-04-03/robot_state.csv
position_panda_joint1,position_panda_joint2,position_panda_joint3,position_panda_joint4,position_panda_joint5,position_panda_joint6,position_panda_joint7,position_panda_finger,velocity_panda_joint1,velocity_panda_joint2,velocity_panda_joint3,velocity_panda_joint4,velocity_panda_joint5,velocity_panda_joint6,velocity_panda_joint7,ee_state_position_x,ee_state_position_y,ee_state_position_z,ee_state_orientation_x,ee_state_orientation_y,ee_state_orientation_z,ee_state_orientation_w
-0.169465363026,-0.103176958859,0.12256398797,-2.36326479912,0.0373822487891,2.23714542389,-0.87178426981,0.0721499398351,0.000527673924807,-0.000437572918599,0.000180183225893,0.000115704984637,7.07609506208e-05,0.00205395743251,0.000101106990769,0.48087858009,-0.0194717457786,0.253944409843,-0.0126276556357,0.920842262976,0.389669816087,-0.00689225239907
-0.169460654259,-0.103187799454,0.12256962806,-2.36325836182,0.0373827815056,2.23717069626,-0.871785402298,0.0721499398351,0.000198133697268,0.00187873060349,0.00110657152254,0.000606196350418,2.36763662542e-05,0.000290304655209,-4.98624976899e-05,0.480887776758,-0.0194674308479,0.2539544181,-0.0126175086949,0.920840333311,0.389675033313,-0.00687365389159
-0.169456705451,-0.103192210197,0.122570022941,-2.36325740814,0.0373823046684,2.23719596863,-0.871785521507,0.0721499398351,0.000293138669804,-0.000262530345935,8.54412792251e-05,8.94807526493e-05,-0.000109910026367,0.00271883769892,-0.000574973004404,0.480894598738,-0.0194659543813,0.253959344652,-0.0126096182718,0.920839586323,0.389677307663,-0.0068592537567
-0.169456228614,-0.103194646537,0.122569158673,-2.36325907707,0.0373819470406,2.23721623421,-0.871786534786,0.0721499398351,-0.00031096560997,0.000173098422238,0.0001183809145,-0.000528312986717,-9.12627292564e-05,0.00240779551677,0.000195915723452,0.480899905039,-0.0194672908536,0.253959738557,-0.0126033089259,0.920839773119,0.389677288107,-0.00684687239577
-0.16946618259,-0.103191770613,0.122566536069,-2.36326241493,0.0373820774257,2.23728370667,-0.871787011623,0.0721499398351,0.000245729781454,-0.000810899306089,0.000560417422093,0.000164852957823,-6.3426203269e-05,0.000326717825374,0.000169786435436,0.480910801511,-0.0194737255374,0.253963585372,-0.0125920095654,0.920842493777,0.389671621848,-0.00682420384735
-0.169464215636,-0.103188462555,0.12256693095,-2.36326146126,0.0373822450638,2.23730778694,-0.871788859367,0.0721499398351,-0.000122804951388,-0.00111447426025,-0.00278863497078,-0.000547181407455,0.00257224170491,0.00262600532733,6.56103802612e-05,0.480916763303,-0.019472578056,0.25396503139,-0.0125864730692,0.920841769851,0.3896737053,-0.00681312501799
-0.169465005398,-0.103187009692,0.122565023601,-2.36326146126,0.0373824127018,2.23731970787,-0.871788144112,0.0721499398351,-2.29189918173e-05,0.000787951867096,-0.00081997376401,3.53778777935e-05,0.00033690300188,0.000354502320988,0.000294199620839,0.480919136239,-0.0194742266034,0.253965068793,-0.0125846675011,0.920842531775,0.389672037386,-0.00680887501965
-0.169458344579,-0.103185839951,0.122570082545,-2.36326384544,0.0373823344707,2.23734974861,-0.871791303158,0.0721492767334,2.66712449957e-05,0.00089308799943,-0.00031184515683,0.000860115105752,1.68833230418e-05,0.000214050640352,0.000137496070238,0.480924927369,-0.0194691183772,0.253965936825,-0.0125784021342,0.920839833948,0.389678817527,-0.00679726913617
-0.169457480311,-0.10319045186,0.122571952641,-2.36326241493,0.0373825654387,2.23735928535,-0.871791243553,0.0721492767334,-0.000302391999867,-0.000634380965494,-0.000163036878803,-0.00014083654969,6.2336861447e-05,0.00027345426497,-0.000161318152095,0.480928014936,-0.0194680400413,0.25396953374,-0.0125746728647,0.920839432236,0.389680005791,-0.00679046460514
-0.16946002841,-0.103192701936,0.122569315135,-2.3632619381,0.0373819060624,2.23737573624,-0.871791303158,0.0721492767334,-0.000105406172224,-0.000473591993796,-8.98830912774e-05,0.000235487445025,-9.83913050732e-05,5.50455442863e-05,0.000281573040411,0.480931904057,-0.0194709011413,0.253972191469,-0.012570129908,0.920840473616,0.389677839192,-0.00678198420122
-0.169465169311,-0.103190630674,0.122565694153,-2.36326098442,0.0373823568225,2.23740243912,-0.871792316437,0.0721492767334,0.000155163375894,-0.000370446330635,0.000438721006503,-0.000177965310286,4.39041396021e-05,0.00274433405139,4.41697229689e-05,0.480937848128,-0.0194754656847,0.253973849826,-0.0125647654037,0.920842209995,0.389674112286,-0.00677029226945
-0.169465854764,-0.103182427585,0.122566871345,-2.36326336861,0.0373819544911,2.23741650581,-0.871792376041,0.0721492767334,0.000241048270254,-0.000395018811105,0.000385567604098,0.000509914534632,-0.00441317353398,4.95616477565e-05,-6.03933804086e-05,0.480939096234,-0.019475624657,0.253969920659,-0.012564398567,0.920842258416,0.389674031764,-0.00676902167582
-0.169460937381,-0.103183344007,0.122566789389,-2.36326527596,0.0373822711408,2.23742794991,-0.871793270111,0.0721492767334,-0.000151816988364,-0.0012977195438,0.000174924745806,0.000420203898102,0.000416138616856,0.000265077746008,-0.000274093297776,0.480941279847,-0.019473205618,0.253970625507,-0.0125617748738,0.920841118729,0.389676896686,-0.00676400333318
-0.169463708997,-0.103182412684,0.122567899525,-2.36326336861,0.0373820401728,2.23744153976,-0.871793985367,0.0721492767334,2.12261802517e-05,-0.00180368800648,-0.000108551634185,7.30273022782e-05,6.99740048731e-05,1.09993561637e-05,-0.000166521291249,0.480944931759,-0.0194742895074,0.253972122126,-0.0125584066973,0.92084137045,0.38967652256,-0.00675753927624
-0.169463515282,-0.103185817599,0.122565798461,-2.36326503754,0.037382081151,2.23745894432,-0.871794402599,0.0721492767334,1.54693389049e-05,0.00167231122032,-0.000219213427044,-0.00061602354981,-4.55349181721e-05,-1.94693184312e-05,-0.000123678895761,0.480948328106,-0.0194754998927,0.253974482361,-0.0125540107806,0.920841796642,0.389675804619,-0.0067490256978
-0.169456258416,-0.103193379939,0.122572503984,-2.36326241493,0.0373820327222,2.23748350143,-0.871795535088,0.0721492767334,4.55225490441e-05,0.000452453823527,-5.42213865629e-06,0.000140665564686,1.95995071408e-05,0.00105549290311,-0.00025921172346,0.480955642812,-0.0194694176567,0.25398121537,-0.0125454763338,0.920839068134,0.38968278712,-0.00673399779836
-0.169455960393,-0.103196837008,0.122571729124,-2.36326050758,0.0373818390071,2.23750090599,-0.871794044971,0.0721492767334,-4.57482601632e-05,-0.000499590067193,-0.000441944372142,0.000205183881917,4.07172738051e-05,6.46864864393e-05,-0.000494503299706,0.480960503123,-0.0194700311158,0.253985135158,-0.0125401416541,0.920839565659,0.389681956661,-0.00672394974102
-0.169469550252,-0.103190913796,0.122562400997,-2.36326384544,0.0373821109533,2.23753905296,-0.871795535088,0.0721492767334,-0.000113899171993,-0.0026245098561,-0.000406047620345,0.000112116635137,5.47460949747e-05,0.00285667809658,-0.000328046095092,0.480967213971,-0.0194816012666,0.253984082575,-0.0125339775352,0.920844012193,0.38967189667,-0.0067094890114
-0.169459357858,-0.103179357946,0.122570157051,-2.36326384544,0.037382401526,2.23757982254,-0.871799111366,0.0721499398351,0.000156909169164,0.000517956272233,-0.000627079338301,5.47375020687e-05,7.43836862966e-05,-2.22900853259e-05,-0.000271965836873,0.480975099939,-0.0194734089565,0.253981900398,-0.0125279560799,0.92084008008,0.389681589232,-0.00669745698181
-0.169461265206,-0.103185072541,0.122569270432,-2.36326336861,0.0373822525144,2.23758840561,-0.871797800064,0.0721499398351,-0.000158321010531,-0.000746474193875,-0.000145069570863,-7.36823203624e-05,9.18027508305e-05,0.000707962433808,0.000274850055575,0.480977573279,-0.0194749902706,0.253985550737,-0.012524354147,0.920840945828,0.389679770022,-0.0066910056868
-0.169462010264,-0.103190883994,0.122568361461,-2.36326241493,0.0373827777803,2.23759555817,-0.871798813343,0.0721499398351,-0.000321006344166,-0.00119238882326,1.28346518977e-05,-0.000521917885635,-8.48316558404e-05,9.22250455915e-06,0.000169208928128,0.480979972348,-0.0194761810426,0.253989543178,-0.0125209281685,0.920841341393,0.389679058848,-0.00668439346432
-0.169461533427,-0.103192083538,0.122566588223,-2.36326241493,0.0373830273747,2.23761296272,-0.871799647808,0.0721499398351,0.000206173601327,0.0004463212681,3.47774148395e-05,-0.000385943742003,-5.92084652453e-05,0.000303328037262,-0.000112004352559,0.480983865941,-0.019476816276,0.253991362733,-0.012517082341,0.920841450937,0.389679059769,-0.00667644704886
-0.169461384416,-0.10319133848,0.122567810118,-2.36326408386,0.0373836457729,2.23761630058,-0.871799468994,0.0721499398351,-6.83083853801e-05,-3.95837487304e-05,0.000241269328399,0.000180311515578,-9.56253425102e-05,1.37539364005e-05,-0.000118763833598,0.48098390976,-0.019476734354,0.253990376183,-0.0125170114513,0.920841343586,0.389679331009,-0.00667555492883
-0.169464573264,-0.103188507259,0.122567079961,-2.36326408386,0.0373829193413,2.23762440681,-0.871798396111,0.0721499398351,-0.00044548950973,-0.000563896552194,-1.51570091589e-07,-0.000107345345896,-9.95376467472e-05,-7.23022603779e-05,1.96907130885e-05,0.480985387495,-0.0194781849194,0.253989880257,-0.0125157549575,0.920842241082,0.389677283454,-0.00667363157056
-0.169463843107,-0.10318800807,0.122566334903,-2.36326503754,0.0373831987381,2.23762726784,-0.871802031994,0.0721499398351,-6.84249971528e-05,0.000181933486601,-4.81186107208e-05,0.00084751151735,-0.000100868375739,-4.47558304586e-05,-0.000243152098847,0.480985936265,-0.0194783140323,0.253989818112,-0.0125153036381,0.920841546406,0.389678959048,-0.00667249166091
-0.169460728765,-0.103189677,0.122570447624,-2.36326265335,0.0373826883733,2.237637043,-0.871802568436,0.0721499398351,3.3645577787e-05,-0.000128515908727,0.00033243157668,0.000156452559168,0.0001845107181,-4.81729075545e-05,-0.000701512151863,0.480988970683,-0.0194750298199,0.253992081319,-0.0125120238815,0.920840095197,0.389682587335,-0.00666701922823
-0.1694624722,-0.103183694184,0.122567117214,-2.36326169968,0.0373823530972,2.23765444756,-0.871803820133,0.0720842704177,-0.00202245637774,0.000685433566105,-0.000452734937426,-0.000464034354081,7.14192356099e-05,-8.90268984222e-06,-0.000148781298776,0.480992625698,-0.0194777052028,0.253991099812,-0.0125095275497,0.92084089033,0.389680886641,-0.00666128260123
-0.169468134642,-0.103182442486,0.122566156089,-2.36326384544,0.0373832471669,2.23765802383,-0.871802926064,0.0720842704177,-0.000541193410754,0.00348479300737,8.52852899698e-05,-5.46919145563e-05,-1.82802170912e-06,2.8892978662e-05,-0.000946124200709,0.480992334446,-0.0194807911463,0.253989880428,-0.0125098894587,0.920842477069,0.389677130869,-0.00666096478041
-0.169468015432,-0.103185243905,0.122564300895,-2.36326575279,0.0373825207353,2.23766589165,-0.871803700924,0.0720842704177,-0.000486892065965,-0.00405159778893,0.000141333570355,0.0001113531398,-8.00291963969e-05,2.65197577392e-05,-0.000168258949998,0.48099348305,-0.019481837521,0.253991057134,-0.0125075963094,0.920842639081,0.389676885964,-0.00665720006803
-0.169459164143,-0.103188373148,0.12256962806,-2.36326122284,0.0373853743076,2.23770952225,-0.871809780598,0.0720842704177,-1.18407460832e-05,-7.20017487765e-05,-0.000226437477977,-8.74055185704e-05,-1.96737091755e-05,-4.33219356637e-05,0.000130979111418,0.481005450823,-0.0194755886472,0.253998093875,-0.0124965988908,0.920839362037,0.389685376452,-0.00663410897388
-0.169461786747,-0.103182293475,0.122570388019,-2.36326289177,0.0373832993209,2.23772382736,-0.871812343597,0.0720842704177,-0.000357088574674,3.65602063539e-05,9.75248985924e-05,-0.000366688531358,-3.30227862833e-06,0.00165987014771,0.000331858056597,0.481007404192,-0.0194768767919,0.25399564809,-0.0124946113801,0.920839049867,0.389686223885,-0.00663140427778
-0.169463917613,-0.10317953676,0.122565321624,-2.3632671833,0.0373848453164,2.23774194717,-0.871813774109,0.0720842704177,-0.00032370298868,-0.00111285073217,0.00242826086469,6.55444600852e-05,3.92693873437e-05,0.00143091066275,0.000247732095886,0.481009533712,-0.0194807690601,0.253994413607,-0.0124926029533,0.920840699903,0.389682492237,-0.00662534521704
-0.16946323216,-0.103199876845,0.122567936778,-2.36326122284,0.0373844578862,2.23780632019,-0.871815979481,0.0720842704177,-3.41107370332e-05,-0.000219454770559,0.00049599079648,-1.56927853823e-05,-5.59141735721e-05,0.000122141835163,9.87960902421e-06,0.481027555505,-0.0194802564133,0.254011619693,-0.0124713094202,0.920839882232,0.389685770215,-0.00658619053595
-0.169463500381,-0.103175900877,0.122567132115,-2.36326622963,0.0373855307698,2.23792600632,-0.87182366848,0.0695344358683,-0.000150409483467,4.88121295348e-05,-0.000353158073267,-0.00010841438052,0.000124189871713,-2.64425179921e-05,-0.00037422706373,0.481050035707,-0.0194822962228,0.254007943777,-0.0124521181616,0.920839435189,0.389688134858,-0.0065449664872
-0.169467821717,-0.103188052773,0.122564867139,-2.36326146126,0.0373863875866,2.23794436455,-0.871826529503,0.0695344358683,0.000160949362908,0.00231945654377,-0.000262140936684,0.000654365576338,0.000211299455259,-0.000153865665197,0.000130874366732,0.481056823,-0.0194858810042,0.254017342586,-0.0124440664753,0.920840442934,0.389686274304,-0.00652925472668
-0.169464990497,-0.103196211159,0.122564829886,-2.36325955391,0.0373888537288,2.23795843124,-0.871831893921,0.0695344358683,9.34455383685e-05,-0.000740473857149,-7.50268227421e-05,-0.000283187284367,5.1124701713e-05,-0.000200877024326,0.000175128516275,0.481061398029,-0.0194846225272,0.254023232855,-0.0124391266779,0.920839281062,0.389689361804,-0.0065182482382
-0.169457450509,-0.103193759918,0.122571952641,-2.363260746,0.0373884998262,2.23797702789,-0.871833622456,0.0695344358683,0.000631367671303,0.000727391452529,0.000783201481681,-0.00043024570914,-7.53554122639e-05,0.000435688125435,-2.28586523008e-05,0.481065097592,-0.0194779546184,0.254023044381,-0.0124353488798,0.920836172265,0.38969693497,-0.00651187406746
-0.169456258416,-0.103183433414,0.122572481632,-2.36326336861,0.0373878777027,2.23799610138,-0.871836423874,0.0695344358683,-0.000324711669236,0.000687071180437,-0.00171002652496,0.000238156775595,-0.00013435089204,0.000714079244062,-0.000112953748612,0.481067470095,-0.019477357852,0.254018559435,-0.0124341347403,0.920835301542,0.3896990788,-0.00650902386035
-0.16946311295,-0.103184387088,0.122569687665,-2.3632645607,0.0373889766634,2.23800206184,-0.871836543083,0.0695344358683,-0.000172770553036,-8.16908941488e-05,-0.000508982746396,-0.000348080036929,1.6319399947e-05,0.0019706049934,-0.000469906284707,0.481068204161,-0.019481939311,0.254019014564,-0.0124333172928,0.92083732861,0.38969436259,-0.00650617460338
-0.169464468956,-0.103186808527,0.122566252947,-2.36326503754,0.0373868197203,2.23800683022,-0.871838212013,0.0695344358683,0.00256685703062,-0.000216492218897,-3.62824794138e-05,-0.000291903823381,-4.2091254727e-05,8.59024439706e-05,-0.00018516361888,0.481069145329,-0.0194845678376,0.254020378231,-0.0124311041625,0.920837716293,0.389693561964,-0.00650348728021
-0.16946414113,-0.103194288909,0.122565716505,-2.363260746,0.0373885445297,2.23801589012,-0.871839702129,0.0695344358683,-0.000359192112228,-0.000272199395113,-0.000172995438334,0.000144409874338,-6.719398516e-05,0.000117106035759,0.000108046078822,0.481073671052,-0.0194849284098,0.254026816497,-0.0124264709067,0.920837827518,0.389693611142,-0.00649363913936
-0.16946297884,-0.103195555508,0.122566521168,-2.36325860023,0.0373879931867,2.23803091049,-0.871841371059,0.061876386404,-0.000295630976325,0.000726533413399,2.22447379201e-05,0.000119030111819,-6.99861921021e-05,-2.19329449465e-05,-1.47313596699e-06,0.481077759365,-0.0194842032512,0.254029331595,-0.0124222839381,0.920837107678,0.389695573255,-0.00648597352559
-0.169461205602,-0.103179171681,0.122567728162,-2.36326408386,0.0373880751431,2.23805165291,-0.871843039989,0.061876386404,-4.61763811472e-05,0.000188495701877,8.54121171869e-05,-0.00038283932372,-3.67257671314e-05,-0.000377309595933,0.00036547894706,0.481078882181,-0.0194830520059,0.25402074926,-0.0124231876351,0.920836364429,0.389697296394,-0.00648623311286
-0.169461205602,-0.103183612227,0.122568175197,-2.36326313019,0.0373877733946,2.23806476593,-0.871848106384,0.061876386404,0.000217027714825,-0.000355370051693,-0.000316944060614,-1.16635665108e-05,0.000130520711537,5.68393552385e-05,-0.000397880066885,0.481082531517,-0.0194829554895,0.254024471401,-0.0124186603902,0.920835279933,0.389700139799,-0.00647802653016
-0.169461011887,-0.103192336857,0.122570209205,-2.36326050758,0.0373888239264,2.23809170723,-0.871856451035,0.0588695108891,0.000370408233721,-0.00086673576152,0.000178068745299,-0.000249756878475,-0.000194671694771,-0.000295931531582,-0.000250159238931,0.481090393787,-0.0194822380753,0.254032245117,-0.012409629849,0.920833390738,0.389705180139,-0.00646063800415
-0.169461756945,-0.103192135692,0.122567310929,-2.36325860023,0.037389498204,2.23809814453,-0.871857404709,0.0588695108891,-0.000310596165946,-0.000333832023898,0.00219905818813,0.000125726117403,1.97242152353e-05,-7.13770932634e-05,-0.000376648560632,0.481092354953,-0.0194841710922,0.254033274991,-0.0124084727652,0.920834217503,0.389703321403,-0.00645713929647
-0.169464349747,-0.103188954294,0.122565507889,-2.3632645607,0.0373894833028,2.23810172081,-0.871860384941,0.0588695108891,0.000339716672897,-0.000342220941093,9.01668590814e-06,-0.000110303451947,-0.000583607063163,-6.90038868925e-05,0.000477711786516,0.481090542799,-0.0194861051932,0.254029737153,-0.0124098281257,0.920834522598,0.389702522864,-0.00645921927917
-0.169458955526,-0.103187821805,0.122570753098,-2.36326432228,0.0373891666532,2.2381131649,-0.871862769127,0.0588695108891,0.000195092099602,-0.000646291708108,0.000260931614321,-0.000116757728392,4.59959337604e-05,-0.000132204615511,-0.00052078574663,0.481093144369,-0.0194813637697,0.254029968834,-0.0124071969129,0.920831999805,0.389708637614,-0.0064550019658
-0.169457763433,-0.103187441826,0.122567795217,-2.36326360703,0.0373883135617,2.23811769485,-0.871864497662,0.0588695108891,-0.000147229715367,-4.33279710705e-05,-0.000250020966632,-1.17702265925e-05,-0.00288016838022,2.80336444121e-05,0.000149802552187,0.481094362685,-0.0194823641499,0.254030489295,-0.0124059585296,0.920831930516,0.389708876114,-0.00645286719046
-0.169463604689,-0.103189371526,0.122568845749,-2.36326289177,0.0373890809715,2.23811984062,-0.871866285801,0.0588695108891,0.00013287011825,-0.000364269013517,-1.04713572e-05,-0.00041675864486,-3.53776631528e-05,-6.13677984802e-05,0.000304759305436,0.481095184294,-0.0194846622254,0.254031892291,-0.0124050385329,0.920832632457,0.389707283815,-0.00645063130719
-0.16946028173,-0.103189565241,0.1225675717,-2.36326146126,0.0373891629279,2.23812365532,-0.87186819315,0.0588695108891,0.000250830693403,-0.00054800696671,0.000178082118509,0.000286467431579,7.7637372442e-07,-4.47944767075e-05,0.000308341463096,0.481096656545,-0.0194837407437,0.254032927152,-0.0124038935059,0.920831897662,0.389709097433,-0.0064481574451
-0.169462352991,-0.103188507259,0.122566238046,-2.36326217651,0.0373890176415,2.23813772202,-0.871867597103,0.0588695108891,-0.000524753588252,3.59368277714e-05,-0.000110216649773,0.000440609641373,0.000141593365697,0.000273413199466,-3.58222496288e-05,0.481099320143,-0.0194855983597,0.254033288741,-0.012401155585,0.920832748492,0.389707265569,-0.00644263070744
-0.16946208477,-0.103187859058,0.12256680429,-2.36325335503,0.0373896621168,2.23815584183,-0.871870517731,0.0588695108891,0.00113101513125,-0.000225411436986,0.000380812649382,0.000222386268433,-5.53142563149e-05,-0.000520258850884,-0.000115158705739,0.481107271578,-0.0194859611139,0.254038769716,-0.0123951529052,0.92083235424,0.389708596833,-0.00642999264758
-0.169466435909,-0.103185415268,0.122565701604,-2.36325883865,0.0373890325427,2.2381632328,-0.871872127056,0.0588695108891,-0.000149952917127,0.000501810980495,0.000113708432764,-0.000651657930575,4.96774191561e-05,-8.3688973973e-05,1.70865496329e-05,0.481105854643,-0.0194882989302,0.254035161714,-0.0123955695064,0.920832958661,0.389707138363,-0.00643102565532
-0.169462621212,-0.103180803359,0.122569479048,-2.36326861382,0.037388715893,2.23816633224,-0.871872901917,0.0588695108891,-3.38490062859e-05,-0.00224169599824,7.97771208454e-05,0.000128290295834,-1.94943513634e-05,-0.000118918091175,-9.95751252049e-05,0.481102488951,-0.0194845363267,0.254029184266,-0.0123978921765,0.920831260502,0.389710992261,-0.00643615908817
-0.169457316399,-0.103185139596,0.122570067644,-2.36326241493,0.0373885780573,2.2381708622,-0.871877074242,0.0588695108891,0.000129912208649,-0.00054790469585,-0.000208292607567,0.000161710937391,6.38750570943e-05,7.6516502304e-05,-0.000128996776766,0.481106426019,-0.0194819432027,0.25403430274,-0.0123942726138,0.920829339293,0.389715755594,-0.00642957440914
-0.169459939003,-0.103190556169,0.122570671141,-2.36326551437,0.0373892784119,2.23817491531,-0.871878027916,0.0588695108891,0.000299698236631,4.57122769149e-05,-0.000281308253761,-0.000676817202475,0.000310476112645,0.00010648262105,-0.00020842050435,0.481106461665,-0.0194829379709,0.254035885009,-0.0123927893987,0.920829678671,0.389715047271,-0.00642676147013
-0.169464245439,-0.103196501732,0.122564017773,-2.3632619381,0.0373891554773,2.2381772995,-0.871879816055,0.0588695108891,0.0003537167795,-0.000814792409074,0.000115626302431,0.000451537402114,0.000447638973128,2.08153724088e-05,-0.000218180037336,0.4811086807,-0.0194883236337,0.254040507987,-0.0123901565212,0.920831485461,0.389710951137,-0.00642134338415
-0.169461593032,-0.103189207613,0.122568011284,-2.36326384544,0.0373890399933,2.23818469048,-0.87188398838,0.0531440339983,0.000618291203864,0.000540665059816,0.000466694822535,-0.000170508254087,-7.02445759089e-05,-9.12684918148e-05,0.00027843657881,0.481109097958,-0.0194851851516,0.254036789336,-0.012390637186,0.920829387711,0.38971587958,-0.00642212758464
-0.169460684061,-0.103179872036,0.122569330037,-2.363260746,0.0373897626996,2.23820018768,-0.871886610985,0.0531440339983,-0.000332499941578,-0.00010998826474,-0.000149711457198,0.000835450773593,-3.43439169228e-05,-0.000329021073412,-0.0005301971687,0.481113077045,-0.0194842254946,0.254034948743,-0.0123891601013,0.920828600455,0.389717860165,-0.00641766670408
-0.169463768601,-0.103182248771,0.122569285333,-2.3632569313,0.0373894162476,2.23821163177,-0.871886670589,0.0531440339983,-0.00390633102506,0.000326453358866,-0.000566434231587,-7.34806817491e-05,4.77729990962e-05,0.000138474613777,-0.00202096905559,0.481117250734,-0.0194860505309,0.254038679939,-0.012384985731,0.92082924901,0.38971658842,-0.00640988992907
-0.169462323189,-0.103189021349,0.122566491365,-2.3632581234,0.0373888500035,2.23822283745,-0.871891379356,0.0531440339983,-0.000339449179592,-0.000304950692225,-0.000349630514393,9.06769491849e-05,-2.99711537082e-05,-2.76275704891e-06,0.00036114253453,0.481119740703,-0.0194870016263,0.254042346146,-0.0123808159156,0.920828625554,0.389718314365,-0.0064025688779
-0.169462770224,-0.103189125657,0.122566610575,-2.36326169968,0.037388663739,2.23822593689,-0.871891498566,0.0531440339983,-0.000128518557176,0.000330558104906,-5.8223024098e-05,5.25766845385e-05,-6.2432132836e-05,-0.000176705274498,5.45681650692e-05,0.48111898759,-0.0194871879671,0.254041108198,-0.0123807897881,0.920828661954,0.389718225576,-0.00640278872851
-0.169463992119,-0.103187412024,0.122566767037,-2.3632671833,0.0373893268406,2.23822712898,-0.871891915798,0.0531440339983,1.150492335e-05,0.000106576699181,0.000242143709329,0.000116413189971,2.73080240731e-06,0.0018685447285,-0.000285319722025,0.481116686012,-0.0194872141772,0.254038564015,-0.012382063526,0.920828401338,0.389718765951,-0.00640491520938
-0.169460311532,-0.103192292154,0.122568897903,-2.36325573921,0.0373894013464,2.23824834824,-0.871898651123,0.0531440339983,-0.000231378478929,-3.26292101818e-05,-0.000348130241036,-0.000157784568728,-5.70017946302e-05,-0.000262943154667,-7.5058589573e-05,0.481126659109,-0.019485348926,0.254047040599,-0.0123737205117,0.920826606889,0.389723536848,-0.00638870840797
-0.169462367892,-0.103188768029,0.122567757964,-2.36326575279,0.0373885519803,2.23824954033,-0.871900618076,0.0531440339983,-2.39236778725e-05,0.000579674553592,6.67390995659e-05,-0.000482270843349,4.90377642564e-05,-0.000205785603612,-0.0015619865153,0.481122559362,-0.0194868109411,0.254041139367,-0.0123763391604,0.920826726169,0.389723080869,-0.00639425693022
-0.169464245439,-0.103184036911,0.122566498816,-2.36326670647,0.037388432771,2.23825263977,-0.871899962425,0.0524801425636,-0.000155194400577,1.44168870975e-05,0.000137165305205,-0.000239015382249,-7.23726407159e-05,1.57560898515e-05,-0.0005920669646,0.48112243072,-0.019488297683,0.254038733551,-0.0123771389029,0.920827449114,0.389721330719,-0.00639526820305
-0.169465169311,-0.103184640408,0.122567504644,-2.36326003075,0.0373900309205,2.2382581234,-0.871903896332,0.0524801425636,0.000172774220118,-0.000129340289277,0.000184676042409,0.000119261960208,-7.9666475358e-05,8.03487491794e-05,-0.000423922349,0.481126379369,-0.0194882745214,0.254042355548,-0.0123748097871,0.920826905713,0.389722786684,-0.00638928938757
-0.169458448887,-0.103186517954,0.122570112348,-2.3632645607,0.0373899154365,2.23826265335,-0.871904492378,0.0524801425636,-0.000183722571819,-0.000427689199569,0.000215764826862,9.87112653092e-05,6.74664624967e-05,3.63795043086e-05,0.000374430645024,0.48112588155,-0.0194838681957,0.254041655652,-0.0123740744571,0.920824996239,0.389727331832,-0.00638866878881
-0.169458985329,-0.103188320994,0.122569806874,-2.36326122284,0.037388253957,2.2382683754,-0.871908009052,0.0524801425636,-0.000261134118773,-0.00078495638445,0.000159945877385,0.000312438176479,-8.58116909512e-05,7.23884004401e-05,0.000117586372653,0.48112882339,-0.0194848535209,0.254044931442,-0.0123707449482,0.920824474159,0.389728753497,-0.00638363837598
-0.169459402561,-0.103192977607,0.122569531202,-2.36325764656,0.0373892970383,2.23827004433,-0.87190926075,0.0524801425636,-5.09097226313e-05,0.000466947938548,0.000240924360696,-0.000267777708359,-0.000106554914964,-0.000126097598695,-4.25168109359e-05,0.481130301463,-0.0194852488184,0.254048308682,-0.0123689812861,0.920824529326,0.389728736785,-0.0063801175048
-0.169463723898,-0.103188492358,0.122565813363,-2.36326408386,0.0373889245093,2.238270998,-0.871908485889,0.0524801425636,-0.000311581970891,0.000530596764293,-0.00036492140498,-0.000350044370862,1.42815279105e-05,0.000141520053148,-0.000231963014812,0.481127812112,-0.019488961598,0.254043369999,-0.0123714979533,0.920826073974,0.389724945049,-0.00638391864716
-0.169461011887,-0.103184625506,0.122568979859,-2.36326289177,0.0373901501298,2.23827886581,-0.871913015842,0.0524801425636,-6.66855048621e-05,-3.68853288819e-05,-0.000112235364213,3.34850810759e-05,0.000126680999529,2.49485110544e-05,0.000270869670203,0.481129907181,-0.0194858814151,0.254042825992,-0.0123707113143,0.92082418551,0.389729474129,-0.00638134463017
-0.16945913434,-0.103185527027,0.12257014215,-2.3632645607,0.0373881831765,2.23828053474,-0.871914446354,0.0524801425636,-1.01593441286e-05,0.000737306778319,0.000201361704967,0.00021452755027,7.15325950296e-05,-4.64448130515e-05,-5.06127398694e-05,0.481129861778,-0.0194848202011,0.254043102836,-0.0123695292138,0.920823254323,0.389731718633,-0.00638092618808
-0.169463396072,-0.103192664683,0.12256912142,-2.36326360703,0.0373887605965,2.23828458786,-0.87191683054,0.0524801425636,4.76718596474e-05,-0.00018764277047,-0.000400736607844,1.05308545244e-05,-7.21312608221e-05,0.000112433146569,4.3449079385e-05,0.481131450531,-0.019487319864,0.254046827581,-0.0123669282042,0.920823785218,0.389730628375,-0.00637594318781
-0.169463485479,-0.103191375732,0.122567944229,-2.36326098442,0.0373885445297,2.23828983307,-0.87191927433,0.0524801425636,-8.04074807093e-05,0.000696799426805,0.00347565975972,-9.51504334807e-05,3.01227937598e-05,-0.000208223340451,-4.81252136524e-05,0.481133533793,-0.0194880504535,0.254047786857,-0.0123655044216,0.920823561002,0.389731252266,-0.00637295017051
-0.16946130991,-0.103186443448,0.122567296028,-2.36326313019,0.0373895019293,2.23829221725,-0.871920228004,0.0524801425636,0.000538022024557,0.00078360713087,0.000166099605849,-2.96463240375e-05,-2.82845612674e-05,0.00016632466577,-4.90998609166e-05,0.481132799662,-0.0194875286712,0.254044781074,-0.0123672006091,0.920823370116,0.389731620324,-0.00637473130775
-0.169464036822,-0.103179231286,0.122566007078,-2.36326360703,0.0373888425529,2.23829364777,-0.871920049191,0.0524801425636,-0.00044339321903,-0.00107350142207,-0.000492347811814,0.000153685250552,-2.26082261179e-06,3.65572523151e-05,0.000110468710773,0.481132332845,-0.0194890600014,0.254041184931,-0.0123686796728,0.920823899777,0.389730277978,-0.00637741894094
-0.169463127851,-0.103190012276,0.122569359839,-2.36326169968,0.037389125675,2.23830223083,-0.871924638748,0.0524466522038,0.000704358331859,0.000354056857759,-0.000357728044037,0.000791133730672,-0.000139584313729,6.25223983661e-05,-5.83723135605e-07,0.481135908756,-0.0194873281357,0.25404784832,-0.0123633636635,0.920822319441,0.389734330613,-0.00636824014154
-0.169461429119,-0.103198342025,0.1225675717,-2.36325550079,0.0373895950615,2.23830318451,-0.871924936771,0.0524466522038,6.78040451021e-05,-0.000517427688465,-0.000292157550575,-4.84184929519e-05,0.000102023273939,-4.59646544186e-05,-0.000474659143947,0.481139260604,-0.0194875090944,0.254054593757,-0.012359799975,0.920822379553,0.389734413616,-0.00636138231807
-0.169463053346,-0.103196695447,0.122568309307,-2.36326146126,0.0373890921474,2.23830652237,-0.871926784515,0.0524466522038,-0.000448498147307,-0.00111477065366,0.00035145090078,-0.00040156202158,-2.30530008594e-06,4.28041821579e-05,-8.77545317053e-05,0.481137452114,-0.0194879561565,0.254051505609,-0.0123605785794,0.920822143074,0.389734915274,-0.00636336543187
-0.169461339712,-0.103184133768,0.122567757964,-2.3632645607,0.0373886078596,2.23830676079,-0.871930122375,0.0524466522038,4.41089105152e-05,0.000597546459176,-4.39135146735e-05,0.000326487526763,9.96516318992e-05,-0.000105060760689,-0.00251319585368,0.481135302089,-0.0194872423476,0.254044191297,-0.0123644462043,0.920821153365,0.389737022589,-0.00636999921887
-0.169462829828,-0.103182710707,0.12256860733,-2.36326694489,0.0373890250921,2.23830723763,-0.871929228306,0.0524466522038,1.8920736693e-05,0.000458619528217,-9.68464155449e-05,-0.000237225744058,-9.97564275167e-05,0.000116054834507,1.18025891425e-05,0.481134328899,-0.019487467353,0.254042517403,-0.0123653455472,0.920821498493,0.389736155533,-0.00637141230627
-0.16946272552,-0.103181660175,0.122567288578,-2.36326622963,0.0373901128769,2.23830938339,-0.871930658817,0.0524466522038,-0.000248178286711,0.00277130212635,-0.000182195231901,0.000456873211078,4.93026600452e-05,0.000183600946912,9.6039066193e-06,0.481134994355,-0.0194879426827,0.254042513166,-0.0123654306272,0.920821595063,0.389735942301,-0.00637033378426
-0.169462233782,-0.103192508221,0.122569307685,-2.36325860023,0.0373886674643,2.23831295967,-0.871934175491,0.0524466522038,0.000105510633148,-8.08690747363e-05,0.000182923104148,-0.000398798234528,4.97855253343e-05,0.00137023732532,-0.000163029500982,0.481139723281,-0.0194872351597,0.254051268531,-0.012359453198,0.920820328482,0.389739276222,-0.00636103938066
-0.16946195066,-0.103183925152,0.122568778694,-2.36326026917,0.0373891107738,2.23831677437,-0.871935367584,0.0524466522038,4.71483035653e-05,-2.47026127909e-05,0.000220524976612,-2.59971729974e-05,7.32611297281e-05,0.000120651457109,-0.000367623695638,0.481139225268,-0.0194872240308,0.254046770235,-0.0123614450374,0.920820184482,0.389739511404,-0.00636360433082
-0.169462367892,-0.103178068995,0.122570052743,-2.36326313019,0.0373893864453,2.23831892014,-0.871936678886,0.0524466522038,0.00037199104554,-0.000499285582919,-0.00031522862264,-0.000232826743741,-0.000146310892887,-0.000276026403299,-0.00086359953275,0.481138036519,-0.0194866704474,0.25404292806,-0.0123631912571,0.920819816523,0.389740279978,-0.00636638401759
-0.169461756945,-0.103180192411,0.122568592429,-2.36326885223,0.0373883023858,2.23831796646,-0.871935784817,0.0524466522038,-0.000324771681335,-0.000223036768148,0.0002988424676,7.59438044042e-05,9.20020247577e-05,-3.12714364554e-05,9.02682295418e-05,0.481135744986,-0.0194871666704,0.25404138083,-0.0123637680042,0.920819988618,0.389739818144,-0.00636864488157
-0.169462233782,-0.103187449276,0.122568756342,-2.36326479912,0.0373881049454,2.23831915855,-0.871937692165,0.0524466522038,-0.000372224923922,-0.000418732204707,0.000596474099439,-0.000110880966531,1.13707537821e-05,-6.51858281344e-05,-1.21314187709e-05,0.481138082628,-0.0194874098264,0.254046788284,-0.0123605140322,0.920819611569,0.389740899306,-0.00636331140577
-0.169465556741,-0.103200636804,0.122565612197,-2.36325526237,0.0373896807432,2.23832941055,-0.871939599514,0.0504188649356,0.000204291936825,0.000885053770617,-0.000516375643201,0.000273167475825,-0.000135562819196,-0.000118064206617,-0.000597480975557,0.481145196688,-0.0194908892074,0.254057982701,-0.0123533538548,0.920820902996,0.389738317806,-0.00634843055149
-0.169467970729,-0.103197902441,0.12256410718,-2.36325716972,0.0373899675906,2.23833179474,-0.871941030025,0.0504188649356,-0.000250589218922,0.00109239539597,0.00161807809491,-0.000947196094785,3.3854481444e-05,-0.00019437422452,0.000465644727228,0.481144671561,-0.019492703579,0.254056061572,-0.0123541449483,0.920821422573,0.389737051725,-0.0063492540986
-0.169465005398,-0.103186570108,0.122567951679,-2.36327028275,0.0373892784119,2.23833107948,-0.871943295002,0.0504188649356,0.000187322380953,9.67643645708e-05,0.000175122782821,-0.000401736760978,-5.84581221119e-06,0.000210208032513,2.67133168563e-06,0.481138488762,-0.0194892062762,0.254044903434,-0.0123597829497,0.92081951262,0.389741202073,-0.00636050566527
-0.169458135962,-0.103184476495,0.122570931911,-2.3632619381,0.0373891405761,2.23833608627,-0.871945083141,0.0504188649356,-0.000106364044768,-0.000151498650666,0.00054289639229,0.00129516562447,4.70916747872e-05,1.75472341652e-05,-6.83011530782e-05,0.481142965349,-0.0194846865321,0.254047902704,-0.0123572007585,0.920817266721,0.389746670942,-0.00635555417696
-0.169461533427,-0.1031890288,0.122569352388,-2.36326599121,0.0373916924,2.23833727837,-0.871947288513,0.0504188649356,6.56788979541e-05,0.000275008613244,-0.0003773648059,-0.000789559795521,2.42668502324e-05,-0.000148190723849,6.18275080342e-05,0.481141881647,-0.019486791039,0.254048440668,-0.0123575586968,0.920818132018,0.389744634063,-0.00635439933922
-0.169462487102,-0.103191122413,0.122567772865,-2.36326599121,0.0373910740018,2.23833584785,-0.871948480606,0.0504188649356,-0.000106890300231,0.000253518635873,0.00044670625357,-0.000293963385047,-1.95911561605e-05,-7.42262636777e-05,0.000348851492163,0.481141469737,-0.019488229836,0.254049075992,-0.0123571915562,0.920818318288,0.389744203744,-0.00635451422995
-0.169464662671,-0.103194780648,0.122566066682,-2.3632569313,0.0373906902969,2.23833847046,-0.871949076653,0.0504188649356,-0.000371209927835,-0.000226376403589,0.000203714429517,0.000230664183619,-9.83075369732e-05,-7.71077611716e-05,0.00016409518139,0.481146100655,-0.0194901809493,0.254055216895,-0.0123535944623,0.92081894992,0.389742941418,-0.00634739858778
-0.169466927648,-0.103190511465,0.122565038502,-2.36325979233,0.0373924896121,2.23833799362,-0.871949851513,0.0504188649356,0.000100039120298,0.000588442955632,-0.000312055955874,-0.000376055191737,-2.77178241959e-05,1.70197436091e-05,-0.000121669458167,0.481144467169,-0.0194914396101,0.254051913386,-0.0123561571734,0.920819629966,0.389741205737,-0.00635032928493
-0.169463798404,-0.103187002242,0.122568100691,-2.363260746,0.0373924188316,2.23833942413,-0.871953010559,0.0504188649356,-0.000289611140033,-0.000323369953549,3.07166083076e-05,0.000120697273815,8.54372192407e-05,-5.62703971809e-05,-2.5881723559e-05,0.481144241862,-0.0194884660174,0.254049924966,-0.0123568183783,0.920817798379,0.389745489551,-0.00635171506365
-0.169460132718,-0.103187434375,0.122570559382,-2.36326241493,0.0373904034495,2.23833870888,-0.871953189373,0.045840587467,-7.73574865889e-05,-0.000119524149341,-0.00044817966409,-0.000864447501954,-3.84708182537e-05,0.000196217763005,-0.000923261977732,0.481143546731,-0.0194857522483,0.254049331875,-0.0123563992433,0.920816328589,0.38974895344,-0.00635306032668
-0.16946156323,-0.103190377355,0.122571162879,-2.36326098442,0.0373902544379,2.23834037781,-0.871955275536,0.045840587467,5.65072550671e-05,0.000239215325564,-3.52473180101e-05,0.000920518126804,-6.13266456639e-05,0.00013261809363,0.000113136055006,0.48114469944,-0.019486261253,0.254051489296,-0.0123548478736,0.920816091417,0.389749605363,-0.00635045845738
-0.169465646148,-0.103195957839,0.122565664351,-2.36326265335,0.0373913384974,2.23834276199,-0.871957480907,0.045840587467,-0.000257433595834,0.000395852490328,-0.000267281080596,-0.000337923993357,-4.75993765576e-05,4.14903915953e-05,0.000343486783095,0.481144659434,-0.019491196118,0.254053463711,-0.0123538164068,0.920817832164,0.389745572977,-0.00634753621425
-0.169464290142,-0.103198640049,0.12256629765,-2.36326003075,0.0373924784362,2.23834300041,-0.871960401535,0.045840587467,0.000523328257259,0.00048066029558,-0.000182880816283,4.31671287515e-05,-8.72308883118e-05,-6.05087843724e-05,-0.00063620012952,0.481146180814,-0.0194897699427,0.254056099844,-0.0123528417974,0.920816882958,0.389747891331,-0.00634478082372
-0.169463723898,-0.10319788754,0.122567631304,-2.36325907707,0.0373912937939,2.23834252357,-0.871959090233,0.045840587467,0.000284437905066,0.000165267367265,8.42340377858e-05,-0.000179126902367,-0.000108194180939,0.000107983243652,0.000230386722251,0.481146425245,-0.019489003611,0.254056101864,-0.0123524665087,0.920816623521,0.38974851026,-0.00634514393998
-0.169461861253,-0.103194579482,0.12256859988,-2.36325788498,0.0373919121921,2.23834371567,-0.871961355209,0.0438725575805,1.38540974604e-06,4.90113734486e-06,-0.000107024869067,-0.000151297441334,-2.76453392871e-05,0.00011384737445,0.000157137052156,0.481146967941,-0.0194875717595,0.254055130785,-0.0123530012087,0.920815701292,0.389750668134,-0.00634539090191
-0.169462904334,-0.103189118207,0.122567817569,-2.36325860023,0.0373897217214,2.23834681511,-0.871963322163,0.0438725575805,-0.000259709515376,0.000186028526514,0.00023833879095,-0.000201043527341,-2.065175795e-05,-1.0228151659e-08,-0.00569381378591,0.481146717672,-0.0194889444809,0.254051993423,-0.0123535448142,0.920815563841,0.389750943427,-0.00634736944795
-0.169463157654,-0.103188544512,0.122568570077,-2.36325979233,0.0373926311731,2.2383453846,-0.871964395046,0.0438725575805,-1.88909925782e-05,-0.000516067200806,0.00011610997899,-0.000189905142179,-3.67462575923e-06,1.58875973284e-05,-0.000180028393515,0.481146134733,-0.0194881163059,0.254051610527,-0.0123548935308,0.920815504017,0.389751035836,-0.00634774873155
-0.169463068247,-0.103191815317,0.122569456697,-2.36325716972,0.0373925194144,2.23834681511,-0.871965348721,0.0438725575805,0.000188974634511,-0.000376849231543,0.000117462062917,0.000288026611088,9.72592097241e-05,0.000108150685264,0.000142708959174,0.481147719718,-0.0194877040869,0.254054372631,-0.0123530758107,0.920815075372,0.389752155102,-0.00634474274833
-0.169461488724,-0.103194698691,0.122568160295,-2.36325597763,0.0373894795775,2.23834753036,-0.871966362,0.0438725575805,8.84445398697e-05,2.13762123167e-05,-0.00160943786614,0.000743236334529,-9.70218479779e-06,0.000125369042507,4.93096194987e-05,0.481148562204,-0.0194879773101,0.254056326097,-0.0123508786654,0.920814475668,0.389753667277,-0.00634316347265
-0.169465392828,-0.103192433715,0.122565478086,-2.36326003075,0.037392642349,2.2383480072,-0.871968507767,0.0438725575805,0.000294721277896,6.48868035569e-06,-0.000297476159176,0.000628286157735,0.000107418687548,4.75053384434e-05,-0.000302279077005,0.481146765829,-0.019490669904,0.254053557333,-0.0123535030689,0.920815704136,0.389750651058,-0.00634505010393
-0.169463992119,-0.103193417192,0.122570626438,-2.36326050758,0.0373907387257,2.23834705353,-0.871971845627,0.0438725575805,0.000166778118,-0.000224043615162,-0.000114200891403,-0.000246870622505,0.000121022487292,-0.000247369956924,-0.000122113939142,0.481146459995,-0.0194878124819,0.254053671693,-0.0123527465706,0.920813597226,0.389755640829,-0.00634578125446
-0.16946105659,-0.103193886578,0.122570805252,-2.36325955391,0.0373911112547,2.23834848404,-0.871972382069,0.0438725575805,-0.000260984030319,-0.000194182939595,0.000287871749606,-0.000343797641108,-5.77579739911e-05,7.19100280548e-05,-0.000164808778209,0.481147342999,-0.0194862901697,0.254054459687,-0.0123521178109,0.920812901427,0.38975732608,-0.00634446216814
-0.169463068247,-0.1031928882,0.122567981482,-2.36325883865,0.0373924523592,2.23834848404,-0.871974229813,0.0438725575805,8.57883060235e-05,-0.00019073583826,-8.37278203107e-05,0.000461139861727,6.24649619567e-05,-7.61287901696e-06,-0.000271981669357,0.48114747364,-0.0194884261617,0.254054312298,-0.0123528422661,0.920813635845,0.389755572194,-0.0063442064759
-0.169464588165,-0.10318942368,0.122567504644,-2.3632619381,0.0373916737735,2.23834896088,-0.871977865696,0.0438725575805,-0.000211691556615,-0.000348914240021,0.000249186501605,-0.000420301861595,3.35824115609e-05,-0.000173755033757,-0.000344949454302,0.481146019975,-0.0194893927903,0.254051360854,-0.0123541074253,0.920813208321,0.389756497685,-0.00634693667687
-0.169463351369,-0.103190250695,0.122569002211,-2.36326241493,0.0373907797039,2.23834943771,-0.871977210045,0.0438725575805,0.000391901354305,0.000244561786531,7.94102816144e-05,0.000167869889992,-9.09256341401e-05,4.7687713959e-05,-9.74845170276e-06,0.481146184028,-0.0194884868163,0.254052026562,-0.0123533690286,0.920812909388,0.389757237134,-0.0063463345505
-0.169462606311,-0.10319455713,0.122568018734,-2.36326169968,0.0373915508389,2.23835015297,-0.871977686882,0.0438725575805,-0.000248147989623,0.000158633047249,-0.00033973751124,0.000325776753016,4.37823146058e-05,-1.70893918039e-06,0.000239261906245,0.481146824598,-0.0194883037039,0.254054010689,-0.0123523268395,0.920812772619,0.389757628202,-0.00634418967453
-0.169464439154,-0.103198222816,0.122568912804,-2.36325955391,0.037392526865,2.23835062981,-0.871978878975,0.0438725575805,-0.000425102480222,0.000171444247826,-0.000125401478726,0.000162979747984,-1.15828493108e-06,-5.67243223486e-05,1.40073416333e-05,0.481148064913,-0.0194887367217,0.254056723371,-0.012351072561,0.920812861922,0.389757503853,-0.00634130885117
-0.169463291764,-0.103186383843,0.122569441795,-2.36325979233,0.0373913645744,2.23835062981,-0.8719856143,0.0432106368244,-0.00028903427301,0.000747859536204,0.000213881285163,-0.000214024723391,9.42909100559e-05,5.85466159464e-06,-0.000103112557554,0.481147070095,-0.0194879110591,0.254050961236,-0.0123539064651,0.920811035101,0.389761644031,-0.0063465861066
-0.16946464777,-0.103182666004,0.122568584979,-2.3632619381,0.0373916216195,2.23835134506,-0.871986627579,0.0432106368244,0.00031977071194,-0.000345774664311,0.000286563968984,-6.56440170133e-06,4.34376015619e-05,6.31056318525e-05,0.000241637360887,0.481146037124,-0.0194888699817,0.254048324759,-0.0123553483297,0.920811285363,0.389760972482,-0.0063487106611
-0.169462144375,-0.103189401329,0.122570030391,-2.36326551437,0.0373921133578,2.23835158348,-0.871987044811,0.0432106368244,-3.55820557161e-05,0.000174091823283,0.000204886222491,8.0167024862e-05,-9.56548756221e-05,0.000119529635413,-0.00191200932022,0.4811452569,-0.0194869726015,0.254050008661,-0.0123543490702,0.920810521653,0.389762830475,-0.00634735653526
-0.169461324811,-0.103198602796,0.122568510473,-2.36326265335,0.0373927876353,2.23835206032,-0.871986865997,0.0432106368244,0.000138524730573,0.000505800300743,7.46172227082e-05,-7.87857934483e-05,8.27208568808e-05,6.7681845394e-05,-0.000332936586346,0.481147220846,-0.0194873842121,0.254055688523,-0.012351441253,0.920810815538,0.389762318474,-0.0063418188472
-0.169466480613,-0.103197298944,0.122568838298,-2.36326169968,0.0373913273215,2.23835229874,-0.871992111206,0.0432362481952,0.000180239585461,-0.000106276849692,-0.000156106572831,0.00202506501228,-0.000118191972433,0.00020394672174,7.47734375182e-05,0.481147447981,-0.0194898815303,0.254055492535,-0.0123510420856,0.920810557487,0.389762937271,-0.00634203364693
-0.169465005398,-0.103187002242,0.122567050159,-2.36325836182,0.0373910665512,2.23835492134,-0.871991991997,0.0432362481952,0.000240130393649,0.000588618626352,0.000244650000241,-3.52276365447e-05,-4.53200591437e-05,7.80890986789e-05,0.000110404755105,0.481148558859,-0.0194899970673,0.254052245177,-0.0123524884159,0.92081058588,0.38976279739,-0.00634369085348
-0.169468075037,-0.103177286685,0.122564435005,-2.3632683754,0.0373929068446,2.23835325241,-0.871996104717,0.0432362481952,-9.94318033918e-05,-0.00105161743704,-0.000255479710177,-0.000915454758797,5.28969503648e-05,-5.26803814864e-05,-0.00173473567702,0.481142985415,-0.0194925277854,0.254043116805,-0.0123583741131,0.920811249979,0.389760894779,-0.00635272252585
-0.169462159276,-0.103203095496,0.122569300234,-2.36326336861,0.0373912714422,2.23835420609,-0.871998906136,0.0432362481952,0.00216121249832,-0.00108870561235,-0.000230727760936,0.00204477319494,9.13522089832e-05,9.07248831936e-05,-0.000243594156927,0.481147741184,-0.0194876784918,0.254057695412,-0.0123493736667,0.920808330545,0.38976829234,-0.00633950615651
-0.169454142451,-0.103220067918,0.122575893998,-2.36325621605,0.0373916849494,2.23835372925,-0.872002243996,0.0432362481952,0.000377630844014,0.000266790302703,0.000434079702245,-0.000594646378886,5.43337409908e-05,-6.38995925328e-06,-0.00269725522958,0.481152106679,-0.0194809853282,0.254068807693,-0.0123431770892,0.920804967231,0.389776596277,-0.00632953227967
-0.169455602765,-0.103230729699,0.122574053705,-2.36326003075,0.0373920276761,2.23835396767,-0.872004270554,0.0432362481952,-0.000267103780061,1.11692897917e-05,-0.000723912380636,-0.000289628602332,2.90848929581e-05,0.000170357336174,-0.000377990567358,0.481151398481,-0.0194826077188,0.254072284375,-0.0123412889932,0.920805295652,0.389775929225,-0.00632651288301
-0.169467508793,-0.103230081499,0.122566990554,-2.36323928833,0.0373919606209,2.23835277557,-0.8720048666,0.0432362481952,-0.000928423833102,0.000651004549582,-0.000644788495265,0.00202375859953,-0.000146585953189,4.1306073399e-05,3.02311491396e-05,0.481159052934,-0.0194919221637,0.254080876474,-0.0123375872654,0.920808866832,0.389767753247,-0.00631766692329
-0.169466271996,-0.103158839047,0.122570961714,-2.36263012886,0.0373909212649,2.23822402954,-0.872007608414,0.0432362481952,0.000449395476608,0.00114811013918,0.00469958689064,0.0268485620618,-4.820149843e-05,-0.0103845335543,0.000566382543184,0.481369732862,-0.0194947471789,0.25429919051,-0.0122535794806,0.920806619946,0.389778694312,-0.00613087241622
-0.169468060136,-0.103211335838,0.122574403882,-2.35876250267,0.0373889878392,2.23435544968,-0.872007906437,0.0432362481952,-0.00242415140383,-0.00161104486324,-0.000229058685363,0.123923756182,0.000206465905649,-0.161288395524,-6.81474703015e-05,0.482070981968,-0.0194814472478,0.255674625122,-0.0122795282334,0.920783893972,0.389832203521,-0.00608987417028
-0.16949185729,-0.103420361876,0.122560888529,-2.35352110863,0.037386521697,2.22705292702,-0.872010111809,0.0432362481952,-0.00133021653164,-0.00883285421878,0.00149493676145,0.210787162185,-8.3627521235e-05,-0.313742160797,-0.000118657168059,0.48256847314,-0.0194485624574,0.257438320459,-0.0127458628051,0.920746754322,0.389891577094,-0.00689312562154
-0.169519543648,-0.103656187654,0.122554376721,-2.34996128082,0.0373863019049,2.22152495384,-0.87201076746,0.0432362481952,-0.0018937982386,-0.0242524500936,-0.00126675143838,0.259545236826,-3.26438639604e-05,-0.412463068962,0.00388305913657,0.482781668048,-0.0194216261513,0.258637744188,-0.0131664222593,0.920719268845,0.389928348474,-0.00765219187377
-0.169550672174,-0.104195982218,0.122559122741,-2.34478640556,0.03738482669,2.21291089058,-0.87201076746,0.0432362481952,-0.00150095974095,-0.0317859016359,0.000672251393553,0.312979459763,7.57852685638e-05,-0.536792337894,0.000112542104034,0.482969019372,-0.0193636853676,0.260434063592,-0.0138542691763,0.92066984138,0.389994019458,-0.00893122989978
-0.169806674123,-0.11153101176,0.122541248798,-2.30560731888,0.0373824723065,2.1487698555,-0.871976017952,0.0432362481952,-0.00432324642316,-0.144919022918,-0.00104640040081,0.633131802082,0.000155603891471,-0.97987216711,-0.000240597582888,0.484413647979,-0.0189917786611,0.275915114297,-0.0179253764561,0.920296424477,0.390450714857,-0.0167753069755
-0.169989958405,-0.114818118513,0.12253369391,-2.29261302948,0.0373829193413,2.12860131264,-0.871954858303,0.0432362481952,-0.0130895338953,-0.167919710279,-0.000733846332878,0.661969721317,0.000212231228943,-1.03002727032,0.000271809665719,0.485003710344,-0.0189323509702,0.281633585493,-0.0187872358712,0.920200565298,0.390556855026,-0.0185284124467
-0.170802205801,-0.125647768378,0.122449867427,-2.25832295418,0.0373799689114,2.07819366455,-0.871698915958,0.0432362481952,-0.0275619551539,-0.289526462555,-0.00384088046849,0.805116951466,0.000463929318357,-1.10405397415,0.00443322071806,0.486788128415,-0.0189934179201,0.29816352845,-0.0198250051725,0.920111619464,0.390589944923,-0.0210017024355
-0.171075046062,-0.128967791796,0.122427076101,-2.24944925308,0.0373809859157,2.06611037254,-0.871611297131,0.0432362481952,-0.0246715191752,-0.308142721653,-0.00368432071991,0.83267146349,-0.000689059728757,-1.09384691715,0.0090577499941,0.487356346929,-0.0190489470498,0.302804792715,-0.0197323288527,0.920123841563,0.390566063935,-0.0209976372519
-0.171837717295,-0.136948555708,0.122348353267,-2.23006987572,0.0373819619417,2.03964138031,-0.871495604515,0.0432362481952,-0.0363055616617,-0.364852637053,7.90970225353e-05,0.823350012302,0.000152396285557,-1.09181749821,-4.59447837784e-05,0.48839794882,-0.0192498989332,0.313342628271,-0.0193474236043,0.920180383798,0.390467027892,-0.0207180666304
-0.172497957945,-0.143220931292,0.122327446938,-2.21569609642,0.0373772196472,2.02125191689,-0.871426701546,0.0432355888188,-0.0393484160304,-0.388495951891,-0.00485330540687,0.809330642223,0.000420974916779,-1.10046315193,0.00482416898012,0.489269310307,-0.019432560184,0.321469366419,-0.0186748847045,0.920250026101,0.390382557293,-0.0198140552653
-0.173580333591,-0.152905419469,0.122165434062,-2.1963968277,0.0373812131584,1.99615287781,-0.871313333511,0.0432355888188,-0.0548025146127,-0.442621558905,-0.00970434490591,0.875499606133,-0.000235493658693,-1.07461726665,0.000174225700903,0.490089302923,-0.0198056126636,0.333020810666,-0.0175277137218,0.920417764208,0.390116608053,-0.0182469280991
-0.174608528614,-0.160984784365,0.121999233961,-2.181173563,0.0373840257525,1.97698450089,-0.871268510818,0.0432355888188,-0.0587586909533,-0.463105112314,-0.00654580956325,0.822168409824,0.000126837869175,-1.05195641518,-0.000237727726926,0.490641843192,-0.020190415939,0.342437678519,-0.0163574361366,0.920591109177,0.389834160842,-0.0165460179328
-0.177795186639,-0.186615034938,0.121006980538,-2.13837599754,0.0373849049211,1.92691493034,-0.871220171452,0.0432355888188,-0.0598668530583,-0.528141319752,-0.0306718815118,0.813387870789,2.31792037084e-05,-0.925673425198,0.00043514042045,0.49179316271,-0.0215984109991,0.370810622658,-0.0114075664573,0.921243966143,0.388717637469,-0.00883290871468
-0.178704217076,-0.195098146796,0.120405994356,-2.12578296661,0.0373942963779,1.91255354881,-0.871210932732,0.0432355888188,-0.0531779788435,-0.547581732273,-0.0409888587892,0.798944056034,0.000415965740103,-0.856272280216,0.000233281898545,0.491814888871,-0.0221064776727,0.379691871135,-0.0096275726248,0.921478499014,0.388263828312,-0.0059904095367
-0.179512128234,-0.203397676349,0.119646862149,-2.11411118507,0.0373908877373,1.90012967587,-0.871204316616,0.0432355888188,-0.0584713853896,-0.560196518898,-0.0554502643645,0.750628471375,-0.000623176340014,-0.805006027222,0.000466599536594,0.491844203876,-0.0226537122453,0.388226313699,-0.00766463835179,0.921720695526,0.387768660541,-0.00277098224081
-0.180705592036,-0.215246528387,0.118367366493,-2.0990986824,0.0374038815498,1.88377070427,-0.871194303036,0.0432362481952,-0.0563366897404,-0.576537251472,-0.0603755228221,0.713185667992,-0.000187858589925,-0.73343449831,0.00034205391421,0.491475436339,-0.0235301531745,0.399762452301,-0.00493436743771,0.92209892481,0.386918972436,0.00171269781805
-0.182518333197,-0.232052594423,0.116214610636,-2.07943797112,0.0374033488333,1.86338555813,-0.871183693409,0.0432362481952,-0.0613752491772,-0.566622793674,-0.0880951657891,0.595507979393,-4.53235006717e-05,-0.623525500298,-0.000179923474207,0.490652461824,-0.0249816694431,0.415611293699,-0.000796604985543,0.92268138989,0.385466350151,0.00860876040433
-0.183491885662,-0.241244375706,0.114799082279,-2.07015562057,0.0374025478959,1.85391461849,-0.871179401875,0.0432362481952,-0.0628355145454,-0.564946770668,-0.0913638100028,0.551710605621,-7.05378697603e-05,-0.564668416977,-0.000223899507546,0.489980981937,-0.0258795562834,0.423727767683,0.00150217976507,0.92302250137,0.384540473118,0.0124831741747
-0.189250588417,-0.276291817427,0.107994705439,-2.04177951813,0.0373948514462,1.82498919964,-0.871178865433,0.0432382151484,-0.104106411338,-0.482088685036,-0.116762019694,0.315449804068,0.000825655297376,-0.331014961004,0.000217975582927,0.486083177078,-0.0309374653967,0.451917625798,0.0102304783561,0.924825267512,0.379266055851,0.0274011030032
-0.191172480583,-0.284121453762,0.10593727231,-2.03695678711,0.0373837053776,1.81993079185,-0.871178805828,0.0432382151484,-0.116054810584,-0.454019337893,-0.125999182463,0.267098993063,-0.0034197170753,-0.273164540529,0.000398867152398,0.484925329603,-0.0326310449567,0.457600794616,0.0121203978942,0.925413999443,0.377516604037,0.0307121954635
-0.193077117205,-0.291025042534,0.10376854986,-2.03323435783,0.037287030369,1.81587648392,-0.871179223061,0.0432382151484,-0.119617290795,-0.421965092421,-0.144919455051,0.203406751156,-0.0128581440076,-0.245617508888,-0.00356426602229,0.483800988352,-0.0344144689687,0.462390144788,0.0137643921629,0.926024545586,0.375714604094,0.0335800302813
-0.195432141423,-0.297917306423,0.100949935615,-2.02998900414,0.0367553606629,1.8117351532,-0.871181666851,0.0432382151484,-0.13720113039,-0.347922831774,-0.164169430733,0.157098323107,-0.052394784987,-0.211090400815,0.000516501662787,0.48238838055,-0.036955658938,0.467156165382,0.0154913812993,0.926867061132,0.373313168167,0.0362594298173
-0.204452320933,-0.311164617538,0.0921305939555,-2.02468109131,0.0306680053473,1.80391347408,-0.871196866035,0.0432382151484,-0.211439102888,-0.177454516292,-0.193894267082,0.0653029754758,-0.199977993965,-0.114306032658,3.27887937601e-05,0.479100519798,-0.0461887276543,0.475236320772,0.020271537846,0.929585461152,0.365897612385,0.0397350236452
-0.207889586687,-0.313347637653,0.089010193944,-2.02384257317,0.0269279517233,1.80250692368,-0.871210873127,0.0432382151484,-0.227833896875,-0.113134644926,-0.219885110855,0.0457146838307,-0.27801913023,-0.0788547098637,-0.000880106876139,0.478230020079,-0.0500114995442,0.47659632779,0.0220728429519,0.930590631494,0.36323061765,0.0397162972193
-0.212084457278,-0.314719557762,0.084788993001,-2.02321624756,0.0216435045004,1.80150806904,-0.871232688427,0.0432382151484,-0.256591677666,-0.0366235822439,-0.25769969821,0.0233259405941,-0.329396575689,-0.0346971973777,0.000367216794984,0.47733926832,-0.0550668092728,0.477523274095,0.0242530108262,0.931876036856,0.359842813086,0.0391406815866
-0.217811867595,-0.31457978487,0.0791485533118,-2.02288961411,0.0139970676973,1.80118477345,-0.871404767036,0.0432382151484,-0.283159852028,0.0339111201465,-0.276752769947,0.00189407134894,-0.400542885065,-0.00174933427479,-0.0185890030116,0.476442360029,-0.0620639106727,0.477673702062,0.0269894398924,0.933580431097,0.355366935531,0.0375964043924
-0.226774841547,-0.311495691538,0.0699284598231,-2.02286314964,0.000937993987463,1.80125522614,-0.872101843357,0.0432382151484,-0.328376919031,0.181368216872,-0.34626814723,0.00337409833446,-0.500766694546,0.00584882730618,-0.0303882788867,0.475219987844,-0.0734947950866,0.476366274128,0.0309001247542,0.936198950912,0.348482678902,0.0337124426971
-0.232575342059,-0.308038890362,0.0639033466578,-2.02286505699,-0.00794476922601,1.80151617527,-0.872926294804,0.0432375594974,-0.352273881435,0.223076015711,-0.368666231632,-0.00295207626186,-0.547190785408,0.0207069963217,-0.065301142633,0.47452031744,-0.0810412328809,0.474835207893,0.033230035491,0.937802865695,0.344224007156,0.0305185586091
-0.238410353661,-0.304052352905,0.0574996322393,-2.02289581299,-0.0171954166144,1.80204367638,-0.874313473701,0.0432375594974,-0.370240777731,0.278807491064,-0.426940202713,-0.000180552524398,-0.597435712814,0.0444540008903,-0.109388127923,0.473780784909,-0.0888731954411,0.473067641669,0.0355678554552,0.939332500724,0.340081693049,0.0270891580149
-0.264555424452,-0.278208553791,0.0256159100682,-2.02193164825,-0.0566721558571,1.80783200264,-0.88855111599,0.0432375594974,-0.457552075386,0.516270577908,-0.584404468536,0.0365318022668,-0.610906660557,0.137513905764,-0.33312702179,0.470666160806,-0.12475813826,0.462338204215,0.0434092427428,0.944942665919,0.324170982565,0.0105910112864
-0.274493515491,-0.266562044621,0.0128603558987,-2.02095890045,-0.0693350657821,1.8113681078,-0.896134853363,0.0432375594974,-0.481881946325,0.585398972034,-0.630098521709,0.0599199458957,-0.57108092308,0.204663485289,-0.381671190262,0.469325028104,-0.139216112435,0.45743065159,0.0453408630292,0.94686606762,0.318386666589,0.00433432307734
-0.283399969339,-0.25544115901,0.000884665350895,-2.01984858513,-0.0793212354183,1.81547152996,-0.903458178043,0.0432375594974,-0.484738469124,0.642889022827,-0.68062120676,0.0639245733619,-0.524561345577,0.24570839107,-0.434054851532,0.468138318886,-0.151650182691,0.45303769784,0.0464421486145,0.948496888211,0.313363192128,-0.00053795445183
-0.298853993416,-0.234901547432,-0.0210211779922,-2.01752781868,-0.0939854159951,1.82428324223,-0.917878091335,0.0432375594974,-0.52274107933,0.703788995743,-0.750596940517,0.0809927582741,-0.436759710312,0.316822469234,-0.50247335434,0.465803126526,-0.173350318768,0.445004504726,0.0473138560374,0.951209887433,0.304786644503,-0.00813941639284
-0.307536542416,-0.223056256771,-0.0336332581937,-2.01604628563,-0.100736998022,1.82965934277,-0.926382899284,0.0432375594974,-0.530039072037,0.729051232338,-0.789329588413,0.0962935015559,-0.383409887552,0.335959941149,-0.544830977917,0.464220953439,-0.185418627762,0.440374567506,0.0472466422861,0.952723274217,0.299903674361,-0.0119959723067
-0.310693204403,-0.218615248799,-0.0382815413177,-2.01544189453,-0.102924987674,1.83165645599,-0.929637134075,0.0432375594974,-0.54534637928,0.75152105093,-0.800988554955,0.115288950503,-0.3255905509,0.339832961559,-0.564173579216,0.462390436398,-0.197806238969,0.435491175187,0.0467624003242,0.954234636785,0.294959390082,-0.0157636850938
-0.326692610979,-0.1960529387,-0.0622166506946,-2.01190805435,-0.112364783883,1.84170782566,-0.946590542793,0.0432375594974,-0.524035930634,0.773410975933,-0.826602935791,0.128241375089,-0.269278883934,0.341821283102,-0.573095977306,0.459920275961,-0.211803259478,0.429935097451,0.045825191015,0.955982472212,0.289146870751,-0.0197901874251
-0.337359011173,-0.18051494658,-0.0788766667247,-2.0092318058,-0.1173485443,1.84860754013,-0.958109736443,0.0432375594974,-0.517156839371,0.777674078941,-0.831620872021,0.129614397883,-0.23031578958,0.336728125811,-0.57859146595,0.456923763756,-0.226557776642,0.423937062804,0.0444610618702,0.957858894676,0.282776355865,-0.0238135281336
-0.352015763521,-0.159227073193,-0.102014116943,-2.00549268723,-0.123158380389,1.85778474808,-0.974327623844,0.0432375594974,-0.521371483803,0.765723466873,-0.838928163052,0.131474331021,-0.197014331818,0.321855634451,-0.575616776943,0.451932853125,-0.246620323312,0.415606501616,0.0421875274111,0.960372419786,0.273949106701,-0.0292731015561
-0.360279113054,-0.14734596014,-0.115313529968,-2.00353097916,-0.126114413142,1.86288249493,-0.983681917191,0.0432375594974,-0.499199479818,0.733117699623,-0.803622186184,0.119633115828,-0.168839097023,0.313606917858,-0.580007612705,0.448174131559,-0.259250111442,0.410251738522,0.0405829424559,0.961920271454,0.268309331937,-0.0327493241876
-0.369224965572,-0.134407639503,-0.129762753844,-2.00146651268,-0.129137948155,1.86837100983,-0.994258642197,0.0432375594974,-0.491855382919,0.711996197701,-0.804979264736,0.110413886607,-0.169260501862,0.285177230835,-0.586890697479,0.444624580115,-0.26999133015,0.405579771495,0.039125788721,0.963168886953,0.263614960473,-0.0358053092251
-0.391494035721,-0.1024267748,-0.167592048645,-1.99660611153,-0.135917454958,1.88027393818,-1.02161109447,0.0432375594974,-0.40810084343,0.588969945908,-0.713943958282,0.0803749337792,-0.117165021598,0.202713161707,-0.529028952122,0.432257050262,-0.300171262099,0.39218628661,0.0341216356623,0.96662641973,0.24988110785,-0.0450389863581
-0.398849844933,-0.0920563787222,-0.18023583293,-1.99519813061,-0.138046756387,1.88354122639,-1.03084385395,0.0432375594974,-0.409559518099,0.550534904003,-0.685779392719,0.0739393979311,-0.103802390397,0.15895549953,-0.492446064949,0.427448753202,-0.309911787859,0.387694424956,0.0321974528102,0.967697171496,0.245329380258,-0.0483632421106
-0.405418455601,-0.0832386761904,-0.191315367818,-1.9940277338,-0.139716729522,1.88583660126,-1.0389291048,0.0432375594974,-0.374168843031,0.491114199162,-0.618078649044,0.0628385022283,-0.0975201353431,0.116817303002,-0.466111123562,0.422875119159,-0.318308703441,0.383817177662,0.0303041077018,0.96863566871,0.241225319382,-0.0513512155858
-0.422713726759,-0.0628352165222,-0.217482835054,-1.99192929268,-0.144423782825,1.88991701603,-1.06022691727,0.0432375594974,-0.31944206357,0.325628906488,-0.436707794666,0.0212845504284,-0.084826618433,0.0654568523169,-0.410290360451,0.410242561284,-0.338360314579,0.374496357098,0.025332613862,0.970620817154,0.231810760877,-0.0593064820922
-0.42778044939,-0.0576721169055,-0.224317014217,-1.99164998531,-0.145527899265,1.8908957243,-1.0668566227,0.0432375594974,-0.281149595976,0.284238308668,-0.379784554243,0.0145811093971,-0.0495204441249,0.0429970212281,-0.386182576418,0.406507670462,-0.343642612764,0.372021396146,0.0238448627759,0.971056375704,0.229583940995,-0.061417843125
-0.432722717524,-0.0531947016716,-0.230711072683,-1.99146938324,-0.146673828363,1.89139199257,-1.07343530655,0.0432375594974,-0.259531229734,0.211270034313,-0.322256624699,0.0102400872856,-0.0743733644485,0.0106424437836,-0.351475954056,0.402753087372,-0.348568256416,0.369824479877,0.022379731951,0.971430666062,0.227582634758,-0.0634645781696
-0.436908841133,-0.0498288869858,-0.235863089561,-1.99134218693,-0.148239597678,1.89147114754,-1.07947039604,0.0432375594974,-0.20652499795,0.170919060707,-0.25560978055,0.00552293332294,-0.0921600833535,-0.000256645842455,-0.326949059963,0.39946888056,-0.352631975711,0.368163902405,0.0212996367891,0.971625239979,0.226313411827,-0.065367865418
-0.442444354296,-0.0461599268019,-0.241829141974,-1.99122595787,-0.151015490294,1.89148139954,-1.08923792839,0.0432388745248,-0.148558273911,0.0598377250135,-0.141637727618,7.63416974223e-05,-0.0597041323781,0.000277910061413,-0.311399102211,0.395233833437,-0.357686963686,0.366364966369,0.0202270512921,0.971546050371,0.226006491962,-0.0678984807628
-0.444310337305,-0.0455758087337,-0.243667572737,-1.9911750555,-0.151625692844,1.89149093628,-1.0937846899,0.0432388745248,-0.106341473758,0.0262991096824,-0.102165214717,0.00596642820165,-0.0283697582781,0.0001655738306,-0.29545584321,0.393797365895,-0.359343635211,0.366082806645,0.0199208327707,0.971384298446,0.226575071881,-0.0684064445087
-0.445775717497,-0.0454319231212,-0.245075643063,-1.99097633362,-0.152147307992,1.89148068428,-1.09872639179,0.0432388745248,-0.0568387359381,-0.00858566258103,-0.0526530891657,0.0171740557998,-0.0337073579431,0.000288830400677,-0.263111352921,0.39282759994,-0.360501688752,0.366112760485,0.0198282709128,0.971127142046,0.227614771811,-0.0686325651636
-0.446355849504,-0.0457277111709,-0.245579004288,-1.99040150642,-0.152902558446,1.89148807526,-1.10321724415,0.0432388745248,-0.00823302660137,-0.0249155256897,-0.00418057711795,0.0454643592238,-0.0411239378154,-0.000667558168061,-0.239786565304,0.392472881613,-0.361160704216,0.366582021124,0.0202056531912,0.970678559677,0.22947887306,-0.0686608467442
-0.444378525019,-0.0488726049662,-0.244088739157,-1.98658967018,-0.154077500105,1.89160704613,-1.11439681053,0.0432388745248,0.0691095143557,-0.070317029953,0.054860625416,0.099358946085,-0.00485503440723,0.00247186957859,-0.208897352219,0.394427784265,-0.360570937126,0.370063660734,0.0229092866967,0.96903747187,0.236616156525,-0.066740818548
-0.442770928144,-0.0502385757864,-0.242728471756,-1.98473823071,-0.154134765267,1.8918017149,-1.11765158176,0.0432388745248,0.107186280191,-0.0983448177576,0.0896340608597,0.112923435867,-0.000558650877792,0.0115465186536,-0.201004236937,0.395794637001,-0.359788887551,0.37156069055,0.0241116147673,0.968402777973,0.239369304186,-0.0657040756236
-0.440786004066,-0.0521957427263,-0.241063207388,-1.98275911808,-0.15413698554,1.89220571518,-1.12099635601,0.0432428121567,0.121242187917,-0.118713185191,0.111123532057,0.115820877254,-0.000290463794954,0.0230225604028,-0.181161880493,0.397423916231,-0.358784352699,0.373413277033,0.0256167489073,0.967689142698,0.242449409578,-0.0643411902979
-0.433244377375,-0.0580570474267,-0.233205273747,-1.97600281239,-0.15413762629,1.89468586445,-1.12992632389,0.0432428121567,0.170605570078,-0.126073271036,0.16631321609,0.12945780158,-7.21429678379e-05,0.0662142410874,-0.162327006459,0.404686514174,-0.353909860636,0.379988237256,0.0315793147011,0.964854951572,0.254068475234,-0.0592189065576
-0.430554687977,-0.0600212849677,-0.230543330312,-1.97406041622,-0.154137969017,1.89563345909,-1.13236296177,0.0432428121567,0.185466125607,-0.130824938416,0.187315940857,0.12803812325,0.000109351698484,0.0681887418032,-0.153506696224,0.407077545686,-0.352140105338,0.382022238556,0.0334830801219,0.963919925603,0.25772471623,-0.0575780401547
-0.426831781864,-0.062398660928,-0.226955845952,-1.9715410471,-0.154131487012,1.89701557159,-1.13512289524,0.0432428121567,0.200812682509,-0.118769004941,0.189292222261,0.132782295346,-0.000141775672091,0.0750949010253,-0.141004815698,0.410324284099,-0.349683494513,0.384595047729,0.03597752318,0.962678550704,0.26245195143,-0.0554490642188
-0.423373043537,-0.0646237879992,-0.223760455847,-1.96935427189,-0.154129177332,1.89829611778,-1.13766276836,0.0432428121567,0.203865289688,-0.140893876553,0.194138869643,0.120669662952,0.00010369438678,0.0687989965081,-0.152127549052,0.413236406604,-0.347400313142,0.386928069615,0.038229700854,0.96151575226,0.266763575259,-0.0535083426722
-0.414222985506,-0.0706892609596,-0.214177399874,-1.9640583992,-0.154113560915,1.90192902088,-1.14394283295,0.0432428121567,0.197420269251,-0.124761119485,0.205158621073,0.100839719176,6.84448023094e-05,0.0743315815926,-0.119592890143,0.421160065859,-0.340683922072,0.393030440095,0.0441976798985,0.958206204517,0.278478901904,-0.0483418618015
-0.410643219948,-0.0729401186109,-0.210558995605,-1.96236085892,-0.154113307595,1.90326619148,-1.14607417583,0.0432428121567,0.196514934301,-0.119577713311,0.201307356358,0.0897060111165,2.35378320212e-05,0.070219732821,-0.108883738518,0.424083626023,-0.337989290961,0.395180093407,0.0463113534042,0.956918284734,0.282844259838,-0.0464949379538
-0.404203295708,-0.0765300691128,-0.203940957785,-1.95945763588,-0.154109179974,1.90524351597,-1.14923501015,0.0432428121567,0.19285261631,-0.109298981726,0.19208419323,0.0772892832756,0.000169918785105,0.0470998585224,-0.0875921472907,0.429233337773,-0.33296345986,0.398712222004,0.0497569356616,0.954616106552,0.290413034946,-0.0435040835801
-0.400756597519,-0.0784632787108,-0.200637131929,-1.95820748806,-0.15410733223,1.90608632565,-1.15092539787,0.0432428121567,0.18537607789,-0.107289612293,0.1701387465,0.0636359676719,-0.000155272544362,0.0498397536576,-0.10238404572,0.431774184347,-0.330271680819,0.400446620823,0.0513885888241,0.953389328106,0.294345379549,-0.0420570947788
-0.397849857807,-0.0800156369805,-0.197966128588,-1.95731568336,-0.154103845358,1.90688943863,-1.15247523785,0.0432447828352,0.178320273757,-0.0907174944878,0.167576938868,0.0516636371613,0.000187163474038,0.0533242784441,-0.0861041545868,0.433978587655,-0.327882765485,0.401879001159,0.0527779250827,0.95227135188,0.297872029493,-0.0408168684215
-0.394366711378,-0.0817960947752,-0.194485530257,-1.95636403561,-0.154103189707,1.90777337551,-1.15394878387,0.0432447828352,0.155875712633,-0.0813310816884,0.154252827168,0.0363460853696,0.000220026398893,0.0356571115553,-0.0640195459127,0.436379767349,-0.325160154241,0.403321108307,0.0541913946767,0.951067877098,0.301608805563,-0.0395640492307
-0.387861818075,-0.0847613587976,-0.187712073326,-1.95487606525,-0.154093950987,1.90901696682,-1.15761125088,0.0432447828352,0.120868176222,-0.0392210967839,0.121414117515,0.0262184645981,-0.000149821833475,0.0338368453085,-0.0811296999454,0.441015886364,-0.319563070167,0.405803613727,0.0565849335009,0.948469902731,0.309514034723,-0.0374706673565
-0.386006236076,-0.0853263959289,-0.185859054327,-1.95455527306,-0.154092282057,1.90956425667,-1.15892255306,0.0432447828352,0.106987550855,-0.0256620906293,0.106796778738,0.0178595371544,6.7336637585e-05,0.0357949696481,-0.0749042630196,0.442333314361,-0.318000284969,0.406331391491,0.057198932118,0.94768034191,0.311872645583,-0.0369554373174
-0.384327679873,-0.085731446743,-0.184119701385,-1.95434594154,-0.154093936086,1.91010558605,-1.15994679928,0.0432447828352,0.0889962390065,-0.0166633184999,0.0968375951052,0.0107052633539,-0.000154043591465,0.0343329645693,-0.0480672493577,0.443539380771,-0.316549928797,0.406718693806,0.0577127331304,0.946973965175,0.313966086053,-0.0365355472336
-0.380528956652,-0.0859542712569,-0.180668696761,-1.95414972305,-0.154094040394,1.91072285175,-1.16260182858,0.0432447828352,0.0648400709033,0.00666595902294,0.0423486866057,-0.00348367146216,-0.000217468928895,0.00169384782203,-0.0527615137398,0.445971363722,-0.313391190263,0.407028957691,0.0582852620404,0.945389372883,0.318645914663,-0.0361461287858
-0.379625409842,-0.0858410447836,-0.18004873395,-1.95418250561,-0.154092282057,1.91072547436,-1.16341149807,0.0432447828352,0.0453970506787,0.0086974343285,0.0383783094585,-0.00072681036545,5.89064366068e-05,-7.01031603967e-05,-0.0464595630765,0.446450740336,-0.312707320994,0.406959734908,0.0582694697862,0.945014902932,0.319752194487,-0.0361944185738
-0.378964275122,-0.0855880230665,-0.179530829191,-1.95421385765,-0.154095098376,1.91072499752,-1.16436183453,0.0432487241924,0.0319813154638,0.0168188791722,0.0215476322919,-0.00101464695763,-9.83782301773e-05,1.9900913685e-05,-0.0581110939384,0.446830318065,-0.312181517395,0.40681572031,0.0581971113381,0.944670910498,0.320767212489,-0.0363092573634
-0.378544986248,-0.0852543711662,-0.179258659482,-1.95423424244,-0.154094934464,1.91072535515,-1.16555500031,0.0432487241924,0.0121019054204,0.0132232680917,0.0110168326646,-0.000392568734242,-3.10822906613e-05,6.61824378767e-05,-0.0495414547622,0.447065131269,-0.311877628894,0.40663163295,0.0580809391484,0.94436550033,0.321668721052,-0.0364642273783
-0.378484159708,-0.0847466364503,-0.179247617722,-1.95425856113,-0.154100179672,1.91072237492,-1.16685318947,0.0432487241924,-0.00993822421879,0.0168030131608,-0.00466521177441,-0.000523570226505,-0.000226464297157,-0.000533471698873,-0.0439077839255,0.44711617953,-0.311856421717,0.406350257931,0.0578854464979,0.944141277296,0.322334299926,-0.0367031656434
-0.378840178251,-0.0841284319758,-0.179587602615,-1.95430886745,-0.15410195291,1.91072034836,-1.16849625111,0.0432487241924,-0.0155094834045,0.0145764136687,-0.0139473322779,-0.00482880789787,-6.00107268838e-05,1.54376484716e-05,-0.0438237264752,0.446929702683,-0.312178843235,0.405993881816,0.0576113391166,0.943985069513,0.322805165133,-0.0370127976954
-0.379080682993,-0.0838549435139,-0.179891869426,-1.95434844494,-0.154103383422,1.91072177887,-1.16919600964,0.0432487241924,-0.0157231483608,0.0160663984716,-0.0164815932512,-0.0035560966935,3.19993841913e-06,3.32331255777e-05,-0.0348600000143,0.446769709604,-0.312425803208,0.405826405473,0.0574755165971,0.943958676967,0.32289005188,-0.0371563622499
-0.379685640335,-0.0831606388092,-0.181000038981,-1.95445740223,-0.154105126858,1.91072154045,-1.17078721523,0.0432487241924,-0.00971674267203,0.00997855979949,-0.0287289470434,-0.00554794678465,-4.81013630633e-05,9.0629895567e-05,-0.03972286731,0.446256630769,-0.313199112093,0.405393260905,0.0571117119152,0.943975693368,0.322862958251,-0.0375186962631
-0.379799842834,-0.0829870849848,-0.181507080793,-1.95450186729,-0.154106855392,1.91072058678,-1.17136180401,0.0432487241924,-0.00220911158249,0.0107966056094,-0.0319531932473,-0.00189291185234,-4.22181801696e-05,4.11321088905e-05,-0.0217456221581,0.446063512907,-0.313477001694,0.405274152496,0.056999925988,0.94398289586,0.32284990484,-0.0376196676568
-0.379826515913,-0.0828200727701,-0.18203318119,-1.9545481205,-0.154108405113,1.91072058678,-1.17175960541,0.043251350522,-0.00155051785987,0.00781098101288,-0.0304078422487,-0.00189244828653,9.77591917035e-05,1.07485830085e-05,-0.0217265747488,0.445891056813,-0.313723936348,0.405157542023,0.0568938605962,0.944007642659,0.32278561738,-0.0377107959077
-0.379842370749,-0.0826792865992,-0.182718887925,-1.95461905003,-0.154111102223,1.91072058678,-1.17213881016,0.043251350522,-0.000636368698906,0.00602125516161,-0.0336050055921,-0.00452095689252,-9.54624847509e-05,4.18722811446e-05,-0.0126386750489,0.445664585327,-0.314033751603,0.405041176047,0.0567796449568,0.9440597375,0.322642961975,-0.0377995069448
-0.379859179258,-0.0826535373926,-0.18412321806,-1.95490634441,-0.154113933444,1.91071689129,-1.17273795605,0.043251350522,-0.000386519299354,-0.000851022719871,-0.0256927460432,-0.00575561309233,0.000113728601718,-0.000120929951663,-0.0131474174559,0.445157595776,-0.314633132981,0.404872396842,0.0565772836738,0.944194063356,0.322270991229,-0.037920833263
-0.379860490561,-0.0826610922813,-0.184545725584,-1.95495152473,-0.154113799334,1.91071856022,-1.17295408249,0.043251350522,0.000431852473412,-0.000539480999578,-0.0216873083264,-0.00302550406195,6.0589176428e-05,0.000262316927547,-0.0126700634137,0.44501421859,-0.314817092187,0.404850080252,0.0565374645967,0.944228335517,0.322175505723,-0.0379382221981
-0.379859149456,-0.0826579928398,-0.18497119844,-1.95494675636,-0.154114499688,1.9107221365,-1.17321395874,0.043251350522,0.000637356366497,0.000155201370944,-0.0294350981712,0.00089774740627,8.04936280474e-05,0.000277442537481,-0.0144999474287,0.444882000684,-0.315008704502,0.404846639688,0.0565136036113,0.944255597755,0.322099000262,-0.0379448604244
-0.379849642515,-0.0826434195042,-0.185351073742,-1.95494425297,-0.154114559293,1.91072702408,-1.17353022099,0.043251350522,-4.6040291636e-05,-0.00229241978377,-0.0193020105362,-0.000924866413698,-0.000225626426982,-0.000172049549292,-0.0109263462946,0.444767305213,-0.315176185279,0.404836596745,0.0564868030532,0.944264953862,0.322074820605,-0.0379571812626
-0.379846781492,-0.0826219171286,-0.185651168227,-1.95497429371,-0.15411528945,1.91072404385,-1.17395365238,0.043251350522,0.000649707217235,-0.000674569047987,-0.013602046296,-0.00175333430525,0.000104542203189,5.03676119479e-07,-0.0188635438681,0.444667852004,-0.315305766386,0.404807118184,0.0564442215697,0.944245029561,0.322137033047,-0.0379882301262
-0.37983456254,-0.0826277509332,-0.185830593109,-1.9549870491,-0.154115319252,1.91072583199,-1.17429304123,0.043251350522,0.00143152032979,-0.00145830900874,-0.00506629422307,0.000431930995546,-0.00276544154622,6.43968887744e-05,-0.0157454162836,0.444609151317,-0.315383297917,0.404803109666,0.0564261158371,0.944214247798,0.322229141522,-0.0379990493207
-0.379816949368,-0.0826389789581,-0.185890108347,-1.95498120785,-0.154115244746,1.91072702408,-1.17457771301,0.0432526618242,0.00294146873057,-0.000668596068863,-0.00391222024336,-7.43825366953e-05,2.01007114811e-05,0.00250294036232,-0.0193671043962,0.444599655603,-0.315398554275,0.404810542633,0.0564248924617,0.944178744729,0.322333257152,-0.0380000070295
-0.379773885012,-0.0826460421085,-0.18590888381,-1.95498430729,-0.15411517024,1.91072666645,-1.17485928535,0.0432526618242,0.00444788811728,-0.000530673249159,-0.000458189315395,8.28247430036e-05,6.31493821857e-05,-2.12471331906e-05,-0.00964185874909,0.444606120721,-0.31538716302,0.404812539231,0.0564203509559,0.944129533188,0.322477560921,-0.0380051437251
-0.379573047161,-0.0826581567526,-0.185949012637,-1.95498251915,-0.154114037752,1.91072583199,-1.17536067963,0.0432526618242,0.00804971065372,0.000606882444117,-0.000721910211723,-0.000351959577529,0.000188539634109,-2.7846379453e-05,-0.0202834159136,0.444656254014,-0.315315541515,0.404819300473,0.0564165968652,0.944023012971,0.322789529055,-0.0380083964356
-0.379389852285,-0.082659214735,-0.185965210199,-1.9549882412,-0.15411426127,1.91072392464,-1.17560839653,0.0432526618242,0.0089164795354,8.60354921315e-05,0.00035133145866,2.64831851382e-06,-2.24491614063e-05,0.000138977367897,-0.00857193488628,0.4447104499,-0.315235720198,0.404816701487,0.0564119472249,0.943952586265,0.322995773352,-0.0380123293043
