imanlab/tactile_prediction_flat_dataset/train/data_sample_2021-11-24-15-53-35/robot_state.csv
position_panda_joint1,position_panda_joint2,position_panda_joint3,position_panda_joint4,position_panda_joint5,position_panda_joint6,position_panda_joint7,position_panda_finger,velocity_panda_joint1,velocity_panda_joint2,velocity_panda_joint3,velocity_panda_joint4,velocity_panda_joint5,velocity_panda_joint6,velocity_panda_joint7,ee_state_position_x,ee_state_position_y,ee_state_position_z,ee_state_orientation_x,ee_state_orientation_y,ee_state_orientation_z,ee_state_orientation_w
0.285364896059,-0.00492759421468,-0.283160477877,-2.47536635399,-0.0541960150003,2.45705080032,-0.652653813362,0.0725853070617,0.000197640416445,8.50350988912e-05,-0.000180662565981,-0.00194674369413,-1.56960402364e-06,0.000150402862346,0.000103484424471,0.469471600318,-0.00256095621357,0.179804942948,0.0132821214796,0.939723610962,0.341478986243,-0.0116284947728
0.285360276699,-0.00491141807288,-0.283160120249,-2.47540426254,-0.0541966967285,2.45705103874,-0.652655124664,0.0725853070617,-0.000387048115954,-3.46063170582e-05,-0.00381081085652,-0.00181003659964,1.13116675493e-05,-0.00018183751672,4.0072878619e-05,0.469451464609,-0.00256371872259,0.179782964156,0.0132753846625,0.93972367019,0.341478202677,-0.0116543824693
0.28535965085,-0.00491048302501,-0.283161729574,-2.47543406487,-0.05419633165,2.45704960823,-0.652653813362,0.0725853070617,0.000425596168498,-0.000659496174194,1.3385197235e-05,-0.00190349097829,-0.000131765511469,-0.00493694609031,-7.39657916711e-05,0.469437010075,-0.00256481446865,0.179770844352,0.0132699658945,0.939724137036,0.34147661178,-0.0116695146287
0.285368353128,-0.00493865879253,-0.283159226179,-2.47544622421,-0.0541962720454,2.457051754,-0.652653574944,0.0725866183639,0.000129230800667,-0.000110541848699,-0.000500054447912,0.000105928207631,-1.00354500319e-05,0.000184119402547,-0.000327739689965,0.469435943501,-0.00255831555224,0.17977897639,0.0132691683124,0.93972241031,0.341481717217,-0.0116600697298
0.285365700722,-0.00493501359597,-0.283160626888,-2.47544884682,-0.0541963018477,2.45705270767,-0.652651965618,0.0725866183639,2.85943260678e-05,0.000454482506029,0.00014169527276,-8.07649121271e-05,-4.86155986437e-05,-6.27503177384e-05,0.000255247578025,0.469434375105,-0.00256036585076,0.179776398366,0.0132687421315,0.939723330463,0.341479112265,-0.0116626857122
0.285365253687,-0.00492402398959,-0.283159971237,-2.47545909882,-0.0541958585382,2.4570505619,-0.652653217316,0.0725866183639,-3.0017008612e-05,0.000427576276707,-0.0026281485334,0.000353575655026,5.19219247508e-05,-2.53042162512e-05,-0.000217207430978,0.469427472283,-0.00256074344445,0.179767291419,0.013266198161,0.939722996506,0.34147974435,-0.0116739757481
0.285363018513,-0.00492064189166,-0.283161014318,-2.475461483,-0.0541968680918,2.45705199242,-0.652651906013,0.0725866183639,-5.07507911607e-06,0.000545721733943,-0.00388985313475,0.000310779927531,7.34294808353e-05,6.36734012005e-06,-4.30047948612e-05,0.469426164454,-0.00256248155406,0.179764967283,0.013266186842,0.939723602082,0.341478001713,-0.0116762155727
0.285365372896,-0.00492577673867,-0.283159643412,-2.47546076775,-0.0541962385178,2.45705199242,-0.65265250206,0.0725866183639,-0.000422702112701,-0.000406843872042,0.000127425606479,5.79080842726e-05,9.21492828638e-05,4.86261305923e-05,-0.000125077727716,0.469427368889,-0.00256029304375,0.179767762515,0.0132663925864,0.939722846853,0.341480178261,-0.0116731088926
0.285363852978,-0.00492698838934,-0.283160448074,-2.47546029091,-0.0541955381632,2.45705199242,-0.652653336525,0.0725866183639,0.000297478050925,0.000180411923793,0.00029687571805,0.000359718163963,7.59156828281e-05,1.63549866556e-05,-0.000128121653688,0.469427656981,-0.00256145671923,0.179768281823,0.0132661955815,0.93972335665,0.341478808728,-0.011672356161
0.285367280245,-0.00492616742849,-0.283158630133,-2.47546195984,-0.054196216166,2.45705246925,-0.652653098106,0.0725866183639,-0.000212682003621,0.00327014178038,0.000141761338455,-0.000329952774337,-3.53088762495e-05,4.62113384856e-05,0.000141905577038,0.469426873316,-0.00255907365239,0.179767307564,0.0132661957384,0.939722392293,0.341481428414,-0.0116733546629
0.285368770361,-0.00492290919647,-0.283160477877,-2.47546744347,-0.0541968531907,2.45705246925,-0.652653098106,0.0725839957595,-0.000150636595208,0.000228299250011,-0.00257624639198,-0.000134925881866,0.000113664005767,-3.05924040731e-05,-0.000295063102385,0.469423684285,-0.00255930818293,0.179763547921,0.0132652359066,0.939722274448,0.341481638226,-0.0116777936264
0.285365283489,-0.00492551131174,-0.283159732819,-2.47546648979,-0.0541971512139,2.45705199242,-0.652654290199,0.0725839957595,0.000144706675201,0.000164452198078,5.60740736546e-05,0.000476140878163,-7.20757743693e-05,-7.65437653172e-05,2.02218707273e-05,0.469424539418,-0.00256063002101,0.179765213951,0.0132655849689,0.939722556319,0.341480904807,-0.0116761611754
0.285366773605,-0.00492986850441,-0.283159941435,-2.47546601295,-0.0541970655322,2.45705246925,-0.65265506506,0.0725839957595,0.00014280747564,-0.00125768058933,-0.000342378159985,3.77121868951e-05,-6.49092180538e-05,-8.16256579128e-05,-3.15626712108e-05,0.469425511839,-0.00255982809593,0.179767398784,0.013265851794,0.939722252765,0.341481819965,-0.0116735236569
0.285367131233,-0.00492861773819,-0.28315871954,-2.47546720505,-0.0541972257197,2.45705103874,-0.652653753757,0.0725839957595,9.17961879168e-05,-0.000250709621469,0.000244844442932,0.000503255636431,9.39333986025e-05,9.88028914435e-05,0.000239456567215,0.469424458346,-0.00255917130705,0.179766253121,0.0132654633488,0.939722167392,0.341482006269,-0.0116753875816
0.285368651152,-0.00492580188438,-0.2831594944,-2.47547030449,-0.054197281599,2.45705223083,-0.652652561665,0.0725839957595,0.000150432519149,-0.000233099111938,-3.51927556039e-05,9.78339739959e-05,1.9856099243e-05,6.85634659021e-05,0.000409997184761,0.469422852815,-0.00255893295638,0.179763883626,0.0132650529691,0.939722196859,0.341481862943,-0.011677673923
0.285367667675,-0.00492380838841,-0.283160895109,-2.47546935081,-0.0541970878839,2.45705294609,-0.65265327692,0.0725839957595,0.000352500326699,0.000565448135603,6.05610148341e-05,4.00566641474e-05,-6.31585817246e-06,0.000130561777041,0.000238639797317,0.469423157831,-0.00256011404785,0.179763416821,0.0132651798597,0.939722499898,0.341481017035,-0.0116778799253
0.285370469093,-0.00492657115683,-0.283157944679,-2.4754691124,-0.0541976802051,2.45705223083,-0.65265339613,0.0725853070617,0.000269959360594,0.000132172397571,-0.000272437668173,-4.63516153104e-05,7.11170378054e-06,0.000102816506114,7.54040593165e-05,0.46942353595,-0.0025573474226,0.179764694537,0.0132654165579,0.939721437405,0.341483970248,-0.0116767527759
0.285366803408,-0.00492387637496,-0.283161282539,-2.47547197342,-0.0541981160641,2.45705151558,-0.652652025223,0.0725853070617,-0.000333348813001,-0.000635922362562,-9.61881087278e-05,-1.40429056046e-05,4.72837064081e-06,-9.27040455281e-05,-0.000260571599938,0.469421621577,-0.00256078988895,0.179762309514,0.0132648273257,0.939722769268,0.341480221589,-0.0116798641023
0.28537017107,-0.00492530642077,-0.283158481121,-2.47547411919,-0.0541952103376,2.45705151558,-0.652652919292,0.0725853070617,5.53082027182e-05,-0.000324486143654,0.000547518138774,2.1293073587e-05,6.86003040755e-05,0.000129673935589,0.00151175050996,0.469420831422,-0.00255763145732,0.179762114452,0.0132636827962,0.939721961409,0.341482490185,-0.0116798350974
0.285372197628,-0.00492912251502,-0.283158183098,-2.47547483444,-0.0541966855526,2.45705246925,-0.65265417099,0.0725853070617,-0.000513972423505,-0.000217265129322,0.00283283134922,0.000421125092544,-3.88982916775e-05,3.13690616167e-05,0.000538482447155,0.46942127699,-0.00255646777136,0.179763637224,0.0132642698916,0.939721172161,0.341484703675,-0.0116779527476
0.285369932652,-0.00492993649095,-0.283160507679,-2.47547483444,-0.054195959121,2.45705151558,-0.652653217316,0.0725839957595,0.000142564764246,-0.000646104628686,0.00022606884886,0.000153876593686,-4.2611383833e-05,-6.82969257468e-05,7.3815772339e-06,0.469421172454,-0.00255854639535,0.179763919214,0.0132639100676,0.939722224306,0.341481822271,-0.011677952781
0.285370349884,-0.00492541445419,-0.283157467842,-2.47547292709,-0.0541963353753,2.457051754,-0.652654290199,0.0725839957595,-0.000126531958813,-0.000158463153639,0.000244803784881,-9.7009469755e-06,8.07817341411e-05,-0.000101254088804,-0.000153651868459,0.469421466359,-0.00255714331509,0.179762649502,0.0132642598579,0.939721376903,0.341484097281,-0.0116792205332
0.285373359919,-0.00492170499638,-0.283157974482,-2.47547745705,-0.0541964881122,2.45705080032,-0.652652204037,0.0725839957595,-0.000174472152139,-0.000234396080486,0.000693581823725,-0.000233896556892,4.24968420702e-05,6.09549606452e-05,-0.000221563794184,0.469418590616,-0.00255615283554,0.179759140969,0.0132633022535,0.939721228732,0.34148439101,-0.0116836409984
0.285373568535,-0.00492144655436,-0.283159375191,-2.47548127174,-0.054197743535,2.45705270767,-0.652652323246,0.0725839957595,0.00210143439472,4.73568761663e-05,-9.96416129055e-05,-0.000150427760673,0.000119817173982,7.41460189602e-06,-0.000164306111401,0.469417181164,-0.00255678862801,0.179757706767,0.013263294153,0.93972121489,0.34148439018,-0.0116847877056
0.285370349884,-0.00493049249053,-0.28315988183,-2.47547793388,-0.0541980154812,2.45705270767,-0.652653872967,0.0725839957595,-0.000237549262238,7.70781916799e-05,8.13344231574e-05,0.000115194321552,-1.8604356228e-05,9.49054810917e-05,7.10964886821e-05,0.469420070046,-0.00255816414557,0.179763071581,0.0132641948227,0.939721636791,0.34148340014,-0.0116787669531
0.285368978977,-0.00492997514084,-0.283159613609,-2.47548055649,-0.0541966743767,2.4570505619,-0.652652323246,0.0725839957595,2.17940146285e-06,0.000757953850552,-0.000183037031093,-0.000414874753915,6.70288718538e-05,-0.000148196020746,-0.00028902219492,0.469418283526,-0.00255863844587,0.179761635441,0.0132630170991,0.939722253381,0.341481667759,-0.0116811450343
0.285372108221,-0.00492676114663,-0.28315910697,-2.47547960281,-0.0541967786849,2.45705151558,-0.652652740479,0.0725839957595,0.00048404809786,9.21122773434e-05,-0.000790547172073,-0.000329160888214,1.80798015208e-05,-8.49518110044e-05,0.000202234397875,0.469418731812,-0.00255704974221,0.179760887266,0.0132633934359,0.939721480509,0.341483772176,-0.0116813736823
0.285374313593,-0.00492296135053,-0.283159196377,-2.47547841072,-0.0541973598301,2.45705151558,-0.652654588223,0.0725839957595,8.41415021569e-05,-5.51923858438e-06,-0.000550180324353,0.000487634417368,7.60158654884e-05,-2.97608858091e-05,0.000107642998046,0.469418486563,-0.00255627633374,0.179759397382,0.0132635276222,0.939720751324,0.341485710224,-0.0116832258424
0.285372167826,-0.00491566676646,-0.283160060644,-2.47548055649,-0.0541953630745,2.457051754,-0.652654886246,0.0725839957595,-0.000241583547904,-5.86283795201e-06,-0.000506344775204,-0.000284611742245,-1.87560908671e-05,-1.28549982037e-05,0.000149968662299,0.469416444508,-0.00255786128161,0.179755298601,0.0132623543042,0.939721422212,0.341483760496,-0.0116875831102
0.285371750593,-0.0049302354455,-0.283159226179,-2.475481987,-0.0541966706514,2.45705342293,-0.652653694153,0.0725839957595,-0.000177497495315,-0.000693223904818,0.000463871052489,-4.49661092716e-05,0.000165974575793,-1.07061068775e-05,0.000398214120651,0.469418287289,-0.00255710906917,0.179761439756,0.0132632211389,0.939721475421,0.34148382922,-0.0116803109983
0.285373002291,-0.00493112998083,-0.283158540726,-2.475481987,-0.0541959553957,2.45705199242,-0.652654230595,0.0725839957595,-0.000485485012177,0.000146896272781,-0.000381799065508,0.000400967459427,-4.05058599426e-05,-1.44282012116e-05,5.24522729393e-05,0.469418107109,-0.00255612942803,0.179761719559,0.0132628326124,0.939721157465,0.341484713969,-0.0116804664645
0.285370379686,-0.00492940656841,-0.283160716295,-2.475481987,-0.0541957505047,2.45705294609,-0.652653157711,0.0725839957595,-0.000400505232392,-0.000507357879542,-0.000168747021235,6.55604526401e-05,7.82241113484e-06,-5.04153613292e-05,5.83555311096e-06,0.469418050031,-0.00255842815901,0.179761023483,0.0132628329977,0.939722175898,0.34148189736,-0.0116808753489
0.285378277302,-0.00492557324469,-0.283156633377,-2.47548770905,-0.0541978292167,2.45705318451,-0.652653515339,0.0725839957595,0.000186777033377,-0.000422116398113,-4.27717386629e-05,0.000123009594972,-0.000201981747523,-0.000101218283817,0.000159353308845,0.469414889604,-0.00255311847172,0.179757104765,0.0132624721877,0.939719719258,0.341488513632,-0.0116854958331
0.285377770662,-0.00492748850957,-0.283156484365,-2.47548556328,-0.0541982315481,2.45705318451,-0.652653753757,0.0725853070617,-0.000296783226077,-0.00401373067871,0.00022801446903,-0.000373303919332,-8.24197049951e-05,5.86799978919e-06,7.63684001868e-05,0.469416179318,-0.00255323097795,0.179758800518,0.0132630131644,0.939719711532,0.341488579595,-0.0116835753832
0.285370469093,-0.00492859305814,-0.283157765865,-2.47548341751,-0.0541962459683,2.45705318451,-0.652652978897,0.0725853070617,-1.23897771118e-05,0.00294079794548,-0.000307062116917,9.44451167015e-05,-0.00013813804253,1.40931542774e-05,0.000239162778598,0.469417360558,-0.0025571968822,0.179760137888,0.0132627952078,0.939721624458,0.341483379686,-0.0116819465496
0.285379707813,-0.00492111220956,-0.283154785633,-2.47548890114,-0.0541962496936,2.45705270767,-0.652652561665,0.0725853070617,0.000397542637074,-0.000941559439525,0.000435579859186,0.00041208305629,-5.76380480197e-05,-0.000561955908779,0.000218418848817,0.469413572734,-0.00255166914684,0.179754592782,0.0132616177447,0.939719499153,0.341489055714,-0.0116883241587
0.285374045372,-0.00492849526927,-0.283158302307,-2.4754884243,-0.0541961975396,2.45705318451,-0.652653038502,0.0725853070617,-0.000260957982391,0.00191053899471,-0.000270235817879,0.00144033005927,3.17992853525e-05,1.54514473252e-05,4.66896090074e-05,0.469414962821,-0.00255564697386,0.179758136211,0.0132619225163,0.93972105065,0.341484913913,-0.011684247179
0.285371154547,-0.00493149831891,-0.283158928156,-2.47548651695,-0.0541970022023,2.45705246925,-0.6526517272,0.0725853070617,-0.000154222550918,-0.000915676297154,0.000195037369849,-0.000269024865702,-5.61052002013e-05,4.23498167947e-05,-0.000234629755141,0.469416136253,-0.00255723226097,0.179760168296,0.0132624585215,0.939721797698,0.341482904345,-0.0116822879845
0.285375475883,-0.00492701027542,-0.283156305552,-2.47548723221,-0.054196447134,2.45705318451,-0.652653157711,0.0725853070617,0.000359426368959,0.000525154347997,-0.000123311794596,-0.000190321603441,-1.81721861736e-05,1.83380586805e-06,-0.000367209344404,0.469415314261,-0.00255412059875,0.179757933297,0.0132621763161,0.939720406831,0.341486669474,-0.0116844308045
0.285376191139,-0.00492196530104,-0.283157289028,-2.47549033165,-0.0541968531907,2.45705366135,-0.652653098106,0.0725853070617,-0.000177399022505,0.00011861823441,-0.000125079284771,0.000186360673979,3.63841754734e-05,1.25079452573e-06,8.78170831129e-05,0.469413222078,-0.00255448751726,0.179754501398,0.0132616795069,0.939720350555,0.34148671397,-0.0116882196198
0.285372316837,-0.00492260046303,-0.283158510923,-2.47549152374,-0.0541963987052,2.45705199242,-0.65265327692,0.0725853070617,-0.000188846490346,-0.000683620513882,-0.000381932390155,-3.41504846801e-06,-0.000148426435771,9.33775590966e-05,-0.000134994057589,0.469412373931,-0.00255684113622,0.17975418066,0.013261078592,0.939721249294,0.341484228873,-0.0116892487647
0.285374194384,-0.00492598162964,-0.283155977726,-2.47549057007,-0.0541970059276,2.45705294609,-0.652652382851,0.0725853070617,0.000249153963523,-0.000229121622397,2.42399892159e-05,0.000849040749017,1.31464857986e-05,-7.83864161349e-05,0.000198954658117,0.469413542422,-0.00255465680506,0.179756155538,0.0132617075215,0.939720596759,0.341486087911,-0.0116866843001
0.28538158536,-0.00492899306118,-0.283154636621,-2.47549009323,-0.0541977025568,2.45705366135,-0.652653098106,0.0725853070617,0.000334543496137,-0.000144453020766,5.44419999642e-05,0.000313409982482,9.42477563513e-05,-4.69350597996e-05,0.000259998632828,0.469414391218,-0.00255046856847,0.17975775814,0.0132622476468,0.939718913471,0.34149076926,-0.0116846330003
0.285376399755,-0.00492411386222,-0.283156722784,-2.47549200058,-0.0541954040527,2.45705533028,-0.652650237083,0.0713776946068,-0.000597610080149,0.000585514993872,-8.11150675872e-05,-0.000587748596445,-1.05374356281e-05,0.000148358929437,0.00111367879435,0.469413118791,-0.00255390964618,0.179754958023,0.01326130608,0.939720913424,0.341485222383,-0.0116869677461
0.285374432802,-0.00492095341906,-0.283158779144,-2.47549271584,-0.054197948426,2.45705533028,-0.652652323246,0.0713776946068,-0.000133375680889,-0.000838197360281,-0.000136427464895,0.000197011409909,2.52197696682e-05,-0.000150782405399,0.000237893138546,0.469412315421,-0.00255611205393,0.179753263354,0.0132618000743,0.939720865495,0.341485259544,-0.0116891749963
0.285375475883,-0.00492428429425,-0.283156365156,-2.47549319267,-0.0541965439916,2.45705533028,-0.652650952339,0.0713776946068,0.000547973788343,0.000818795233499,0.000226776406635,0.000431155291153,-2.24265222641e-05,8.35836544866e-05,0.000376364536351,0.469412657003,-0.00255461162308,0.179754794899,0.0132615351525,0.939720770374,0.341485593807,-0.0116873573415
0.285379350185,-0.00492630619556,-0.283155113459,-2.47549176216,-0.054196856916,2.45705461502,-0.652650892735,0.0713776946068,4.2569328798e-05,-0.0034388829954,6.43763050903e-05,-6.90772139933e-05,-1.13580781544e-05,-2.12813502003e-05,0.000399315409595,0.469413412393,-0.00255178668968,0.179755980249,0.0132617670454,0.939719840012,0.341488183863,-0.011686222335
0.285379707813,-0.00492862798274,-0.283156037331,-2.47549200058,-0.0541975311935,2.45705580711,-0.652650356293,0.0713776946068,0.000263581197942,5.91114912822e-05,7.36959045753e-05,-0.000391050445614,-9.09638329176e-05,4.68677317258e-05,0.000219149806071,0.469413965354,-0.00255206409531,0.17975708113,0.0132622202473,0.939719989707,0.341487812091,-0.0116845342097
0.285377860069,-0.00492649385706,-0.283156335354,-2.47549414635,-0.0541966632009,2.45705389977,-0.652651309967,0.0713776946068,8.50106080179e-05,-0.00028697628295,-0.00041524952394,-6.76036870573e-05,-8.13874648884e-05,-8.60428117448e-05,0.000312217394821,0.469412155238,-0.00255304737068,0.179755076717,0.0132611824929,0.939720244996,0.341487045229,-0.0116875922147
0.285377800465,-0.00492401886731,-0.283156633377,-2.47549557686,-0.0541957356036,2.45705342293,-0.6526517272,0.0612932667136,0.000175155422767,-0.00390894897282,-0.000102383397461,2.59730768448e-05,-2.19006760744e-05,8.92289899639e-05,-0.000312917865813,0.469411010744,-0.00255326341702,0.179753365345,0.0132605094249,0.939720335185,0.341486753097,-0.011689639687
0.285379052162,-0.00492107961327,-0.283157795668,-2.4754986763,-0.0541975311935,2.45705318451,-0.652650356293,0.0612932667136,-8.39621861815e-05,-0.000309485913021,0.000259262422333,-0.000489479571115,3.65938540199e-05,6.2064427766e-05,0.00418772408739,0.469409076129,-0.00255347803116,0.17975082282,0.0132603941319,0.939720265479,0.341486839599,-0.0116928466404
0.285378009081,-0.00492356996983,-0.283155351877,-2.47549915314,-0.054197229445,2.4570543766,-0.652651429176,0.0612932667136,2.9989902032e-05,3.07430964313e-05,0.000190072445548,-0.00027113078977,0.00017653836403,-1.91218023247e-05,0.000128322644741,0.46940948369,-0.00255267893575,0.179751859566,0.0132604885419,0.939719901122,0.341487894012,-0.0116912278485
0.285375624895,-0.00492846546695,-0.283156871796,-2.47549724579,-0.0541969463229,2.4570543766,-0.65265083313,0.0612932667136,-0.000199440095457,-3.38006066158e-05,-0.000281384011032,-0.000132800720166,6.65302432026e-05,0.000119381766126,-9.57933079917e-05,0.46941108813,-0.00255427840549,0.179754800264,0.0132608595378,0.939720756772,0.341485639521,-0.0116878819188
0.285375475883,-0.00492706941441,-0.283158659935,-2.47549653053,-0.054196678102,2.45705580711,-0.652651488781,0.0612932667136,8.08143013273e-05,0.000807076576166,-0.000438910181401,-0.000178537200554,-0.000106895626232,0.000111953289888,-0.000688058498781,0.469411527145,-0.00255520946525,0.179754569767,0.0132610517531,0.939721007397,0.341484953734,-0.0116875499258
0.285377264023,-0.00492784287781,-0.283156186342,-2.47549748421,-0.0541965439916,2.45705509186,-0.652649581432,0.0612932667136,-0.000133535373607,0.000284135516267,-0.000289315794362,5.79574043513e-05,5.11401594849e-05,7.0284557296e-05,-0.000124713798868,0.469411046716,-0.00255317746516,0.179754487874,0.0132608095595,0.939720623367,0.341486007964,-0.0116878997354
0.285379320383,-0.00492394622415,-0.283156514168,-2.47550106049,-0.0541975833476,2.4570555687,-0.652651011944,0.0612932667136,-0.000811916717794,0.000576582853682,-0.000617322919425,0.00017613748787,-1.62454598467e-05,-0.000157114845933,-0.00035816381569,0.469408906656,-0.00255260273079,0.179751389083,0.0132604607976,0.939719890081,0.341487919587,-0.0116913997876
0.285377562046,-0.00492530222982,-0.283158004284,-2.47550153732,-0.05419690907,2.45705652237,-0.652651786804,0.0552637539804,-0.000256370665738,-0.00302272057161,7.80289701652e-05,0.00051086046733,1.34880128826e-05,0.000170017578057,-0.000925683241803,0.469409340285,-0.00255412785673,0.179752323915,0.0132605279624,0.939720453967,0.341486410157,-0.0116900880672
0.285376667976,-0.00492716394365,-0.283157169819,-2.47549915314,-0.0541973672807,2.4570555687,-0.652651786804,0.0552637539804,0.00010547767306,0.00397791573778,-0.00254824594595,-0.000171658859472,3.63890685549e-05,-4.05247301387e-05,-0.000450420950074,0.469410266302,-0.00255400012655,0.179753575994,0.0132607963513,0.939720388085,0.341486621601,-0.0116889029056
0.28537735343,-0.0049275602214,-0.283157289028,-2.47550010681,-0.054196190089,2.45705652237,-0.652651369572,0.0552637539804,0.000385491264751,0.000755322631449,-2.48767573794e-05,-1.44634223034e-05,8.85564350028e-06,-6.14787359154e-06,-0.000237616113736,0.46941008414,-0.00255362300064,0.179753461916,0.0132604455268,0.939720522662,0.341486276123,-0.0116885747402
0.28537991643,-0.00492478720844,-0.283155441284,-2.4755012989,-0.0541978813708,2.45705580711,-0.65265005827,0.0552637539804,-0.000300789542962,0.000538437103387,0.00284249079414,-0.000386919535231,-1.68355909409e-05,6.31800794508e-05,0.000132917397423,0.469408976205,-0.00255180186364,0.179751696282,0.0132605890752,0.93971973183,0.341488364077,-0.0116909911069
0.285377532244,-0.00492611993104,-0.283155679703,-2.4755012989,-0.0541979633272,2.45705580711,-0.652651250362,0.0552637539804,-0.000211925871554,0.000136405200465,-3.57751559932e-05,-2.51587171078e-05,-4.62458160655e-07,0.000113412708743,0.00053226161981,0.469409165695,-0.00255298101983,0.179752295643,0.013260632603,0.939719974751,0.341487715526,-0.0116903596127
0.285377591848,-0.00492707686499,-0.283156573772,-2.47549962997,-0.0541970096529,2.4570555687,-0.65265160799,0.0552637539804,-0.000296815356705,-5.9253663494e-05,2.37596505031e-05,-0.000517010339536,1.07056748675e-05,4.72456595162e-05,0.000154432898853,0.469409931735,-0.00255339222524,0.17975329475,0.013260594881,0.939720273115,0.341486935578,-0.0116892016639
0.285379678011,-0.00492607429624,-0.283155471087,-2.47550272942,-0.0541966669261,2.45705604553,-0.652652025223,0.0552637539804,0.000352068978827,0.000152684326167,0.00266497861594,-0.000314996403176,-7.6233431173e-05,-7.11069660611e-05,-7.0758855145e-05,0.469408541586,-0.00255178470341,0.179751736926,0.0132600487254,0.939719610247,0.341488726128,-0.0116908015214
0.285379707813,-0.00492465356365,-0.283155590296,-2.47550177574,-0.0541977211833,2.45705580711,-0.652651131153,0.0552637539804,4.2100346036e-05,-0.000793329905719,0.000806565280072,-8.46349794301e-05,4.218205504e-06,-0.000173811829882,0.000176661807927,0.469408731169,-0.00255196439398,0.179751450517,0.013260447627,0.939719627884,0.341488645876,-0.0116912754851
0.285378575325,-0.00492596067488,-0.283157378435,-2.47550415993,-0.0541974417865,2.45705485344,-0.652651309967,0.0552637539804,-0.000580794177949,0.000146066915477,-0.00296764518134,-0.000215268402826,-3.04410623357e-05,-7.66208977439e-05,-9.6949210274e-05,0.469407585269,-0.00255327126359,0.179751029632,0.0132598360399,0.939720129235,0.341487258616,-0.011692191728
0.285376876593,-0.00492557464167,-0.283156126738,-2.47550392151,-0.0541966594756,2.45705533028,-0.652651548386,0.0536851249635,0.000388178654248,-0.000168569255038,-0.000216407875996,-0.000344520842191,5.84152394367e-06,0.00015417765826,-8.09019766166e-05,0.469407741996,-0.00255343763978,0.17975098812,0.0132597023551,0.939720271534,0.341486879764,-0.0116919714475
0.285380274057,-0.00492706988007,-0.283156633377,-2.47550582886,-0.0541979558766,2.45705580711,-0.652652263641,0.0536851249635,0.000262243818725,0.000123564313981,3.6855784856e-05,0.000187473153346,-2.88425553663e-07,0.000117878596939,0.000309099879814,0.469407182321,-0.00255210176387,0.179750962771,0.0132598938722,0.939719476962,0.34148905755,-0.0116920097468
0.285381019115,-0.00492408731952,-0.283156096935,-2.47550654411,-0.0541968494654,2.4570555687,-0.652650296688,0.0536851249635,0.00045657591545,9.47141888901e-05,-6.9773515861e-05,-0.000660850957502,-0.000125977501739,-0.00128103198949,-0.00028570991708,0.469406355307,-0.00255155498823,0.179749321329,0.0132593342986,0.939719719704,0.341488349445,-0.011693816016
0.28538146615,-0.00492350384593,-0.2831569314,-2.47550654411,-0.0541979596019,2.45705628395,-0.652651369572,0.0536851249635,0.000249460659688,0.00041784872883,-0.000236431413214,8.37045081425e-05,-0.000139861484058,-5.98355582042e-05,0.000177272202563,0.46940642911,-0.00255183034431,0.179749121559,0.0132597421553,0.939719445729,0.341489085137,-0.011693886289
0.285380601883,-0.00492436531931,-0.283155858517,-2.47550940514,-0.0541975423694,2.45705461502,-0.65265160799,0.0536851249635,0.00054166681366,-0.000161103816936,-0.000140354502946,5.8973866544e-05,8.78791688592e-05,4.79162663396e-05,1.66092304426e-05,0.469404844614,-0.00255168920384,0.179748256006,0.0132589125494,0.939719414858,0.341489145097,-0.0116955565998
0.285382211208,-0.00492586242035,-0.283156394958,-2.4755115509,-0.0541981346905,2.45705604553,-0.652651131153,0.0536851249635,-0.000199122121558,0.00377240637317,0.00172570580617,-0.00162958644796,2.17008055188e-05,-4.47988804808e-06,-0.000151555490447,0.469404379396,-0.00255127360937,0.17974837045,0.0132589759992,0.939719259589,0.341489585096,-0.0116951130781
0.28537940979,-0.00492526357993,-0.283156424761,-2.47551298141,-0.0541987977922,2.45705580711,-0.652650415897,0.0536851249635,-0.000259668828221,-0.000267011317192,-0.000438908668002,0.000652750604786,6.28426496405e-05,-6.36990516796e-05,0.00089277792722,0.469403635405,-0.00255231094293,0.179747356788,0.0132588662672,0.939719699002,0.341488338197,-0.0116963385673
0.285379290581,-0.00492584658787,-0.283156752586,-2.47551846504,-0.0541997142136,2.45705604553,-0.65265083313,0.0534493848681,-0.000364165985957,0.00111345376354,0.00286450027488,0.000579466694035,-9.77018316917e-06,-2.21334721573e-05,-0.00038473654422,0.469401123167,-0.00255279894458,0.179745528986,0.0132582707004,0.939719581054,0.341488607692,-0.0116986215266
0.28537979722,-0.00492016784847,-0.28315615654,-2.47553443909,-0.0542020611465,2.45706486702,-0.652651071548,0.0534493848681,2.75169768429e-05,0.00110357778613,0.000771836494096,-0.00196381425485,-0.000802068214398,0.00714634917676,-3.54003168468e-05,0.469394736174,-0.00255258873993,0.179737524937,0.0132574050414,0.939718894082,0.341490313599,-0.0117049870874
0.285380154848,-0.00494328560308,-0.283159554005,-2.47551584244,-0.0542034693062,2.45706295967,-0.652651667595,0.0534493848681,0.000500891823322,-0.000127715509734,0.00039860085235,0.000441503681941,6.66432788421e-06,-6.00570638198e-05,3.18804814015e-05,0.469406445926,-0.00255312911024,0.179754982889,0.0132613935817,0.939719402376,0.341489417724,-0.011685782262
0.285376906395,-0.00494964094833,-0.28315615654,-2.47551679611,-0.0542037002742,2.45706367493,-0.652650535107,0.0488612540066,-0.000638664001599,-0.000203504765523,-4.23533056164e-05,0.000903224863578,-0.000380879908334,0.000221158974455,0.000879265950061,0.469407091696,-0.00255279517602,0.17975753394,0.0132616239027,0.939719580507,0.341489022899,-0.0116827337847
0.285373747349,-0.00496006105095,-0.283158391714,-2.47550392151,-0.0542032718658,2.45706486702,-0.65265083313,0.0488612540066,0.000279172090814,-0.00343343615532,-0.00394429126754,0.00227470346726,-0.000314188655466,0.000442300457507,-0.000301075691823,0.469414916598,-0.00255482455422,0.179767319168,0.0132641499335,0.939720666714,0.341486340129,-0.0116709069722
0.285375982523,-0.00494980253279,-0.283156812191,-2.47551965714,-0.054203171283,2.45706367493,-0.652651429176,0.0488612540066,0.00028804896283,1.69552404259e-05,-0.000128141109599,-0.000902631785721,-0.000191688319319,0.00560509599745,-0.000142494463944,0.469405863655,-0.00255340771733,0.179756540087,0.0132610414856,0.939719693735,0.341488693634,-0.0116839116389
0.285375267267,-0.00495000137016,-0.283157795668,-2.47551417351,-0.0542029589415,2.45706415176,-0.652650415897,0.0488612540066,-0.000319417216815,5.19849236298e-05,-0.000312933465466,-0.000112927948066,4.08580344811e-05,0.000246185576543,-0.000165516801644,0.469408287461,-0.00255403101186,0.17975857942,0.0132618395986,0.939720178912,0.34148741575,-0.0116813324327
0.285377115011,-0.00495197111741,-0.283158749342,-2.47551941872,-0.054203890264,2.45706367493,-0.652651131153,0.0488612540066,-0.00019923975924,-0.000393345981138,0.00328408600762,-0.000111681416456,-3.95469396608e-05,0.000624560576398,-0.000246629788307,0.469406196647,-0.00255382656596,0.179757561901,0.0132612850479,0.93971986112,0.341488260133,-0.0116828427443
0.285378336906,-0.00495416438207,-0.283156752586,-2.47551941872,-0.0542023330927,2.45706295967,-0.65265005827,0.0488612540066,0.00010031965212,0.000159748073202,-2.8229525924e-05,-4.30934487667e-05,6.20082209934e-05,0.000509308534674,-2.62631074293e-05,0.469406365626,-0.00255212225081,0.179758485358,0.0132608146112,0.939719725307,0.341488684177,-0.0116819061078
0.285376518965,-0.00495238043368,-0.283157974482,-2.47551774979,-0.0542033687234,2.45706319809,-0.652650117874,0.0488612540066,-0.000104094928247,-0.000115812967124,-0.000301648833556,-0.000436528353021,0.000112442627142,-0.000193185187527,0.000136754606501,0.469406934736,-0.00255369408431,0.179758353085,0.0132613637326,0.939720088411,0.341487659706,-0.0116820213653
0.285379171371,-0.00495004141703,-0.283156901598,-2.47551870346,-0.0542039349675,2.45706343651,-0.652649879456,0.0488612540066,0.000863276305608,-0.000227394135436,0.000290581199806,0.000304421409965,0.00220061349683,-8.75278510648e-06,0.000357963523129,0.469406206872,-0.00255208433428,0.179756953032,0.0132613577855,0.939719391827,0.341489524407,-0.0116835534708
0.285382032394,-0.00494861928746,-0.283155560493,-2.47551846504,-0.0542029514909,2.45706343651,-0.652650773525,0.0488612540066,0.00129985657986,0.000594277516939,-2.85669084406e-05,-0.000292945187539,3.4401909943e-05,0.000171665189555,-0.00319647486322,0.469405828649,-0.00255019853526,0.179756022974,0.013260949774,0.93971874179,0.341491298059,-0.0116844587608
0.285378396511,-0.00495149195194,-0.283157974482,-2.47552108765,-0.05420268327,2.45706367493,-0.652651846409,0.0488612540066,-0.000311378418701,-0.000573993078433,0.00101100781467,-9.19300800888e-05,-1.91463095689e-05,0.000510288286023,7.68106983742e-05,0.469405344042,-0.00255279866099,0.17975669598,0.0132606379005,0.939719540504,0.341489136935,-0.0116837373761
0.285377800465,-0.00495350733399,-0.283157974482,-2.47551941872,-0.0542026422918,2.45706295967,-0.652650654316,0.048904594034,0.000266651069978,-0.000172404223122,-0.000362389982911,-0.000120940712804,4.23625642725e-05,-0.000354209332727,-0.000134319168865,0.469406265232,-0.00255299677751,0.179758189769,0.0132608689563,0.939719876255,0.341488253886,-0.0116822801988
0.285378247499,-0.00495444051921,-0.283158153296,-2.47551846504,-0.0542025975883,2.45706319809,-0.652651429176,0.048904594034,0.000308467744617,0.000131885783048,0.00262883724645,4.97051987622e-05,-6.83173566358e-05,-0.000130698128487,8.04485171102e-05,0.469406903255,-0.00255282386372,0.179758999834,0.0132610792484,0.939719717249,0.341488718474,-0.0116812513132
0.285377085209,-0.00495022302493,-0.283157587051,-2.47552037239,-0.0542031899095,2.45706319809,-0.652650356293,0.048904594034,-0.000251468707575,-0.000350403599441,-1.03557995317e-05,-6.81112869643e-05,0.000100956764072,-0.000151488246047,-0.00011030332098,0.469405387814,-0.00255332855657,0.179756364119,0.0132608026179,0.939719877412,0.341488183885,-0.0116843084477
0.28537607193,-0.00495108030736,-0.283156394958,-2.47551941872,-0.0542023144662,2.45706415176,-0.652649581432,0.048904594034,-0.000362681923434,-0.000772172701545,-0.000343587336829,-5.15095343872e-05,-0.00144317641389,-0.000157535454491,-0.000216488566366,0.469406169418,-0.00255313458223,0.17975719973,0.0132608827059,0.939720112642,0.341487582199,-0.0116828839
0.285377472639,-0.00495229894295,-0.283156991005,-2.47551846504,-0.0542029514909,2.45706248283,-0.652650177479,0.048904594034,0.000136282513267,-0.000329464906827,-0.000198158246349,0.000504373165313,3.49488727807e-05,-2.6261779567e-05,-5.70304109715e-05,0.469406564669,-0.00255271675985,0.179757988519,0.0132610799483,0.939719805128,0.341488431611,-0.0116825669738
0.285378187895,-0.00495241163298,-0.283157140017,-2.47551894188,-0.0542029961944,2.45706295967,-0.652651786804,0.048904594034,-0.000290773023153,-0.000368584034732,0.000383560720365,-4.10847678722e-05,-4.16277071054e-05,2.95622594422e-05,-3.61485654139e-05,0.469406332459,-0.00255249569411,0.179757883594,0.0132610230072,0.939719420171,0.341489490745,-0.0116826375012
0.285375803709,-0.00495053920895,-0.283158630133,-2.47551774979,-0.0542031936347,2.45706343651,-0.652650415897,0.048904594034,0.000227204116527,-0.000169114064192,-0.00397579092532,0.00021402045968,-9.31175163714e-05,-8.30662684166e-05,-5.23777162016e-05,0.469406712232,-0.00255440125865,0.179757544464,0.0132612779228,0.939720282139,0.341487102616,-0.0116828197672
0.285380423069,-0.00495277158916,-0.283157795668,-2.4755179882,-0.0542027428746,2.45706391335,-0.652650475502,0.048904594034,0.000421702483436,-0.000215233871131,-2.61456661974e-05,0.000301067222608,5.55530314159e-05,-0.00311275804415,0.000199063768378,0.469407046065,-0.00255170798432,0.17975849574,0.0132612789644,0.939719418393,0.341489524268,-0.0116815100282
0.285380721092,-0.00495502259582,-0.283155679703,-2.47551751137,-0.0542029999197,2.45706510544,-0.652648329735,0.048904594034,-0.000270456512226,-0.000130420725327,-4.93538063893e-05,0.000227579148486,7.33150009182e-05,5.35477665835e-05,-0.000138950053952,0.469407870551,-0.00255048208916,0.17975979632,0.013261717593,0.939719357569,0.341489740291,-0.0116795898585
0.285376697779,-0.00495603168383,-0.283157229424,-2.47551751137,-0.0542028695345,2.45706439018,-0.652650654316,0.048904594034,0.000514897867106,-0.000673710892443,-0.000738807371818,-6.17934711045e-05,4.10678803746e-05,9.59103053901e-05,-5.60971166124e-05,0.469407846685,-0.00255305328931,0.179760188125,0.0132615536904,0.939719937331,0.341488155462,-0.0116794666804
0.285379827023,-0.00495515391231,-0.283157527447,-2.47551608086,-0.054203312844,2.45706295967,-0.652650535107,0.048904594034,-0.000484776508529,-0.000333918753313,-0.000299253297271,-3.87320142181e-05,-4.9835532991e-05,-1.50166124513e-05,0.000347361492459,0.469408083405,-0.00255181032565,0.179760228501,0.0132617027854,0.939719414445,0.341489572415,-0.0116799389133
0.285378843546,-0.00495525309816,-0.283156275749,-2.47551727295,-0.0542029812932,2.45706319809,-0.65265160799,0.0486110635102,-0.000156667301781,0.000150589941768,0.00156310782768,-0.000630340946373,1.83679130714e-05,-5.07648037456e-05,-6.36105833109e-05,0.469407590493,-0.00255165539431,0.179759830391,0.0132614392172,0.939719224762,0.341490091975,-0.0116803087082
0.285373389721,-0.00495627103373,-0.28315988183,-2.47551727295,-0.0542026571929,2.45706343651,-0.652651309967,0.0486110635102,-0.000240702327574,-0.000147522747284,0.00263185962103,0.000435165682575,-8.31516954349e-05,1.16484334285e-05,8.9505163487e-05,0.469407767676,-0.00255583587316,0.179760305238,0.0132613506686,0.939720875077,0.34148557441,-0.0116797123049
0.285373955965,-0.00495374388993,-0.283157795668,-2.47551608086,-0.0542024672031,2.45706510544,-0.652650296688,0.0486110635102,0.000321882253047,-0.000314343924401,0.000228642122238,0.000150328880409,-8.71441006893e-05,-0.000174704182427,-0.000405512400903,0.469407901053,-0.00255626663218,0.179759906441,0.0132615913889,0.939720974006,0.341485289153,-0.0116798195876
0.285376727581,-0.00496308319271,-0.283157467842,-2.47550630569,-0.0542028211057,2.45706868172,-0.652650892735,0.0486110635102,-0.000601206673309,-2.56723542407e-05,-7.8944634879e-05,0.000423192890594,0.000114714595838,0.000310471281409,-0.000237014581216,0.469415088896,-0.00255278380522,0.179768075319,0.0132643025847,0.939720062425,0.341488074908,-0.0116686303784
0.285368531942,-0.00496883597225,-0.283160835505,-2.47550797462,-0.0542024895549,2.45706892014,-0.652650773525,0.0486110635102,0.000201081013074,-0.00064697174821,-0.00267615122721,0.000207764212973,-2.8613701943e-05,-4.34353823948e-05,0.000204067924642,0.46941517211,-0.002557935726,0.179770031386,0.01326406305,0.939722135836,0.34148245216,-0.0116664735167
0.285366326571,-0.00497318711132,-0.283159524202,-2.47550630569,-0.0542028062046,2.45707011223,-0.6526517272,0.0486110635102,-0.000263571273535,0.000181561161298,-0.000429212057497,-6.97813957231e-05,2.24896084546e-05,4.61782001366e-05,-9.01479434106e-05,0.469416856742,-0.00255817509863,0.179772739086,0.0132647485988,0.939722125333,0.341482573315,-0.0116629932999
0.285374075174,-0.00496622221544,-0.283159255981,-2.47550749779,-0.0542031265795,2.45707058907,-0.652650356293,0.0486110635102,-1.27846915348e-05,-0.000850971788168,-0.000351836672053,-4.19896423409e-05,-2.21597274503e-05,-8.58644052641e-05,-0.00015243323287,0.469415399267,-0.00255472959449,0.179769185205,0.013264548436,0.939720887479,0.341485858462,-0.0116667711183
0.285372883081,-0.00497016729787,-0.283160805702,-2.47550582886,-0.0542031079531,2.45707035065,-0.652650177479,0.0486110635102,-0.00054522161372,-0.00106928183232,0.00169375864789,-0.000124947589939,-9.89352629404e-05,0.000113918700663,-0.00033492106013,0.469416703252,-0.00255584618087,0.179771586298,0.0132648961495,0.939721428211,0.341484446588,-0.0116641466606
0.285370916128,-0.0049724499695,-0.283159673214,-2.47550582886,-0.0542033314705,2.45707178116,-0.652650535107,0.0477751269937,0.000271735538263,-3.87241489079e-05,-0.000494974199682,0.000305613706587,-1.01430705399e-05,4.53660431958e-05,-0.000250524986768,0.46941735225,-0.00255613796184,0.179772735433,0.0132652445976,0.939721496692,0.341484305765,-0.0116623558373
0.285371094942,-0.00498303584754,-0.283159345388,-2.47549843788,-0.0542034059763,2.45707535744,-0.652650356293,0.0477751269937,-0.000333510193741,-0.000601065112278,0.000375622825231,0.00039880812983,-9.82393758022e-05,0.000136030226713,2.33665468841e-05,0.469423167525,-0.00255540032239,0.179780670616,0.0132673952217,0.93972155651,0.34148441467,-0.0116518959494
0.285365760326,-0.00501796696335,-0.283160835505,-2.47548341751,-0.054202593863,2.45708179474,-0.652651488781,0.0477751269937,0.000341688166372,0.000569970172364,-0.00046278318041,-0.000282503780909,-0.000111223882413,6.12617395745e-06,0.000260222150246,0.469436959561,-0.00255693051309,0.179803363793,0.0132718246203,0.939723037891,0.341481134726,-0.0116234694613
0.285363197327,-0.00508518051356,-0.283163368702,-2.47549176216,-0.0542034730315,2.45708250999,-0.652650237083,0.0477751269937,0.0004670448252,-0.00107519654557,-0.000108753534732,-0.00037443859037,-1.27272605823e-05,-0.000231895930483,-9.43757549976e-05,0.46944285917,-0.00255649982586,0.179829805399,0.0132727641813,0.939724408201,0.341478313195,-0.0115944670458
0.285363852978,-0.00513892853633,-0.283161103725,-2.47548937798,-0.0542026236653,2.45708417892,-0.652651429176,0.0477751269937,-6.90946762916e-05,0.000181506489753,-5.61944943911e-05,0.000776140368544,-4.98515764775e-05,0.00017184119497,1.98087072931e-05,0.469452249948,-0.00255273138326,0.179855045707,0.013274878614,0.939724237427,0.341479678604,-0.0115656377895
0.28536310792,-0.00515984836966,-0.283163577318,-2.47548532486,-0.0542025007308,2.45708489418,-0.652651548386,0.0477751269937,0.000246051931754,0.000263005844317,-0.000477586989291,-0.00054378178902,-2.57996566688e-06,-5.45408875041e-06,-5.61964625376e-05,0.469457375252,-0.00255331911041,0.179866087806,0.0132762716491,0.939724963614,0.341478055091,-0.0115529627951
0.285367488861,-0.00516504002735,-0.283161193132,-2.47549104691,-0.0542036443949,2.45708870888,-0.652651309967,0.0477751269937,0.000104805374576,-1.29876780193e-05,0.000592869124375,0.00027311919257,-3.46222477674e-05,0.000424952653702,-7.69562393543e-05,0.469456311571,-0.00254995624089,0.17986652762,0.0132764219672,0.93972369762,0.341481589015,-0.0115513116912
0.285363346338,-0.00516446400434,-0.283163279295,-2.47549176216,-0.0542039833963,2.45708942413,-0.652650535107,0.0477751269937,0.00402981834486,-0.00339042232372,2.2671851184e-05,0.00043044006452,-0.000103088852484,9.88802639768e-05,-0.000411313056247,0.469456033068,-0.00255291871448,0.179866050678,0.0132764533287,0.939724838539,0.341478436166,-0.0115516639447
0.285364806652,-0.00516517227516,-0.283164322376,-2.4754948616,-0.054202567786,2.4570877552,-0.652651488781,0.0477751269937,0.000680875848047,-8.1585967564e-05,5.4675318097e-05,-0.000145533878822,-0.000126209619339,1.65681576618e-05,-8.83912434801e-05,0.469454311281,-0.00255261459862,0.179865019483,0.0132752735054,0.939724785214,0.341478569164,-0.0115534261868
0.285368233919,-0.00516846729442,-0.283162742853,-2.47549176216,-0.05420377478,2.45708966255,-0.652651011944,0.0460487492383,-0.000271580414847,0.0040067913942,-0.000392273097532,0.000171245075762,1.39036740165e-06,-7.19425370335e-05,0.00208930624649,0.46945668704,-0.00255018256924,0.179867871301,0.0132765833526,0.939723889568,0.341481115821,-0.0115494993092
0.285364598036,-0.00516105536371,-0.283162951469,-2.47549176216,-0.054203517735,2.45709371567,-0.652650415897,0.0460487492383,-0.0010639289394,0.000445037148893,-0.000218261455302,0.000100383884273,1.31312544909e-05,1.17305562526e-05,4.48372702522e-05,0.469456251066,-0.00255127973108,0.179864951525,0.0132766856519,0.939724292038,0.341479941594,-0.0115513526477
0.285358965397,-0.00516999326646,-0.283166736364,-2.47548127174,-0.0542035475373,2.45709609985,-0.652649641037,0.0460487492383,-0.000585446774494,-0.00115628365893,7.76247834438e-05,0.00090793624986,4.82678915432e-05,0.000126389000798,-0.000171677354956,0.469463216768,-0.0025562379073,0.179873176369,0.013279228875,0.939726497558,0.341474130376,-0.0115407902084
0.285354167223,-0.00521352794021,-0.283169835806,-2.47546267509,-0.0542029477656,2.45710039139,-0.652650713921,0.0460487492383,0.000113664798846,-0.0021512969397,0.000500002643093,-0.000182383970241,-4.82053910673e-05,0.000104186532553,-0.000203812887776,0.469479265182,-0.00255796214759,0.179900343067,0.0132841633789,0.93972818199,0.341470400208,-0.011508277243
0.285358667374,-0.00530161475763,-0.283164858818,-2.47547626495,-0.0542029030621,2.45710110664,-0.652650237083,0.0460487492383,0.000603200518526,-0.00982423499227,0.00379251968116,-0.00430765142664,-3.22735177178e-05,0.00252854940481,0.000318134145346,0.469486006586,-0.00254971488858,0.179934746126,0.013284801747,0.939727220334,0.341474299369,-0.0114703078968
0.285361081362,-0.00538927409798,-0.283167183399,-2.4754858017,-0.0542036034167,2.45710253716,-0.652650713921,0.0448614954948,1.89827551367e-05,0.000669010740239,0.000147003709571,-0.000592787284404,2.81045340671e-05,9.26678985707e-05,-0.000124553916976,0.469494719346,-0.00254592991065,0.179970589502,0.0132863641862,0.939727616247,0.341474485675,-0.011430446589
0.285362362862,-0.0053824223578,-0.28316500783,-2.47549462318,-0.0542030930519,2.45710086823,-0.652650237083,0.0448614954948,0.000202049574,0.00169824482873,0.00202841544524,5.41827103007e-05,-6.71664602123e-05,-2.80538279185e-05,0.000299943232676,0.469489212739,-0.00254459284432,0.179963938169,0.0132842777978,0.939727073612,0.341475782696,-0.0114387325628
0.28536015749,-0.0053743571043,-0.28316578269,-2.47548866272,-0.0542032979429,2.45710229874,-0.652651131153,0.0448614954948,-0.000110520675662,0.000379709439585,0.000340062571922,0.000462597061414,-4.90615238959e-05,6.70170193189e-05,-0.000437126029283,0.46949113392,-0.00254633260654,0.179962748216,0.013285285474,0.939727378673,0.341474884384,-0.0114393174702
0.285363525152,-0.00538048148155,-0.283166497946,-2.47548508644,-0.0542041435838,2.4571044445,-0.65265005827,0.0448614954948,0.00017027456488,-0.000169848426594,-0.00235304492526,0.000118671705422,-9.22640538192e-06,-0.000211222286453,-7.04025878804e-05,0.469494193154,-0.0025448537026,0.179967076298,0.0132866775501,0.939727060036,0.341475898041,-0.0114336162243
0.285354405642,-0.0054287253879,-0.283170461655,-2.47545790672,-0.0542031079531,2.45710873604,-0.652648746967,0.0448614954948,-0.000100155128166,-0.00238654948771,0.0015081075253,0.000735625973903,-3.98000265704e-05,0.000207041710382,3.3861862903e-05,0.469514941879,-0.00254877644232,0.179999698752,0.0132930694179,0.939730179609,0.341468365304,-0.0113946926486
0.285355418921,-0.00550378160551,-0.283167630434,-2.47545671463,-0.0542046651244,2.45711112022,-0.6526491642,0.0448614954948,4.98452172906e-05,-0.00402498757467,-0.00213123462163,-0.000537620042451,-5.52789060748e-05,-4.52409803984e-05,7.21331380191e-05,0.469527058958,-0.00254382023546,0.180034131808,0.0132964877052,0.939729795671,0.341470588413,-0.011355680494
0.285354316235,-0.00560282683,-0.283168882132,-2.47546315193,-0.0542025901377,2.45711088181,-0.65264827013,0.0448614954948,-0.000231080615777,-0.00518563762307,0.000112563502626,0.000573339348193,-0.000142283432069,-2.10950584005e-05,-2.23548886424e-05,0.469538508128,-0.00254052050718,0.180076157198,0.013297857508,0.939731321742,0.341467877609,-0.0113092073504
0.285357475281,-0.00565587636083,-0.283167690039,-2.47545695305,-0.0542037002742,2.45711159706,-0.652649879456,0.0448614954948,0.000350612564944,-0.00552276801318,0.00036031063064,-0.000754782522563,-2.77720682789e-05,-0.000111954177555,-7.16356662451e-05,0.469549373413,-0.00253626132164,0.180102495069,0.01330103972,0.939730574946,0.34147078894,-0.01127957626
0.285363852978,-0.00574127258733,-0.283165752888,-2.47547507286,-0.0542034097016,2.45711231232,-0.652649521828,0.0448614954948,0.000113304871775,-0.000759841874242,8.92729440238e-06,0.00107977527659,0.00015358327073,2.29648121604e-05,0.000310919916956,0.469553574791,-0.00252866163462,0.180133927656,0.0133007353161,0.939729770739,0.341474152283,-0.0112450627553
0.285359442234,-0.00573552586138,-0.283166974783,-2.47547030449,-0.0542028844357,2.45711374283,-0.652649641037,0.0448614954948,0.000328954891302,0.000463219301309,0.000166497702594,6.16008837824e-05,-3.01900163322e-05,-0.000171449166373,-8.86585694388e-05,0.469555191049,-0.00253140546647,0.180133078273,0.013301364253,0.93973071936,0.341471510973,-0.01124525143
0.285360276699,-0.00572990113869,-0.283166825771,-2.47547864914,-0.0542048998177,2.45711278915,-0.652649402618,0.0448614954948,0.000596085912548,0.000192982464796,0.000250540702837,-0.000339416146744,8.37978805066e-05,5.42922352906e-05,0.000260811764747,0.469550082388,-0.00253111294527,0.180127075264,0.0133001256097,0.939730176317,0.341472808313,-0.0112526995956
0.285360991955,-0.00572716398165,-0.283167272806,-2.47547888756,-0.0542029552162,2.45711374283,-0.65265083313,0.0448614954948,0.000245181989158,-3.45227522303e-06,-6.95251874276e-05,1.51114945766e-05,5.45537041035e-05,8.58285420691e-05,-0.000316690129694,0.469550016523,-0.0025312762758,0.18012621717,0.0132996853817,0.939730232997,0.341472652801,-0.0112532055834
0.285358190536,-0.00573364878073,-0.283168703318,-2.47547197342,-0.0542034581304,2.45711517334,-0.652649760246,0.0448614954948,-0.00012079973385,0.000358895689715,0.000241903515416,-0.000154085966642,2.37659933191e-05,7.88253237261e-06,-0.000104893704702,0.469554517649,-0.00253299762694,0.180131944088,0.0133014051193,0.939731158101,0.341470273769,-0.0112461075337
0.285359203815,-0.00573550537229,-0.283166319132,-2.47547793388,-0.0542032979429,2.45711374283,-0.652649223804,0.0448614954948,-0.00311901490204,0.000289929012069,-0.000190499078599,-8.27516560093e-05,-3.78376498702e-05,-2.57984338532e-05,0.000128557381686,0.46955168689,-0.00253133361018,0.180130341826,0.0133002194468,0.939730669278,0.341471582292,-0.011248624621
0.28536131978,-0.00573526602238,-0.283165991306,-2.47547650337,-0.0542040243745,2.45711445808,-0.652649402618,0.0448614954948,-0.000559291394893,-0.000351251044776,-4.26357873948e-05,-0.000158588154591,2.10394009628e-05,4.83392614115e-05,0.000264983071247,0.469552488914,-0.00253023812067,0.180130853,0.0133007913047,0.939730128435,0.341473075982,-0.0112477877032
0.285360664129,-0.00573579594493,-0.283166706562,-2.47547650337,-0.0542031750083,2.45711612701,-0.652649998665,0.0429597906768,-0.000355952593964,0.000762645271607,-0.000297247635899,-0.000324725260725,-9.81836565188e-05,0.00133869913407,1.20152435557e-05,0.469552927214,-0.00253077785993,0.180131230762,0.0133007923083,0.939730382341,0.341472414489,-0.0112466554394
0.285355597734,-0.00573492981493,-0.283167660236,-2.47547602654,-0.0542032644153,2.45711517334,-0.652649104595,0.0429597906768,-0.000592252763454,-0.000516919011716,-0.000170857878402,-3.29628019244e-05,-9.22955950955e-05,0.000115512826596,-0.000437502923887,0.469552799107,-0.00253365911495,0.180130944931,0.01330069814,0.939731546649,0.341469190728,-0.0112473610803
0.285364091396,-0.00573585368693,-0.283168077469,-2.47547411919,-0.0542034134269,2.45711731911,-0.652649343014,0.0429597906768,0.000481935654534,-0.000431792723248,0.000425663543865,0.000873986165971,0.000175677414518,-2.67089535555e-06,-3.65693404092e-06,0.469554322277,-0.00252980943155,0.180132284478,0.0133014593577,0.939730125398,0.341473152027,-0.0112449424193
0.28535965085,-0.00573571026325,-0.283166706562,-2.47547316551,-0.0542035065591,2.45711612701,-0.652649760246,0.0429597906768,-0.000651988899335,0.000323335669236,-0.0020006983541,-0.000187935947906,1.93647119886e-05,-6.47257991204e-07,-8.13016085885e-05,0.469554479618,-0.00253127924167,0.180132490686,0.0133014502062,0.939730569479,0.341471922884,-0.0112451668758
0.285354495049,-0.0057327458635,-0.283167004585,-2.47547745705,-0.054202940315,2.4571158886,-0.652647435665,0.0429597906768,2.75878828688e-05,0.000703027879354,0.000380842800951,4.78813744849e-05,-0.00011604327301,6.85917693772e-05,0.000101030665974,0.469551962635,-0.00253393241523,0.18012946688,0.0133004059479,0.93973192853,0.34146810568,-0.0112487418592
0.285356283188,-0.00573680875823,-0.283168077469,-2.47547364235,-0.0542037077248,2.45711874962,-0.652649700642,0.0429597906768,-0.000407552404795,0.00116346194409,-6.31397460893e-06,-0.000128239233163,-2.39753680944e-05,9.7584023024e-05,0.000487666082336,0.469554981777,-0.00253343721526,0.180133021757,0.0133018261302,0.939731367301,0.341469762805,-0.0112436430365
0.28536310792,-0.0057320301421,-0.283166825771,-2.475481987,-0.0542046613991,2.45711755753,-0.652648985386,0.0429597906768,0.000102587837318,4.7425419325e-06,-0.00019240466645,-0.000674753100611,-3.79039083782e-05,4.3869305955e-05,-0.000211739330553,0.469550126247,-0.0025299369094,0.180127529603,0.0133004172845,0.939729894484,0.341473643163,-0.01125055665
0.285359680653,-0.00573076074943,-0.283165037632,-2.47548723221,-0.0542040765285,2.45711827278,-0.652649819851,0.0429597906768,0.000652129936498,-0.00123941618949,-0.000383303355193,5.62328132219e-05,2.02036535484e-05,1.92812494788e-05,4.47285019618e-05,0.469547589835,-0.00253059569133,0.180124853532,0.0132994429351,0.939730042295,0.341473179878,-0.0112534233411
0.285356402397,-0.00572697864845,-0.283168196678,-2.47548484802,-0.0542027205229,2.45711731911,-0.6526491642,0.0429597906768,0.000334201962687,0.000453530345112,0.000555696664378,-0.000602213258389,-9.27591754589e-05,2.93632388093e-06,0.000271392782452,0.469547963222,-0.00253381336201,0.180124119185,0.0132991094188,0.939731456583,0.341469268651,-0.0112543969745
0.285357445478,-0.00572038441896,-0.283165276051,-2.47548794746,-0.0542032755911,2.45711779594,-0.652649283409,0.0429591350257,5.8138382883e-05,0.000683404447045,0.000548283976968,-0.00193162215874,2.3281412723e-05,-5.2599771152e-06,2.80689764622e-05,0.469545658566,-0.00253227270879,0.180119991833,0.0132986416613,0.93973061685,0.341471447818,-0.0112589473729
0.285363316536,-0.00571066467091,-0.283164978027,-2.47549319267,-0.0542027838528,2.4571185112,-0.652647912502,0.0429591350257,-0.000244868802838,0.000339144113241,5.25801660842e-05,-0.00014108059986,0.000104255916085,-2.86690483335e-05,-0.000213742823689,0.469541942343,-0.00252975328508,0.180113640186,0.0132974490281,0.939729763928,0.341473614732,-0.0112658229386
0.28536015749,-0.00571350706741,-0.283166140318,-2.47548961639,-0.0542047545314,2.45711803436,-0.652649462223,0.0429591350257,0.00122428603936,-0.000265343900537,-8.16311730887e-05,0.000546044379007,0.000165744975675,-0.000125583974295,0.000137318289489,0.469543927907,-0.00253180184258,0.180116272198,0.0132986235705,0.939730007293,0.341472986237,-0.0112631860703
0.285355687141,-0.00573229370639,-0.28316873312,-2.47547340393,-0.0542040392756,2.45712137222,-0.652648448944,0.0429591350257,-0.00058846664615,-0.00257120118476,0.00339679047465,0.00135619589128,7.37058871891e-05,0.000127687584609,-9.02233878151e-05,0.469555005598,-0.00253420894383,0.180131306483,0.013302213354,0.939731718773,0.341468750081,-0.0112445656368
0.285353988409,-0.00577561929822,-0.283169418573,-2.475461483,-0.0542034469545,2.45712447166,-0.652648091316,0.0429591350257,0.000441292475443,-0.00213596480899,-0.00174094375689,-0.000508774595801,-0.000103705082438,0.00281834625639,8.31625511637e-05,0.469567628168,-0.00253337835929,0.180155693381,0.0133058783719,0.939732654774,0.341466976776,-0.0112158196434
0.285357505083,-0.00579721666873,-0.283167213202,-2.47546768188,-0.0542035587132,2.45712304115,-0.652648031712,0.0429591350257,0.000368136796169,-0.000244685157668,0.000329013360897,0.000118400486826,-6.95870694472e-05,-0.00012459786376,-5.3281430155e-05,0.469567587504,-0.00252979242264,0.180162879446,0.0133053659848,0.939731792033,0.341469607619,-0.0112086144452
0.285359680653,-0.00579285761341,-0.283167988062,-2.47546935081,-0.0542043410242,2.45712351799,-0.652645587921,0.0429591350257,-0.000174318265636,0.0003185250971,-0.000232697959291,-0.000282294524368,5.59014006285e-05,7.188374002e-05,-0.000217405118747,0.469566275629,-0.00252937116328,0.180160311239,0.0133052684184,0.939731821111,0.341469439983,-0.0112113989894
0.285356372595,-0.00578204775229,-0.283167421818,-2.47547602654,-0.0542031601071,2.45712351799,-0.652648866177,0.0429591350257,-1.16815517686e-05,0.00168680294883,0.000193287574803,-0.000190695631318,-6.90830638632e-05,1.96960281755e-05,0.000295615114737,0.469561546872,-0.00253104400696,0.180152850446,0.0133034112695,0.939731774418,0.341469363145,-0.011219853722
0.285358965397,-0.00578121608123,-0.283167541027,-2.47548317909,-0.054203633219,2.45712399483,-0.652648985386,0.0429591350257,0.000337185134413,-5.65761365579e-05,0.000566118687857,5.30787292519e-05,-8.52823868627e-05,-9.2711605248e-05,-6.73959584674e-05,0.469558180758,-0.00252994828201,0.180149736846,0.0133023961452,0.939731218513,0.341470814827,-0.0112234360901
0.285364568233,-0.00577937718481,-0.283164530993,-2.47548079491,-0.0542050413787,2.45712375641,-0.652646958828,0.0429591350257,-0.000122409037431,-0.000178183079697,-0.000654722156469,0.000469246937428,-9.55252403401e-07,0.000161750242114,-0.000282070424873,0.469559004468,-0.00252608658764,0.180149821844,0.0133031939283,0.939729900533,0.341474411464,-0.011223416495
0.285360366106,-0.0057866582647,-0.283167719841,-2.47547101974,-0.0542041473091,2.45712661743,-0.652648091316,0.0429591350257,-0.000771146442275,1.38426185003e-05,-0.000867575639859,0.000502814014908,4.62579992018e-05,0.000165322213434,-0.000694210990332,0.469565266414,-0.00252913847987,0.180157136707,0.0133051880417,0.939731204032,0.341471062835,-0.0112137894296
0.285348266363,-0.00580539368093,-0.283170700073,-2.47545409203,-0.0542025230825,2.45712780952,-0.652648508549,0.0428914949298,6.74548064126e-05,-0.000495798361953,0.00290285702795,5.38843451068e-05,4.60364353785e-05,6.7406494054e-05,-0.000225788840908,0.469576175986,-0.00253527530424,0.180172242442,0.0133082521833,0.93973416736,0.341463376755,-0.0111958537911
0.28535681963,-0.00583396898583,-0.283169180155,-2.47546720505,-0.0542037822306,2.45712828636,-0.652648150921,0.0428914949298,0.00046937330626,0.000294670724543,0.00156270689331,-7.06724531483e-05,5.57375060453e-05,-3.21056322719e-05,0.000450644351076,0.469574347434,-0.00252940475719,0.180180043493,0.0133074373345,0.93973246503,0.341468364203,-0.011187592004
0.285359472036,-0.00583299435675,-0.283168792725,-2.47546696663,-0.0542039386928,2.45712900162,-0.652649760246,0.0428914949298,0.00122379185632,-0.00160754227545,-0.000175654698978,-0.000233656071941,9.13714102353e-05,-5.75322337681e-05,0.000155238449224,0.469574481898,-0.00252802149902,0.180179759206,0.0133076097426,0.939731644327,0.341470614797,-0.0111876311649
0.285349786282,-0.00583317456767,-0.283170163631,-2.47546839714,-0.054204672575,2.45712971687,-0.6526491642,0.0428914949298,7.22421900718e-05,-0.000630085880402,-0.00157482025679,-8.26909163152e-05,-5.99809718551e-05,-2.53313100984e-05,0.000262968824245,0.469573968226,-0.00253324757698,0.180179345428,0.0133076353908,0.939733525942,0.341465422936,-0.0111880153491
0.285349965096,-0.00583562627435,-0.283169031143,-2.47546672821,-0.0542029812932,2.45713067055,-0.65264827013,0.0428914949298,0.000523056311067,0.000151977539645,-0.000285224698018,0.000187886049389,6.55705734971e-05,7.07435028744e-05,0.00016577875067,0.469575318865,-0.00253239602052,0.180181175485,0.013307651668,0.939733715639,0.341464986934,-0.0111853691975
0.285354763269,-0.00583511916921,-0.283170223236,-2.47546601295,-0.0542052164674,2.45713210106,-0.652648866177,0.0428914949298,1.34974534376e-05,-1.7833539232e-06,1.98405359697e-05,0.000262903398834,1.70617713593e-05,-0.000125675229356,-0.000169616643689,0.469576034627,-0.00253048615418,0.180181198193,0.013308602954,0.939732612632,0.341468006301,-0.0111847307649
0.285352051258,-0.00583693524823,-0.283170312643,-2.47546696663,-0.0542052350938,2.45713186264,-0.6526491642,0.0420851111412,-0.000154669163749,0.000151197120431,-0.00123065744992,-0.000195132059162,-9.56471412792e-05,-5.08420598635e-05,0.000471979758004,0.46957566975,-0.00253210405853,0.180181777079,0.0133084966808,0.939733123695,0.341466612028,-0.0111844849186
0.285351276398,-0.00584061164409,-0.283169299364,-2.47546863556,-0.0542044937611,2.45713210106,-0.652646780014,0.0420851111412,0.00021673295123,-0.000137692695716,-0.000381772813853,2.71976277872e-05,3.75140043616e-05,-0.00207389402203,0.000531046011019,0.469575476615,-0.00253178046554,0.180182801441,0.0133081624647,0.939733609041,0.341465330441,-0.0111832304665
0.285354703665,-0.00584115460515,-0.283168047667,-2.47546625137,-0.0542044825852,2.45713210106,-0.652650177479,0.0420851111412,0.000414999667555,1.47261216625e-05,-0.000174301792867,-0.000534413091373,2.91941123578e-05,6.50383808534e-05,8.49612479215e-05,0.469576600569,-0.00252910346416,0.180183925018,0.0133084476835,0.93973222013,0.341469193082,-0.0111816605742
0.2853538692,-0.00584277091548,-0.283170312643,-2.47546672821,-0.0542032793164,2.45713281631,-0.652648329735,0.0420851111412,-0.000576055026613,0.000711074797437,0.000863748427946,-0.000231862140936,-4.88496734761e-05,-3.33171410603e-05,-9.32523107622e-06,0.469576845465,-0.00253085004621,0.180184571778,0.01330829759,0.93973326925,0.341466340103,-0.0111807935007
0.285347014666,-0.00584156159312,-0.283172011375,-2.47546839714,-0.0542025268078,2.45713448524,-0.652647614479,0.0420851111412,0.000144783916767,0.000117008086818,-0.000100102020951,-0.000176722271135,-7.11173997843e-05,-6.03498519922e-05,0.000329056900227,0.469576227367,-0.00253484391136,0.180183517641,0.0133079536054,0.939734937493,0.341461743757,-0.011181362325
0.285356104374,-0.00583889661357,-0.283168673515,-2.47545981407,-0.054203286767,2.45713496208,-0.65265005827,0.0420851111412,0.000277875107713,0.000450755964266,-0.000307174021145,-0.000105060826172,6.14820964984e-05,7.37639202271e-05,0.000239637956838,0.469580003842,-0.00252916971237,0.180185701084,0.013309688812,0.939732325084,0.341468961363,-0.0111784385458
0.285364896059,-0.00583783118054,-0.283167660236,-2.4754447937,-0.0542045272887,2.45713543892,-0.65264993906,0.0420851111412,0.000667925167363,-0.000342478277162,0.00238563935272,0.00421374524012,1.67640610016e-05,-9.84834041446e-05,-0.000262449553702,0.46958702986,-0.00252468728533,0.180191106558,0.0133127025726,0.93973058126,0.341473862191,-0.0111717376199
0.285358846188,-0.00581670226529,-0.28316745162,-2.47525429726,-0.0542028993368,2.45712828636,-0.652649044991,0.0420851111412,-0.000292363634799,0.00082441943232,-0.000538083200809,0.00678702164441,0.000115204202302,-0.000595341727603,0.000113592584967,0.469671726632,-0.00252823898535,0.180255070779,0.0133427799721,0.939732916519,0.341468731575,-0.0110959846949
0.285360395908,-0.00581489456818,-0.283166021109,-2.47512578964,-0.0542044751346,2.45712089539,-0.652648746967,0.0420851111412,-0.00293976953253,0.000447015918326,0.00221666740254,0.00854306668043,0.000236402833252,-0.000272237986792,0.000328684487613,0.469730142058,-0.00252707020419,0.180303617496,0.0133639140114,0.939732974636,0.341469555934,-0.0110401196492
0.285378396511,-0.00576039077714,-0.283158153296,-2.47420978546,-0.0542037151754,2.45706772804,-0.652647018433,0.0420851111412,0.000168154045241,0.00252884649672,0.000689404725563,0.0209390576929,-0.000150159728946,0.000547643576283,-9.59348544711e-05,0.47014013383,-0.00251750130748,0.180631049981,0.0135096153753,0.939733794705,0.341473591464,-0.0106616791262
0.285389780998,-0.00574853364378,-0.28314986825,-2.47384572029,-0.0542040504515,2.45705986023,-0.652648150921,0.0420851111412,-0.000150233376189,0.000335145072313,-0.000299592735246,0.0307314507663,0.000134586385684,-0.00108729337808,0.00254412204958,0.470307379168,-0.00250873663604,0.18076683459,0.0135700594496,0.939732144597,0.341480743678,-0.0105000610405
0.285387635231,-0.0057729803957,-0.283151298761,-2.47335529327,-0.0542044788599,2.45701766014,-0.652648329735,0.0420746020973,-2.42908936343e-05,-0.00316178123467,-0.000394011760363,0.0306349992752,-0.00015008430637,-0.00536923762411,0.000129036096041,0.470515156646,-0.00250997199115,0.180950166447,0.0136422424927,0.939735281536,0.341475495679,-0.0102944350302
0.285385757685,-0.00592799205333,-0.283152461052,-2.47252249718,-0.0542043186724,2.45692253113,-0.652647256851,0.0420746020973,0.000250481476542,-0.0118328984827,0.00296880025417,0.0564099811018,7.95987580204e-05,-0.0126373460516,6.6964479629e-05,0.47092315262,-0.00250536757492,0.181351905306,0.0137797232158,0.939741748696,0.341465175455,-0.00985386337593
0.285365313292,-0.00647195102647,-0.283163994551,-2.47044610977,-0.0542060546577,2.45624065399,-0.652648329735,0.0420746020973,-0.000462152995169,-0.0280166789889,-2.01734201255e-05,0.0881294831634,-9.46759610088e-05,-0.0375376828015,7.22674303688e-05,0.471823279101,-0.00250520758809,0.182350359811,0.0140474186404,0.939761037387,0.341426546897,-0.00893170753873
0.28537812829,-0.00704120937735,-0.283158302307,-2.46873760223,-0.0542082861066,2.45528554916,-0.652648925781,0.0420746020973,0.00184644851834,-0.0394651256502,0.00111069704872,0.106378860772,-0.000438649760326,-0.063143491745,0.000251028657658,0.472493331549,-0.00248401663882,0.183194772473,0.0142129833803,0.939769721468,0.341411734616,-0.00829993182607
0.285402923822,-0.00784587208182,-0.283141344786,-2.46668601036,-0.0542108491063,2.45374846458,-0.652647078037,0.0420746020973,-3.04868353851e-05,-0.0556890964508,0.000163456395967,0.129374474287,-0.000274447607808,-0.11146132648,-0.00028815882979,0.473181172779,-0.00245093471593,0.184163762803,0.0143489035122,0.939777258986,0.341399231757,-0.00770562807551
0.285407274961,-0.00874037109315,-0.28314307332,-2.46448969841,-0.0542125627398,2.45194792747,-0.652648806572,0.0420746020973,-0.000898594851606,-0.06432056427,-0.000486989098135,0.163672968745,9.49720924837e-05,-0.140387743711,0.000258851941908,0.474034044441,-0.00243248488493,0.185426101056,0.0144972552663,0.939794956132,0.341359343569,-0.00700487432447
0.285442769527,-0.0137367835268,-0.28313729167,-2.45551323891,-0.0542155019939,2.44199919701,-0.652648746967,0.0420746020973,0.000563938228879,-0.132054641843,-0.000750845647417,0.232060268521,9.09913433134e-05,-0.305825889111,0.00135414279066,0.476704462314,-0.00233382821529,0.190434998198,0.014675994995,0.939865583503,0.341191753713,-0.00504846532228
0.285423457623,-0.0161461271346,-0.283149421215,-2.45133280754,-0.0542187578976,2.43622326851,-0.652648150921,0.0420746020973,-0.00096463272348,-0.15494543314,-0.000532599980943,0.261774510145,0.000188854537555,-0.38227301836,0.000347932305885,0.477628214941,-0.00232711066488,0.192572109053,0.0145975224334,0.939906574311,0.341087650764,-0.00466455670537
0.285448282957,-0.0192987546325,-0.283137500286,-2.44648528099,-0.0542218089104,2.42866110802,-0.652646839619,0.0420746020973,0.000446700491011,-0.198043331504,0.000723140256014,0.279689610004,0.000165080215083,-0.452150195837,0.000220756875933,0.478607814405,-0.00228297692356,0.195295080603,0.014384693246,0.939948237136,0.340985146892,-0.00441830185053
0.285498082638,-0.0238916594535,-0.283122688532,-2.44005846977,-0.0542248561978,2.41847252846,-0.652645170689,0.0420706644654,0.00397795718163,-0.225268110633,-0.00076762837125,0.338262349367,-0.000327310030116,-0.523271858692,-0.000269034091616,0.479960393575,-0.00220528812859,0.199293666335,0.0140752082404,0.940005673818,0.340845567294,-0.00393962503188
0.285530507565,-0.0310317706317,-0.283126026392,-2.429728508,-0.0542284101248,2.40204596519,-0.652640640736,0.0420706644654,0.000682795187458,-0.265166312456,0.000449659943115,0.385399281979,-0.00224479730241,-0.60696130991,-0.000340828701155,0.481836713095,-0.00214728914341,0.205140668043,0.0135943758093,0.940102376553,0.340604354103,-0.00337464059043
0.285566955805,-0.0358788259327,-0.283112436533,-2.42290616035,-0.0542338788509,2.39099478722,-0.652635097504,0.0420706644654,0.00523915234953,-0.29143461585,0.00336846639402,0.409640073776,-7.42822958273e-05,-0.678504109383,0.000343296269421,0.483108741981,-0.00209579086234,0.209457755437,0.0132150670502,0.940167071678,0.340444166946,-0.00300136878938
0.285644561052,-0.0411152653396,-0.283108621836,-2.41570162773,-0.0542342178524,2.37890434265,-0.652626037598,0.0420706644654,0.00118082610425,-0.320431888103,0.00121523300186,0.454793483019,-0.000458779453766,-0.728870213032,-0.000237688989728,0.48418076942,-0.00204370849115,0.213533869114,0.0128017649058,0.940225706228,0.340299887474,-0.00277892695849
0.285701572895,-0.0475659891963,-0.283108025789,-2.40613079071,-0.0542373284698,2.36380434036,-0.65258616209,0.0420706644654,-4.47297898063e-05,-0.335260897875,-0.000315786979627,0.488961279392,-0.000922892882954,-0.772521495819,0.00620239740238,0.485695490529,-0.00201399006148,0.218883540062,0.0123686207281,0.940311411195,0.340082701418,-0.00228540631854
0.285818755627,-0.0577141493559,-0.283083468676,-2.39178681374,-0.0542502701283,2.34128165245,-0.651953518391,0.0420706644654,0.0118404431269,-0.37641236186,0.00252050464042,0.531232833862,-0.000168184749782,-0.82228666544,0.023995121941,0.4880787778,-0.00195255131399,0.22794151447,0.0116887391289,0.940538961268,0.339482618433,-0.00117778759563
0.28600358963,-0.0711867064238,-0.283067315817,-2.37092471123,-0.0542584992945,2.31101155281,-0.651007413864,0.0420640967786,0.00243613217026,-0.377156883478,0.000349490001099,0.60711067915,0.000157184826094,-0.86652380228,0.0366050750017,0.491499216144,-0.00193556482344,0.240465684916,0.0110465451327,0.940854841828,0.338628496022,0.000939052385359
0.286096543074,-0.077770665288,-0.283029735088,-2.36021733284,-0.054262008518,2.29616045952,-0.650311887264,0.0420640967786,0.0046049375087,-0.405299335718,0.00404759217054,0.659129619598,0.000135663634865,-0.870591342449,0.0534737110138,0.49322155504,-0.00194083424417,0.246866415263,0.0108026380648,0.941043104803,0.338107058182,0.00218970490466
0.286316484213,-0.0968846306205,-0.282921880484,-2.32663369179,-0.054270055145,2.25331187248,-0.647179603577,0.0420640967786,0.00393861299381,-0.387148499489,0.000537264102604,0.720692694187,-0.000509245670401,-0.867383897305,0.0613939389586,0.498667189217,-0.00210201290365,0.266820722614,0.0105131716436,0.941778820074,0.335992867572,0.00713581885781
0.28637060523,-0.103022567928,-0.282896667719,-2.315107584,-0.0542726404965,2.23947644234,-0.646185278893,0.0420640967786,0.00164145487361,-0.380391478539,-0.00101143016946,0.719837427139,0.000692691595759,-0.855643808842,0.0698894187808,0.499930302958,-0.00217099649547,0.271515715289,0.0105226833649,0.94193472057,0.335524484343,0.00846022539307
0.286401033401,-0.116511166096,-0.282860398293,-2.28823518753,-0.0542733483016,2.20955204964,-0.643287599087,0.0420640967786,-0.00116354436614,-0.357159495354,-0.0013061434729,0.740828454494,0.000374050956452,-0.806847155094,0.0843653157353,0.50472982048,-0.00257850548933,0.289501191864,0.0108249820479,0.942648809531,0.333308812055,0.0141872177577
0.286369770765,-0.127667441964,-0.282877385616,-2.2648229599,-0.0542815551162,2.18566894531,-0.640411674976,0.0420640967786,0.000428606785135,-0.335461288691,-0.000432529021055,0.745791256428,0.000254254497122,-0.753979861736,0.0829212889075,0.508406192871,-0.00301856139751,0.303412756656,0.0113672825142,0.943237912664,0.331354348532,0.0194247367319
0.286350369453,-0.133844271302,-0.282885760069,-2.25134301186,-0.0542752593756,2.17246651649,-0.638885080814,0.0420640967786,-0.00342334038578,-0.337865620852,-0.00135691207834,0.736773788929,-0.000107501640741,-0.705548048019,0.0851484909654,0.510548377362,-0.00331792281771,0.311871897212,0.0117610492127,0.943557566583,0.330215594143,0.0227696582654
0.286305695772,-0.144992560148,-0.282882392406,-2.22682714462,-0.0542738065124,2.1493294239,-0.635887682438,0.042061470449,-0.00444946857169,-0.321632534266,-0.00153486593626,0.700207591057,0.000271057186183,-0.635770201683,0.0939041525126,0.514036893243,-0.00387965117348,0.326581201958,0.0125373960988,0.944104278807,0.328138794261,0.0288938717945
0.285842478275,-0.159985437989,-0.282960802317,-2.19405889511,-0.0542762577534,2.11943078041,-0.632185280323,0.042061470449,-0.0114575354382,-0.293752163649,-0.00343809998594,0.605356097221,-6.24766689725e-05,-0.550043702126,0.0707268491387,0.518077471907,-0.00497412169872,0.346197258393,0.0136530039608,0.944772288235,0.325297535873,0.0374223423864
0.285645484924,-0.164786830544,-0.283069223166,-2.18365311623,-0.0542717427015,2.10976481438,-0.630848228931,0.042061470449,-0.0143563803285,-0.248935177922,-0.00846069026738,0.554801166058,-6.7967477662e-05,-0.522065579891,0.072968699038,0.519170258996,-0.00542753564645,0.352609158737,0.0139681003987,0.945025220119,0.324224620956,0.0401325349925
0.285365998745,-0.16881608963,-0.283263415098,-2.17497396469,-0.0542746223509,2.10175943375,-0.629445195198,0.042061470449,-0.0195124335587,-0.244118839502,-0.0117291966453,0.53002756834,-0.00018997353618,-0.481578588486,0.100777573884,0.519852057188,-0.00582106743086,0.356909654528,0.0141717290387,0.945247328388,0.323336413273,0.0419549021127
0.284862041473,-0.173695653677,-0.28352072835,-2.16516375542,-0.0542743690312,2.09233021736,-0.627440929413,0.042061470449,-0.027386141941,-0.235502138734,-0.0149997668341,0.456332594156,-0.00248418794945,-0.458921939135,0.090802565217,0.520820547604,-0.00663631702739,0.364202318487,0.0144552320362,0.945731316151,0.321491574846,0.0450165626102
0.283743977547,-0.180056288838,-0.284170985222,-2.15279126167,-0.0542730949819,2.07911777496,-0.624464988708,0.0420575290918,-0.0482965148985,-0.207167088985,-0.0221959780902,0.381584435701,0.00044669766794,-0.415456950665,0.113172017038,0.521416134677,-0.00797712767233,0.372010293249,0.0145204876632,0.946478028966,0.318886578001,0.047747734841
0.28277733922,-0.1833396703,-0.284661561251,-2.14675164223,-0.0542736425996,2.07230424881,-0.622365772724,0.0420575290918,-0.0612245388329,-0.184710860252,-0.0311344824731,0.323389828205,0.000278285617242,-0.392690777779,0.129130065441,0.521568631384,-0.00895441754703,0.375872221005,0.0144809361105,0.947039300655,0.317026964831,0.0489976403859
0.281527519226,-0.186548501253,-0.285388290882,-2.1415476799,-0.0542733334005,2.06559610367,-0.620014846325,0.0420575290918,-0.0736334249377,-0.164362877607,-0.0510070472956,0.267485320568,0.00116373947822,-0.354416012764,0.130480378866,0.52147398509,-0.0101857480758,0.379290576558,0.0143038267691,0.947730090774,0.314827867593,0.0498647075253
0.280225336552,-0.189028635621,-0.286459118128,-2.13757658005,-0.0542726293206,2.05991077423,-0.617709815502,0.0420575290918,-0.0767540484667,-0.126080542803,-0.0753944218159,0.207642614841,-5.39191132702e-05,-0.31335029006,0.139058098197,0.521253884905,-0.0115815816201,0.381837967636,0.0140433289576,0.948481635413,0.312503043787,0.0502714581859
0.275640577078,-0.193893432617,-0.291795372963,-2.13112974167,-0.0542731508613,2.04600262642,-0.610339045525,0.0420575290918,-0.120606586337,-0.0593370459974,-0.136445090175,0.0637425258756,-9.82921264949e-05,-0.252144783735,0.156985521317,0.519754005436,-0.0170316865877,0.38576530905,0.0126517539824,0.951268176283,0.304165214206,0.0491152936315
0.273489356041,-0.194743961096,-0.29419285059,-2.13047552109,-0.054272711277,2.04209327698,-0.607792437077,0.0420575290918,-0.142743870616,-0.0462623611093,-0.166914045811,0.0227645169944,-2.35479110415e-05,-0.24177506566,0.152233406901,0.518995689124,-0.0194300534351,0.386009797325,0.0120063829495,0.952403060683,0.300802470177,0.0479805210034
0.270700097084,-0.195330545306,-0.297276854515,-2.13046574593,-0.054274443537,2.03796315193,-0.604944109917,0.0420575290918,-0.163002550602,-0.0156398992985,-0.169871672988,-0.00808196607977,-0.000169953607838,-0.225554078817,0.164105266333,0.517990026548,-0.0224829142451,0.385759651917,0.0111748361348,0.953785201726,0.296690282062,0.0463010607466
0.267333805561,-0.195292472839,-0.300831228495,-2.13086438179,-0.0542734712362,2.03368830681,-0.601574122906,0.0420575290918,-0.190296038985,0.00566408317536,-0.204200536013,-0.0313327424228,0.000198014953639,-0.231447070837,0.177273690701,0.516829450776,-0.0260414774242,0.384971546261,0.010204794114,0.955396057855,0.291845787101,0.0440485079709
0.261396765709,-0.194269403815,-0.308145940304,-2.1324005127,-0.0542742349207,2.02704834938,-0.596451103687,0.0420549027622,-0.212790161371,0.0639675781131,-0.278777629137,-0.066280528903,-0.00394802447408,-0.198573812842,0.17472051084,0.514694389186,-0.0327763155643,0.382775499572,0.00840092106528,0.958202912213,0.283206342747,0.0396329492997
0.256957292557,-0.192818447948,-0.314048856497,-2.13395190239,-0.0542734637856,2.0232732296,-0.593115448952,0.0420549027622,-0.236507028341,0.0798945948482,-0.306453377008,-0.0891200825572,-0.0001719732536,-0.172650650144,0.170749738812,0.513190295325,-0.0379810955745,0.380722758614,0.00711695029418,0.960221867849,0.27676823627,0.036368346223
0.253548592329,-0.191663756967,-0.318571597338,-2.13525009155,-0.0542739965022,2.02083444595,-0.590709447861,0.0420549027622,-0.2476734519,0.0952472388744,-0.340037405491,-0.096701271832,0.000139527503052,-0.16746622324,0.178615570068,0.512145485299,-0.0416576187557,0.37924825328,0.00624663446414,0.961597208321,0.27225593152,0.0341832700425
0.248836860061,-0.18983694911,-0.324901819229,-2.13708281517,-0.0542724207044,2.01782727242,-0.587368547916,0.0420549027622,-0.268829584122,0.112602286041,-0.363099992275,-0.099567040801,0.000366870430298,-0.163130879402,0.183355405927,0.51052023888,-0.0474514862175,0.376838650341,0.00490943166994,0.963717531199,0.265095652288,0.0308011748269
0.233046889305,-0.18260833621,-0.345687180758,-2.14263558388,-0.0542744658887,2.01033091545,-0.577885985374,0.0420549027622,-0.343412786722,0.162855222821,-0.453036278486,-0.107436105609,-0.000259951106273,-0.143129080534,0.19775801897,0.505628933763,-0.0655134291187,0.369258946626,0.00113267632139,0.969747320344,0.243201300157,0.0210232972019
0.222563624382,-0.177196681499,-0.360296934843,-2.14569735527,-0.0542788542807,2.0063354969,-0.57256013155,0.0420470237732,-0.370853245258,0.183399558067,-0.522711217403,-0.0970998704433,1.06223615148e-05,-0.121271654963,0.173640802503,0.502314164904,-0.0778004842245,0.364359057168,-0.00122213934062,0.973395498116,0.22863560668,0.0150156477083
0.215429484844,-0.173704355955,-0.37052449584,-2.14748716354,-0.0542711503804,2.00422072411,-0.56901538372,0.0420470237732,-0.381002724171,0.187001317739,-0.546305060387,-0.0932552292943,-0.000921427621506,-0.0973745658994,0.186965733767,0.500046292809,-0.0862671791141,0.361324655588,-0.00271783258454,0.975749478058,0.218573108556,0.0114614731712
0.208453834057,-0.170248612761,-0.380414962769,-2.14908862114,-0.0542757622898,2.00249958038,-0.565473735332,0.0420470237732,-0.398367315531,0.199695587158,-0.558994889259,-0.089843891561,-7.09750966053e-05,-0.0840800479054,0.202906146646,0.497801880034,-0.0944597335661,0.358459384483,-0.00409205286536,0.977932682467,0.208718897675,0.00820640692635
0.202289611101,-0.167266577482,-0.389136344194,-2.15035891533,-0.0542762167752,2.00128674507,-0.562231600285,0.0420470237732,-0.419669747353,0.199490666389,-0.589417934418,-0.0846735164523,0.000313296652166,-0.0737402737141,0.223201826215,0.495802149709,-0.10166848708,0.356069276678,-0.00523319506689,0.979778827073,0.199937145106,0.00558582056312
0.193468958139,-0.163125306368,-0.401967406273,-2.15193939209,-0.0542882755399,1.99980735779,-0.557457208633,0.0420470237732,-0.424679845572,0.189056009054,-0.625540971756,-0.0729722008109,-0.000317214726238,-0.0720606297255,0.237452805042,0.492822681785,-0.112119351875,0.35284696795,-0.00680666259122,0.982315771078,0.187095750565,0.00213893735847
0.180912017822,-0.157784059644,-0.420369237661,-2.15380764008,-0.0542815886438,1.99801111221,-0.550537467003,0.0420470237732,-0.437048405409,0.17360393703,-0.653580486774,-0.0664627403021,0.000343723979313,-0.0483838617802,0.250440239906,0.488483667226,-0.126446861816,0.348882403003,-0.00887435954174,0.985528626211,0.16926471025,-0.00200754154082
0.173050001264,-0.154651373625,-0.432436972857,-2.15490174294,-0.0542816184461,1.99721968174,-0.545725107193,0.0420470237732,-0.440860509872,0.168408736587,-0.676643967628,-0.0583491548896,0.0013061594218,-0.0412709787488,0.273895174265,0.485274063179,-0.136462531746,0.346335307699,-0.0102547517007,0.987615307341,0.156494147012,-0.00451955983488
0.165349796414,-0.151843219995,-0.44422146678,-2.15575551987,-0.0542930550873,1.99644494057,-0.540766894817,0.0420470237732,-0.453733444214,0.147640958428,-0.69674217701,-0.0449622385204,0.00203389185481,-0.0471781939268,0.295126229525,0.482166046886,-0.145702668536,0.344204361716,-0.0114836866249,0.98941659109,0.144496453241,-0.0066112718151
0.158349305391,-0.149794057012,-0.454818874598,-2.15648174286,-0.0542855411768,1.99571168423,-0.536208629608,0.0420470237732,-0.452199816704,0.126613631845,-0.680972754955,-0.0458032526076,-0.00108195689972,-0.0453222617507,0.299356132746,0.47920231121,-0.153988476697,0.342525451421,-0.012598636832,0.990921178449,0.133598467806,-0.00824266642615
0.134991198778,-0.144468262792,-0.490798026323,-2.15824317932,-0.0542903766036,1.99425280094,-0.520351290703,0.0420404560864,-0.459489375353,0.075750477612,-0.716449141502,-0.0281989313662,-0.00147245766129,-0.0242992714047,0.350953012705,0.468530698993,-0.181638653389,0.337986031032,-0.016032494602,0.995131021669,0.0964870055828,-0.0121435695381
0.12682954967,-0.143419116735,-0.503600716591,-2.15869045258,-0.0542904026806,1.99379634857,-0.513746201992,0.0420404560864,-0.457246124744,0.0480373874307,-0.719425141811,-0.0234066043049,-0.00249042827636,-0.031082963571,0.383719414473,0.464428233492,-0.191266147525,0.336833076014,-0.0172093589555,0.996329385518,0.082841447049,-0.0129956865025
0.119672723114,-0.142864823341,-0.515101671219,-2.159034729,-0.0542835183442,1.99332392216,-0.507327020168,0.0420404560864,-0.451051741838,0.0204718317837,-0.725948929787,-0.0217237509787,-0.00179585372098,-0.0226040892303,0.409215539694,0.460610100254,-0.199757119093,0.335984978998,-0.0182741245308,0.997257991397,0.0704159317564,-0.013570232946
0.110385842621,-0.142626300454,-0.530437290668,-2.159314394,-0.0542811974883,1.99272561073,-0.498200953007,0.0420404560864,-0.427234500647,0.00085950572975,-0.715377211571,-0.00733736110851,-0.00197615963407,-0.0299990531057,0.453938275576,0.455385734447,-0.210874625181,0.335147126015,-0.0196535056038,0.9982667721,0.0536776714616,-0.0139963825863
0.0908167436719,-0.143446162343,-0.563313961029,-2.15932846069,-0.0542806573212,1.99220657349,-0.47698277235,0.0420319214463,-0.391836971045,-0.0449486523867,-0.688145518303,0.00284046214074,0.000484705844428,-9.61316254688e-05,0.4782358706,0.443675378311,-0.234262695432,0.334198665284,-0.0223480660793,0.999510894344,0.0170900749193,-0.0136552213047
0.0841586664319,-0.144206807017,-0.575002372265,-2.15928888321,-0.0542714819312,1.99220848083,-0.468593150377,0.0420319214463,-0.373811066151,-0.0515256077051,-0.667422652245,-0.00171493447851,0.00382044678554,-0.000536563340575,0.501158773899,0.43934324332,-0.242317682968,0.334073319137,-0.0232723399598,0.999634670436,0.00380324512438,-0.0132082883496
0.0781783983111,-0.145148977637,-0.586100757122,-2.15931344032,-0.0542469546199,1.99218893051,-0.459834635258,0.0420319214463,-0.339858561754,-0.0590612031519,-0.645088195801,-0.00117803900503,-0.000527928874362,-0.000132735978696,0.514838278294,0.435160526458,-0.249726440394,0.334003424315,-0.0241819728066,0.999585761208,-0.00903641446766,-0.0127232501616
0.0702410340309,-0.146801710129,-0.601379334927,-2.1592772007,-0.0541981123388,1.99218523502,-0.447611898184,0.0420319214463,-0.314199060202,-0.0837199091911,-0.610799252987,-5.49563310415e-06,0.00950705073774,0.00490977289155,0.501276731491,0.429062276111,-0.260084942357,0.334073703565,-0.0254958346118,0.999230999487,-0.0273516739105,-0.011800750675
0.065128698945,-0.148239985108,-0.61135071516,-2.15927219391,-0.0539488941431,1.99218595028,-0.439096540213,0.0420319214463,-0.290902465582,-0.0889262184501,-0.574063181877,-0.000164928642334,0.0200045071542,-0.000291337288218,0.507865488529,0.425701025508,-0.265550093155,0.334215462849,-0.0262995242572,0.998890461116,-0.0374467572404,-0.0111320163171
0.0513689443469,-0.1533357054,-0.636686742306,-2.15924835205,-0.0515671297908,1.99220597744,-0.412458270788,0.0420319214463,-0.2287235111,-0.107454955578,-0.414413005114,0.00288403988816,0.0613934807479,0.00594910699874,0.508086383343,0.414946307198,-0.282047100883,0.335180226128,-0.0295633053358,0.996970800361,-0.0714848081647,-0.0080719332932
0.0473358780146,-0.155411541462,-0.643886864185,-2.15917944908,-0.0503655225039,1.99232494831,-0.402967691422,0.0420319214463,-0.1994561553,-0.116958841681,-0.351542800665,-0.000901753490325,0.0833495631814,0.00219008140266,0.490647614002,0.411916067408,-0.286521594678,0.335721355956,-0.0306876033945,0.996137449225,-0.0819926621001,-0.00675694527594
0.0434391573071,-0.158103629947,-0.650502324104,-2.15918111801,-0.0477451644838,1.99246788025,-0.392588406801,0.0420319214463,-0.155709519982,-0.13126590848,-0.277353614569,0.00201433431357,0.179425254464,0.0112753789872,0.497869879007,0.40949666382,-0.289979956627,0.33638242489,-0.0321104240558,0.995287570849,-0.091348951734,-0.0051904427301
0.0402802452445,-0.161049455404,-0.65608471632,-2.15910840034,-0.0424020253122,1.99286103249,-0.380488932133,0.042015504092,-0.101214073598,-0.122830189764,-0.195896625519,0.00208217324689,0.256102114916,0.0195983983576,0.50107640028,0.407186319932,-0.293345301773,0.337510810752,-0.0350791821055,0.993926904355,-0.104277115075,-0.00224560729104
0.0388945713639,-0.163313835859,-0.659048676491,-2.15896654129,-0.0374186895788,1.99320888519,-0.371829926968,0.042015504092,-0.0540161132812,-0.123393386602,-0.137646660209,0.0115349730477,0.29707878828,0.0223192814738,0.467304855585,0.406460047246,-0.294502940042,0.338400933104,-0.0373738458114,0.993034813184,-0.111736543427,-3.82815826758e-06
0.0383310653269,-0.16524964571,-0.660731971264,-2.15870761871,-0.0323996655643,1.99363768101,-0.364450156689,0.042015504092,-0.0123933115974,-0.115936949849,-0.0804947093129,0.0173617191613,0.342769920826,0.0348468832672,0.456654042006,0.406393021083,-0.294845192819,0.339289682829,-0.0395256804492,0.992279597699,-0.11753409711,0.00215784390785
0.0384709201753,-0.167517200112,-0.661531805992,-2.1582467556,-0.0242993477732,1.9944999218,-0.35477077961,0.042015504092,0.0230753216892,-0.0987982526422,0.00276361545548,0.0303508676589,0.429343849421,0.0530504137278,0.473374426365,0.407196768356,-0.294238086765,0.340527318049,-0.042757186566,0.991304761901,-0.124332505384,0.00530281366852
0.0403228066862,-0.170270964503,-0.660457313061,-2.15726590157,-0.010721120052,1.99590837955,-0.341127842665,0.042015504092,0.110732831061,-0.095615208149,0.0715750157833,0.0473515205085,0.524970531464,0.0461291447282,0.493673503399,0.409883285146,-0.291506773208,0.342510413178,-0.0481223377535,0.98993033861,-0.132729946513,0.0102433542321
0.0429173931479,-0.17174616456,-0.658636391163,-2.15628361702,-9.51494366745e-05,1.99685609341,-0.331951856613,0.042015504092,0.160411596298,-0.0655582174659,0.119622141123,0.0547524392605,0.591047406197,0.0602880045772,0.476094394922,0.412399679502,-0.288756475977,0.343822929835,-0.0518721750225,0.989114503751,-0.137045694389,0.0134258435466
0.0448417626321,-0.17241846025,-0.657212674618,-2.15568637848,0.00667195208371,1.99759459496,-0.326707214117,0.042015504092,0.197574689984,-0.0631617084146,0.152779176831,0.0534593947232,0.635060250759,0.0879430472851,0.486689805984,0.415153286744,-0.285698845247,0.345007025542,-0.0554945020812,0.98839788028,-0.140427317707,0.0164365031495
0.0497955232859,-0.173769384623,-0.653218328953,-2.15433239937,0.0218892004341,1.99972307682,-0.315406531096,0.0419761016965,0.239911541343,-0.0506010763347,0.204993262887,0.062939286232,0.690186500549,0.101673230529,0.50661355257,0.418838616304,-0.28155622628,0.34647116816,-0.0597735230534,0.987599644734,-0.143774171444,0.0200762294015
0.0645931586623,-0.174976333976,-0.639165341854,-2.15080118179,0.0582100227475,2.00525832176,-0.289198696613,0.0419761016965,0.338720619678,-0.0112546905875,0.351950407028,0.0755013078451,0.777361094952,0.1160447523,0.513972640038,0.431732240944,-0.266011389792,0.350628311158,-0.0724532073914,0.985547793399,-0.150184273286,0.029845659975
0.0703441053629,-0.175010830164,-0.633163273335,-2.14955687523,0.0707836300135,2.00705289841,-0.280892014503,0.0419761016965,0.378083258867,0.000279669620795,0.391016364098,0.0751346573234,0.796246707439,0.118833847344,0.518987119198,0.436514088679,-0.25975836484,0.352010095269,-0.0768668186208,0.984969932351,-0.151158119308,0.0328168740692
0.0762758851051,-0.174974039197,-0.627118110657,-2.14853453636,0.0828478932381,2.00892925262,-0.272839397192,0.0419761016965,0.410713851452,0.0022136468906,0.414788424969,0.0623097456992,0.813667535782,0.119536042213,0.544480204582,0.440869342903,-0.253819732418,0.353188288975,-0.0808508963528,0.984471680653,-0.151755869708,0.0353383397488
0.0974221155047,-0.174750313163,-0.604969382286,-2.1462469101,0.121584072709,2.01482367516,-0.247357711196,0.0419761016965,0.497893840075,0.00941949244589,0.528712570667,0.0354154370725,0.866389214993,0.13337610662,0.541277170181,0.45642282266,-0.230076253138,0.357036293675,-0.0952985741591,0.982954129068,-0.1512678562,0.042864872431
0.106176204979,-0.174587503076,-0.595691859722,-2.14571380615,0.136466085911,2.01689743996,-0.238027155399,0.0419761016965,0.532565355301,0.0101502239704,0.567737936974,0.0303152576089,0.871441543102,0.115952543914,0.562599897385,0.462833011517,-0.218986644138,0.358500290452,-0.101588054034,0.982409188351,-0.149984279478,0.0453516209886
0.116704545915,-0.174404740334,-0.584404170513,-2.14514732361,0.153200492263,2.01896548271,-0.227076798677,0.0419761016965,0.566585123539,0.00873641856015,0.612141668797,0.0226981174201,0.874063074589,0.0971451401711,0.582327604294,0.468618445029,-0.208204908168,0.359834246361,-0.10735382141,0.981954379796,-0.148359334263,0.0472256356444
0.129989013076,-0.174061208963,-0.570279240608,-2.14474081993,0.17348575592,2.02108740807,-0.214211463928,0.0419761016965,0.602278709412,0.0191193185747,0.635363340378,0.0136992679909,0.895832180977,0.102233469486,0.551872134209,0.476102516912,-0.192904261173,0.361466621982,-0.115332660614,0.981383735605,-0.145505763194,0.0491163257843
0.148017928004,-0.173385754228,-0.551329791546,-2.14444351196,0.19930292666,2.02359509468,-0.197804540396,0.0419761016965,0.631814658642,0.0253414493054,0.670428872108,0.00645119370893,0.893870830536,0.0774947330356,0.592188119888,0.485212148685,-0.172042366319,0.363391306768,-0.125633147516,0.980715811008,-0.140883675361,0.0506418798713
0.158976301551,-0.172841206193,-0.539767861366,-2.14435815811,0.214492172003,2.02487516403,-0.187510356307,0.0419761016965,0.650997698307,0.0335627309978,0.683344721794,0.00852923933417,0.900139689445,0.079939737916,0.61642241478,0.490231447425,-0.15918921607,0.364427993157,-0.131779638089,0.980284852917,-0.138111934041,0.0509983087793
0.168224930763,-0.17224535346,-0.530043959618,-2.14430236816,0.226993486285,2.02583909035,-0.178801029921,0.0419761016965,0.67666208744,0.0489932745695,0.715726971626,-6.70591034577e-05,0.890561640263,0.0640133842826,0.616769433022,0.49416787844,-0.1482904687,0.365212746566,-0.136860289952,0.979920449951,-0.135742045914,0.0509830311915
0.183031484485,-0.171063095331,-0.514317989349,-2.14425706863,0.246617272496,2.02715373039,-0.165343374014,0.0419761016965,0.674261868,0.0590216852725,0.710497736931,-0.000178693604539,0.90036469698,0.0652038604021,0.625448107719,0.4999376132,-0.130618174149,0.366317340525,-0.144846905477,0.979370885992,-0.131565857314,0.0504228770431
0.203593805432,-0.169120073318,-0.492392361164,-2.1442387104,0.273201286793,2.02883553505,-0.145758211613,0.0419761016965,0.689959287643,0.0763259530067,0.74398034811,0.00175154558383,0.880042076111,0.0387415513396,0.671964108944,0.506892726676,-0.105798981806,0.367653319278,-0.15568825075,0.978517063121,-0.126067826175,0.0487075831722
0.213877335191,-0.167806714773,-0.481400817633,-2.14418411255,0.286343753338,2.02935504913,-0.135632440448,0.0419761016965,0.685788869858,0.10472330451,0.734845817089,0.00667721778154,0.870652973652,0.0314711034298,0.667503714561,0.510266717,-0.0915744404401,0.368201274921,-0.161742529565,0.977993364314,-0.1231014082,0.0470571618636
0.227010026574,-0.165803566575,-0.467218220234,-2.14404273033,0.302738457918,2.02989196777,-0.122560143471,0.0419761016965,0.686793625355,0.105868838727,0.746968984604,0.00797815527767,0.854723930359,0.0165298786014,0.709940314293,0.513282758626,-0.0770871761449,0.3686238887,-0.167645457546,0.977477449372,-0.120042779819,0.0449729612294
0.239221677184,-0.163941636682,-0.45388135314,-2.14396238327,0.317948698997,2.03032231331,-0.109344474971,0.0419761016965,0.670046925545,0.108730733395,0.726450502872,0.00209112116136,0.835618972778,0.0269923266023,0.763197243214,0.515981875145,-0.0618902713903,0.369034250053,-0.173777269404,0.976849398222,-0.117327520693,0.0424377946442
0.271369755268,-0.157734513283,-0.418433994055,-2.14386725426,0.356561660767,2.03131747246,-0.0715369582176,0.0419761016965,0.659892439842,0.138652041554,0.725828826427,-0.00294891721569,0.759823381901,-0.00071590434527,0.839649677277,0.520971280733,-0.0215589594405,0.369295587293,-0.188929768148,0.975077297973,-0.111371791554,0.0335578519186
0.282617151737,-0.155299887061,-0.405955284834,-2.14384913445,0.369197010994,2.03136587143,-0.0571993105114,0.0419761016965,0.637851536274,0.150272458792,0.716372311115,0.000549170945305,0.715647757053,0.00181531242561,0.843494296074,0.521920353833,-0.00742173568398,0.369156281342,-0.1937422278,0.974455881163,-0.109634827574,0.0296629248479
0.293310433626,-0.152626648545,-0.394114673138,-2.14385199547,0.380966126919,2.03142523766,-0.0426767095923,0.0419761016965,0.632991313934,0.162828236818,0.696866571903,-0.0026897911448,0.677760064602,-0.0018863985315,0.883777558804,0.522483333313,0.00599760180523,0.368809010851,-0.19808986508,0.973833726351,-0.10842720408,0.0255307634712
0.322313904762,-0.14492367208,-0.361108005047,-2.14388871193,0.410607486963,2.03142356873,0.00160926650278,0.0419754460454,0.581134736538,0.169788002968,0.66900998354,-0.00116696732584,0.55010676384,0.000637945602648,0.964572012424,0.52224231304,0.0418667866965,0.367459526734,-0.20821957539,0.972155214051,-0.106734418404,0.0129078209059
0.332061290741,-0.141929641366,-0.349824011326,-2.14390492439,0.419322729111,2.03144836426,0.0181842409074,0.0419754460454,0.548668384552,0.178472414613,0.646060407162,-1.43779141126e-06,0.479751586914,0.000112883099064,0.969760477543,0.521536758096,0.0548177704315,0.366645022433,-0.211068812006,0.971601637232,-0.106683179167,0.00767555225646
0.342305451632,-0.138433545828,-0.337862789631,-2.14388537407,0.42764300108,2.03143119812,0.036831907928,0.0419754460454,0.528308808804,0.180961802602,0.619809985161,-0.00121488119476,0.422162353992,0.00194188917521,1.00575006008,0.52051136206,0.0675844126304,0.365596020221,-0.213333812512,0.971094592067,-0.107049898613,0.00207282370675
0.351729393005,-0.135135710239,-0.32681363821,-2.14392900467,0.434796184301,2.03146743774,0.0553294979036,0.0419754460454,0.508905112743,0.187375456095,0.606419026852,0.00142118381336,0.36364543438,0.000523945083842,1.03610801697,0.519277506781,0.0792585450935,0.36451448211,-0.215068206011,0.970609717343,-0.107940700384,-0.00335384204624
0.374456644058,-0.125585287809,-0.299292266369,-2.14397025108,0.449033647776,2.03323626518,0.106657855213,0.0419754460454,0.429385632277,0.209607288241,0.536902546883,-0.000975763890892,0.236253112555,0.0880060940981,1.08388590813,0.515517951419,0.107226188792,0.360972582173,-0.21701235454,0.969491422325,-0.112663835038,-0.0172881457289
0.382910490036,-0.121467255056,-0.28856036067,-2.14406871796,0.45337548852,2.03567028046,0.128493249416,0.0419754460454,0.401821494102,0.203004717827,0.521055817604,-0.00102124141995,0.200881049037,0.148101359606,1.11096656322,0.514036275877,0.117596765154,0.359359429307,-0.216950437451,0.969060387256,-0.115580732349,-0.0222613463984
0.389149099588,-0.118151389062,-0.280494600534,-2.14414381981,0.456143528223,2.03865742683,0.146153435111,0.0419754460454,0.385757982731,0.216971129179,0.487045675516,-0.0047429096885,0.161280050874,0.214853450656,1.10157907009,0.513047672913,0.125182334285,0.358067557181,-0.21658052934,0.968709181167,-0.118481867115,-0.0256406609001
0.399361342192,-0.111461758614,-0.267293572426,-2.14431095123,0.460111767054,2.04632663727,0.178364679217,0.0419754460454,0.32669377327,0.23284162581,0.438123732805,-0.00961060263216,0.095021404326,0.312300771475,1.08925104141,0.511796720565,0.137361417749,0.355405137265,-0.215354438841,0.967995863136,-0.125154826351,-0.0307041325883
0.404979526997,-0.107314050198,-0.259574443102,-2.1444466114,0.461532592773,2.0524327755,0.198001042008,0.0419754460454,0.289896577597,0.234989792109,0.411995440722,-0.00646821828559,0.0673207566142,0.364529818296,1.0918687582,0.511314095475,0.144091307466,0.353747110042,-0.214204351887,0.967588302724,-0.129624105891,-0.0329691208512
0.409813314676,-0.10332544148,-0.252893269062,-2.14465618134,0.462447673082,2.05925536156,0.216502219439,0.0419754460454,0.271896541119,0.239263758063,0.370485216379,-0.0159957334399,0.0454912856221,0.423753917217,1.07459747791,0.511136917807,0.149785814263,0.352139558784,-0.212995119503,0.967152735283,-0.134378720622,-0.0345112277227
0.414346128702,-0.0988179594278,-0.246732622385,-2.14492368698,0.462952107191,2.06725168228,0.235583499074,0.0419754460454,0.233617737889,0.253451555967,0.32004776597,-0.013434198685,0.0112339667976,0.463619083166,1.05129790306,0.5112610891,0.154958077374,0.350278465707,-0.211563910198,0.966642282197,-0.139899061581,-0.0356603762206
0.420820623636,-0.0908547192812,-0.237529367208,-2.14529275894,0.462974071503,2.08271622658,0.267775177956,0.0419754460454,0.172486051917,0.246351182461,0.247748970985,-0.0124298660085,-0.00314749334939,0.505176007748,0.959851861,0.512171082958,0.162305658669,0.347062835814,-0.20897940872,0.965602427663,-0.150381215334,-0.0364012113649
0.42307767272,-0.087246209383,-0.234333142638,-2.14543843269,0.462948977947,2.09003090858,0.281279057264,0.0419754460454,0.144240394235,0.266647219658,0.195185735822,-0.00263395509683,0.000840970606077,0.527651190758,0.943760752678,0.51295345038,0.164961020376,0.345510391022,-0.207856231534,0.964984861969,-0.155834784471,-0.0362701368134
0.426924645901,-0.0775443911552,-0.228573724627,-2.14566206932,0.462221503258,2.10995101929,0.312996417284,0.0419754460454,0.0731007009745,0.265244543552,0.115601055324,-0.00474880356342,-0.0537411421537,0.563552379608,0.846902787685,0.515666758044,0.168794525175,0.34182237623,-0.205297534509,0.963375714212,-0.168978413488,-0.0347340043443
0.428066253662,-0.0720499306917,-0.226847365499,-2.14577937126,0.460708469152,2.12134885788,0.329283177853,0.0419754460454,0.0396077036858,0.282052755356,0.0535846427083,-0.003792576259,-0.0951842516661,0.580450832844,0.784264326096,0.517666528693,0.169602647428,0.339613434574,-0.203554125282,0.962392949511,-0.176808509907,-0.0332306985941
0.427693426609,-0.0593136847019,-0.227094382048,-2.14595293999,0.453637719154,2.14831995964,0.362200558186,0.0419754460454,-0.0530147105455,0.279772460461,-0.0589751601219,-0.00289945304394,-0.209950014949,0.594605088234,0.665793180466,0.523594898709,0.167234729804,0.334403322637,-0.198617947985,0.960044056367,-0.195180828986,-0.0277626414533
0.426284044981,-0.0537394285202,-0.228798985481,-2.14601945877,0.448925226927,2.1598098278,0.374980539083,0.0419754460454,-0.0868515297771,0.284127473831,-0.106907442212,-0.00445109186694,-0.268405526876,0.557028353214,0.606031239033,0.526554126098,0.164512781493,0.332032645277,-0.195954001685,0.958985060431,-0.203302690068,-0.0248535509849
0.424831360579,-0.0495867282152,-0.230583712459,-2.14606952667,0.444447219372,2.16792082787,0.383733689785,0.0419754460454,-0.107356235385,0.279170483351,-0.130976602435,-0.00632337201387,-0.341728687286,0.540546774864,0.592893898487,0.52878592873,0.161894180502,0.330188943537,-0.193600919313,0.958270090076,-0.209107580674,-0.0226083591351
0.417328089476,-0.0355152375996,-0.240978881717,-2.14627838135,0.423294216394,2.19567513466,0.411842674017,0.0419754460454,-0.183027967811,0.261541098356,-0.261577606201,-0.00813440978527,-0.447463721037,0.491828203201,0.459550946951,0.537245260602,0.14853007053,0.323746662378,-0.183547630876,0.955727858218,-0.229604128627,-0.0132842776653
0.414614468813,-0.0319077260792,-0.244817048311,-2.14636492729,0.416567832232,2.20230293274,0.418050289154,0.0419754460454,-0.205298706889,0.248690277338,-0.278522789478,-0.0034050391987,-0.494915425777,0.466230660677,0.432486414909,0.539509093148,0.143891893553,0.3220053296,-0.180465449156,0.955067849658,-0.234868294829,-0.0107008404349
0.410412430763,-0.0271640811116,-0.25051894784,-2.14641880989,0.406684577465,2.21082782745,0.42616045475,0.0419754460454,-0.234564170241,0.246842831373,-0.324413061142,-0.00301438965835,-0.535078704357,0.439778476954,0.418195813894,0.542569512427,0.136965270601,0.319705015908,-0.176017590752,0.954141187234,-0.24203651574,-0.00712231061865
