imanlab/tactile_prediction_flat_dataset/train/data_sample_2021-11-24-16-39-22/robot_state.csv
position_panda_joint1,position_panda_joint2,position_panda_joint3,position_panda_joint4,position_panda_joint5,position_panda_joint6,position_panda_joint7,position_panda_finger,velocity_panda_joint1,velocity_panda_joint2,velocity_panda_joint3,velocity_panda_joint4,velocity_panda_joint5,velocity_panda_joint6,velocity_panda_joint7,ee_state_position_x,ee_state_position_y,ee_state_position_z,ee_state_orientation_x,ee_state_orientation_y,ee_state_orientation_z,ee_state_orientation_w
-0.18802626431,0.133007928729,0.146138355136,-2.53433179855,0.187632501125,2.68294143677,-1.05379855633,0.0787166059017,-0.000138962786878,1.389632871e-05,-0.000362738908734,-0.001067275065,4.07546795032e-05,7.89558362158e-06,0.000580978114158,0.464324898421,-0.0124595967054,0.114624845939,-0.0402094249184,0.911270997989,0.408464683864,0.0335406035635
-0.188024625182,0.133005723357,0.146138340235,-2.53433156013,0.187633886933,2.68294143677,-1.05379986763,0.0787166059017,-0.000373689748812,-0.000223759328946,0.000924194697291,0.000170911691384,-1.89279544429e-05,-9.48935048655e-05,-0.000493385479786,0.464325520906,-0.0124589155135,0.114625940829,-0.0402090136079,0.911270606319,0.408465503009,0.033541762255
-0.188020989299,0.132999077439,0.146139442921,-2.53432822227,0.187632411718,2.68294167519,-1.05380094051,0.0787166059017,1.65103629115e-05,0.00025992031442,0.00198333268054,-2.77955987258e-05,-3.45421321981e-05,1.81035065907e-05,-0.000230084624491,0.464328792597,-0.0124570956446,0.114630155726,-0.0402061321659,0.911269041732,0.408468939623,0.0335458724718
-0.18802139163,0.133001282811,0.146139144897,-2.53432536125,0.187633290887,2.6829431057,-1.05380260944,0.0787166059017,-0.000378527067369,0.000432183471275,-0.000898086756933,-2.413182483e-05,1.90293612832e-05,0.000124600832351,2.90183506877e-05,0.464330103392,-0.0124574841679,0.114630246534,-0.0402058135514,0.91126900276,0.408468968694,0.0335469590107
-0.188024461269,0.13301409781,0.146136552095,-2.53432965279,0.187632858753,2.68294262886,-1.05379986763,0.0787166059017,-0.00041192266508,0.000600657484028,0.000372317706933,0.00346741895191,7.90709964349e-05,-9.21321116039e-05,0.000826336618047,0.464324935179,-0.0124595102008,0.114622838434,-0.0402103051108,0.911270857789,0.408464999433,0.0335395143815
-0.188022881746,0.133009299636,0.146138846874,-2.53432536125,0.1876321733,2.68294262886,-1.0538020134,0.0787166059017,0.000362023769412,-0.000710236607119,0.000442087446572,6.47598208161e-05,-0.000152284032083,2.23621395889e-06,-0.000454349326901,0.464328254632,-0.0124579879756,0.114626523555,-0.0402079932779,0.911269395118,0.408468173441,0.0335433713661
-0.188022628427,0.133006200194,0.146140128374,-2.5343234539,0.18763205409,2.68294334412,-1.05380237103,0.0787166059017,-9.8889482615e-05,-0.00101427349728,-0.000176916451892,0.000758196983952,-4.78188267152e-05,-4.37232120021e-05,0.000642614380922,0.464330088483,-0.0124574673362,0.11462867127,-0.0402065352264,0.911268930872,0.408469153865,0.0335457921625
-0.188023686409,0.133010879159,0.14613699913,-2.53432178497,0.187632888556,2.68294239044,-1.05380344391,0.0787166059017,0.00014658542932,0.000164560522535,-0.00033598439768,9.88106767181e-05,-7.82482238719e-05,-0.000162822965649,-0.000564403017052,0.464329685373,-0.0124592783745,0.11462698118,-0.0402076838058,0.911269745355,0.408467344767,0.0335443184674
-0.188021957874,0.133015692234,0.146138623357,-2.53432655334,0.187632650137,2.68294405937,-1.05380260944,0.0787166059017,0.000103289115941,-0.000479713839013,-0.000102445890661,0.000274600926787,-0.000112237321446,-7.36847068765e-05,0.000800428795628,0.464326575254,-0.0124574426789,0.114623312026,-0.0402097469339,0.911269321446,0.408468372976,0.0335408407738
-0.188023895025,0.133018225431,0.146138891578,-2.53432536125,0.187632903457,2.68294429779,-1.05380344391,0.0787166059017,-0.000203072850127,-0.000585976988077,0.000151836196892,-0.000147585451487,1.47649207065e-05,-8.71837764862e-05,0.000451798929134,0.464326683923,-0.012458150933,0.114622581601,-0.0402101550674,0.911269555354,0.408467837205,0.0335405212228
-0.188025802374,0.133013948798,0.14613878727,-2.53432059288,0.187632977962,2.6829457283,-1.05380249023,0.0787166059017,0.000190667560673,0.00252758827992,-0.00364960357547,0.000858311657794,-0.000100936820672,6.17262776359e-05,2.69340198429e-05,0.46433035906,-0.0124594777602,0.114626295241,-0.0402074335724,0.911270075751,0.408466575998,0.0335450040785
-0.188026428223,0.133010178804,0.146137759089,-2.53431892395,0.187633290887,2.68294501305,-1.05380344391,0.0787166059017,0.000166136858752,0.000172539817868,0.00188808015082,-5.90075796936e-05,6.32279770798e-05,7.468797412e-05,0.00133598339744,0.464331859649,-0.0124604284998,0.114628519791,-0.0402061544801,0.911270199505,0.408466257493,0.0335470535927
-0.188023164868,0.133016437292,0.146137878299,-2.53432154655,0.187632396817,2.68294620514,-1.05380415916,0.0787166059017,0.000207659701118,-0.00078812794527,-0.00548880407587,0.000390755245462,0.000107088206278,6.52524249745e-05,-0.000273244513664,0.464329444606,-0.0124586043315,0.114624861352,-0.0402080570729,0.911269330298,0.408468288893,0.0335436499761
-0.188023224473,0.133017465472,0.146138340235,-2.53431916237,0.187633022666,2.68294596672,-1.05380582809,0.0787166059017,-0.000267893134151,-0.000365915911971,0.00234801368788,-0.000270888878731,-3.80110259357e-06,9.45300998865e-05,-0.000242625872488,0.464330237769,-0.012458634293,0.114625084463,-0.0402079920964,0.911269068897,0.408468830931,0.0335442287316
-0.188021481037,0.133015394211,0.146139249206,-2.53431916237,0.187632262707,2.68294525146,-1.05380451679,0.0787166059017,-0.00180945743341,2.62149424088e-05,-0.00384007627144,0.000163935677847,-1.49424322444e-05,3.07023619825e-05,-0.0005571822403,0.464330751506,-0.0124572144866,0.114626081326,-0.0402075999515,0.911268558084,0.408469967065,0.0335447408558
-0.188022956252,0.133016452193,0.146139651537,-2.53431272507,0.187631115317,2.68294668198,-1.05380487442,0.0787166059017,-0.000676133960951,-0.000322559673805,5.45149196114e-05,7.86633827374e-05,8.93816613825e-05,5.1614610129e-05,0.000409331551054,0.464334160105,-0.0124579452704,0.114627921211,-0.0402058142126,0.911268455722,0.408470130294,0.0335476742246
-0.188027068973,0.133017450571,0.146137580276,-2.53431153297,0.187634512782,2.68294620514,-1.05380403996,0.0787166059017,-0.000287512259092,-4.90340171382e-05,-0.00361638725735,0.00101699691731,-2.67533632723e-05,-6.58533390379e-05,0.000426866230555,0.464334527116,-0.0124605333462,0.11462791002,-0.0402063475876,0.911270324669,0.408465872469,0.0335481102033
-0.188027456403,0.133017331362,0.146137490869,-2.53431558609,0.187632620335,2.6829457283,-1.05380570889,0.0787166059017,0.00015199893096,-6.59632496536e-05,1.10378214231e-05,2.93505809168e-06,-3.03317701764e-05,-0.000290883966954,-0.000520850007888,0.464332192718,-0.0124608930064,0.114626438821,-0.0402070360453,0.911269944188,0.408466835875,0.0335458900764
-0.18802395463,0.133016183972,0.146139621735,-2.53431177139,0.187633901834,2.68294620514,-1.0538059473,0.0787166059017,-4.05574319302e-05,0.000357997982064,0.000296463113045,8.74373799888e-05,-2.9207983971e-05,0.000526421645191,0.000230245801504,0.464334610278,-0.0124583870165,0.114628332038,-0.0402061665998,0.911268907488,0.408469030359,0.0335483729933
-0.188019618392,0.133015394211,0.146140277386,-2.53431081772,0.187631964684,2.68294692039,-1.05380678177,0.0787166059017,3.03330562019e-05,0.000385535880923,0.000137726528919,0.000535423343536,-1.48606068251e-05,-2.12422492041e-06,-0.00102198147215,0.464335485511,-0.0124561863,0.114629085906,-0.0402052468679,0.911267368146,0.408472492576,0.0335491336067
-0.188019454479,0.133012130857,0.146140232682,-2.53430938721,0.187631398439,2.68294787407,-1.05380642414,0.0787166059017,-0.000238635693677,-0.00291050900705,0.000360086851288,-0.000155053436174,3.92546753574e-05,0.000118071031466,8.66971822688e-05,0.464337130596,-0.0124563690029,0.114631153401,-0.0402036084122,0.911267269499,0.408472686304,0.0335514177537
-0.188021436334,0.133015155792,0.146140709519,-2.5343067646,0.187633708119,2.68294644356,-1.05380821228,0.0787166059017,-0.000566036673263,0.000508849741891,0.000869253883138,-3.17185767926e-05,6.41706865281e-05,2.04429416044e-05,-0.000778611865826,0.464337535535,-0.0124568900112,0.114630542961,-0.0402047248822,0.911267603005,0.408471856915,0.0335511191785
-0.188024058938,0.133020147681,0.146138250828,-2.53430843353,0.187631398439,2.68294644356,-1.05380833149,0.0787166059017,-0.000191867176909,0.000871339347214,-0.000365450570825,-0.000380371406209,-3.25732726196e-05,3.39711987181e-05,0.000616430712398,0.46433551156,-0.0124590976141,0.114627656302,-0.0402058584257,0.91126830501,0.408470428798,0.0335480805781
-0.188025727868,0.133022844791,0.146138325334,-2.53430747986,0.187632843852,2.68294620514,-1.05380856991,0.0787166059017,-8.10476558399e-05,-0.000667550892103,0.00015614174481,0.000617973215412,-0.000106093073555,-2.73629939329e-05,-0.000539088796359,0.464335364517,-0.0124597153246,0.114626727296,-0.0402067387854,0.911268851596,0.408469169707,0.0335475087918
-0.188028231263,0.133018761873,0.146137550473,-2.53430342674,0.187631890178,2.68294620514,-1.05380916595,0.0787166059017,0.000232301710639,0.000376111158403,0.000304949033307,0.0004815494176,-0.00012212015281,8.62284650793e-05,0.000433536391938,0.464338300075,-0.0124615575929,0.114629972382,-0.0402043726889,0.911269135706,0.408468487612,0.03355093194
-0.188024535775,0.133020073175,0.146137937903,-2.534304142,0.187632396817,2.68294739723,-1.0538084507,0.0787172615528,-5.44801623619e-05,-0.000463276548544,1.10505961857e-05,-7.29070816305e-05,6.68595021125e-05,-0.000109405467811,0.000172641302925,0.464337953851,-0.0124596344327,0.114629238016,-0.0402047552634,0.91126857089,0.408469742954,0.0335505310317
-0.188017740846,0.133019790053,0.146142736077,-2.53430199623,0.187632769346,2.68294715881,-1.05380797386,0.0787172615528,-3.92498041037e-05,-0.000277441256912,-0.00140355795156,-0.000228119810345,-0.000147740880493,-9.34223717195e-05,0.000496242719237,0.464339251503,-0.0124541887699,0.114630126728,-0.040204798442,0.911266327395,0.408474664863,0.0335514915064
-0.188022136688,0.133021041751,0.146140515804,-2.53430199623,0.187633305788,2.68294858932,-1.0538084507,0.0787172615528,-0.000191312123206,-0.000367724162061,-0.000375130737666,0.000209689780604,4.3094087232e-07,-0.000140849268064,0.000742642383557,0.464339193557,-0.0124573328433,0.11462965916,-0.040204598473,0.91126770547,0.408471595225,0.0335516736189
-0.188024550676,0.13302141428,0.146140024066,-2.53429961205,0.187634021044,2.68294787407,-1.05380880833,0.0787172615528,-0.000390021596104,-0.00020710566605,0.00339382630773,-1.45091962622e-06,-4.00655990234e-05,-1.45521107697e-05,-0.000281223939965,0.464340015183,-0.0124583027655,0.114630073772,-0.0402045668317,0.911268200842,0.408470447501,0.0335522299916
-0.188025429845,0.133019715548,0.146136537194,-2.53429794312,0.187632530928,2.682949543,-1.05380988121,0.0787172615528,-0.000323405285599,-0.000389937777072,0.000718299183063,-6.7093897087e-05,2.5638657462e-05,-1.84554901352e-05,-0.000420044205384,0.464341673481,-0.0124610440737,0.114631693859,-0.0402025188615,0.911268713334,0.408469331809,0.0335543473636
-0.188022240996,0.133019044995,0.146139651537,-2.53429627419,0.187633812428,2.68294930458,-1.05381011963,0.0787166059017,-0.000156477966812,0.00026938697556,0.000390871282434,-6.58892386127e-05,-0.00010814073903,0.000140316114994,-0.000940633064602,0.464342734818,-0.0124580817044,0.114632582613,-0.0402025419516,0.91126756358,0.408471807059,0.0335554124483
-0.188022136688,0.133018299937,0.146138042212,-2.53429627419,0.187633007765,2.682949543,-1.05380833149,0.0787166059017,-0.00039999227738,-0.000678641546983,0.000173618842382,0.000343891762896,0.000137318289489,4.03584344895e-05,-0.000564678106457,0.464342885001,-0.0124592136348,0.114632883669,-0.0402020194167,0.911268220655,0.408470375031,0.0335556263726
-0.188025161624,0.13301949203,0.146137371659,-2.53429579735,0.187631428242,2.68294906616,-1.05380856991,0.0787166059017,-0.000339618942235,-0.00022200201056,0.00339378672652,-9.89168329397e-05,8.47154151415e-05,-4.59097718704e-05,0.000217339009396,0.464342750651,-0.0124605764367,0.114632492069,-0.0402019875742,0.911268532094,0.408469729532,0.0335550643955
-0.188022971153,0.133018434048,0.146136924624,-2.53429389,0.187631577253,2.68294811249,-1.05380892754,0.0787166059017,0.000421647768235,0.00349670811556,-0.00535579724237,-9.29139423533e-05,-4.52152016805e-05,0.000128678104375,-0.000398963078624,0.464343787788,-0.012459821495,0.11463353881,-0.040201567305,0.911268084197,0.408470698406,0.033555937397
-0.188021048903,0.13302141428,0.146139606833,-2.53429174423,0.187631949782,2.68294858932,-1.0538084507,0.0787166059017,0.000423665740527,-0.00061784213176,0.0004633863864,0.000148065693793,7.18675892131e-06,-7.49432510929e-05,0.00105455506127,0.464344438481,-0.0124575784326,0.11463297403,-0.0402021002397,0.911267318729,0.408472355924,0.0335559097416
-0.188022732735,0.133021205664,0.14614200592,-2.53428959846,0.187633737922,2.68294978142,-1.05381095409,0.0787166059017,-0.000620139297098,-6.15988610662e-05,-9.37208169489e-05,-0.000217317778151,-4.61061681563e-05,-3.8563295675e-05,-0.000108686719614,0.464345879968,-0.0124572926903,0.114633934805,-0.0402016538229,0.911266949111,0.408473072235,0.0335577625231
-0.188025474548,0.133020281792,0.146139979362,-2.53428792953,0.187633544207,2.68295049667,-1.05381262302,0.0787166059017,-0.000318978505675,-0.000741680036299,0.00351459230296,9.94710353552e-05,3.94452035835e-06,0.0002276221785,-0.000487230106955,0.464347026721,-0.0124596850152,0.114634970941,-0.0402005496447,0.911267526119,0.408471775164,0.0335592047597
-0.188026070595,0.133019968867,0.146137923002,-2.53428959846,0.18763269484,2.68294930458,-1.0538122654,0.0787166059017,1.78006721399e-05,-0.000668883440085,-0.00343952141702,0.000155111018103,-8.47908086143e-05,-6.81949040882e-06,0.000368584092939,0.464345873519,-0.0124609226293,0.114634490175,-0.0402008090567,0.911268078429,0.40847061711,0.0335579919674
-0.188023015857,0.133019909263,0.146140679717,-2.53428506851,0.187631905079,2.68295073509,-1.05381131172,0.0787166059017,0.000314539356623,-0.000314329488901,-0.00027289945865,-0.000271662283922,-2.09376848943e-05,-4.44431461801e-05,-0.000621686398517,0.464348682144,-0.0124583412497,0.114636142775,-0.0401995279841,0.911266828762,0.408473326392,0.0335604835093
-0.188022434711,0.133020609617,0.14614084363,-2.53428435326,0.187632679939,2.68295049667,-1.05381190777,0.0787166059017,-0.00088197120931,0.000735792680643,-0.000336881639669,0.000259511871263,-9.80539407465e-05,-8.42581648612e-05,0.000621596351266,0.464348866544,-0.0124579568185,0.114636047534,-0.0401997995076,0.911266686323,0.408473615197,0.033560510781
-0.188023820519,0.133020937443,0.146139651537,-2.534283638,0.187633246183,2.68295049667,-1.05381321907,0.0787166059017,-0.000331435614498,0.000374161638319,-0.000385056133382,-6.3325438532e-05,-2.26328029385e-05,-8.33071462694e-05,-0.000223596449359,0.464349131941,-0.0124591803512,0.114636130504,-0.0401997126616,0.91126703965,0.408472812348,0.0335607926258
-0.188023522496,0.133020624518,0.146139293909,-2.53428244591,0.187633037567,2.68295073509,-1.05381381512,0.0787166059017,5.40957335033e-05,0.000151710235514,-0.000773638894316,-0.000155149682541,0.000144030200318,0.000267687632004,-0.000423727062298,0.464349866156,-0.0124592808771,0.114636697922,-0.0401992151406,0.91126687855,0.40847316051,0.033561525338
-0.188023015857,0.133021503687,0.14614033699,-2.53428077698,0.187632352114,2.68295049667,-1.05381321907,0.0787166059017,0.000293912657071,0.000226421558182,6.87668652972e-05,0.000204731550184,5.27972188138e-05,-3.74200482156e-07,0.000661200203467,0.464350571328,-0.0124585158713,0.114636782502,-0.0401991484282,0.911266597721,0.408473780439,0.0335616852666
-0.188026085496,0.133020862937,0.146139845252,-2.53427815437,0.187632635236,2.68295383453,-1.05381727219,0.0787166059017,-0.000331923161866,0.000310816511046,-0.000247613876127,0.000142966076965,-8.12790167402e-05,0.000126555358293,0.000707625236828,0.464352583435,-0.0124606764433,0.114638140522,-0.0401973307741,0.911266589217,0.408473748648,0.033564480037
-0.18802511692,0.133019939065,0.146139606833,-2.53427600861,0.187633648515,2.68295407295,-1.05381965637,0.0787166059017,-0.000356797623681,2.26999363804e-05,1.75701406988e-05,0.000183794501936,5.06999072059e-07,-2.24533159781e-05,0.000199497750145,0.464354096355,-0.0124603973703,0.114639332949,-0.0401966994667,0.91126613138,0.408474688146,0.0335662326634
-0.188023403287,0.13302180171,0.146141156554,-2.5342772007,0.187631160021,2.68295288086,-1.05382192135,0.0787166059017,0.000383390753996,-0.000331486924551,-6.61750455038e-05,0.000515872903634,-1.63916993188e-05,-2.59783282672e-05,-0.000922491191886,0.464352823493,-0.0124585701706,0.114638153286,-0.0401973784773,0.911264464428,0.408478504414,0.0335642331416
-0.188022226095,0.133020862937,0.146141141653,-2.53427529335,0.187632024288,2.68295645714,-1.05382561684,0.0787166059017,0.00196132739075,-0.000507455784827,-7.00471209711e-05,-0.000146440477693,4.1076393245e-05,-0.000100023971754,-0.00203277822584,0.464354791442,-0.0124583053776,0.11463955403,-0.040195751218,0.911263619258,0.408480317921,0.0335670575497
-0.188023999333,0.133021652699,0.146137610078,-2.53427362442,0.18763205409,2.68295621872,-1.05382990837,0.0787166059017,0.000409629312344,0.00211911508814,-0.00326803233474,-0.000108098523924,-4.34739886259e-05,-7.44979406591e-05,-0.000112005887786,0.464355354931,-0.012460857353,0.114639705184,-0.0401953269349,0.911263823607,0.408479871923,0.0335674454184
-0.188026860356,0.133020609617,0.146139368415,-2.53427195549,0.187632218003,2.68295788765,-1.05383086205,0.0787166059017,-0.000124974598293,4.93158986501e-05,0.000104048885987,-0.000387029227568,0.000134434565553,0.0020427715499,-0.00276683154516,0.464356796144,-0.0124615062394,0.114640918953,-0.0401942548096,0.911263862198,0.408479729313,0.0335694169015
-0.188025698066,0.133021727204,0.14613866806,-2.53427052498,0.187633275986,2.68295645714,-1.05383515358,0.0787166059017,2.63905217679e-08,0.000600584258791,-0.00017817641492,4.59581269752e-06,3.42739695043e-05,0.000147794838995,-0.000301897031022,0.464357003748,-0.0124612077696,0.11464076234,-0.0401947783743,0.911263058478,0.408481489291,0.0335691916866
-0.188021749258,0.133021175861,0.146141156554,-2.53426933289,0.187632232904,2.68295645714,-1.05383491516,0.0787166059017,0.000535046681762,-0.000554989790544,0.000251197168836,-0.000282235472696,-5.13843224326e-05,-7.78294051997e-05,0.000856937258504,0.464357831554,-0.0124582334247,0.114641444445,-0.0401943989036,0.911261588377,0.408484756778,0.0335697930341
-0.188025325537,0.133022218943,0.146140724421,-2.53426766396,0.187634199858,2.68295860291,-1.05384063721,0.0787166059017,-7.9156976426e-05,-0.00377966603264,-0.000219597073738,0.000168920843862,0.000145004683873,-9.39567835303e-05,-0.000381947815185,0.464358967999,-0.0124599726805,0.114641706005,-0.040193935285,0.911261543764,0.408484769961,0.0335713987366
-0.188024997711,0.133020371199,0.146136566997,-2.53426766396,0.187633097172,2.68295717239,-1.053840518,0.0787166059017,-9.37877193792e-05,5.15338906553e-05,0.00189852225594,4.97477849422e-05,-8.0395686382e-05,3.2943993574e-05,-0.000524619419593,0.464358852283,-0.0124621594894,0.114642380492,-0.0401933882819,0.911262346194,0.408483044534,0.0335712668095
-0.188026189804,0.133022561669,0.14613942802,-2.53426933289,0.187633514404,2.68295693398,-1.05384135246,0.0787166059017,0.000300749466987,0.000160215597134,-0.000297380494885,-8.35770260892e-05,-1.0534273315e-05,-8.9939814643e-05,0.000372404407244,0.464357553975,-0.0124610872449,0.114640836794,-0.040194596823,0.911261778516,0.408484316707,0.0335697495774
-0.188020452857,0.133024185896,0.146140888333,-2.5342669487,0.187633380294,2.68295955658,-1.05384421349,0.0787166059017,0.000245239149081,1.68213555298e-05,-0.000577576865908,0.000300576997688,-3.21117731801e-05,8.08831537142e-05,0.000223931594519,0.464359097588,-0.0124578586507,0.114641152942,-0.0401938788788,0.911259715519,0.408488873683,0.0335711591922
-0.188024103642,0.133023306727,0.146139726043,-2.53426551819,0.187633663416,2.68296051025,-1.05384373665,0.0778104066849,-0.00290828128345,0.000247268733801,-3.11106923618e-05,0.000183603697224,5.1794513638e-06,0.000111119530629,-8.32973237266e-05,0.464360166992,-0.0124602466927,0.114642117941,-0.0401929447168,0.911260826608,0.408486367154,0.0335726170102
-0.188026726246,0.133022397757,0.146137535572,-2.5342669487,0.187633633614,2.68296575546,-1.05384922028,0.0778104066849,-0.00083688023733,0.000359715166269,-3.85269086109e-05,0.000494740670547,-8.59127976582e-05,0.000225738273002,-0.00106037803926,0.464360656234,-0.0124628185488,0.114642491651,-0.0401911599928,0.911260740859,0.408486572485,0.0335745827617
-0.188024058938,0.133023366332,0.146140128374,-2.53426575661,0.187634527683,2.68297171593,-1.05385696888,0.0778104066849,0.000385465769796,0.000826620962471,0.000243921123911,0.00033812833135,9.29341877054e-06,-6.40223443042e-05,9.07355715754e-05,0.464362412556,-0.0124606189083,0.114643011864,-0.0401896820615,0.911258287493,0.408491961882,0.0335773687009
-0.188021570444,0.133023902774,0.146138742566,-2.5342669487,0.187633752823,2.68297505379,-1.05387055874,0.0778104066849,3.38280988217e-05,4.40706826339e-05,-7.02552351868e-05,-0.000108771906525,-1.78184600372e-05,0.000101737889054,-0.000371379894204,0.464362387296,-0.0124602806024,0.114642641039,-0.0401886827167,0.911255206485,0.408498875414,0.0335780717116
-0.188026472926,0.133024126291,0.14613686502,-2.53426265717,0.187633067369,2.6829829216,-1.05410540104,0.0778104066849,-0.00010365635535,-3.81663903681e-06,-0.00398026406765,-9.46451036725e-05,-0.000197907764232,-0.000101365731098,-0.0286148004234,0.464366139514,-0.0124640335323,0.11464468277,-0.04018117139,0.911208526839,0.408602931159,0.0335877717386
-0.188024401665,0.133025705814,0.146138951182,-2.53426265717,0.187633395195,2.68298459053,-1.0543627739,0.0778104066849,0.000593789562117,-0.000662723963615,-0.000199616246391,-0.000499077083077,7.92361970525e-05,0.000122170502436,-0.00700168032199,0.464366185521,-0.0124619089087,0.114644328047,-0.0401767269686,0.911152989125,0.408726735492,0.0335933980454
-0.188021749258,0.133022427559,0.146140038967,-2.5342669487,0.187633261085,2.68298792839,-1.05446755886,0.0778104066849,-4.16073598899e-05,-0.000114077716717,0.000263932102825,-0.000385248888051,-5.54345424462e-05,8.42384906719e-06,-0.0059265862219,0.464365447282,-0.0124605044986,0.114644474839,-0.0401744284117,0.91113301351,0.408771289545,0.0335958258825
-0.188021793962,0.133023455739,0.14614097774,-2.534263134,0.187632575631,2.6829893589,-1.05451858044,0.0778104066849,-0.000113473121019,-0.000793587649241,-0.000194090302102,0.000197729110369,3.78151598852e-05,0.000144247504068,-0.0010107846465,0.464367527149,-0.0124602257683,0.114645440061,-0.0401725212406,0.911122263639,0.408795204993,0.0335986501645
-0.188024997711,0.133024349809,0.146138817072,-2.53426456451,0.187633141875,2.68299293518,-1.05461668968,0.0778104066849,0.000617206038442,-0.000198229332455,0.000127123756101,2.23454899242e-05,5.50120057596e-06,-0.000165211284184,-0.00482204649597,0.464367271955,-0.0124628774404,0.114644840007,-0.040170295633,0.91110346747,0.408837108935,0.0336011450824
-0.188025295734,0.13302525878,0.146139979362,-2.5342643261,0.187633827329,2.68299221992,-1.0546656847,0.0778104066849,0.000212704617297,-0.000125586375361,0.000343452702509,-3.29874592353e-06,-1.00736679087e-05,3.84647937608e-05,-0.00255364342593,0.464367069126,-0.0124623664043,0.114644453712,-0.0401701001449,0.911093393976,0.408859532482,0.0336016798006
-0.188022568822,0.133024215698,0.146138802171,-2.53425931931,0.187632843852,2.68299531937,-1.05471467972,0.0703670829535,-0.000247617193963,0.000823277048767,-0.000422732409788,-0.000143462981214,-6.28388661426e-05,0.000217133958358,-0.00311945588328,0.464370562347,-0.0124620506062,0.114646902339,-0.0401667130678,0.911082847887,0.408882978151,0.0336063878552
-0.188022300601,0.133024737239,0.146140113473,-2.53425860405,0.187634140253,2.68299627304,-1.05476939678,0.0703670829535,0.000211366015719,0.000414979673224,-0.000193924308405,1.53043238242e-05,-2.55005033978e-05,-0.000204603857128,6.75360497553e-05,0.46437105582,-0.0124613142104,0.114647007481,-0.0401658488998,0.911071566993,0.408908054375,0.0336081410687
-0.188024058938,0.133026659489,0.146139025688,-2.53426098824,0.187633693218,2.68299603462,-1.05482876301,0.0703670829535,-8.09024495538e-05,0.000281850749161,-0.000491518527269,-0.0032458731439,3.42676466971e-05,-4.7312474635e-05,-0.000666964566335,0.464369139507,-0.0124622177947,0.114645352112,-0.0401659453624,0.911060524787,0.408932721979,0.0336072251411
-0.188024371862,0.133025243878,0.146139383316,-2.53425621986,0.187633603811,2.68299794197,-1.05497825146,0.0703670829535,5.70794072701e-05,-8.29898854136e-05,-2.92736490337e-06,-0.000372207869077,-4.22274752054e-05,-1.33703235861e-06,-0.00752261839807,0.464372687912,-0.0124627756313,0.114647858213,-0.0401612297559,0.911030186677,0.409000212083,0.033613996843
-0.188023790717,0.133026793599,0.14613802731,-2.53425693512,0.187633529305,2.6829996109,-1.05501484871,0.0703670829535,0.000122964556795,-6.09258495388e-05,0.000343889783835,3.840966383e-05,-4.60834344267e-05,6.94848786225e-05,-0.0046473951079,0.464372131222,-0.0124631839451,0.114646909187,-0.0401606608829,0.911022041927,0.409018389462,0.0336142410459
-0.188024476171,0.133024692535,0.146141216159,-2.53425860405,0.187632188201,2.68299937248,-1.05503940582,0.0703670829535,-0.000227302312851,0.000400385848479,0.000263546622591,-0.000265495182248,8.76345729921e-05,-9.12301402423e-05,-0.0026102908887,0.464371706475,-0.0124619915186,0.114647310992,-0.0401600473143,0.911016263421,0.409031284662,0.0336146728195
-0.188023611903,0.133025690913,0.146139681339,-2.53425645828,0.187633574009,2.68300127983,-1.05509436131,0.0703670829535,0.000234721708694,0.000955141382292,-0.000524443341419,0.000533868791535,1.93815048988e-05,0.00018090987578,-0.0027838004753,0.464373000733,-0.0124624420939,0.114647742405,-0.0401585380707,0.91100540651,0.409055404973,0.0336172049921
-0.188023760915,0.133024647832,0.146139800549,-2.53425550461,0.187632620335,2.68300318718,-1.05518329144,0.0703670829535,-0.00311413453892,4.01771867473e-05,-5.6471919379e-05,-4.41245811089e-06,-5.35637980192e-07,8.40568027343e-05,-0.00411544227973,0.464374120829,-0.012462644579,0.114648715128,-0.0401557890955,0.910987051099,0.409096280115,0.0336205087212
-0.188020542264,0.133025839925,0.146141320467,-2.53423309326,0.187633126974,2.68307089806,-1.05523085594,0.0703670829535,0.000154383407789,-0.00122657569591,0.000605665904004,0.00487269368023,-0.000102954989416,0.012085871771,-0.00805972423404,0.464399919573,-0.0124647115687,0.114661856196,-0.0401305598307,0.910976805387,0.409118466281,0.0336582596527
-0.188012897968,0.133033782244,0.14614674449,-2.5341360569,0.187631875277,2.68336439133,-1.05528151989,0.0703670829535,9.92665227386e-05,0.00158350088168,0.00174619199242,0.00816884636879,0.000289324379992,0.0166017189622,-0.00376772275195,0.464510972682,-0.0124771112379,0.114717510611,-0.0400237763026,0.910965155384,0.409141751589,0.0338173001968
-0.188022449613,0.133025616407,0.146142214537,-2.53401422501,0.187633916736,2.68348169327,-1.0553740263,0.0703670829535,-0.000798719585873,-0.000463923177449,-7.59666509111e-05,0.00614674715325,0.000111096298497,0.00345337903127,-0.00547908199951,0.464600704771,-0.0124940287498,0.11477325386,-0.0399577980704,0.910948950807,0.409175408391,0.0339244490547
-0.188027486205,0.133028253913,0.146138817072,-2.53387832642,0.18763448298,2.68351697922,-1.05548739433,0.0703670829535,-0.000480536458781,-0.000341137027135,-0.000507324293721,0.0027027099859,1.74608139787e-05,0.00230098469183,-0.00350878457539,0.464678146949,-0.0125037954313,0.114821555977,-0.0399154955841,0.910926284071,0.4092236744,0.0340006204461
-0.188024014235,0.133026704192,0.146138742566,-2.53374028206,0.187633156776,2.68355727196,-1.05568635464,0.0683044940233,0.00033667133539,0.000511998892762,-0.00373087404296,0.00707071367651,2.37252461375e-05,2.47361786023e-05,-0.00930179841816,0.464758812451,-0.0125085242287,0.114872999997,-0.0398685817568,0.910883304359,0.409317066074,0.0340828568206
-0.18802075088,0.133025154471,0.146142616868,-2.53371143341,0.187632590532,2.68357110023,-1.05581867695,0.0683044940233,0.000511162623297,0.000263850728516,-0.000216470449232,0.00250579835847,-7.96177773736e-05,0.000255594874034,-0.00311276898719,0.464777175493,-0.0125067817731,0.114884835453,-0.0398555435414,0.910854409173,0.409380828374,0.0341045155175
-0.188018918037,0.133028805256,0.14614354074,-2.53371119499,0.187632873654,2.68357896805,-1.0559425354,0.0683044940233,-0.00065285054734,0.000429035571869,-0.000887999078259,-0.000356291158823,7.68352183513e-05,-0.000106037507067,-0.00519145233557,0.464778221813,-0.0125057624097,0.114883953098,-0.0398522490779,0.910828653254,0.409438095203,0.0341087749863
-0.188023895025,0.13303142786,0.146141529083,-2.53371429443,0.18763320148,2.68358612061,-1.05611729622,0.0683044940233,-9.13691619644e-05,-0.000295175414067,-0.000284772337181,-0.0002588807547,8.81813830347e-05,0.000155597706907,-0.0123835736886,0.464777286669,-0.0125094380878,0.114882221551,-0.0398482489991,0.910792777272,0.409517943044,0.0341128703905
-0.188027396798,0.133029282093,0.146136552095,-2.53370904922,0.187633603811,2.68359804153,-1.05639541149,0.0683044940233,-0.000109247703222,0.000222864779062,-0.000324375840137,5.57638668397e-05,-3.93862574128e-05,0.00298653263599,-0.00543414754793,0.46478304181,-0.0125141968368,0.114886101215,-0.0398380389154,0.910739370864,0.409636570988,0.034126359338
-0.18802344799,0.133031159639,0.146139025688,-2.53370547295,0.187634333968,2.68360257149,-1.05653560162,0.0683044940233,5.34234277438e-05,0.000596190511715,-9.78889656835e-05,0.000337576202583,-3.30410948663e-05,2.3237818823e-05,-0.00441450113431,0.464785013606,-0.0125114190187,0.114886651568,-0.0398350539541,0.910715288902,0.409690036818,0.0341306965791
-0.188022583723,0.133031055331,0.146137714386,-2.5337061882,0.187633231282,2.68360757828,-1.05675327778,0.0683044940233,-0.000458410067949,-0.000258335436229,0.000114224880235,-0.000347910827259,3.04393597617e-05,-2.64445006906e-05,-0.0117767881602,0.464786245996,-0.0125119313359,0.114887126388,-0.039829069611,0.910664842044,0.409802151986,0.034137758946
-0.18802306056,0.133033365011,0.146140992641,-2.53370594978,0.187632933259,2.68361234665,-1.05691182613,0.0683044940233,-0.000646033906378,-0.000663145445287,0.000148600753164,-8.2591563114e-05,-1.65891597135e-05,0.00248047010973,-0.00868845824152,0.464786934951,-0.0125107288601,0.114886605184,-0.039825728503,0.910631792743,0.409875555171,0.0341420319843
-0.188020691276,0.133033081889,0.14613969624,-2.53370523453,0.187633648515,2.68361735344,-1.05712258816,0.0683044940233,-0.000173921216629,0.000344850646798,0.000188224876183,-0.000116670707939,-9.17060533538e-05,4.69829283247e-05,-0.00863577984273,0.464788435703,-0.0125105560001,0.114887414693,-0.0398204938099,0.910588532306,0.409971608674,0.034148687617
-0.188018679619,0.133033320308,0.146140471101,-2.53370213509,0.187634661794,2.6836233139,-1.05741751194,0.0683044940233,-0.000364863255527,-0.000272251927527,8.05202362244e-05,-0.00164346944075,3.15726865665e-05,-8.04929222795e-05,-0.0118349865079,0.464791299441,-0.0125096313842,0.114888905373,-0.0398133510305,0.910527688762,0.410106611972,0.0341583309578
-0.188023909926,0.133032858372,0.146137163043,-2.53370261192,0.187633439898,2.68362784386,-1.05759453773,0.0683044940233,5.99708982918e-05,-0.000305081397528,-0.000344555766787,0.000227838914725,-6.72789246892e-05,0.00267964205705,-0.00611451594159,0.464791828911,-0.0125137196416,0.114889162298,-0.0398088228748,0.91049485195,0.410179553024,0.0341630817464
-0.188027247787,0.133035197854,0.146138235927,-2.53370094299,0.187633246183,2.68363142014,-1.05774366856,0.0683044940233,1.57238446263e-05,-9.85133665381e-05,-0.000169532373548,0.000386065396015,-4.52727326774e-05,6.48105051368e-05,-0.00966367218643,0.464793079204,-0.012515134049,0.114889149462,-0.0398050723103,0.910462853403,0.410250543858,0.0341678172386
-0.188017934561,0.133029833436,0.14614289999,-2.53369951248,0.18763422966,2.68364095688,-1.05823254585,0.0683044940233,-6.70626468491e-05,0.000104205835669,-0.0001179202809,0.000799575005658,-6.9368565164e-05,2.87086495518e-05,-0.00464279996231,0.464797758907,-0.0125092821314,0.114893387199,-0.039792245756,0.910358387132,0.410482128198,0.0341848835902
-0.188022494316,0.133031234145,0.146140366793,-2.53369355202,0.187633678317,2.68364429474,-1.05838215351,0.0631700232625,7.17954317224e-05,-8.9211811428e-05,-7.46977384551e-05,4.70132035844e-05,-6.30527283647e-05,-5.01833310409e-05,-0.0139008834958,0.46480071911,-0.0125130139746,0.11489476117,-0.0397875646353,0.910328697142,0.410547908524,0.0341910418858
-0.188026279211,0.133032500744,0.146138235927,-2.53369808197,0.187632963061,2.68364834785,-1.0585436821,0.0631700232625,-0.000857693899889,-0.000670724606607,7.15934002073e-05,0.000225506126299,-6.16113757133e-05,-5.20894609508e-05,-0.0161586645991,0.464798736005,-0.0125158096631,0.114892874578,-0.0397849341071,0.910298511057,0.410614937743,0.0341928701281
-0.188027009368,0.133033469319,0.146138861775,-2.5336997509,0.187634319067,2.6836502552,-1.05869698524,0.0631700232625,-9.07240100787e-05,-5.57778294024e-05,0.00059257238172,9.280499944e-05,0.000103878242953,7.79533584137e-05,-0.00544363306835,0.46479807131,-0.0125158358948,0.114892038915,-0.0397826955122,0.910267339957,0.410684013567,0.034195725245
-0.188027098775,0.13303488493,0.146137535572,-2.53369188309,0.187633514404,2.68366217613,-1.0589094162,0.0631700232625,0.000298191065667,-0.000534699240234,0.00122768792789,-0.000369116605725,-0.00011305858061,0.00147565663792,-0.00462073087692,0.464804351994,-0.0125173643979,0.114895125934,-0.0397739160961,0.910223895613,0.410780157663,0.0342075606012
-0.18802280724,0.133029326797,0.146140113473,-2.53364181519,0.187635272741,2.68376302719,-1.05910384655,0.0630557611585,0.000668675289489,0.00101429992355,0.000797595013864,0.00300558819436,3.61190868716e-05,0.00823417957872,-0.00792736653239,0.464853007879,-0.0125212869329,0.114923811389,-0.0397284455077,0.910183062369,0.410869260045,0.0342767329724
-0.188005387783,0.133032217622,0.146151140332,-2.53358316422,0.187632277608,2.68390417099,-1.05928039551,0.0630557611585,0.000324338965584,0.000761509232689,0.000255691877101,0.00201893504709,5.4270030887e-06,0.0033024372533,-0.0127287320793,0.464913131114,-0.0125171679311,0.114955230714,-0.039671733823,0.910140984913,0.410960862041,0.0343614706824
-0.188008159399,0.133031234145,0.146153122187,-2.53353953362,0.18763409555,2.68392086029,-1.05950415134,0.0630557611585,-0.000677375763189,-0.000614858407062,-0.000162274940521,0.00368685089052,-6.32474439044e-06,0.000113591871923,-0.0120748858899,0.46493955818,-0.0125196771704,0.114972104927,-0.0396532789267,0.910095073728,0.411061687336,0.034392777301
-0.188035354018,0.133028358221,0.146131977439,-2.53351020813,0.187633901834,2.68395185471,-1.05982589722,0.0630557611585,-3.38288737112e-05,0.00061004498275,-7.33775814297e-05,0.00216330052353,-9.24308824324e-06,-0.000239786182647,-0.00778738874942,0.464961253297,-0.0125453376655,0.114986006193,-0.0396291151434,0.910038737926,0.411185942561,0.0344259934603
-0.18803589046,0.133032023907,0.146134451032,-2.53350877762,0.187635749578,2.6839735508,-1.05996620655,0.0630557611585,0.000167219361174,-0.000987343490124,-7.9173631093e-05,-0.000442759686848,-3.570596391e-06,0.00141700380482,-0.00629250751808,0.464965843989,-0.0125454262568,0.114986778508,-0.039621522897,0.910010031555,0.411249288352,0.0344368973883
-0.188029453158,0.133033633232,0.146134316921,-2.53351259232,0.187633857131,2.6839838028,-1.06010997295,0.0630557611585,0.000796401232947,0.00158927298617,0.000362428516382,-0.000213966006413,7.1926911005e-06,2.06464096664e-06,-0.014934903942,0.464965755771,-0.012542917015,0.114985647144,-0.0396170664265,0.909979001999,0.411318015681,0.0344411617766
-0.188023105264,0.133033558726,0.146138682961,-2.53351068497,0.187632486224,2.68399477005,-1.06023752689,0.0603949464858,0.00168501993176,0.000494940555654,-0.000124532307382,0.000447969941888,2.57695410255e-05,2.83319113805e-05,-0.00288741965778,0.464969234723,-0.0125385126091,0.11498735378,-0.0396113232166,0.909950393213,0.411381217978,0.0344487755941
-0.18802317977,0.133033782244,0.146141603589,-2.5335085392,0.187634766102,2.68401741982,-1.06028926373,0.0603949464858,-0.000802380556706,-5.53720565222e-05,-0.00267819827422,-0.000186088000191,5.16202999279e-06,0.00133610446937,-0.000677681353409,0.464975151357,-0.0125383734391,0.11499004152,-0.0396039447656,0.909939735127,0.411404555865,0.0344600796326
-0.188019260764,0.133029013872,0.146143123507,-2.53347659111,0.187633275986,2.68416190147,-1.06036782265,0.0603949464858,-0.00394248124212,0.00116050511133,-0.000205067917705,-0.00119099346921,-9.47873922996e-06,0.00381218036637,-0.00638480018824,0.465023400091,-0.0125448744476,0.115016076017,-0.0395510740665,0.909923012866,0.411440288496,0.0345356609823
-0.188026800752,0.133019760251,0.146139621735,-2.53348040581,0.187631756067,2.68419122696,-1.06044149399,0.0603949464858,-0.000495015236083,-0.000800489506219,0.000260579108726,0.00118837424088,-0.000108274434751,3.02214775729e-05,-0.00270878709853,0.465028385775,-0.0125517946748,0.115020884808,-0.0395395046697,0.909910999262,0.411466798871,0.0345495889849
-0.188024193048,0.132998839021,0.146141082048,-2.53344249725,0.18763448298,2.68422031403,-1.06051254272,0.0603949464858,-0.000115234754048,-0.000353227398591,-0.00408701924607,0.00455910060555,-0.000109956054075,0.00291681243107,-0.00258298427798,0.465059838283,-0.0125535676218,0.115046791146,-0.0395149054771,0.909894575168,0.411502108817,0.0345897158654
-0.188025534153,0.132998198271,0.146139979362,-2.533411026,0.187633872032,2.68424654007,-1.06056296825,0.0603949464858,0.000357270328095,0.000836060149595,0.00429907534271,0.00165439140983,-0.00011982164142,0.00138246151619,-0.00164441403467,0.465085421413,-0.0125564912655,0.115061915369,-0.039496410676,0.909882155326,0.411528867134,0.0346191876976
-0.188029915094,0.133011892438,0.146134436131,-2.533390522,0.187632992864,2.68429613113,-1.06062674522,0.0603949464858,0.0018172551645,0.000309512979584,0.000167623453308,-0.000573793950025,2.55217728409e-05,0.00367955071852,-0.00190530112013,0.465099889974,-0.0125646407927,0.115065277812,-0.0394816165353,0.909873562274,0.41154752579,0.0346400970802
-0.188022017479,0.133009418845,0.146140947938,-2.53338956833,0.187634512782,2.68431377411,-1.06065809727,0.0603949464858,0.000233671395108,0.000489878584631,-0.000326762179611,-0.000441050098743,-1.8373997591e-05,0.00291204825044,-0.000357940152753,0.465104866362,-0.012558850083,0.115068385301,-0.0394758109946,0.909864511665,0.411567310633,0.0346493760003
-0.188023746014,0.133006304502,0.146141022444,-2.53339219093,0.187633007765,2.68432283401,-1.06069099903,0.0603949464858,-0.00042087433394,-0.000193329702597,-0.000484418298583,-0.000302394590108,-7.91569473222e-05,0.000152529886691,0.000534307619091,0.465106059651,-0.0125601907632,0.115069727324,-0.0394719364759,0.909857890364,0.41158196146,0.0346536326189
-0.188028275967,0.133013114333,0.146139040589,-2.5333943367,0.18763230741,2.68433713913,-1.06074893475,0.0603949464858,-2.17658380279e-05,-8.04256633273e-05,0.000381972815376,0.000322148727719,-3.4289121686e-05,-4.32027227362e-05,-0.00151240313426,0.465106416077,-0.012563723965,0.115067125014,-0.0394687753309,0.909847431103,0.411605122312,0.0346567577099
-0.188024640083,0.133013024926,0.146137833595,-2.53339648247,0.187634080648,2.68434548378,-1.06076514721,0.0603949464858,-0.000263216817984,-0.00402861833572,0.000501707952935,-0.000414450856624,-2.81746870314e-05,1.14741396828e-05,0.000352587841917,0.465107114927,-0.012562991688,0.115067170285,-0.039466797019,0.909844002836,0.411612649378,0.0346596160896
-0.188026279211,0.133011981845,0.146138176322,-2.5333981514,0.187632650137,2.68435549736,-1.06079125404,0.0603949464858,-0.000223498529522,-0.000122483761515,-7.52785854274e-05,0.000505475443788,2.4479772037e-05,6.49483044981e-05,0.000451893254649,0.465108568198,-0.012564153839,0.115067975277,-0.0394631719564,0.909838742332,0.411624279821,0.0346637123287
-0.188025012612,0.133011177182,0.146138459444,-2.53339767456,0.187633574009,2.68436646461,-1.06082701683,0.0575128383934,-1.99562928174e-05,3.64505604011e-06,-0.000204434953048,-7.89647747297e-05,2.10320195038e-05,0.00252416078001,0.000526789750438,0.465111331326,-0.0125640580049,0.115069493521,-0.039459181347,0.909831302361,0.411640623836,0.0346694496412
-0.188025966287,0.133012324572,0.1461391747,-2.53339982033,0.187633886933,2.68437051773,-1.06084001064,0.0575128383934,4.54557230114e-05,-0.000409611267969,-0.00065515661845,-5.82751927141e-05,5.08163575432e-05,0.000118178410048,-7.0989728556e-05,0.465110829352,-0.0125642592043,0.115068603189,-0.0394586624994,0.909828808151,0.411646142023,0.0346699761932
-0.188027799129,0.133012577891,0.146139353514,-2.53339862823,0.187632337213,2.68437719345,-1.06085920334,0.0575128383934,0.000211855513044,0.000314552424243,3.52370284418e-06,-0.000272528472124,0.000106136663817,0.00194192968775,-0.000740459596273,0.465112780469,-0.0125654410914,0.115069490564,-0.0394558359353,0.909824975717,0.411654601016,0.034673328564
-0.188027739525,0.133010834455,0.146136373281,-2.53340005875,0.187633156776,2.68438100815,-1.06087636948,0.0575128383934,-0.000314321543556,-0.000465756456833,-4.32815759268e-05,0.000322711304761,4.79839291074e-05,-4.15600879933e-05,-0.000870530318934,0.465113167311,-0.0125670963075,0.115070115484,-0.0394541753691,0.909822217511,0.411660689305,0.0346753100883
-0.188031554222,0.133012741804,0.1461353302,-2.53339600563,0.18763397634,2.68438601494,-1.06089031696,0.0575128383934,0.000258595944615,-0.00376295624301,-0.000290731462883,-1.81441246241e-05,-1.94623553398e-05,-0.000119096643175,-0.00046610517893,0.465115860349,-0.0125696814504,0.115071064422,-0.0394520997998,0.909820508853,0.411664372817,0.0346787734005
-0.188029661775,0.133014291525,0.146137446165,-2.53339791298,0.187632575631,2.68439364433,-1.06090390682,0.0575128383934,0.000676519470289,6.73384711263e-05,-0.000225468334975,-0.000111889668915,-4.02645964641e-05,-2.23375791393e-05,-0.000745924422517,0.465116206699,-0.0125680894488,0.115070401478,-0.0394503904542,0.90981675193,0.411672697124,0.0346804659969
-0.188026100397,0.133015960455,0.146139085293,-2.53339982033,0.187633395195,2.68439555168,-1.06091368198,0.0575128383934,-0.00016050816339,0.000422916462412,0.000297833787045,-9.3614893558e-05,-4.9892001698e-05,-7.95421001385e-05,-0.000713446526788,0.465115338427,-0.0125655978266,0.115069171243,-0.0394509016838,0.909813872648,0.411679055251,0.0346799458071
-0.188033252954,0.133010864258,0.146137714386,-2.53339862823,0.187632992864,2.68440175056,-1.06092429161,0.0575128383934,-0.000161887932336,-0.000431941472925,-8.11871868791e-05,0.000658664153889,0.000103032187326,0.00125101488084,-0.000404265942052,0.465118243672,-0.0125701844628,0.115072459651,-0.039446847023,0.909813346267,0.41168015365,0.0346853280782
-0.18804037571,0.132967859507,0.146130472422,-2.53337287903,0.187632158399,2.68442082405,-1.06094408035,0.0575128383934,0.000472951272968,-0.000478157686302,-0.000354715884896,0.000511509657372,6.29445785307e-05,-0.000406396953622,-0.000844215392135,0.465144641647,-0.0125806016975,0.115102648924,-0.0394218839794,0.909811363436,0.411683807141,0.0347223363641
-0.188043400645,0.132952079177,0.146129727364,-2.5333673954,0.187632352114,2.68443894386,-1.06095349789,0.0575128383934,-7.41598569221e-06,-0.000601935607847,0.000415547052398,3.98831361963e-05,-7.50514573156e-06,0.00231264415197,-0.000263555150013,0.465154649053,-0.0125841654249,0.115113386626,-0.0394105080236,0.909810113871,0.411686272462,0.0347387579188
-0.188044577837,0.132953390479,0.146125152707,-2.53336787224,0.187631741166,2.68445754051,-1.06096315384,0.0575128383934,0.000376515672542,0.00116478139535,5.49052710994e-05,-0.000235686893575,-3.74205119442e-05,0.00366252404638,-0.000767028774135,0.465157953077,-0.0125879145898,0.11511423931,-0.0394048441815,0.909809395157,0.41168783069,0.0347455389881
-0.188042268157,0.132956266403,0.146125555038,-2.53337025642,0.187632486224,2.68447875977,-1.06097447872,0.0575128383934,-0.000443924363935,0.000539426982868,0.000167883030372,-0.000432402332081,8.89377188287e-05,0.000708593055606,9.27024302655e-05,0.465160623239,-0.0125876072036,0.115114007608,-0.039399930398,0.909806888057,0.411693288226,0.0347520940018
-0.188042491674,0.132956773043,0.146119639277,-2.53337240219,0.187632411718,2.68457770348,-1.06099188328,0.0575542077422,-0.000305660418235,-0.000620658276603,-0.00134841969702,-6.37225894025e-05,0.00025175162591,0.00112171820365,-0.000348920118995,0.465180206874,-0.012595948626,0.115121839496,-0.0393704702993,0.909805458054,0.411695989031,0.0347909019429
-0.188041254878,0.132960289717,0.146113336086,-2.53337740898,0.187633067369,2.68460083008,-1.06100070477,0.0575542077422,-0.000468703510705,0.000671225425322,-0.000235055340454,-0.000399207667215,-5.07504519192e-05,0.00283868308179,0.000194590393221,0.465181499154,-0.012599942853,0.115120159394,-0.0393652748522,0.909805306236,0.411696348025,0.0347965024536
-0.188037797809,0.132958874106,0.14610183239,-2.53338336945,0.18763153255,2.6846101284,-1.06101083755,0.0575542077422,-9.44316052482e-05,0.000695266469847,-0.00369363953359,0.000356197968358,-1.02533249446e-05,-0.000206029857509,-0.000177410140168,0.465180649522,-0.0126038688837,0.115119849018,-0.0393622418354,0.909804571484,0.411698132786,0.0347980281599
-0.188021823764,0.132931679487,0.146021351218,-2.53336715698,0.187633663416,2.68461203575,-1.06101667881,0.0575542077422,0.00421160086989,-0.00444564502686,-0.00876893848181,0.000947930268012,8.86916968739e-05,-1.4507425476e-05,9.02046958799e-05,0.465194066253,-0.0126374768041,0.115137264763,-0.0393450488809,0.909816560429,0.411671788963,0.034815676765
-0.188007608056,0.132759854198,0.145765736699,-2.53329539299,0.187631979585,2.68459534645,-1.06102657318,0.0575542077422,-3.36015618814e-05,-0.00816932599992,-0.0144238043576,0.0059710550122,-0.00011263271881,5.60861117265e-05,-0.000161366115208,0.465260171762,-0.0127641797374,0.115236730462,-0.0392659619437,0.909860855273,0.41157377237,0.0349061291223
-0.187990382314,0.132565200329,0.145508795977,-2.53319382668,0.187631428242,2.68457150459,-1.06102740765,0.0575542077422,0.00120585295372,-0.0203052517027,-0.0203392934054,0.00629362510517,4.3099233153e-05,9.3246162578e-05,0.000653540540952,0.465345097013,-0.0128915295773,0.115356265494,-0.0391760606595,0.909906093776,0.411472966821,0.0350161967405
-0.187960863113,0.132263198495,0.145192474127,-2.53313350677,0.18763102591,2.68446707726,-1.06103086472,0.0561141371727,0.000677246076521,-0.0281241089106,-0.026148499921,0.00337479962036,-8.07910546428e-05,-0.00871493387967,0.000428453786299,0.465405786786,-0.0130175853019,0.115479200302,-0.0390958967718,0.909950507111,0.411374666225,0.0351065397394
-0.187938883901,0.131442114711,0.14457218349,-2.53298950195,0.187627330422,2.68356561661,-1.06103789806,0.0561141371727,0.000855233403854,-0.0498043335974,-0.0350398756564,0.0109115270898,0.000144718491356,-0.0751413404942,0.000355208670953,0.46546201915,-0.0133223977149,0.115843125633,-0.0390393531962,0.910059935976,0.411134722893,0.0351437212492
-0.187851414084,0.129091992974,0.143161043525,-2.5325217247,0.187626242638,2.68026638031,-1.06104457378,0.0561141371727,0.0123441563919,-0.119041830301,-0.0645098090172,0.0215087030083,-0.0001914739114,-0.175732016563,-0.000648829562124,0.465482775216,-0.0138990628557,0.116774927094,-0.0391410071937,0.910266054579,0.410684052396,0.0349614104872
-0.187776073813,0.126809597015,0.142040908337,-2.53200149536,0.187623277307,2.67657375336,-1.06104886532,0.0561141371727,0.00577036850154,-0.162635698915,-0.082753457129,0.0436707660556,4.2386684072e-05,-0.287509679794,-0.000503555871546,0.465430602353,-0.0143440831396,0.117725534882,-0.039413491781,0.910421796014,0.410343927123,0.0345917788034
-0.187695071101,0.123550601304,0.140432611108,-2.53088307381,0.187620133162,2.67035388947,-1.06105065346,0.0561141371727,-0.000953297363594,-0.215093523264,-0.0952979400754,0.077741459012,-0.000188806297956,-0.408794492483,0.000126082028146,0.465357019893,-0.0148814950699,0.118977210818,-0.0399425255046,0.910613004958,0.409923400222,0.0339316295914
-0.187693491578,0.118317373097,0.138282239437,-2.52916836739,0.187619373202,2.66057753563,-1.06105327606,0.0561141371727,-0.00113540387247,-0.302558422089,-0.116687998176,0.0961509644985,0.000312708056299,-0.566176474094,5.60615153518e-05,0.465235179228,-0.0156025373294,0.12096716882,-0.0407707788984,0.910861229423,0.409370503974,0.032944718504
-0.18771854043,0.0994686931372,0.131958678365,-2.52306222916,0.18761074543,2.62609100342,-1.06105494499,0.0561141371727,0.000137904047733,-0.526236534119,-0.153494223952,0.170948624611,0.000285370450001,-0.92811781168,0.000406609324273,0.46476937766,-0.0177051076598,0.128830744405,-0.0439364196816,0.911519862018,0.407841493149,0.029435494188
-0.187734827399,0.0896544903517,0.129181846976,-2.51973390579,0.187610715628,2.60916280746,-1.06105303764,0.0561141371727,-0.00178422906902,-0.618347704411,-0.170235455036,0.215320497751,0.00221654539928,-1.05169653893,-0.000625908956863,0.464753988589,-0.0185672120355,0.133048157773,-0.0452761157955,0.911749554686,0.407272286772,0.0281443950853
-0.187881559134,0.0776973664761,0.125948384404,-2.51532578468,0.187605515122,2.58891844749,-1.0610473156,0.0561141371727,-0.0162105094641,-0.70533156395,-0.187909558415,0.269376188517,0.000496207678225,-1.18118202686,-3.31514820573e-05,0.464917410556,-0.0196168863333,0.138382432363,-0.0467391095454,0.912016437664,0.4065930551,0.0268990760668
-0.188149452209,0.0633180886507,0.122276723385,-2.50969147682,0.187601864338,2.56510043144,-1.06103873253,0.0561141371727,-0.020686570555,-0.792458474636,-0.19207444787,0.320343822241,-0.000589272880461,-1.31761181355,-0.000658216711599,0.465278493824,-0.0208301144254,0.145016816535,-0.0482995455429,0.912304036278,0.405837047852,0.0257835133662
-0.188970401883,0.0379455238581,0.116461209953,-2.49898529053,0.187596321106,2.5242869854,-1.06097364426,0.0561141371727,-0.0390873849392,-0.926685929298,-0.208614334464,0.402884244919,-0.00157770176884,-1.4864180088,0.0110999876633,0.46623301514,-0.0228417804019,0.157248325965,-0.0505899107621,0.912737839451,0.404648993032,0.0246878407528
-0.189733237028,0.0203514527529,0.112543173134,-2.49075722694,0.187594145536,2.49707436562,-1.06075119972,0.0561141371727,-0.0494802705944,-1.01121926308,-0.226833701134,0.497652620077,-0.000220007364987,-1.54909229279,0.0139456884935,0.467257770085,-0.0243143908351,0.166225989711,-0.0517008236316,0.913079088131,0.403734143368,0.0247456018665
-0.190469712019,0.00576582411304,0.109270691872,-2.48342204094,0.187585994601,2.47477388382,-1.06046104431,0.0563761480153,-0.0594214983284,-1.07185149193,-0.232984915376,0.551641047001,0.00122204283252,-1.60989284515,0.0237662792206,0.468153165323,-0.0254988645138,0.173339417417,-0.052388721066,0.913369425103,0.402966529798,0.0250936393424
-0.191620081663,-0.0172720551491,0.104339189827,-2.47127127647,0.187582984567,2.44048571587,-1.05990624428,0.0563761480153,-0.0626425370574,-1.14063382149,-0.236938968301,0.628909647465,-0.00251978775486,-1.66255259514,0.0351923182607,0.470075788023,-0.0277204445399,0.18784068965,-0.0532848774653,0.913891568195,0.401569677627,0.0265465083486
-0.195487305522,-0.0727394372225,0.0928160622716,-2.43764901161,0.187572211027,2.36172866821,-1.05734157562,0.0563761480153,-0.105156674981,-1.23088777065,-0.234782993793,0.806435585022,-0.00185879634228,-1.65010392666,0.0768526419997,0.474878738319,-0.0326728121526,0.219685258975,-0.053005997415,0.915203147099,0.398132336936,0.0329272796476
-0.197399407625,-0.0924113094807,0.0889583304524,-2.42447519302,0.18755812943,2.33563137054,-1.05592107773,0.0563761480153,-0.125680580735,-1.22464895248,-0.245423093438,0.842327475548,0.00104682485107,-1.62677001953,0.100255168974,0.476754947559,-0.0345850216692,0.231530235014,-0.0521392970006,0.915758294912,0.396674559222,0.0362978340282
-0.200392365456,-0.118336454034,0.083752900362,-2.40668821335,0.187466591597,2.30238747597,-1.05345582962,0.0563761480153,-0.149765267968,-1.23174750805,-0.24116563797,0.876232385635,-0.013879051432,-1.54069125652,0.125514239073,0.479283144184,-0.0377229126496,0.249436205734,-0.0503902708016,0.916762019231,0.394020593547,0.0419045611511
-0.205633789301,-0.156743273139,0.0762979313731,-2.37947630882,0.186510831118,2.25665473938,-1.0496609211,0.0563761480153,-0.171823933721,-1.23774731159,-0.250614613295,0.907825350761,-0.0474240519106,-1.39288294315,0.11632783711,0.482559703701,-0.0426325610204,0.275816003304,-0.0463098716439,0.918125077777,0.390195481948,0.0514706022362
-0.208334892988,-0.175030484796,0.0724612548947,-2.36640501022,0.185590058565,2.23630809784,-1.04794085026,0.0563761480153,-0.185791119933,-1.21452867985,-0.26644179225,0.847958266735,-0.0760426819324,-1.30687320232,0.119779706001,0.483840441763,-0.0452880744747,0.288689450263,-0.0437386636637,0.918753675046,0.388303907266,0.0565569551259
-0.21152754128,-0.195697367191,0.0679551288486,-2.3517305851,0.183920115232,2.21511530876,-1.04611575603,0.0563761480153,-0.195447191596,-1.19727122784,-0.264919161797,0.849641084671,-0.115374132991,-1.18742179871,0.102046832442,0.48512007779,-0.048573802408,0.303450274466,-0.0400823882531,0.919403259453,0.386189065712,0.0628414979632
-0.215238824487,-0.217066541314,0.063008107245,-2.33726978302,0.181833907962,2.19489169121,-1.04433226585,0.0563761480153,-0.210889801383,-1.18785274029,-0.288311690092,0.795964419842,-0.114082477987,-1.04916083813,0.0913317278028,0.485965142623,-0.0523739792355,0.318633895119,-0.0358205670382,0.920121345204,0.383724643738,0.0696347222739
-0.22238060832,-0.253687292337,0.0536221079528,-2.31376433372,0.176501989365,2.16563940048,-1.04148697853,0.0563761480153,-0.230458170176,-1.10022258759,-0.309706330299,0.669991970062,-0.232319027185,-0.811251163483,0.0835199430585,0.486686555383,-0.060085874434,0.344753534394,-0.026545099848,0.921357154701,0.378935178431,0.0824892804278
-0.226428925991,-0.27213203907,0.0482294484973,-2.30252838135,0.172177568078,2.15326118469,-1.0403636694,0.0563761480153,-0.242908969522,-1.0606200695,-0.326459765434,0.633611738682,-0.292124062777,-0.669061720371,0.0393648743629,0.486605044531,-0.0647841940707,0.357916187224,-0.0207083319809,0.921927598755,0.376366973357,0.0892668398039
-0.230854272842,-0.289442747831,0.0427724160254,-2.29241418839,0.166681468487,2.1429066658,-1.03998208046,0.0563761480153,-0.26424703002,-0.994359076023,-0.31333976984,0.570460140705,-0.351050376892,-0.565961778164,0.0132590271533,0.48615568617,-0.0699038511778,0.370210445885,-0.014381922755,0.922377504367,0.373998056603,0.0955947335142
-0.23550529778,-0.305431067944,0.0372812859714,-2.28332638741,0.159993901849,2.13458967209,-1.03997409344,0.0563761480153,-0.284413725138,-0.912932693958,-0.341864734888,0.521892309189,-0.430834770203,-0.420951932669,0.000496086140629,0.485447777794,-0.0753769031567,0.381584464735,-0.00759807879234,0.922755226602,0.371726376889,0.101412826531
-0.241783827543,-0.323218047619,0.0295977238566,-2.27306580544,0.15016117692,2.12715792656,-1.03998553753,0.0564076676965,-0.309222668409,-0.788603246212,-0.376913994551,0.454810172319,-0.520389020443,-0.298264235258,-0.00306145008653,0.484346788023,-0.0831716540308,0.39453918428,0.00140289844843,0.923395958453,0.368306017134,0.108113890018
-0.251240819693,-0.343188732862,0.0182779356837,-2.26074576378,0.133056268096,2.12094926834,-1.04027104378,0.0564076676965,-0.349122107029,-0.593747198582,-0.411497175694,0.397938489914,-0.643490791321,-0.139058455825,-0.0321849547327,0.482503184547,-0.0948800690453,0.409263684794,0.0141366136223,0.924376227544,0.363434261463,0.115083810265
-0.257376372814,-0.352104395628,0.0111150508747,-2.25390911102,0.121585600078,2.11944770813,-1.04104423523,0.0564076676965,-0.368815481663,-0.460049450397,-0.427192211151,0.395751863718,-0.702419698238,-0.037356197834,-0.0627860501409,0.4813112218,-0.103367711037,0.417364196401,0.0226691834138,0.925076780817,0.360077734669,0.118587867828
-0.263198465109,-0.358113825321,0.00441223103553,-2.24818348885,0.110617496073,2.1193344593,-1.04212117195,0.0564076676965,-0.403460204601,-0.338924765587,-0.463662266731,0.375070720911,-0.761940300465,0.00813385564834,-0.0883465260267,0.480240672997,-0.111583942244,0.423550422066,0.0303558550556,0.925775576358,0.356926371033,0.120920096044
-0.271524816751,-0.363361746073,-0.00525294430554,-2.24047088623,0.0945232659578,2.11962747574,-1.04451501369,0.0564076676965,-0.427892684937,-0.176434770226,-0.511195003986,0.388565540314,-0.844726622105,0.0227412823588,-0.168909087777,0.478837090216,-0.122206884451,0.429719973033,0.0394329805018,0.926667631878,0.353219796372,0.122343431427
-0.281108319759,-0.364815831184,-0.0165253579617,-2.23202013969,0.0762287676334,2.12058019638,-1.04926240444,0.0564076676965,-0.480577200651,0.0136718451977,-0.559345245361,0.431440591812,-0.890285849571,0.0787213593721,-0.285125613213,0.477204207882,-0.135232599244,0.434860354111,0.0491922149955,0.927676755381,0.349390269446,0.122157287171
-0.296161353588,-0.360606729984,-0.0345246382058,-2.21882414818,0.0488499887288,2.12368011475,-1.05999970436,0.0564155466855,-0.523675024509,0.281156033278,-0.642893671989,0.466661542654,-0.916421055794,0.133591681719,-0.431760072708,0.474841258865,-0.155977037116,0.439940675087,0.0627698426877,0.929079726763,0.344306129903,0.119683318647
-0.30492708087,-0.354864537716,-0.0451739355922,-2.21122598648,0.0343793071806,2.12617015839,-1.06743073463,0.0564155466855,-0.573632001877,0.432644307613,-0.694066464901,0.472563892603,-0.886247694492,0.174083739519,-0.497457057238,0.473555786959,-0.168109263077,0.441316478326,0.0694067117233,0.929953257999,0.341486257572,0.117289308456
-0.314690172672,-0.346436440945,-0.0572029650211,-2.20254468918,0.0197155885398,2.12934207916,-1.07651078701,0.0564155466855,-0.579292178154,0.555674612522,-0.740108966827,0.547152936459,-0.832894444466,0.200428307056,-0.56476432085,0.472235672343,-0.180834626001,0.441955303395,0.0755213156635,0.930912084004,0.338539107304,0.114413702178
-0.325133323669,-0.335287421942,-0.0706574618816,-2.19272017479,0.00581491459161,2.13318061829,-1.08712875843,0.0564155466855,-0.617613375187,0.723464667797,-0.831646621227,0.58062005043,-0.747448384762,0.234578460455,-0.653989672661,0.470657377387,-0.19636311449,0.441945250067,0.0818890628526,0.932165691981,0.334797887696,0.110777606751
-0.344077825546,-0.309772610664,-0.0961585268378,-2.17384314537,-0.0149085232988,2.14106059074,-1.10839021206,0.0564155466855,-0.638247489929,0.944871664047,-0.865821301937,0.66314291954,-0.600700318813,0.269289493561,-0.732218325138,0.467772672551,-0.223455240509,0.439702281161,0.0903227078901,0.93461357617,0.327955387162,0.103848617686
-0.358032375574,-0.287172287703,-0.116495504975,-2.15867042542,-0.0268732234836,2.14666724205,-1.12494266033,0.0564155466855,-0.623265266418,1.09786403179,-0.948673605919,0.697542786598,-0.476167947054,0.241852119565,-0.769567430019,0.465123738785,-0.244066853117,0.436540250937,0.0946284873225,0.936859391867,0.322023444176,0.0981877301098
-0.366768330336,-0.27129805088,-0.129979774356,-2.14844465256,-0.0328151211143,2.15002989769,-1.13593351841,0.0564155466855,-0.620430290699,1.16601121426,-0.965382933617,0.768397569656,-0.381901681423,0.240207612514,-0.79057943821,0.463345910127,-0.256350878395,0.434117332821,0.0964001842109,0.938320145322,0.318263808477,0.0947124979487
-0.377325177193,-0.250445067883,-0.146825909615,-2.13544273376,-0.0384659580886,2.15395712852,-1.14978468418,0.0564155466855,-0.622836470604,1.26362323761,-1.00866234303,0.767926394939,-0.294738531113,0.216405704618,-0.824739336967,0.460605291486,-0.273514884309,0.430087573721,0.0980528669561,0.940476220034,0.312796893591,0.0897118603035
-0.389563530684,-0.224447533488,-0.167440652847,-2.1200530529,-0.0430595315993,2.15816283226,-1.16646325588,0.0564155466855,-0.586452305317,1.33252990246,-1.02757525444,0.79054158926,-0.176150038838,0.203240469098,-0.841901838779,0.456865924861,-0.292675009853,0.424616379104,0.0987291603081,0.943105484162,0.306228026145,0.0838390979129
-0.405960738659,-0.186341062188,-0.196411699057,-2.09870934486,-0.0465292669833,2.16304969788,-1.18989181519,0.0564155466855,-0.573390722275,1.38374400139,-1.03226852417,0.755259513855,-0.0695353522897,0.144168317318,-0.822740256786,0.450630512575,-0.318755859624,0.415520207147,0.0980070735007,0.94692064501,0.296821477982,0.0750527514151
-0.41572791338,-0.162689000368,-0.213847205043,-2.08604168892,-0.0472815446556,2.16548442841,-1.20371377468,0.0564207993448,-0.562059640884,1.38966703415,-1.00318980217,0.718865334988,-0.0186784379184,0.127720743418,-0.80726480484,0.446204465606,-0.334132791231,0.409358408329,0.0968203613134,0.949325006168,0.290830322994,0.0694663459164
-0.425122469664,-0.139265775681,-0.230620250106,-2.07446217537,-0.0474981442094,2.16726565361,-1.21739053726,0.0564207993448,-0.556350767612,1.35315823555,-0.972145795822,0.678382635117,-0.00687842350453,0.0960168540478,-0.806635260582,0.441299785666,-0.348649011762,0.402590438514,0.0949641649049,0.951641041074,0.285191239363,0.0634593807725
-0.436624318361,-0.11087230593,-0.250416308641,-2.06103301048,-0.0475246086717,2.16874623299,-1.23402643204,0.0564207993448,-0.541265547276,1.32222390175,-0.900882482529,0.598185241222,-0.0126486513764,0.0449381656945,-0.767657637596,0.434609618086,-0.365700529887,0.393904573738,0.092241919761,0.95435415056,0.27857111064,0.0556571608655
-0.461555927992,-0.0521470233798,-0.287966191769,-2.03792071342,-0.0475445725024,2.16916704178,-1.26960647106,0.0564207993448,-0.5182762146,1.16867303848,-0.697759389877,0.386687904596,-1.73555599758e-05,0.00263827224262,-0.713748514652,0.418004933926,-0.398088412607,0.373074170099,0.0837925160212,0.959415080724,0.26672511118,0.0368677622716
-0.469139188528,-0.0352472104132,-0.297725111246,-2.03266191483,-0.0475332327187,2.16907095909,-1.2801309824,0.0564207993448,-0.481211066246,1.07731127739,-0.592356443405,0.309998244047,-0.00239922478795,-0.0115996710956,-0.686839044094,0.412268754438,-0.40714008156,0.36589000428,0.0804455773563,0.960775181948,0.263639694527,0.0305560141017
-0.478590667248,-0.0146821746603,-0.308938622475,-2.02752304077,-0.0475497581065,2.16849350929,-1.2937349081,0.0564207993448,-0.46266323328,0.975060582161,-0.530212044716,0.219346702099,-1.69797385752e-05,-0.0377894043922,-0.672806501389,0.405600493655,-0.416321267464,0.357468503798,0.0760853132735,0.962085278068,0.260886205751,0.0232665031609
-0.487424343824,0.00464940816164,-0.319157838821,-2.02372741699,-0.0475609898567,2.16718816757,-1.30774223804,0.0564299933612,-0.391161352396,0.85562723875,-0.45620059967,0.139926239848,-0.0041174874641,-0.0900930017233,-0.663399040699,0.39851817089,-0.424788506021,0.348544956615,0.0709349618641,0.963162661057,0.258926773194,0.0155834959942
-0.496852219105,0.0258130077273,-0.329363226891,-2.021058321,-0.0475807748735,2.16403698921,-1.32477545738,0.0564299933612,-0.310139328241,0.71251565218,-0.308010131121,0.0542624816298,-0.00302790338174,-0.133354604244,-0.608888149261,0.390384030674,-0.432772220523,0.337888812147,0.0637745839821,0.96396226878,0.258201424125,0.00644756374506
-0.501966536045,0.0373825654387,-0.334432512522,-2.0207130909,-0.0475881285965,2.16147637367,-1.33445060253,0.0564299933612,-0.24349154532,0.555934429169,-0.231481194496,-0.0316186100245,0.00284162606113,-0.0906479805708,-0.279570192099,0.385671254467,-0.436436012465,0.33145459453,0.0589221380816,0.964280583219,0.258244085233,0.00106329894629
-0.505771398544,0.0454534254968,-0.337568044662,-2.02299284935,-0.0476012304425,2.16121435165,-1.33270859718,0.0564299933612,-0.201021268964,0.418893903494,-0.158451586962,-0.126391202211,-0.000791576050688,0.00582182593644,0.147949144244,0.382580032178,-0.438324294749,0.326728508728,0.0556376127321,0.965327563796,0.255034464536,-0.00213827397434
-0.505448043346,0.0529825426638,-0.336558580399,-2.03440856934,-0.0476046092808,2.1531586647,-1.34127855301,0.0564299933612,0.100100681186,-0.0159667227417,0.119215413928,-0.090136513114,-1.64461052918e-05,-0.0786579474807,-0.124092370272,0.37884319052,-0.434054177381,0.315469070545,0.0437808543225,0.964752694933,0.259298657865,-0.00998399399954
-0.503480017185,0.052430588752,-0.334575176239,-2.03514122963,-0.0476033575833,2.15148448944,-1.34503412247,0.0564299933612,0.161214724183,-0.0467810966074,0.146594136953,-0.00738543458283,-0.00694799376652,-0.147662431002,-0.332744389772,0.38014607155,-0.432130695174,0.315226394516,0.0428719335708,0.963790148108,0.262991169657,-0.0103049549286
-0.500067591667,0.0514759980142,-0.331499367952,-2.03426003456,-0.0476089864969,2.14683794975,-1.35335290432,0.0564299933612,0.192202016711,-0.0580924414098,0.178641542792,0.0951036214828,-3.94240341848e-05,-0.327569752932,-0.530175566673,0.382452760721,-0.429176547674,0.315659963634,0.0414857535675,0.961892739429,0.270043803187,-0.0108459271704
-0.495814651251,0.0500445440412,-0.327305495739,-2.03136754036,-0.0476901307702,2.13862323761,-1.36549603939,0.0564352460206,0.193091586232,-0.0796515792608,0.213589727879,0.158198311925,-0.00537945888937,-0.392947852612,-0.555531382561,0.385484046334,-0.425407574773,0.316944034768,0.0395771659749,0.959168404051,0.279810455899,-0.0116502817671
-0.490021944046,0.047815144062,-0.320427417755,-2.02641606331,-0.0477060824633,2.12923336029,-1.37929594517,0.0564352460206,0.219877153635,-0.0806288793683,0.279609918594,0.197708368301,0.000238554202951,-0.284853160381,-0.436935007572,0.390557650285,-0.420269395283,0.319507177117,0.0383108906706,0.955486916237,0.292294804866,-0.0118648765054
-0.486311435699,0.0463017821312,-0.31579837203,-2.02315282822,-0.0477087423205,2.12520194054,-1.38576829433,0.0564352460206,0.236096203327,-0.105357259512,0.29392978549,0.210373431444,-0.000491789134685,-0.222715422511,-0.390656858683,0.394424464807,-0.41696996434,0.321577996437,0.0384928914989,0.953192695923,0.299686782586,-0.0113935849042
-0.482648342848,0.0445393845439,-0.311486780643,-2.01993536949,-0.0477082133293,2.12206125259,-1.3912551403,0.0564352460206,0.248687922955,-0.114767350256,0.288437902927,0.222365751863,-2.41541711148e-05,-0.198226347566,-0.350240945816,0.398011123149,-0.414093076425,0.323735439705,0.0391351431055,0.951172516625,0.305983044649,-0.0106611569937
-0.477213770151,0.0420496873558,-0.30540138483,-2.01538610458,-0.0477080829442,2.11817383766,-1.39845383167,0.0564352460206,0.272721618414,-0.129311457276,0.300798892975,0.218205809593,0.000142284829053,-0.177801728249,-0.339815825224,0.402968317474,-0.41013626183,0.326684993376,0.0402198574184,0.948416524196,0.314320144416,-0.00955542799533
-0.468965321779,0.0376363992691,-0.296269714832,-2.00878477097,-0.0477029494941,2.11345529556,-1.40853834152,0.0564352460206,0.269145041704,-0.153389707208,0.307181209326,0.206714466214,-0.000212439874304,-0.135143384337,-0.30329439044,0.411082526899,-0.403628615295,0.331899366496,0.0426525510884,0.943857252326,0.32750760951,-0.00728096956973
-0.463942497969,0.0346646048129,-0.29065990448,-2.00523591042,-0.0477047339082,2.11109042168,-1.41345632076,0.0564352460206,0.285582005978,-0.180021256208,0.321327537298,0.184122130275,-5.28551354364e-05,-0.137744247913,-0.246218129992,0.415796152852,-0.399638066157,0.334974381885,0.0442121712553,0.941269301504,0.334699472384,-0.00580076140848
-0.458751648664,0.0312094483525,-0.284713059664,-2.00206208229,-0.047700624913,2.10875630379,-1.41738021374,0.0564411580563,0.285670220852,-0.192717209458,0.332601815462,0.167105302215,0.000128050305648,-0.122660048306,-0.193798854947,0.420302349472,-0.395552115485,0.337967738659,0.0457067984369,0.93885119141,0.341249090597,-0.00428798542961
-0.449748188257,0.0246059522033,-0.274520158768,-1.99720478058,-0.0476985350251,2.10497283936,-1.42291367054,0.0564411580563,0.273681998253,-0.221369147301,0.309999704361,0.142178714275,3.63786275557e-05,-0.113968849182,-0.15450373292,0.428271660202,-0.387862264458,0.343538933111,0.0485097592981,0.93451802817,0.352591786189,-0.00137487288565
-0.445631742477,0.0213696099818,-0.269927769899,-1.9951261282,-0.0476985648274,2.10325503349,-1.42506945133,0.0564411580563,0.268979340792,-0.20909217,0.306123971939,0.138815671206,-5.93290849338e-07,-0.111472196877,-0.138818994164,0.432255636309,-0.383809981099,0.346485966458,0.0499821910261,0.932305860643,0.358200404288,0.000181229368513
-0.440072029829,0.0171306468546,-0.263627439737,-1.9923170805,-0.0476970821619,2.10077571869,-1.42780852318,0.0564411580563,0.258750468493,-0.205556571484,0.292617321014,0.121902726591,6.19554484729e-05,-0.12625348568,-0.116389043629,0.436494893068,-0.379332897242,0.349597576688,0.0514655238024,0.929898140373,0.364194378367,0.00178964809783
-0.435611724854,0.0132388947532,-0.258317261934,-1.99030840397,-0.0476944968104,2.09861111641,-1.42964422703,0.0564411580563,0.236129209399,-0.213958337903,0.302544027567,0.101227231324,0.00425588712096,-0.119951970875,-0.0896557271481,0.440214704077,-0.375125307669,0.352505575862,0.052783209206,0.927743305751,0.369452813302,0.00330301178284
-0.431034803391,0.00925383530557,-0.252330958843,-1.98850047588,-0.0476922467351,2.09622478485,-1.4314289093,0.0564411580563,0.222578004003,-0.189275488257,0.296771466732,0.0900159552693,1.84795244422e-05,-0.122429035604,-0.0810903087258,0.44408900642,-0.370456362287,0.355349238436,0.0539498145717,0.925424266994,0.375042176258,0.00476542514054
-0.425427258015,0.0038391421549,-0.245016753674,-1.98659300804,-0.0476880855858,2.09285998344,-1.43353950977,0.0564411580563,0.191809117794,-0.196256279945,0.255534797907,0.065683580935,3.65992782463e-05,-0.127335488796,-0.0672559589148,0.448585878847,-0.364565328101,0.358940685841,0.0552542327205,0.922561038067,0.381818349285,0.0065458872264
-0.422969222069,0.0013972686138,-0.241739273071,-1.98581516743,-0.0476893521845,2.09121537209,-1.43420982361,0.0564411580563,0.192740082741,-0.184371724725,0.246992588043,0.0562749393284,-7.84624062362e-05,-0.137173384428,-0.0445922352374,0.450507672322,-0.361898488962,0.360508918959,0.055754845914,0.921328405733,0.384697457646,0.00729600636737
-0.419251859188,-0.00208830740303,-0.236981868744,-1.98484992981,-0.0476887524128,2.08853292465,-1.4346909523,0.0564411580563,0.178503587842,-0.158173561096,0.22362524271,0.0422727875412,0.000192882987903,-0.132310926914,-0.0199294518679,0.453480813719,-0.357488864778,0.362832938592,0.0562957096282,0.919439299304,0.389091943163,0.00834430463018
-0.415471464396,-0.00537560880184,-0.232512742281,-1.98408961296,-0.0476829372346,2.0855987072,-1.43504095078,0.0564411580563,0.165305659175,-0.14138238132,0.190549477935,0.0209360774606,0.000131719643832,-0.119102045894,-0.0134388562292,0.455745314272,-0.353864100397,0.364536616697,0.0565037909816,0.917938901722,0.392573298437,0.00903876902563
-0.41240760684,-0.0081518786028,-0.22884696722,-1.98385071754,-0.0476777814329,2.08308982849,-1.43528914452,0.0564424693584,0.147083833814,-0.132077246904,0.175826564431,0.00162494333927,0.000999550917186,-0.129901751876,-0.00758376531303,0.457657693607,-0.350497587826,0.365934971477,0.0565241974751,0.91658727007,0.395703326813,0.00957435508822
-0.4096159935,-0.0105214873329,-0.22528681159,-1.98385930061,-0.0476716049016,2.08040785789,-1.43539321423,0.0564424693584,0.120985679328,-0.104209579527,0.161416947842,-0.00324998260476,-0.000301100051729,-0.127687051892,-0.000699073018041,0.459337636591,-0.347236153443,0.366964564833,0.0562198830259,0.915344716823,0.398605462815,0.00985184405756
-0.4066003263,-0.0130639700219,-0.22100533545,-1.98402297497,-0.0476038642228,2.07673358917,-1.43539130688,0.0564424693584,0.0908291786909,-0.0667469054461,0.130733698606,0.00116651144344,0.00424746004865,-0.126698255539,-0.000524372502696,0.461109846281,-0.343379166584,0.367905989955,0.0554775687156,0.913957839025,0.401876422498,0.00993219890069
-0.405216097832,-0.0138887027279,-0.21886177361,-1.98406004906,-0.0474060885608,2.07460975647,-1.43538892269,0.0564424693584,0.0743395909667,-0.0401889234781,0.123342506588,-0.00177889352199,0.00975304655731,-0.118047252297,-7.94594088802e-05,0.46187741531,-0.341589413484,0.368108682282,0.0548554665718,0.913355566412,0.40333113583,0.00982250683361
-0.40402340889,-0.0144158722833,-0.216846838593,-1.98418211937,-0.047024641186,2.07264637947,-1.4353801012,0.0564424693584,0.0669392645359,-0.026237661019,0.108607269824,-0.0136793255806,0.0388642884791,-0.107404954731,0.0017755824374,0.462668568772,-0.339679632386,0.368136959322,0.05401722933,0.912752283615,0.404810934302,0.00967030714738
-0.402869135141,-0.0146845858544,-0.215031415224,-1.98459529877,-0.0460733808577,2.07070851326,-1.43533718586,0.0564424693584,0.0579405166209,-0.00599814625457,0.0857667773962,-0.0332775004208,0.0583466850221,-0.097497805953,0.00268130074255,0.463313580014,-0.3378924675,0.367867734974,0.0528880687425,0.912306439298,0.405965425784,0.00958570535928
-0.401855736971,-0.0147243607789,-0.213748961687,-1.98525035381,-0.045022983104,2.06912827492,-1.43519854546,0.0564424693584,0.0571851730347,0.00306229875423,0.0685832500458,-0.0462316125631,0.0583452656865,-0.0910732969642,0.015953630209,0.463748213945,-0.336408287043,0.367389413844,0.0517004198648,0.912022214786,0.406758781301,0.00947838784067
-0.400298953056,-0.0146215893328,-0.211971387267,-1.98726809025,-0.0430979467928,2.06655883789,-1.43454957008,0.0564457550645,0.0457729585469,-0.00136441260111,0.0506293140352,-0.0984023064375,0.0948781371117,-0.0814076736569,0.0257370080799,0.464115098126,-0.333996521539,0.366048446414,0.0492474783493,0.911762869555,0.407652613842,0.00908304377357
-0.399633914232,-0.0146353282034,-0.211078181863,-1.98905837536,-0.0412175543606,2.06530499458,-1.43396055698,0.0564457550645,0.0351553075016,0.00158961000852,0.060442302376,-0.119581095874,0.136473581195,-0.0848816260695,0.0362403318286,0.464156689623,-0.332599642286,0.365029337727,0.0475074246812,0.911806211579,0.407762485518,0.00906819775827
-0.399034112692,-0.014627834782,-0.20981566608,-1.99161815643,-0.0382235832512,2.06364488602,-1.43329441547,0.0564457550645,0.0259379483759,-0.000570501782931,0.0707650184631,-0.149096176028,0.16871394217,-0.0838027596474,0.0285556316376,0.464133108014,-0.330646662239,0.36349072995,0.0448558941924,0.91193549141,0.407771269534,0.0091760386931
