imanlab/tactile_prediction_flat_dataset/test/data_sample_2021-11-25-13-19-17/robot_state.csv
position_panda_joint1,position_panda_joint2,position_panda_joint3,position_panda_joint4,position_panda_joint5,position_panda_joint6,position_panda_joint7,position_panda_finger,velocity_panda_joint1,velocity_panda_joint2,velocity_panda_joint3,velocity_panda_joint4,velocity_panda_joint5,velocity_panda_joint6,velocity_panda_joint7,ee_state_position_x,ee_state_position_y,ee_state_position_z,ee_state_orientation_x,ee_state_orientation_y,ee_state_orientation_z,ee_state_orientation_w
-0.150588005781,-0.00805762037635,0.130521059036,-2.53639626503,0.0662860050797,2.59860777855,-0.84468716383,0.0767971649766,0.000130239859573,0.000802081718575,0.000218603818212,3.36832672474e-05,-2.63576675934e-05,-9.97026218101e-05,0.00900410301983,0.471589838985,-0.00713156329463,0.170840478734,-0.00126169316951,0.926253537557,0.374852009279,0.0392270712279
-0.150586917996,-0.00806013867259,0.130521431565,-2.53639745712,0.0662855356932,2.59861207008,-0.844521939754,0.0767971649766,-0.000103948477772,-0.000735448556952,9.02936226339e-05,-0.000707847240847,-0.000123739810078,-0.00117870292161,0.0123055325821,0.471590774003,-0.00713129812848,0.170841591193,-0.00126338120917,0.926281373033,0.374782991547,0.039229208134
-0.150583669543,-0.00806514918804,0.130519330502,-2.53639364243,0.0662845000625,2.5986187458,-0.84442782402,0.0767971649766,0.000836311723106,-0.000889071205165,-1.78884420166e-05,0.000370380555978,-2.76393147942e-05,5.34653590876e-05,0.00643717264757,0.471594635987,-0.00713080989585,0.170846151292,-0.00126159746115,0.926301083523,0.374733558859,0.0392360877862
-0.15058773756,-0.00806032959372,0.13050788641,-2.53639888763,0.0662859976292,2.59862923622,-0.844218611717,0.0767971649766,2.49833501584e-05,0.000200799055165,-0.00150436768308,0.000248269352596,-1.72563013621e-05,-0.000685737584718,0.00562077434734,0.471593467032,-0.0071380937494,0.170842931702,-0.0012657407759,0.926343476778,0.374628706127,0.039236375463
-0.150589287281,-0.00806385371834,0.130489572883,-2.53639793396,0.0662860423326,2.59863305092,-0.844138979912,0.0767971649766,-0.000257098698057,-0.000496938999277,0.000263986003119,-4.64097593067e-06,-4.38145216322e-05,-0.000167601363501,0.00568169588223,0.471595157272,-0.00714760470358,0.170845354043,-0.0012650570843,0.926361983843,0.374582558836,0.0392400410341
-0.150586754084,-0.00806345883757,0.130458846688,-2.53639650345,0.0662853047252,2.59864020348,-0.844017863274,0.0767971649766,-0.00012051914382,-9.40913469094e-06,-0.00529855582863,0.00025150339934,-1.34815963975e-05,4.28782113886e-05,0.00555044133216,0.471597093904,-0.0071610316585,0.170846480347,-0.0012650372476,0.926389721503,0.374513576689,0.0392436508626
-0.150583177805,-0.00806293264031,0.13040278852,-2.53639674187,0.0662851631641,2.59864211082,-0.843910396099,0.0767971649766,-8.38640917209e-05,-0.000505899253767,-0.00289146625437,-2.49910481216e-05,-0.0002215893619,1.83111478691e-05,0.00762970885262,0.471597119832,-0.00718717435914,0.170846612236,-0.00126593705863,0.926421456034,0.374434970354,0.039244564754
-0.150591105223,-0.00806050933897,0.130313649774,-2.53639531136,0.066285379231,2.59865045547,-0.843661129475,0.0767971649766,0.000444046221673,-0.000346608052496,-0.00198517739773,-0.00122357637156,3.95536226279e-05,-0.000149746876559,0.0104074813426,0.471598312668,-0.007231505727,0.170846698111,-0.00126786830616,0.926484407294,0.374278844718,0.0392476958764
-0.150587901473,-0.00805563759059,0.130254983902,-2.53639912605,0.0662848576903,2.59865093231,-0.843540668488,0.0767971649766,0.000248114200076,-0.000247315387242,-0.00656930310652,0.000283840548946,2.16423268284e-05,-0.000156172856805,0.0066587808542,0.471595414599,-0.00725745976634,0.170843005582,-0.0012711012603,0.926517407925,0.374197513105,0.0392440821427
-0.150587067008,-0.0080692153424,0.130080372095,-2.53639388084,0.0662852376699,2.59866094589,-0.843070149422,0.0767971649766,-0.000116882270959,-0.000284677487798,-0.000850376149174,0.000232640042668,3.48119829141e-05,-8.55621256051e-05,0.00972758326679,0.471600987235,-0.00733974633675,0.170852525802,-0.00127092066804,0.92663746669,0.37389875052,0.0392570265144
-0.15058863163,-0.0080697350204,0.130022078753,-2.53639507294,0.0662835761905,2.59866499901,-0.842907607555,0.0767971649766,-1.57653648785e-05,-5.14037346875e-05,-0.00320314709097,0.000100456461951,-0.000112008761789,5.65038135392e-05,0.0149803860113,0.471600923714,-0.00736804282951,0.170852746279,-0.00127193007221,0.926678746076,0.373796285249,0.0392583823328
-0.150591656566,-0.00805881153792,0.129846349359,-2.53639769554,0.0662850812078,2.59867072105,-0.842426359653,0.0767971649766,5.54994912818e-05,-0.000214402083657,-0.00356740993448,-0.000361304933904,-3.60201484e-05,0.00190679985099,0.0161313060671,0.471597841491,-0.00745187880787,0.17084729438,-0.00128087486747,0.926802462431,0.373489718454,0.03925538033
-0.150596857071,-0.00805893633515,0.129712447524,-2.5363984108,0.0662849768996,2.5986738205,-0.841954350471,0.0767971649766,0.000202045950573,-0.000555613951292,-0.0026615653187,0.000630551076028,-3.18932216032e-05,0.000114561800729,0.00955300033092,0.471597159488,-0.00751736536003,0.170847459644,-0.00128726977846,0.926916493296,0.373206485722,0.0392565420253
-0.150592386723,-0.00806687120348,0.129660591483,-2.5363984108,0.0662849843502,2.59867525101,-0.841751635075,0.0767971649766,0.00292657734826,-0.000407269486459,-0.000575341691729,0.000158152673976,-8.81143364495e-07,8.451861504e-05,0.0161518510431,0.471598387573,-0.00753986552676,0.170851341972,-0.00128816839494,0.926962983799,0.373090568063,0.0392606035878
-0.150595545769,-0.00807156413794,0.129630506039,-2.53639435768,0.0662847161293,2.59867882729,-0.84153676033,0.0767971649766,-1.42584631249e-05,-0.000535011931788,-0.00116080709267,4.10438478866e-05,9.82894343906e-05,0.00134833902121,0.00852444767952,0.47160159071,-0.00755573817845,0.170855505901,-0.00128899346373,0.927009004369,0.372975636153,0.0392660010014
-0.150594368577,-0.00806823465973,0.129590556026,-2.53639507294,0.0662854537368,2.59868216515,-0.841326594353,0.0767971649766,-0.000360070233,0.0002544382005,-0.00052580004558,-9.27249493543e-05,2.81159827864e-05,-0.000111698456749,0.0108722141013,0.471601137139,-0.00757392150883,0.170854034398,-0.00129292703797,0.927055568246,0.372859892118,0.0392657898941
-0.150596112013,-0.00805912353098,0.129552543163,-2.5363972187,0.0662853494287,2.59868550301,-0.841084957123,0.0767971649766,0.000209084246308,7.4806252087e-05,-0.00108994403854,0.000340644357493,-4.1153823986e-05,3.09238203045e-05,0.00952404458076,0.471599327647,-0.00759760072432,0.170848153317,-0.00130034733211,0.927119453618,0.372701407696,0.0392617906462
-0.150598317385,-0.00805165432394,0.129511222243,-2.53639554977,0.0662850141525,2.59868693352,-0.840895593166,0.0767971649766,-0.000577044382226,0.00103969976772,0.000286056136247,0.00029530574102,-3.4604465327e-05,7.6804884884e-05,0.00324189802632,0.471598641213,-0.00761279676039,0.170846628366,-0.00130316593156,0.927151615546,0.372621523354,0.0392604580511
-0.150590911508,-0.00806721765548,0.129469037056,-2.53639245033,0.0662847310305,2.598695755,-0.840395390987,0.0767971649766,0.000222579197725,0.000510226702318,-0.00170705339406,9.99206968118e-05,8.75905971043e-05,9.08858855837e-05,0.00198740977794,0.471604227987,-0.00762973750672,0.17085604548,-0.00130587278622,0.927250737563,0.372373538026,0.0392722834322
-0.150591015816,-0.0080617973581,0.129462957382,-2.53639674187,0.0662853121758,2.59869718552,-0.84029841423,0.0767971649766,-0.000138662115205,0.000343814637745,0.000258475280134,-0.000222103830311,2.00718477572e-05,-0.000102984151454,0.00386139936745,0.471601562912,-0.00763247885772,0.170851982127,-0.00130972003658,0.927270203058,0.372325434149,0.0392686379114
-0.150593757629,-0.00806052982807,0.129441961646,-2.5363972187,0.0662850812078,2.59869813919,-0.840164840221,0.0767971649766,-0.00436896178871,0.000346310378518,-0.00252813100815,2.97268052236e-05,8.92427124199e-05,2.16899825318e-05,0.00545369135216,0.471601155297,-0.00764363817815,0.170851311393,-0.00131209609773,0.927299471887,0.372252565411,0.0392682450667
-0.150593608618,-0.00806151796132,0.129408821464,-2.53639650345,0.0662857815623,2.5986995697,-0.839914023876,0.0767971649766,0.000368306529708,-0.000245930219535,-8.79028666532e-05,0.000415136513766,-0.000112304835056,7.94009320089e-05,0.0118545349687,0.471601714705,-0.00765918648295,0.170852218456,-0.00131595502198,0.92735234025,0.372120679367,0.0392696443399
-0.15058837831,-0.00806887913495,0.129386901855,-2.53639507294,0.066285431385,2.59870481491,-0.839537978172,0.0767971649766,-0.000127207342302,0.000771484628785,0.000240415756707,0.000148939827341,2.79752275674e-05,-7.54339416744e-05,0.00693244114518,0.47160456426,-0.00766733863356,0.170856769845,-0.0013196954777,0.927425104252,0.371938653746,0.0392755896333
-0.150587946177,-0.0080630350858,0.129380747676,-2.53639888763,0.0662858337164,2.59870576859,-0.839265406132,0.0767971649766,0.000321328523569,0.000770930782892,-0.00438663503155,0.000183157520951,9.98226532829e-05,-2.6487341529e-05,0.0156850460917,0.471602034123,-0.00766953009499,0.170852842215,-0.00132664424962,0.927473942346,0.371817227773,0.0392718104995
-0.150591120124,-0.00806005764753,0.129369840026,-2.53639817238,0.066284738481,2.59870696068,-0.838833272457,0.0767971649766,0.000279341184068,0.00021549576195,-0.00201466144063,-0.00084123632405,5.63597204746e-05,3.75729359803e-05,0.00950300879776,0.4716017849,-0.0076767991293,0.170851492515,-0.00133575153018,0.927562479636,0.371596382373,0.0392707324963
-0.15059261024,-0.00806081481278,0.129359468818,-2.53639531136,0.0662849992514,2.59870839119,-0.838591754436,0.0767971649766,-0.00043472260586,0.000130843473016,-0.00135529518593,-0.000108919230115,-7.37096197554e-05,5.6297514675e-05,0.0145001057535,0.471603674809,-0.00768212472471,0.170853288377,-0.00133894246439,0.927606899674,0.371485231671,0.039273009119
-0.150594800711,-0.00806182064116,0.129350036383,-2.5363972187,0.0662847980857,2.59871006012,-0.838404417038,0.0767971649766,-9.1303139925e-05,1.38326213346e-05,0.000165860474226,0.000101930367236,5.56539816898e-06,0.000726359954569,0.0112860817462,0.471603187931,-0.00768764029416,0.170853187667,-0.00134212551065,0.927643817019,0.371393004126,0.0392731920775
-0.150586515665,-0.00806314218789,0.129346877337,-2.53639960289,0.0662850216031,2.59871315956,-0.837959289551,0.0767971649766,-0.000539580883924,-0.00043630565051,-0.00349657703191,0.000328607333358,-7.5509371527e-05,0.000178302027052,0.00637667905539,0.471602954638,-0.00768528061229,0.170853192345,-0.0013504809896,0.927725517526,0.371188779433,0.0392737830929
-0.150584995747,-0.00806251261383,0.129349038005,-2.53639769554,0.0662856176496,2.59871411324,-0.837911605835,0.0767971649766,-0.000402512348955,-0.000309390685288,-0.000718268856872,0.000279060477624,3.79260673071e-05,-0.000132632514578,0.000399395416025,0.47160399799,-0.00768354742558,0.170853743016,-0.00135120646355,0.927733736513,0.371168121769,0.0392748449066
-0.150587052107,-0.00806665234268,0.129343062639,-2.53639435768,0.0662856474519,2.59871506691,-0.837862193584,0.0767971649766,-0.000486307661049,-0.000138354167575,-5.96732643316e-05,0.000268745061476,-6.1928993091e-05,1.91932231246e-05,0.00347989052534,0.471606944009,-0.00768826478357,0.170857747531,-0.00134963706974,0.92774575934,0.371137599738,0.0392793361853
-0.150592103601,-0.0080624781549,0.129334062338,-2.53639769554,0.0662855803967,2.5987174511,-0.837727189064,0.0767971649766,9.34129093366e-06,-0.000765902746934,-0.000301544001559,0.000220796107897,-9.23385741771e-05,5.36225925316e-05,0.000327007524902,0.471604531411,-0.00769400925357,0.170854077914,-0.00135370951462,0.927772007059,0.371072293247,0.0392762429076
-0.150590851903,-0.00806393846869,0.129331409931,-2.53639578819,0.0662851557136,2.59871768951,-0.837704658508,0.0767971649766,-0.000121400109492,-0.000350842921762,-0.000217906112084,-0.000345650070813,0.000187006793567,-3.14843327942e-06,-5.13073755428e-05,0.471605717503,-0.00769474124616,0.170855532875,-0.00135323353982,0.927776313843,0.371061362077,0.0392777989308
-0.150586679578,-0.00806166883558,0.129333809018,-2.53639864922,0.0662858635187,2.59871816635,-0.837683081627,0.0767971649766,0.000907730776817,-0.000572491262574,0.000576262013055,0.0003436615807,-7.48870888856e-06,-0.000102037120087,-7.14353518561e-05,0.471604137049,-0.00769154491026,0.170853400194,-0.00135498174427,0.927779299306,0.371054105137,0.0392757755988
-0.150584459305,-0.00806285534054,0.129333749413,-2.53639435768,0.0662858635187,2.59872126579,-0.837661683559,0.0767971649766,-3.06974152409e-06,1.40297734106e-05,-2.08357596421e-05,-5.91166462982e-05,2.93366192636e-05,-7.23923367332e-05,0.00204999838024,0.471607053696,-0.00769065807873,0.170855954685,-0.00135362257076,0.927782721199,0.371045145503,0.0392796338115
-0.150589779019,-0.00805353559554,0.129328101873,-2.53639507294,0.0662860050797,2.59872126579,-0.837623655796,0.0767971649766,-0.000384699727874,-0.00087926001288,4.11837099819e-05,-0.000559905834962,-2.5926352464e-05,-8.69389186846e-05,0.000339981605066,0.471605134386,-0.00769558389892,0.170851321334,-0.00135670646911,0.92779202597,0.371022326097,0.0392752990643
-0.150593698025,-0.00805470906198,0.129321575165,-2.53639769554,0.0662854835391,2.59872055054,-0.83759778738,0.0767971649766,-0.000497275090311,-0.00242890953086,-0.000364719802747,-0.000223482667934,-0.00561873335391,2.68941930699e-05,0.00235107820481,0.471603835197,-0.00770050997827,0.170850771592,-0.00135727551113,0.927798721812,0.371005693759,0.0392742216871
-0.150594398379,-0.00805545132607,0.129317998886,-2.53639864922,0.0662857964635,2.59872078896,-0.837563693523,0.0767971649766,9.38809826039e-05,-0.00123741663992,0.000365683750715,0.000407465588069,-3.26108711306e-05,-2.85917358269e-05,-0.000317904894473,0.471603889025,-0.00770236282886,0.170851247926,-0.00135761168981,0.927806067262,0.370987263097,0.0392747851216
-0.150591209531,-0.00806455686688,0.129320412874,-2.53639745712,0.0662860646844,2.59872293472,-0.837533056736,0.0767971649766,-0.000162604294019,-0.000119491494843,5.23852359038e-05,-0.000176100045792,1.44581435961e-05,7.22098661754e-07,0.0012648786651,0.471606044357,-0.00770015029525,0.170855714782,-0.0013556573721,0.927810345726,0.370976053213,0.0392796662667
-0.150589331985,-0.00806825608015,0.129318878055,-2.53639364243,0.0662853568792,2.59872531891,-0.837505936623,0.0767971649766,-6.60152727505e-05,0.000171248058905,-0.000344431202393,-9.04347834876e-05,2.33829305216e-05,0.0047120898962,1.26932741296e-06,0.471608968564,-0.0077001878618,0.170859183191,-0.00135381968288,0.927815028377,0.370963890845,0.0392839873577
-0.150587931275,-0.00806031841785,0.129319965839,-2.53639602661,0.0662851333618,2.5987238884,-0.837495684624,0.0767971649766,9.90049156826e-05,0.000575162470341,0.000165556106367,-0.000728756072931,-2.81600532617e-05,0.00138733256608,8.25273455121e-05,0.471606270586,-0.00769877935146,0.170854390997,-0.00135679972304,0.927816653295,0.370960365826,0.0392787936753
-0.150582373142,-0.00805239472538,0.129322081804,-2.53640079498,0.0662851110101,2.59872531891,-0.837478101254,0.0767971649766,4.69639126095e-05,-9.1976042313e-05,0.000183334894245,-0.000172307612957,-0.000121576551464,-0.000521162583027,0.00278303585947,0.471603078833,-0.00769495282317,0.170848965647,-0.00135990304611,0.927818717383,0.370955720143,0.03927380442
-0.150583684444,-0.00805554911494,0.129319772124,-2.5363972187,0.0662856474519,2.59872460365,-0.837461471558,0.0767971649766,-0.000356882519554,-0.000856784521602,2.03453528229e-05,-3.83404003514e-05,1.24439611682e-06,9.51097244979e-05,0.000221934780711,0.471605239592,-0.00769704490244,0.170852018473,-0.00135882381709,0.927822693797,0.370945472909,0.0392766888292
-0.150592118502,-0.00807152315974,0.129308074713,-2.53639483452,0.0662851259112,2.59872937202,-0.837431669235,0.0767971649766,-0.000105252227513,0.00109060900286,0.000440662843175,5.02915281686e-05,6.45854961476e-05,0.000247930787737,0.000258073589066,0.471609675589,-0.0077067397015,0.1708606656,-0.00135350427445,0.927831197407,0.370923170516,0.0392866186151
-0.150589883327,-0.00806729029864,0.129311859608,-2.53639340401,0.0662854909897,2.59872961044,-0.83742326498,0.0767971649766,0.000118649142678,0.000332213268848,-0.000257961131865,-0.0002453388297,-4.42615200882e-05,6.68708207741e-06,0.00129594909959,0.471609778912,-0.00770380754628,0.170859270484,-0.0013546039739,0.927831745263,0.370921905718,0.0392855835306
-0.150584608316,-0.0080609889701,0.12931227684,-2.53639769554,0.0662857815623,2.59872984886,-0.837416887283,0.0767971649766,9.91376509774e-06,0.000448360369774,-2.57120336755e-05,0.000266851886408,5.33292804903e-05,-0.000314868695568,-7.92927021394e-05,0.471606809453,-0.00770092212069,0.17085466883,-0.00135729118445,0.927832120038,0.370921441109,0.0392810259086
-0.150588855147,-0.00805636215955,0.129305750132,-2.53639340401,0.0662865638733,2.59873151779,-0.837392807007,0.0767971649766,-0.000139137307997,-0.000361152080586,0.000267664290732,2.1822295821e-05,0.00492701586336,4.83724907099e-05,-0.000151332496898,0.471608395517,-0.00770592754514,0.170854363237,-0.00135773391069,0.927838685063,0.370904930175,0.0392818471403
-0.150588706136,-0.00807103328407,0.129305824637,-2.53639364243,0.0662856325507,2.59873461723,-0.837362468243,0.0767971649766,-0.000256560830167,4.73477230116e-05,1.30998014356e-05,-0.000477345689433,1.02158383015e-05,-5.30388351763e-05,0.000185941491509,0.471611287803,-0.00770627329472,0.170861445127,-0.00135375472245,0.927843811368,0.370891329016,0.0392893216803
-0.150585606694,-0.00805984344333,0.129306226969,-2.53639507294,0.066285841167,2.59873485565,-0.837335109711,0.0767971649766,-0.000331365445163,0.000439671130152,0.00011438124784,0.00044423007057,-1.69314853338e-06,0.000154145644046,7.10275780875e-05,0.471608887148,-0.00770433304393,0.170855678965,-0.00135746846438,0.927848508465,0.370880133548,0.0392839514461
-0.15058760345,-0.0080570904538,0.129305183887,-2.53639698029,0.0662855133414,2.59873580933,-0.837327718735,0.0767971649766,-0.000274054298643,-0.000266209128313,0.00298772659153,-0.000477149442304,4.73033833259e-05,0.00010390827083,0.000559357518796,0.471607710316,-0.00770571092075,0.170853743246,-0.00135833458181,0.927850472119,0.37087539505,0.0392822777514
-0.150587558746,-0.00805650278926,0.129302546382,-2.53639864922,0.0662842988968,2.59873747826,-0.837319195271,0.0767971649766,-0.000241717047174,0.00036022727727,0.000143913639477,-3.55129486707e-05,3.14985518344e-05,1.75312088686e-05,0.00315081281587,0.471607173288,-0.0077072040924,0.170853078564,-0.00135830731068,0.927852557873,0.370870226162,0.0392818136119
-0.1505882442,-0.00806182809174,0.129298344254,-2.53639650345,0.0662854164839,2.59873843193,-0.83729827404,0.0767971649766,-0.000283929111902,0.000821717374492,0.000403492507758,-0.000258506712271,-0.000106616149424,4.89616722916e-05,0.000626161578111,0.471609196109,-0.00770940535612,0.170856417717,-0.00135689604431,0.927857170263,0.370858279828,0.0392857021341
-0.150588288903,-0.00805976148695,0.129300832748,-2.53639769554,0.0662854015827,2.59874010086,-0.837288975716,0.0767971649766,0.000267097348114,-0.000632954994217,3.48378962371e-05,0.000337615405442,9.19310186873e-05,2.84863176603e-06,0.000325093511492,0.47160893599,-0.00770814493471,0.170855461505,-0.00135732866009,0.92785850996,0.370854967694,0.0392853124447
-0.150587886572,-0.00806105975062,0.129300624132,-2.53639507294,0.0662855058908,2.59874010086,-0.837280809879,0.0767971649766,-0.000265211827355,-2.16967364395e-05,0.000176877249032,0.000190001854207,2.76185164694e-05,-7.47921467337e-06,0.000647946377285,0.471610130796,-0.00770818950675,0.170856789587,-0.00135685226375,0.9278598985,0.370851341066,0.0392867690222
-0.150588542223,-0.00806109979749,0.129298791289,-2.53639626503,0.0662853866816,2.59873962402,-0.83727478981,0.0767971649766,0.000198314213776,-0.000267941533821,-0.000312399497489,6.4294465119e-05,8.40844149934e-05,3.79679222533e-05,8.74403631315e-05,0.471609446567,-0.00770934504701,0.17085629307,-0.00135722613571,0.927861487014,0.37084744544,0.0392860121121
-0.150587826967,-0.00806299876422,0.129296824336,-2.53639554977,0.0662858635187,2.59874224663,-0.837258994579,0.0767978206277,-5.99527447775e-05,0.00127463368699,0.000124943166156,-0.000517192471307,-9.35499192565e-05,-3.55303600372e-05,-5.61130718779e-06,0.471610640097,-0.00771002004025,0.17085773239,-0.00135643895367,0.927864635783,0.370839318794,0.0392883832183
-0.150587961078,-0.00806292053312,0.129296764731,-2.53639698029,0.066284455359,2.59874200821,-0.837252497673,0.0767978206277,0.000185495737242,0.000412313471315,-0.000124849655549,-0.000572303833906,-9.52680347837e-05,8.26319301268e-05,3.62029027201e-06,0.471610067922,-0.00771018615989,0.170857400144,-0.00135634569564,0.927865590801,0.370837003337,0.0392876873089
-0.150585532188,-0.00806102715433,0.129298105836,-2.53639793396,0.0662858560681,2.59874272346,-0.837248206139,0.0767978206277,0.000220049420022,0.000477027700981,-0.000154754859977,6.58810604364e-05,-0.000156042689923,4.1003273509e-05,0.000548827229068,0.471609310885,-0.00770827355171,0.170855925327,-0.00135757382942,0.927866051283,0.370835957856,0.0392866378615
-0.150588035583,-0.00805736705661,0.129296645522,-2.53639984131,0.066285610199,2.59874272346,-0.837235629559,0.0767978206277,-0.000293650169624,0.00226934021339,-0.000103620528535,0.000328822556185,-3.05470566673e-05,2.19883841055e-05,0.00147233973257,0.47160778013,-0.00771004251895,0.170853467797,-0.00135898507552,0.927869189448,0.370828363859,0.0392841529602
-0.150585800409,-0.00806073844433,0.129296585917,-2.53639578819,0.0662854909897,2.59874272346,-0.837230741978,0.0767978206277,0.000108114545583,-0.00133305450436,-1.56884689204e-05,0.00062010018155,9.43504419411e-05,-1.45493158925e-05,0.000190112565178,0.471610277235,-0.00770914259046,0.170856631125,-0.00135745044784,0.927869528842,0.37082717083,0.039287451353
-0.150586307049,-0.00806723628193,0.129295229912,-2.53639531136,0.0662852749228,2.59874367714,-0.837227165699,0.0767978206277,-0.000347185996361,-0.000730019179173,-0.000316330057103,-0.000344336789567,-0.000140095187817,7.70990882302e-05,0.000352544448106,0.471611734113,-0.00771020902965,0.170859953706,-0.00135548841232,0.927870357563,0.370824741661,0.0392908750518
-0.150588318706,-0.00806481577456,0.129294246435,-2.5363972187,0.0662848055363,2.5987443924,-0.837224245071,0.0767978206277,-0.000135696100187,0.000460554467281,0.000279646454146,-0.000357045180863,-3.38972381542e-06,0.00463837152347,-0.000156084963237,0.471610560089,-0.00771157459063,0.170858148622,-0.00135620061592,0.927871459031,0.370822157855,0.0392892245229
-0.150588586926,-0.00805921386927,0.129292473197,-2.53639912605,0.0662852227688,2.5987443924,-0.837212562561,0.0767971649766,-0.000112765927042,0.000557082181331,0.000201141621801,-0.000203799994779,5.29592216481e-05,-0.000159404778969,9.7134601674e-05,0.471608734819,-0.00771236439769,0.170854784514,-0.00135828896295,0.927874212543,0.370815604261,0.0392859780188
-0.150589808822,-0.00806055963039,0.129290610552,-2.53640031815,0.0662853345275,2.59874391556,-0.837210834026,0.0767971649766,0.000405467813835,0.000178969712579,0.000475791021017,3.83330079785e-05,-3.26805893565e-05,4.11403634644e-05,-8.71523443493e-05,0.471608255964,-0.00771382405658,0.170854898665,-0.00135829405925,0.927875125385,0.37081333753,0.0392858132432
-0.150588274002,-0.00806255545467,0.12929020822,-2.53639364243,0.0662850663066,2.59874773026,-0.837202370167,0.0767971649766,0.000401312747272,9.7052034107e-05,-0.000350676156813,0.000583290995564,-0.000135970985866,2.39679975493e-05,0.000354134797817,0.471612586296,-0.00771348911028,0.170858838776,-0.00135576829972,0.927876225044,0.370810001336,0.0392914174342
-0.150585025549,-0.00805849675089,0.129291728139,-2.53639793396,0.0662849918008,2.59874725342,-0.837191224098,0.0767971649766,0.00368013302796,-0.000624427048024,0.000198500682018,4.73886721011e-05,1.82563053386e-05,4.06032377214e-05,-0.000148976876517,0.471609816761,-0.00771109488644,0.170855210689,-0.00135802654319,0.927877565801,0.370807057516,0.0392874589147
-0.150588452816,-0.00806141365319,0.129292070866,-2.53639578819,0.0662851557136,2.59874796867,-0.837184309959,0.0767971649766,-0.000257948588114,-0.000523819355294,4.85606324219e-05,7.68351164879e-05,4.40027688455e-05,0.000173584456206,-0.000488217541715,0.471611439399,-0.00771265001081,0.170857488279,-0.00135682702452,0.927879336411,0.370802357923,0.0392900384941
-0.150586098433,-0.00806166324764,0.129291415215,-2.53639936447,0.0662852525711,2.59874725342,-0.837180137634,0.0767971649766,0.000482702860609,0.000237177780946,0.000270185613772,6.67907370371e-05,-2.10444486584e-05,-4.89729536639e-05,0.000164414479514,0.471609629725,-0.00771180123967,0.170856131004,-0.0013577614185,0.927879884718,0.370801178406,0.0392881890082
-0.150585070252,-0.0080551514402,0.129289701581,-2.53639984131,0.0662862733006,2.59874916077,-0.837155759335,0.0767965093255,-3.87277796108e-05,-0.00113091024105,0.000155424073455,0.000395788694732,0.000177338297362,0.000347596360371,0.000654439383652,0.471608758882,-0.00771195860246,0.170853098981,-0.00135980578147,0.927884796649,0.370789098233,0.0392861221155
-0.150586038828,-0.00805538333952,0.129289835691,-2.53639745712,0.0662846043706,2.59874820709,-0.8371514678,0.0767965093255,0.000642958504613,-2.80332515104e-05,-0.000178973190486,-9.91012202576e-05,6.69640940032e-05,-3.50624795828e-05,0.000102468606201,0.47160972445,-0.00771242521782,0.170854040711,-0.00135914479355,0.927885455359,0.370787391111,0.0392866992085
-0.150587812066,-0.00806260574609,0.12928929925,-2.53639674187,0.0662855729461,2.59874892235,-0.83714556694,0.0767965093255,-0.000206763230381,0.000649573805276,-7.65782388044e-05,0.000218862624024,0.00124727422372,-1.13674911972e-06,5.86399182794e-05,0.471611360967,-0.00771367419405,0.170857772074,-0.0013573340068,0.927886960979,0.370783219879,0.0392905692143
-0.150586783886,-0.008066162467,0.129288867116,-2.53639745712,0.06628575176,2.59875178337,-0.8371322155,0.0767965093255,4.44663855887e-05,1.4133206605e-05,0.00613562949002,0.00024859936093,4.71926032333e-05,-0.000101413912489,-0.000284265988739,0.471612188761,-0.00771340119622,0.170859419132,-0.00135640302397,0.927889289352,0.370777148583,0.0392929083879
-0.150588676333,-0.00805901177227,0.129287973046,-2.53639936447,0.0662862285972,2.59874987602,-0.837124347687,0.0767965093255,0.000606503977906,9.92274435703e-05,0.000114143003884,0.000344046886312,2.03666687071e-07,-6.39470745227e-05,-3.66271851817e-05,0.471609716321,-0.0077145866379,0.1708551646,-0.00135908591454,0.927891509165,0.370772071208,0.0392883061693
-0.150588318706,-0.00805738288909,0.129285439849,-2.53639888763,0.0662858709693,2.5987508297,-0.837117314339,0.0767965093255,0.000120185490232,-0.000214221916394,-0.000450920051662,-0.000701421988197,-0.000165087083587,-1.63216718647e-05,0.00125702470541,0.47160986783,-0.00771560677318,0.170854688903,-0.00135920990417,0.927893172239,0.370767918651,0.0392882125246
-0.150587394834,-0.0080584147945,0.12928698957,-2.53639578819,0.066285289824,2.59875130653,-0.837109744549,0.0767965093255,0.000324830994941,-0.000327457033563,0.000330150156515,0.000160134732141,2.52084955719e-05,-8.31346642371e-06,-0.000329829024849,0.471611634894,-0.00771452901651,0.170856432747,-0.00135828635247,0.927893941919,0.370765783025,0.0392902205316
-0.150587812066,-0.00806344952434,0.129285097122,-2.53639435768,0.0662862658501,2.59875416756,-0.83709603548,0.0767965093255,0.000408166582929,-0.000919530109968,0.000334321230184,0.000205429663765,9.69305765466e-05,8.70682342793e-05,0.00271940114908,0.471613717147,-0.00771577229673,0.170859643199,-0.00135657621853,0.927896896934,0.370757946977,0.03929443725
-0.150585949421,-0.00806207861751,0.129285037518,-2.53639483452,0.0662845596671,2.59875416756,-0.837087988853,0.0767965093255,-9.00141822058e-05,0.000174761502421,0.000297461287118,-0.000413051224314,9.82961137197e-05,0.00116645812523,-0.000407458428526,0.471613278188,-0.00771494809435,0.170858813254,-0.00135678583475,0.927897832739,0.370755711188,0.0392934273923
-0.150585651398,-0.00806071143597,0.129287227988,-2.53639960289,0.0662856027484,2.59875440598,-0.837070703506,0.0767965093255,0.000213132443605,-0.000445478712209,4.23482670158e-05,0.000593815697357,-4.06352846767e-05,0.000219743844355,3.26513827531e-06,0.471611198354,-0.00771355939201,0.170856743418,-0.00135843562626,0.927900887585,0.370748277156,0.0392913749063
-0.150588735938,-0.00806271098554,0.129285588861,-2.53639578819,0.0662856847048,2.59875750542,-0.837039470673,0.0767965093255,0.000150030304212,0.000268680189038,0.000233010810916,4.25360049121e-05,-2.70096643362e-05,-0.000224771516514,-6.5595988417e-05,0.471613614787,-0.00771603284891,0.170859080048,-0.00135726319929,0.927907375278,0.370731675166,0.0392948527563
-0.150586724281,-0.00805966928601,0.129284575582,-2.53639769554,0.0662855431437,2.59875702858,-0.837030172348,0.0741908550262,4.56603229395e-05,-0.000260629429249,8.02797148935e-05,-0.000126663173432,-5.98824190092e-05,2.43975900958e-05,0.000210282436456,0.471612120813,-0.00771546387959,0.170856862402,-0.00135868039871,0.927908995005,0.370727872695,0.0392924301591
-0.150588750839,-0.00806108769029,0.129283368587,-2.53639817238,0.0662851780653,2.59875774384,-0.837017476559,0.0741908550262,-0.000152240492753,0.000103181962913,2.93265884466e-06,2.93997782137e-05,-9.10836097319e-05,0.000123528865515,0.00167990836781,0.471612245445,-0.00771704504607,0.170857412336,-0.00135835653786,0.927911865547,0.370720618288,0.0392930974151
-0.150587469339,-0.00805785320699,0.129284396768,-2.53639817238,0.0662852376699,2.59875774384,-0.837009906769,0.0741908550262,0.00222814385779,-8.84463370312e-05,-0.000180350936716,0.000659511308186,-1.97769186343e-05,-0.000110907560156,-0.000222362534259,0.47161174472,-0.00771587619587,0.170855899994,-0.00135937975419,0.927912912089,0.370718142977,0.039291701627
-0.150586768985,-0.00806351006031,0.129283294082,-2.53639769554,0.0662851110101,2.59875965118,-0.8369769454,0.0741908550262,0.00011701152107,-0.00081535812933,0.00173547049053,-0.00019607161812,-5.4325992096e-05,0.0012261881493,0.000414093636209,0.47161327993,-0.0077162493684,0.170858927617,-0.0013580479229,0.927918934179,0.370702705487,0.0392951794324
-0.150586217642,-0.00805909372866,0.129282057285,-2.5363972187,0.0662856549025,2.59875917435,-0.836957573891,0.0741908550262,2.42779369728e-05,-0.000716431823093,0.00164739007596,-0.000603449705523,-2.92751883535e-05,-4.44927936769e-05,0.00057213526452,0.471612695879,-0.00771643833396,0.170857002377,-0.00135968318996,0.927922815683,0.370693179105,0.0392933333535
-0.150586381555,-0.0080615952611,0.129283040762,-2.5363972187,0.0662854760885,2.5987598896,-0.83695012331,0.0741908550262,-6.75023329677e-05,-0.000150024017785,-0.000763436954003,0.000128695435706,-9.74006707111e-06,0.000530584016815,0.000207116929232,0.471613349701,-0.00771590560721,0.170858273411,-0.00135904265282,0.927924007212,0.370690047086,0.0392947645167
-0.150586158037,-0.00806193612516,0.129285484552,-2.53639626503,0.0662844777107,2.59875965118,-0.836944580078,0.0741908550262,-0.00371530209668,-0.000541634624824,0.00046876684064,0.000278444582364,4.93630250276e-05,0.00558845279738,0.000351145165041,0.471613731767,-0.00771493061125,0.170858750235,-0.00135869270068,0.92792432034,0.370689233315,0.0392950590297
-0.150588184595,-0.00805897079408,0.12927827239,-2.53639817238,0.066284969449,2.59875893593,-0.836928665638,0.0740247219801,-0.000172805492184,-0.000559942563996,0.00016400378081,-7.30028405087e-05,-7.35561989131e-05,0.00428648618981,-0.000278593885014,0.471612123635,-0.00771915477082,0.170856547794,-0.00136025074763,0.927929160384,0.370677367031,0.0392926492024
-0.150587424636,-0.00805887021124,0.129278793931,-2.5363984108,0.0662848874927,2.59876012802,-0.836921095848,0.0740247219801,-0.000438824150478,0.000252221623668,7.58422684157e-05,0.000283845554804,0.000124512822367,0.0021663128864,2.26093306992e-05,0.471612220777,-0.0077187446832,0.170856560341,-0.00136022798472,0.927930281049,0.37067452833,0.0392929640302
-0.15058785677,-0.00805762410164,0.129279896617,-2.53639531136,0.0662857741117,2.5987598896,-0.836912512779,0.0740247219801,0.00149086164311,0.000996160670184,-0.000158841721714,0.000803917297162,-3.98021475121e-05,-0.000115353403089,0.00160496553872,0.471613496015,-0.00771822017891,0.170857137394,-0.001360372659,0.927931871065,0.37067044947,0.0392938878292
-0.150587156415,-0.00806370191276,0.12928019464,-2.5363945961,0.066285431385,2.59876441956,-0.836887657642,0.0740247219801,6.9778667239e-05,0.000799250905402,0.000659041746985,0.000753893807996,-0.00015044157044,-0.00012306359713,0.000670843117405,0.471615777368,-0.00771800732064,0.170860724044,-0.00135811976329,0.927936051833,0.370659469653,0.0392988098998
-0.150587663054,-0.00805901829153,0.129279315472,-2.53639674187,0.0662862658501,2.5987637043,-0.836880207062,0.0740247219801,-0.000330608803779,-0.00070998101728,4.74570551887e-05,0.000452659209259,0.00012959765445,-0.000160221985425,0.000788682431448,0.471613839996,-0.00771847919376,0.170857622271,-0.00136020987076,0.927937957465,0.370655034086,0.0392955762752
-0.1505869627,-0.00805830210447,0.129278644919,-2.53639817238,0.0662852227688,2.59876418114,-0.836866974831,0.0740247219801,0.00283355568536,-0.000375079369405,0.000151038650074,-2.19194043893e-05,6.61565791233e-05,-7.22256445442e-05,0.000452368491096,0.471613138646,-0.00771848155031,0.170856775117,-0.00136056877744,0.92794028294,0.370649304009,0.0392946977508
-0.15058785677,-0.00806117616594,0.129276797175,-2.53639698029,0.0662852227688,2.59876418114,-0.836853682995,0.0740247219801,-0.000436738744611,-0.000899158651009,-0.00010667694005,-0.000289812742267,7.20757889212e-05,-0.000159194009029,3.96543546231e-05,0.471614149219,-0.0077198538004,0.170858586434,-0.00135982319678,0.92794317511,0.370641876891,0.0392964810877
-0.150587722659,-0.00806402694434,0.129276707768,-2.53639507294,0.0662854388356,2.59876799583,-0.836837470531,0.0740247219801,6.45233594696e-05,0.000989793217741,5.91567768424e-05,3.15396027872e-05,-6.64348044666e-05,0.000123549500131,-0.000188304620679,0.471616312164,-0.00771993653262,0.17086077589,-0.00135838167042,0.927946126041,0.370634115676,0.0393000501939
-0.150585919619,-0.00806027837098,0.129277646542,-2.53639602661,0.0662842392921,2.59876656532,-0.836829423904,0.0700459778309,0.000158946946613,0.000468410376925,-5.25429168192e-05,-0.000876124482602,6.27497938694e-05,-6.81248639012e-05,0.000297134480206,0.471614984554,-0.00771861256758,0.170858783852,-0.00135962275947,0.927946974263,0.370632260997,0.0392974703318
-0.150586426258,-0.00806089024991,0.129278182983,-2.53639507294,0.0662852302194,2.59876871109,-0.836817204952,0.0700459778309,0.00390373240225,-0.000196644425159,0.000601427920628,-3.47500426869e-05,-5.85899688303e-05,0.00015708891442,0.000249788397923,0.471615995884,-0.00771862870212,0.170859665338,-0.00135929407591,0.927949324757,0.370626189866,0.0392992375491
-0.150588706136,-0.00806168932468,0.129277035594,-2.53639626503,0.0662852749228,2.59876894951,-0.836814343929,0.0700459778309,0.000242317284574,0.000532530015334,0.000115392700536,-0.000613570504356,-8.99773367564e-05,-4.89987796755e-05,8.2109538198e-05,0.471615577656,-0.00772025435937,0.17085959709,-0.0013592760999,0.927950501931,0.370623252049,0.0392991483119
-0.150586917996,-0.00806155242026,0.129275545478,-2.5363984108,0.0662855803967,2.598767519,-0.836810290813,0.0700459778309,0.000281219108729,0.00052910746308,6.62960883346e-05,0.000254350394243,-2.99963703583e-05,4.78031288367e-05,0.000316617253702,0.4716142295,-0.00772004762928,0.170858546582,-0.00136021125313,0.927951307123,0.370621407842,0.0392974956968
-0.15058940649,-0.00805833376944,0.129273504019,-2.53639912605,0.0662852302194,2.59876894951,-0.836800813675,0.0700459778309,-0.000323207903421,0.00076982669998,9.25352214836e-05,-0.000402601057431,-0.00243077403866,-0.000125069112983,0.000188622580026,0.47161363809,-0.00772213760689,0.170856909655,-0.00136086660164,0.927953908121,0.370615011121,0.0392963822888
-0.150585636497,-0.00805950444192,0.129275009036,-2.53639817238,0.0662858188152,2.59876847267,-0.836799323559,0.0700459778309,-0.000254168553511,-0.000602721760515,-0.00277269631624,-0.000208205659874,-0.000324734312017,-0.000466407160275,-0.000150900072185,0.47161422354,-0.00771965801167,0.170857781414,-0.00136076355179,0.927953260131,0.370616550366,0.0392971705629
-0.150585472584,-0.00806104205549,0.129275858402,-2.53639674187,0.0662860050797,2.5987701416,-0.836794734001,0.0700459778309,0.00188809027895,0.000164447337738,-0.000525263312738,0.000194538690266,3.28972146235e-06,0.000622769177426,0.000198366862605,0.471615515927,-0.00771925875525,0.170859232045,-0.00135988130192,0.927953871786,0.370614801112,0.0392992549586
-0.150588199496,-0.00806014798582,0.129275143147,-2.53639554977,0.0662854239345,2.59877109528,-0.836780548096,0.0649489313364,-3.57694057129e-06,0.000119427182653,0.000542141671758,-0.000419888558099,1.44936047946e-05,1.22871151689e-05,-0.000244471360929,0.471616116834,-0.00772091192648,0.170859378753,-0.00135973377115,0.927957032221,0.370606833357,0.0392997738978
-0.150585368276,-0.00806233752519,0.129275977612,-2.53639626503,0.0662859156728,2.59877038002,-0.836776256561,0.0649489313364,3.86057445212e-06,0.000813031918369,-0.000227254902711,-0.000338505255058,9.86821487459e-06,2.27335021918e-05,0.00229112734087,0.471616003721,-0.00771919777385,0.170860048721,-0.00135975304815,0.927957203342,0.370606368506,0.0393001163408
-0.150586426258,-0.00805915612727,0.129275500774,-2.53640127182,0.0662848427892,2.59877061844,-0.836771786213,0.0649489313364,0.000370417546947,0.000128987026983,-0.000418715178967,-0.000431030668551,5.0158072554e-05,-5.65324044146e-05,-1.23782210721e-05,0.471613132638,-0.00771983967013,0.170856623735,-0.00136127455591,0.927958311916,0.370603978372,0.0392964270165
-0.150586485863,-0.00805908441544,0.129275217652,-2.53639531136,0.0662853643298,2.59877204895,-0.836769044399,0.0649489313364,-0.000324283231748,-0.0002379573707,-0.000486750446726,0.000358204910299,6.8614979682e-05,-3.66096501239e-05,-7.64220676501e-05,0.471616275766,-0.00772006633549,0.170859073003,-0.00135999208457,0.927958827301,0.370602331022,0.0392998369027
-0.150581970811,-0.00805959757417,0.129276052117,-2.53639745712,0.0662847682834,2.59877419472,-0.836759805679,0.0649489313364,0.000275847618468,-3.47428722307e-05,-0.00013374631817,-0.000211649094126,7.63283023844e-05,4.33865461673e-05,0.000671628280543,0.471615824088,-0.00771760096805,0.170858691917,-0.00135994386737,0.927959463522,0.370600725714,0.0392999541614
-0.150585085154,-0.0080583114177,0.129277393222,-2.53639698029,0.0662857890129,2.59877419472,-0.836755871773,0.0649489313364,-0.00012712496391,0.000141973185237,8.12975049485e-05,-6.76672279951e-05,-1.39193371069e-05,-9.39265519264e-05,0.000133935638587,0.471615835124,-0.00771837397447,0.170858278245,-0.00136046736364,0.927960690524,0.370597675152,0.0392997306192
-0.150589212775,-0.0080619007349,0.12927262485,-2.53639650345,0.0662858709693,2.59877419472,-0.83675044775,0.0649489313364,-0.000152006323333,-2.82646087726e-05,-0.000379562028684,3.76094867534e-05,-7.11915563443e-05,-0.00436731148511,6.03130210948e-05,0.471616571256,-0.00772265212929,0.170860145344,-0.00135943562143,0.927963277361,0.370591011989,0.0393015180391
-0.150586038828,-0.0080600855872,0.129275336862,-2.53639817238,0.0662862583995,2.59877371788,-0.836742937565,0.0609590224922,0.000166861529578,-0.000229605328059,-0.000139688519994,-9.64610007941e-05,-1.1329910194e-05,0.000233259852394,0.000336769560818,0.47161542656,-0.00771979521499,0.170858593249,-0.0013606752938,0.927963711077,0.370590105336,0.0392997836792
-0.150584354997,-0.00806035194546,0.129275932908,-2.53639578819,0.0662848204374,2.59877419472,-0.836738586426,0.0609590224922,7.87479439168e-05,-0.000248933734838,-0.000275831291219,0.000183955780813,-0.000162733151228,-3.09548304358e-05,-0.000110796841909,0.471616724765,-0.00771881418861,0.170859698394,-0.00135980865594,0.927963819474,0.370589703833,0.0393010402526
-0.150587454438,-0.00805838778615,0.129274815321,-2.53639650345,0.0662864372134,2.59877419472,-0.836736619473,0.0609590224922,0.000150544598,-0.000286875903839,6.53037350276e-05,-0.000404437130783,0.000292725075269,1.22109577205e-05,0.000137979688589,0.471616039785,-0.00772068590717,0.170858502939,-0.00136080610407,0.927965261379,0.370586194422,0.0393000517651
-0.150586783886,-0.00806318223476,0.129274606705,-2.53639602661,0.0662849843502,2.59877562523,-0.836723268032,0.0609590224922,-7.39671886549e-05,-0.000788879173342,7.32231346774e-05,6.19730781182e-05,-4.85955570184e-05,8.20747955004e-05,7.59786053095e-05,0.471617338605,-0.0077206721336,0.170861076098,-0.00135909700782,0.927967310253,0.370580778174,0.0393028051017
-0.150585398078,-0.00806349981576,0.129274606705,-2.53639554977,0.0662854835391,2.59877681732,-0.836719274521,0.0609590224922,0.000139975818456,0.000562249217182,0.000265732203843,1.43214119817e-05,3.40829901688e-05,0.000121290417155,5.75522572035e-05,0.471617881991,-0.00772003581636,0.170861534696,-0.00135889072883,0.92796783807,0.370579357152,0.0393037486696
-0.150587975979,-0.00806259922683,0.129273951054,-2.53639793396,0.0662857741117,2.59877467155,-0.836717784405,0.0609590224922,0.000253693084233,-5.84718654864e-05,-0.000563156092539,3.04030490952e-05,3.08558810502e-05,0.000107927458885,2.93957982649e-05,0.471616118557,-0.00772146118781,0.170859959768,-0.00136009663711,0.927968848971,0.370577077066,0.0393013373006
-0.150586381555,-0.00805951282382,0.12927608192,-2.53639817238,0.0662853270769,2.59877490997,-0.83671349287,0.0609590224922,-0.000112917230581,-0.000357589131454,0.000477803871036,-0.000261619745288,-3.24428510794e-05,3.56932068826e-05,0.000103701597254,0.471615642483,-0.00771938360118,0.170858354963,-0.00136103029247,0.927968938108,0.370577002284,0.039299905408
-0.150586485863,-0.008061776869,0.12927505374,-2.53639435768,0.0662865042686,2.59877896309,-0.836703658104,0.0609590224922,0.000443041353719,-3.28463756887e-05,5.89291230426e-05,0.000181514507858,-2.71222179435e-05,0.000172306987224,-7.1696624218e-05,0.471618628086,-0.00772031250671,0.170861418282,-0.00135916719841,0.927970986849,0.370571378649,0.0393046211154
-0.150586336851,-0.00806097686291,0.129274368286,-2.53639411926,0.0662858113647,2.59878134727,-0.83670270443,0.0609590224922,-0.000163446660736,0.000156224705279,-1.95787342818e-05,0.000227534765145,-3.45256521541e-05,-0.000110582746856,7.63585412642e-05,0.471619112188,-0.00772062085852,0.170861382437,-0.00135863598308,0.927971138925,0.370570919523,0.0393053777191
-0.150586426258,-0.0080573791638,0.12927480042,-2.53639411926,0.0662862434983,2.59878158569,-0.83669936657,0.0609590224922,-6.21957660769e-05,0.00444440823048,-8.32401055959e-05,-4.73984073324e-05,0.00465585058555,0.00298472540453,0.000139085139381,0.471618589672,-0.00772036074172,0.170859725649,-0.00135967111637,0.927971825612,0.370569344416,0.0393039797899
-0.150584831834,-0.00806872919202,0.129275351763,-2.53638887405,0.0662853643298,2.59879040718,-0.836689651012,0.055431202054,0.000446863181423,0.000551822653506,0.000164539131219,-0.000169518316397,-0.000112376510515,-3.63623294106e-05,0.00015786793665,0.471624820922,-0.00772001280158,0.170867694672,-0.00135385807724,0.92797285394,0.370565612178,0.0393150883776
-0.150585561991,-0.00807013548911,0.129276782274,-2.53638935089,0.0662853196263,2.59879493713,-0.836685717106,0.055431202054,3.42774947057e-05,0.00011697570153,4.37822421873e-07,0.000299505132716,-4.80675007566e-05,0.00249026366509,0.00144659669604,0.471625759506,-0.00771967764714,0.170868927972,-0.00135266183977,0.927973177738,0.370564545895,0.0393175369921
-0.150583937764,-0.00806731265038,0.129274457693,-2.53638362885,0.0662850812078,2.59879851341,-0.836682796478,0.055431202054,-0.000271566939773,6.55856683807e-06,-0.000705164100509,-0.000201441245736,0.000517337524798,5.00915448356e-05,8.87206188054e-05,0.471628796691,-0.00772007221979,0.170870218744,-0.0013514634789,0.927973708374,0.370562903639,0.0393205320969
-0.150584667921,-0.00805986206979,0.129274308681,-2.53638648987,0.0662863701582,2.59880113602,-0.836677849293,0.055431202054,-3.35845943482e-05,0.000189911981579,-3.42504499713e-05,1.70984440047e-05,-6.70622248435e-05,-0.00010086956172,-2.37091808231e-05,0.471626784397,-0.00772028093415,0.17086588705,-0.00135372794565,0.927975149932,0.370559625666,0.0393173249324
-0.150584459305,-0.00806644745171,0.129273846745,-2.53638887405,0.0662855282426,2.59880208969,-0.836669385433,0.055431202054,0.000106189800135,1.6288529423e-06,-0.000253199774306,-1.62000706041e-05,2.4777784347e-05,8.73749886523e-05,-0.000355202471837,0.471626896173,-0.00772058721985,0.170868128655,-0.00135227211755,0.927976545874,0.370555915631,0.0393193939635
-0.150585874915,-0.00806768238544,0.129274532199,-2.53638839722,0.0662856921554,2.59880328178,-0.836669385433,0.055431202054,-0.00175664550625,-0.00019716580573,0.000601380772423,0.000134690882987,-1.82591866178e-05,0.000124258556752,0.000316522142384,0.471627569171,-0.00772098466511,0.170869015267,-0.00135162821938,0.927976657472,0.370555500174,0.0393206976503
-0.150587156415,-0.00807057414204,0.129271373153,-2.53638720512,0.0662863701582,2.59880757332,-0.836666345596,0.055431202054,0.000233714294154,0.000531890662387,-2.82905984932e-05,-0.000188734789845,3.23337735608e-05,-4.65523044113e-06,0.00117036909796,0.471629333225,-0.00772299687806,0.170870843245,-0.00135011231962,0.927977920341,0.370551982033,0.0393241001453
-0.15058645606,-0.00806491170079,0.129274085164,-2.53638625145,0.0662863999605,2.59880828857,-0.836663067341,0.055431202054,0.000223686089157,0.000535749946721,0.000392444868339,7.99727858976e-05,4.20251089963e-05,0.00505845434964,0.000111867877422,0.471629205136,-0.00772149531424,0.170869077121,-0.00135108814085,0.927978072919,0.370551732957,0.0393228130705
-0.150583282113,-0.00806356593966,0.129275858402,-2.53638863564,0.0662861317396,2.59880948067,-0.836656868458,0.0541933849454,-3.96259492845e-05,-0.000998517149128,0.000378644093871,0.000141723648994,7.49475002522e-05,-5.70777337998e-05,-5.22232148796e-05,0.471628137332,-0.00771914205023,0.170867635526,-0.00135177715935,0.927978322633,0.370551230674,0.0393216295687
-0.15058554709,-0.00806641019881,0.129275023937,-2.53638958931,0.0662862360477,2.59881043434,-0.836654126644,0.0541933849454,-0.000193375934032,9.3665526947e-05,-0.000123531805002,-0.000502727634739,-8.85551562533e-05,-0.00293368450366,-3.53837349394e-05,0.471628314964,-0.0077206775713,0.17086869022,-0.0013510558859,0.927979372411,0.37054847395,0.0393228580393
-0.150584951043,-0.00807010661811,0.129273727536,-2.53638076782,0.0662859678268,2.59882330894,-0.836650788784,0.0541933849454,6.43166504233e-06,-0.000397188734496,-0.00119459908456,0.000856514379848,0.00442194100469,0.000112326488306,0.000184237316716,0.471635846792,-0.00772144799377,0.170875198956,-0.00134555331611,0.927979670413,0.370546538385,0.0393342517511
-0.150586441159,-0.00807147659361,0.12927390635,-2.53637337685,0.0662861913443,2.59883165359,-0.836648404598,0.0541933849454,0.000669236935209,0.00184998626355,-2.35594052356e-05,-0.00148389488459,9.57144493441e-06,0.00363554339856,-0.000362063728971,0.47164135933,-0.00772232953896,0.170879593665,-0.00134200235754,0.927980109855,0.370544627376,0.0393420074568
-0.150584965944,-0.00808748882264,0.129275307059,-2.53636264801,0.0662854984403,2.59965467453,-0.836626648903,0.052377704531,4.5382152166e-05,-0.00121018476784,2.91186752293e-05,-0.000639593985397,-0.00541043002158,0.00576610676944,7.98975379439e-05,0.471825554546,-0.00773763489191,0.170977855586,-0.00115216742133,0.927972159217,0.37052397761,0.0397281503391
-0.150588065386,-0.00810961052775,0.129268914461,-2.53636240959,0.0662852153182,2.59981179237,-0.836623847485,0.052377704531,-0.00026014924515,-0.00271848822013,-8.99120550457e-06,0.00178711744957,-8.98107464309e-06,0.00674642017111,-0.000387012143619,0.471857861027,-0.00774557680974,0.171000843789,-0.00111676488728,0.927972404939,0.370515932306,0.0397983931821
-0.150595858693,-0.00812699180096,0.129264220595,-2.53634500504,0.0662856549025,2.5999417305,-0.836624026299,0.052377704531,0.000142415810842,0.000674718117807,-0.00043676974019,0.0015427559847,2.27629916481e-05,0.00277585955337,0.000105821112811,0.471898361463,-0.00775499903494,0.171031065896,-0.00107784257668,0.927972204834,0.370508130517,0.0398766876116
-0.150594994426,-0.00812265649438,0.129265755415,-2.53633260727,0.0662859678268,2.59999752045,-0.836622714996,0.052377704531,0.00019565972616,0.00110589689575,0.000283377768937,-0.000361754733603,-0.000123562975205,0.0012526930077,0.000328194582835,0.471915409654,-0.00775498022784,0.171039654388,-0.00106437323647,0.927971162914,0.370507669689,0.0399055672241
-0.150583460927,-0.00810677465051,0.129274591804,-2.53632688522,0.0662859007716,2.60004234314,-0.836619019508,0.052377704531,-0.000269908836344,0.000626833236311,-0.000408383231843,0.000111150424345,-7.28542872821e-05,0.000115591064969,0.00024042763107,0.471925233182,-0.00774594071474,0.171039089687,-0.0010578279215,0.927967679313,0.370514706203,0.0399214143323
-0.150589257479,-0.00810446310788,0.129269883037,-2.53633189201,0.0662863105536,2.60005640984,-0.836615622044,0.052377704531,-0.00163803296164,0.000319044687785,0.000496477645356,-0.000434091227362,-0.000104564220237,3.48922840203e-05,0.000138860166771,0.471925360683,-0.00775105079331,0.171037500293,-0.00105626582698,0.92797028023,0.370507865895,0.0399244825419
-0.150588989258,-0.00810278672725,0.129269242287,-2.53633594513,0.0662845671177,2.60005760193,-0.836614966393,0.052377704531,0.000247533229413,-0.000717422750313,0.000116232447908,0.000196257024072,8.77956335898e-05,-9.04590488062e-05,0.000152444015839,0.471923397011,-0.00775123407499,0.171035248178,-0.00105679271172,0.927970306655,0.370508040447,0.03992223444
-0.150585114956,-0.00810072291642,0.129275038838,-2.53633761406,0.066285610199,2.60005998611,-0.836611926556,0.0495317094028,-1.60050021805e-05,-0.00199646688998,-0.000274236430414,-0.000126229409943,-1.86543650216e-06,0.000117985182442,0.000481964554638,0.471922848522,-0.00774661963771,0.171033873107,-0.00105760702726,0.927969279085,0.370510664392,0.0399217459148
-0.150600194931,-0.0081425756216,0.129259109497,-2.53628492355,0.0662861615419,2.6001470089,-0.836605429649,0.0495317094028,0.000163973149029,-0.00154408288654,7.04500707798e-05,0.00145205622539,4.24346326326e-05,0.00525802746415,-4.21790027758e-05,0.471972915802,-0.00776447232783,0.171083099056,-0.00101727770613,0.927973292562,0.370491945416,0.0400031436758
-0.150592684746,-0.00816548988223,0.129267767072,-2.53626084328,0.066284917295,2.60020899773,-0.836605548859,0.0495317094028,0.000434780435171,-0.00284758210182,0.000602997955866,0.00053368328372,-0.00015826143499,0.00044394939323,-1.89197107829e-05,0.472002910853,-0.00775829860506,0.171111473713,-0.000991836311099,0.927967966661,0.370499824892,0.0400543200107
-0.150585055351,-0.00818239618093,0.129272475839,-2.536216259,0.0662861168385,2.60023236275,-0.83660030365,0.0495317094028,-0.000448926351964,-0.000298749888316,-0.000146463236888,0.00122710771393,-1.15230532174e-05,0.00253553455696,-9.05166962184e-05,0.472030395675,-0.00775436977607,0.171137459076,-0.000975626327823,0.927965669128,0.370501751794,0.0400901069317
-0.150588169694,-0.00817546341568,0.129269912839,-2.53620839119,0.0662851035595,2.60023999214,-0.836592555046,0.0495317094028,-0.000247177784331,-0.000736939779017,-0.000342224695487,-0.000178904345375,7.16671711416e-05,5.30448996869e-05,0.000285474583507,0.472034615998,-0.00775714406407,0.171138088817,-0.000973961854495,0.927967881309,0.370495788926,0.0400940485448
-0.15059274435,-0.00817614793777,0.129265204072,-2.53620886803,0.0662862807512,2.60024309158,-0.836591959,0.0495317094028,-0.0009579641046,0.000806740077678,0.000117997362395,0.00178756460082,6.45364998491e-05,0.000238612949033,-0.000484165211674,0.472035084534,-0.00776154945615,0.171138546249,-0.000973333605443,0.927969844565,0.370490698728,0.0400956610987
-0.150592893362,-0.00817464757711,0.129265069962,-2.53620791435,0.0662852823734,2.60024499893,-0.836589932442,0.0495317094028,0.000272269040579,-0.000415448797867,-0.00056868349202,-0.000131848253659,-9.22865547182e-06,0.000103877297079,0.00230041192845,0.472035592352,-0.00776167608056,0.171138340759,-0.000972912361336,0.927970056827,0.370490121097,0.040096096161
-0.150589093566,-0.00817321054637,0.129269585013,-2.53620362282,0.0662855505943,2.60024881363,-0.836586952209,0.0495317094028,0.000713983783498,0.00103230064269,0.000286057387711,-2.22797098104e-05,-2.74774029094e-05,-3.24578832078e-05,-0.000183881405974,0.472038333344,-0.00775850000255,0.171140274194,-0.000971661912533,0.927969246707,0.370491775368,0.0400995898705
-0.150584459305,-0.00817345455289,0.129273056984,-2.53620100021,0.0662858709693,2.60025334358,-0.836585283279,0.0495317094028,-0.000495591608342,9.50756220846e-05,0.0002844450064,0.000331133283908,1.32816148835e-05,0.000257226434769,9.51726033236e-05,0.47204070626,-0.00775417239516,0.171141425767,-0.000970548751385,0.927967790157,0.3704950961,0.0401026422525
-0.150583833456,-0.00817310716957,0.129274189472,-2.53620433807,0.0662857145071,2.600253582,-0.836582183838,0.0495317094028,0.000384636776289,-0.000494194391649,8.30087537906e-06,-0.000275790196611,-0.000285503570922,-0.000133981637191,-0.000267522904323,0.472039117129,-0.00775331335562,0.171139978081,-0.000971289725665,0.927968086292,0.37049452566,0.0401010418781
-0.150583341718,-0.00817166641355,0.129273042083,-2.53620791435,0.0662854537368,2.60025286674,-0.836579561234,0.0495317094028,0.000144293240737,2.59544285655e-05,-3.09519491566e-05,-0.000271794531727,0.000100550991192,-0.000674436567351,0.000200725597097,0.472037018893,-0.00775354688947,0.171137827897,-0.000972487853587,0.927968764337,0.37049310721,0.0400984273588
-0.150588229299,-0.00818001199514,0.129268705845,-2.53618836403,0.0662860572338,2.60026240349,-0.836564421654,0.0477961413562,-1.81641589734e-05,-0.00068847410148,0.000148507111589,-0.000389328750316,-2.11385577131e-05,0.0031882871408,-2.01045604626e-05,0.472049653555,-0.00775845583521,0.171150387535,-0.000964747316132,0.927972683289,0.370481477827,0.0401153661807
-0.150583580136,-0.00818861834705,0.129273757339,-2.53618884087,0.066285982728,2.60026073456,-0.836559951305,0.0477961413562,0.000217186840018,8.97564241313e-05,-0.000220894798986,-0.000271782657364,-4.93605330121e-05,0.00010406619549,0.000292860699119,0.472050523988,-0.0077540573057,0.171154052105,-0.000963280702208,0.92797156478,0.370483989202,0.0401180816975
-0.150585502386,-0.00818043388426,0.129270598292,-2.53618121147,0.066286444664,2.60026574135,-0.83655166626,0.0477961413562,-0.000525313720573,0.000335302145686,-0.000578054517973,5.99712620897e-05,-0.000133696841658,-0.000142333345138,-4.64082986582e-05,0.472053884682,-0.00775640977942,0.171153734308,-0.000962948062291,0.927974052174,0.370477512338,0.0401203658849
-0.150585517287,-0.00817739311606,0.129270404577,-2.53618359566,0.0662854462862,2.60026407242,-0.83654999733,0.0477961413562,-5.97975704295e-05,0.00311110611074,-0.00014068276505,-0.000234844861552,0.000107452578959,9.44193470787e-06,-4.88470577693e-05,0.472051900484,-0.00775641496701,0.171151202921,-0.000964331525588,0.927974379467,0.370477042883,0.0401170973412
-0.150592312217,-0.00818464532495,0.129267469049,-2.5361828804,0.066285520792,2.60026216507,-0.836543798447,0.0477961413562,0.000281702814391,-0.000528370670509,0.000541457382496,0.000141534532304,-5.72022472625e-05,-5.17067092005e-05,0.000328477588482,0.472052925426,-0.00776114683911,0.171154681161,-0.000962737254228,0.92797720848,0.370469677603,0.0401197125886
-0.150589451194,-0.00818321015686,0.129265591502,-2.53617811203,0.0662863850594,2.60026478767,-0.836538374424,0.0477961413562,0.000314653269015,0.000490328122396,0.000936234486289,0.000565572932828,-4.87485631311e-05,0.000175220542587,-0.000115312948765,0.472055541546,-0.00776071173141,0.171156152796,-0.000961941734056,0.927978058913,0.370467240882,0.0401225617508
-0.150587171316,-0.00817435141653,0.129268586636,-2.53617691994,0.0662862062454,2.60026478767,-0.836535453796,0.0477961413562,0.000116283357784,0.00410616537556,0.000523961090948,0.00202518817969,3.79690973205e-05,-1.36759981615e-05,-0.000255802646279,0.472054734153,-0.00775802885116,0.171152473714,-0.000964057663682,0.927977746851,0.370468374417,0.0401192620027
-0.150584250689,-0.00817453395575,0.129272207618,-2.53617334366,0.0662861615419,2.60026526451,-0.836530268192,0.0477961413562,0.000678290030919,0.000400974880904,0.000165200675838,0.000103023790871,-0.00016497480101,2.78948282357e-05,0.000166446639923,0.472056680896,-0.00775547240139,0.171154194533,-0.000963320993269,0.927977523498,0.370468707963,0.0401213658717
-0.150591209531,-0.00817809905857,0.129264503717,-2.53618121147,0.066286534071,2.60026407242,-0.836513876915,0.0477961413562,9.00822706171e-05,-0.000140856369399,0.000124934333144,0.000249959790381,8.52888915688e-05,4.27767299698e-05,0.000334190845024,0.472053068342,-0.00776187961897,0.17115247279,-0.000964470855576,0.927983319329,0.370454484024,0.0401186215425
-0.150592908263,-0.00817548949271,0.129264622927,-2.53618049622,0.066285200417,2.60026526451,-0.836510717869,0.0475485771894,0.00327933719382,-0.000273959711194,-0.00086906173965,5.65699119761e-05,-2.27744840231e-05,-6.64515828248e-05,0.000671452609822,0.472053228777,-0.00776264242411,0.171151653562,-0.000964428444795,0.92798401728,0.370452780492,0.0401182085892
-0.150582015514,-0.00816038437188,0.129272758961,-2.53619027138,0.0662861391902,2.60026264191,-0.836495757103,0.0475485771894,0.000322177802445,0.00219132984057,-0.000295245961752,0.000535078288522,-8.07370743132e-05,5.11136422574e-05,-0.000518645276316,0.472045729619,-0.00775312116008,0.17114047902,-0.000971616670317,0.927983936261,0.37045427576,0.0401060999933
-0.150585323572,-0.00815397780389,0.12927082181,-2.5361893177,0.0662863701582,2.60026144981,-0.83649200201,0.0475485771894,-0.00336228869855,0.00185829936527,-5.32746016688e-05,0.000172599538928,-9.8245938716e-05,-1.01420237115e-05,5.43612004549e-05,0.47204480194,-0.00775508071856,0.171138117793,-0.000973019831603,0.927985158143,0.370451479228,0.0401036247827
-0.150584086776,-0.00813938118517,0.129271909595,-2.53620028496,0.0662858635187,2.60025835037,-0.836480200291,0.0475485771894,-3.27787602146e-05,-0.000409990461776,-0.000130229978822,-6.42195445835e-05,1.16661030916e-05,-0.00491992151365,0.00232039229013,0.472036647645,-0.00775381584533,0.171126282362,-0.000980011406952,0.927987990572,0.370445787923,0.0400904829869
-0.150585114956,-0.00813352316618,0.129272639751,-2.5362033844,0.0662862062454,2.60025835037,-0.836475670338,0.0475485771894,-0.000200286158361,-0.000268430594588,-0.000147051352542,-0.000553887104616,-5.29366079718e-05,1.09750899355e-05,4.81550887343e-05,0.472034225755,-0.00775377210762,0.171122326316,-0.000982263804736,0.927989114906,0.370443389088,0.0400865680582
-0.150583311915,-0.00812621228397,0.129274055362,-2.53620839119,0.0662859007716,2.60025787354,-0.836473584175,0.0475485771894,0.000427462480729,0.000693966576364,0.000219809546252,-0.000138793795486,0.00197408907115,-4.71754210594e-05,1.89187830983e-05,0.472030645195,-0.00775182964617,0.171117063189,-0.000985134521513,0.927989103576,0.370444010908,0.040081013217
-0.150583073497,-0.00812544673681,0.129273965955,-2.53621196747,0.0662864372134,2.60025548935,-0.836468756199,0.0475485771894,0.000573475088459,-0.000249497941695,-2.70060045295e-05,0.000380722922273,3.332405322e-05,-9.53367343755e-05,0.0001862012723,0.472028248669,-0.00775183870068,0.171114886158,-0.000986868112639,0.927990177048,0.370441656672,0.0400778751953
-0.150586381555,-0.0081185484305,0.129270493984,-2.53621220589,0.0662856400013,2.60025382042,-0.83645772934,0.0475485771894,-0.000439994910266,-0.000170160870766,-0.000542542955372,-0.000471239618491,-2.39669298026e-05,-4.26930637332e-05,0.000374982832,0.472026623718,-0.0077548612577,0.171111393627,-0.000988925050455,0.927993517569,0.370433706429,0.040073959162
-0.150587797165,-0.00811090134084,0.129271000624,-2.53621268272,0.0662862509489,2.60025429726,-0.836450219154,0.0475485771894,3.96045397792e-05,0.00225459481589,-0.000190705701243,0.000164749086252,-5.39293068869e-05,0.000102674232039,0.000423799327109,0.472024991611,-0.00775530124879,0.171107125718,-0.000991407726786,0.927995469002,0.370429219259,0.040070186256
-0.150592908263,-0.0081120012328,0.129265710711,-2.53621792793,0.0662853643298,2.60025262833,-0.836444318295,0.0475485771894,-0.00315478560515,-0.000187582874787,-0.0003206008696,-0.000604216067586,0.000129706022562,-0.000207245888305,9.2476780992e-05,0.47202249865,-0.00775996513626,0.171105965735,-0.000991948780254,0.927998314924,0.370422330182,0.0400679488201
-0.150584816933,-0.00811162404716,0.129274353385,-2.53621649742,0.0662864670157,2.60025119781,-0.836431622505,0.0475485771894,-0.000197122179088,0.000552637444343,0.000672039575875,0.000198049194296,3.52105271304e-05,5.19885270478e-06,-0.00016390971723,0.472022951626,-0.00775201300562,0.171106199593,-0.000992913323509,0.927997730895,0.370423796535,0.0400678951537
-0.150586545467,-0.00810535997152,0.129271194339,-2.53621125221,0.0662867575884,2.60025048256,-0.836421489716,0.0482952073216,-0.000608944508713,0.000117272611533,-0.000473263615277,0.00176634674426,6.72060850775e-05,-0.000206515818718,0.000483177253045,0.472024270943,-0.00775419010336,0.171105253915,-0.000993819198245,0.928000583484,0.370416709399,0.0400673240752
-0.150586664677,-0.00809992384166,0.129272416234,-2.53621077538,0.0662857815623,2.60025000572,-0.836411654949,0.0482952073216,1.12766647362e-05,0.000229799989029,0.000156285794219,-0.000149202576722,-0.000135465525091,9.2932539701e-05,-8.23163500172e-05,0.472023533754,-0.0077535707978,0.171102846406,-0.000995177625441,0.92800215735,0.370413028353,0.0400648684776
-0.150579899549,-0.00809382088482,0.129276156425,-2.53618979454,0.0662859901786,2.60024809837,-0.836397647858,0.0482952073216,0.000639949401375,0.000265952578047,-0.00136897945777,0.00194155576173,-0.000169250764884,-0.00022254412761,0.000690448039677,0.472032273317,-0.0077486284538,0.171108019681,-0.000993577997386,0.92800255877,0.370411359717,0.040071036874
-0.150584578514,-0.00807431153953,0.129271239042,-2.53604984283,0.0662859603763,2.60022115707,-0.836379349232,0.0482952073216,-0.000503895687871,-0.000108008447569,-0.000597135105636,0.00940777175128,-4.27199609021e-07,-0.000349791633198,0.0021579163149,0.472090340585,-0.00775351507683,0.171150994448,-0.000977332655391,0.928005627187,0.370398965322,0.0401149211888
-0.150589600205,-0.00806195754558,0.129267156124,-2.53575921059,0.0662865117192,2.6002073288,-0.836352825165,0.0482952073216,0.000428368686698,0.00270026130602,-0.000125398451928,0.0236680787057,-0.000236623280216,-0.000828270975035,0.000427350052632,0.472224396431,-0.00776005990242,0.171257786614,-0.00092732111088,0.928006844321,0.370382788023,0.0402371344634
-0.150584816933,-0.00802592374384,0.129272386432,-2.53530168533,0.0662859231234,2.60010027885,-0.836329162121,0.0482952073216,0.000261150562437,0.00154050567653,0.000638444907963,0.0383298546076,-0.000251082179602,-0.0157128162682,0.00252516078763,0.472414891988,-0.00775684118711,0.17140938133,-0.000871294725199,0.928002106444,0.370378816529,0.0403839476885
-0.150580823421,-0.00799781735986,0.129274144769,-2.53461909294,0.0662853419781,2.59977555275,-0.836289227009,0.0489577837288,0.000213794352021,0.00314331077971,-0.000197535351617,0.0535861887038,-9.17378347367e-05,-0.0275453031063,-1.76322810148e-05,0.47266815567,-0.00775370456215,0.1716306195,-0.000817579568519,0.927999279958,0.370368962987,0.0405400900378
-0.150577276945,-0.00809903256595,0.129279389977,-2.5303132534,0.0662848576903,2.59649395943,-0.836196899414,0.0489577837288,-1.74200908987e-06,-0.0134017402306,0.000197217945242,0.130729734898,-1.27629982671e-05,-0.114434450865,-0.000101679645013,0.474046238438,-0.00772897826709,0.173032230238,-0.000676909288071,0.927967971227,0.370386816679,0.0410924796641
-0.150584310293,-0.00841060560197,0.129273965955,-2.52776122093,0.0662848949432,2.59393644333,-0.836169958115,0.0489577837288,-0.000284766254481,-0.0258489791304,0.000276652746834,0.16401283443,-3.97739895561e-05,-0.187384143472,0.00342392642051,0.474813880406,-0.00771506802089,0.173978487842,-0.000667604898505,0.927949561014,0.370414922187,0.0412547163704
-0.150585010648,-0.00888575054705,0.129272028804,-2.52454209328,0.0662841871381,2.58986520767,-0.836143791676,0.0489577837288,-0.000457464251667,-0.0294449348003,-0.000501455215272,0.208985179663,-1.76822541107e-05,-0.291983574629,0.000132014771225,0.475515127848,-0.00767963473561,0.174994614137,-0.000812514044521,0.927934342949,0.370468502913,0.0411130518137
-0.150599718094,-0.0147337885574,0.12926286459,-2.50346565247,0.0662779435515,2.55652618408,-0.835495948792,0.0489577837288,-0.000793789688032,-0.135922864079,-0.000487480196171,0.418843358755,0.000266570132226,-0.747394621372,0.00929134711623,0.479284197427,-0.00736813016028,0.182729892298,-0.00256488855345,0.927942795424,0.370733546121,0.0383696133847
-0.150608614087,-0.0174295473844,0.129260718822,-2.4964530468,0.0662789791822,2.54352068901,-0.8352394104,0.0489577837288,0.000854106561746,-0.196771457791,0.000229919955018,0.475951075554,0.000299327104585,-0.888448357582,0.0195273645222,0.480255368806,-0.00723367137075,0.185704017685,-0.00342700805424,0.927959454154,0.370841196659,0.0368281632084
-0.150615930557,-0.0222801249474,0.129258051515,-2.48486804962,0.0662750899792,2.52231025696,-0.834691822529,0.0489577837288,-0.000616610632278,-0.237997293472,-0.00121905142441,0.566452682018,0.000249483884545,-1.04762458801,0.025777483359,0.481742536246,-0.00704171718921,0.190362863697,-0.00455037692095,0.927988169674,0.37095168426,0.0348152070703
-0.150631651282,-0.0366877354681,0.129255637527,-2.453135252,0.0662699267268,2.4625480175,-0.832947909832,0.0489577837288,-0.00384063948877,-0.345781803131,-9.96172748273e-05,0.769679963589,3.14104363497e-05,-1.41209185123,0.0550979562104,0.485329156575,-0.00645146279933,0.204364263431,-0.00781335795574,0.928071583426,0.371207032486,0.0287650168069
-0.150641024113,-0.0422455631196,0.129253968596,-2.44152283669,0.0662706196308,2.44035625458,-0.832061827183,0.0489577837288,0.00082050927449,-0.399087578058,-0.00055809674086,0.829434931278,-0.000557925668545,-1.50799942017,0.0586070716381,0.486432425427,-0.0062264691001,0.2097127685,-0.00899375580659,0.928132824803,0.371194354764,0.0265202291664
-0.150658637285,-0.0497302599251,0.129240646958,-2.42591524124,0.0662637576461,2.41206431389,-0.830848157406,0.0493563786149,-0.000937886361498,-0.411805301905,-0.00118793267757,0.893004834652,-0.000413217727328,-1.62495851517,0.0695367828012,0.488091287155,-0.00595237238355,0.21715256759,-0.0102256286013,0.928202324844,0.371147752111,0.0241914543075
-0.150668472052,-0.0691926330328,0.129240244627,-2.38345813751,0.0662567391992,2.33828544617,-0.826816737652,0.0493563786149,-0.00320652592927,-0.48354691267,-0.00216845073737,1.10130357742,0.000886400172021,-1.78110218048,0.130242288113,0.492640596301,-0.00510552785969,0.239399079809,-0.0131948773301,0.928505488685,0.370618445632,0.0185854818381
-0.150694474578,-0.0798065289855,0.129233971238,-2.35855960846,0.0662467181683,2.2987947464,-0.823566019535,0.0493563786149,0.00335405371152,-0.496975779533,0.00154113851022,1.17056155205,0.0019371858798,-1.81039440632,0.150152236223,0.494896458241,-0.00472714342465,0.250124644888,-0.0140387708773,0.9287723167,0.369991856809,0.0170564422657
-0.150672271848,-0.0885763764381,0.12924952805,-2.33687376976,0.0662464722991,2.2660882473,-0.820789396763,0.0493563786149,-0.00270105968229,-0.495801746845,-0.000913047115318,1.2431704998,-0.00207302020863,-1.79767119884,0.154097259045,0.497136153857,-0.00431986226036,0.260974863367,-0.0146351361914,0.929009282667,0.369419254866,0.0160305747375
-0.15068680048,-0.11299932003,0.129343748093,-2.27158927917,0.0662462040782,2.17779159546,-0.811584353447,0.0493629463017,-0.00182645209134,-0.478318184614,0.00721269566566,1.36152362823,-0.000987745122984,-1.71614980698,0.190553739667,0.503864937723,-0.00316864632406,0.293671147975,-0.0146555176044,0.92984740109,0.367280734061,0.016549578903
-0.150705054402,-0.119996666908,0.12941865623,-2.251070261,0.0662433058023,2.15261554718,-0.808813512325,0.0493629463017,-0.00132380158175,-0.469263851643,0.00571812922135,1.3855432272,-0.00375810824335,-1.65945887566,0.188227683306,0.50610019417,-0.00276017125945,0.304983420198,-0.0142178104378,0.930098506733,0.36661043137,0.0176468958937
-0.150706067681,-0.128360003233,0.129626095295,-2.22626447678,0.0662423297763,2.1234087944,-0.805243730545,0.0493629463017,0.00201772619039,-0.469645529985,0.0133081097156,1.3890260458,-0.00232929317281,-1.58537220955,0.213599875569,0.508519969953,-0.00222163270012,0.317984950038,-0.0134633255009,0.930389457094,0.365811105588,0.0194018480408
-0.150734290481,-0.149037003517,0.130911052227,-2.16407513618,0.0662570223212,2.05496573448,-0.795128285885,0.0493629463017,-0.00147478107829,-0.441920161247,0.0389461554587,1.28779256344,-0.00209936220199,-1.37518298626,0.240573614836,0.513884433952,-0.000397412777578,0.352056834785,-0.0104842473806,0.931160467331,0.363535394663,0.0259283850194
-0.150762632489,-0.157302007079,0.131866499782,-2.13992500305,0.0662581473589,2.02960824966,-0.790345013142,0.0493629463017,-0.00183980097063,-0.441755354404,0.0577389970422,1.23498833179,0.00154842296615,-1.27906143665,0.26531675458,0.515385553054,0.000507526632645,0.364693398246,-0.00908084899834,0.931480190232,0.362530887029,0.0288712490507
-0.150743737817,-0.165040075779,0.13309328258,-2.11842417717,0.0662583112717,2.00750207901,-0.785343587399,0.0493629463017,0.000182729650987,-0.415791064501,0.0779827237129,1.16067409515,-0.00013813811529,-1.19046223164,0.294323593378,0.51648614255,0.00152917244024,0.376205047029,-0.00764440331476,0.931795470738,0.361506527819,0.0318087069518
-0.150785684586,-0.172988042235,0.134835273027,-2.09745979309,0.0662588179111,1.98623144627,-0.779217779636,0.0493629463017,-0.00162456871476,-0.424634933472,0.102811209857,1.05436706543,-0.00131110008806,-1.05291569233,0.353183656931,0.517380539609,0.00293396303391,0.389004657252,-0.0059013413272,0.932260490768,0.360014363004,0.0352875280959
-0.150674894452,-0.185571864247,0.138522967696,-2.06897926331,0.0662568584085,1.95711123943,-0.768107652664,0.0493629463017,0.00606246804819,-0.432217776775,0.150127366185,0.853300213814,0.000306047993945,-0.871865034103,0.399481445551,0.517806919638,0.00560291619354,0.406420437992,-0.0032266842034,0.933040865418,0.357482523553,0.0403804037742
-0.150615125895,-0.192952305079,0.141433358192,-2.05490803719,0.0662389323115,1.94233798981,-0.760641813278,0.0493629463017,0.00110367650632,-0.395860940218,0.174090191722,0.702179431915,-0.00442154426128,-0.791110634804,0.436163246632,0.517584831203,0.00753638085556,0.415575152194,-0.00166258207049,0.933553048547,0.355826473487,0.0431678331799
-0.150543883443,-0.199014276266,0.144171521068,-2.04513788223,0.0661517158151,1.93130767345,-0.75377202034,0.0493629463017,0.00689785322174,-0.407110452652,0.191954255104,0.614660739899,-0.0103667378426,-0.693444371223,0.471435159445,0.517068713186,0.0092905133843,0.422315941623,-0.000455345710593,0.93405851296,0.354259620286,0.0451066308626
-0.150394365191,-0.206572473049,0.148079931736,-2.03502488136,0.0655682235956,1.91919577122,-0.744173467159,0.0493629463017,0.0109210079536,-0.387410998344,0.226031795144,0.456250458956,-0.0500797517598,-0.588463068008,0.536756634712,0.516144166633,0.0116594645384,0.429844475001,0.00120684151025,0.934774311976,0.352088632885,0.0472135942523
-0.149584457278,-0.21823439002,0.156173869967,-2.02422118187,0.0623886808753,1.90264296532,-0.725367844105,0.0493780486286,0.0384196303785,-0.337559044361,0.267207384109,0.232073247433,-0.156740367413,-0.441296368837,0.625065624714,0.513816099355,0.0162189787706,0.43920747116,0.00439129561434,0.936114618946,0.348274398594,0.0487347892928
-0.148686379194,-0.223698213696,0.160787582397,-2.02115726471,0.059050951153,1.89575624466,-0.714792370796,0.0493780486286,0.0626457706094,-0.308652758598,0.282460004091,0.121163412929,-0.237368628383,-0.369803279638,0.628306865692,0.512373712268,0.0186754381993,0.44264490539,0.00655750893647,0.936783556668,0.346458363062,0.0485815745269
-0.147299140692,-0.228830754757,0.166169971228,-2.0199701786,0.0542413778603,1.88951683044,-0.70322740078,0.0493780486286,0.0886671617627,-0.260134071112,0.308287739754,0.0256505720317,-0.302405297756,-0.325886011124,0.669809758663,0.510741990947,0.0213013780418,0.444913017647,0.00901010564121,0.937365507023,0.344971198358,0.0475352104273
-0.145893380046,-0.232280880213,0.170888274908,-2.02013444901,0.0489464960992,1.88523972034,-0.693028330803,0.0493780486286,0.0949766561389,-0.201936393976,0.321788549423,-0.0344493165612,-0.39755821228,-0.264153152704,0.683185338974,0.509216032967,0.0237334444057,0.44608053415,0.0117363877582,0.937905327612,0.3436487035,0.0458412686151
-0.143725544214,-0.235371738672,0.177480489016,-2.02136349678,0.0399706363678,1.88025057316,-0.679227113724,0.0493780486286,0.123402394354,-0.122355483472,0.336572051048,-0.0968595668674,-0.494054049253,-0.222421586514,0.691457748413,0.507394918038,0.0266432266961,0.446315627072,0.0157200580589,0.938468802314,0.342361940487,0.0426320096878
-0.139118626714,-0.237186059356,0.188217163086,-2.02614283562,0.022434623912,1.87579214573,-0.657002568245,0.0493780486286,0.164940550923,0.0133018037304,0.332506746054,-0.203076258302,-0.599443018436,-0.0491820797324,0.698610067368,0.504936351067,0.0312020623073,0.444144593061,0.0231251690272,0.939033540165,0.3411374057,0.0361456376552
-0.133101791143,-0.235292837024,0.199303090572,-2.03535199165,0.000991571461782,1.8759611845,-0.634296178818,0.0493780486286,0.176924154162,0.124134078622,0.312567949295,-0.330827504396,-0.648699700832,0.0365495346487,0.619979202747,0.502852179784,0.0357015034884,0.438518723537,0.031763167563,0.939127324126,0.34096283518,0.0278444784215
-0.130063384771,-0.23250117898,0.204431593418,-2.04136347771,-0.010377519764,1.87701535225,-0.623861312866,0.0493780486286,0.186356276274,0.195947259665,0.294309228659,-0.372089475393,-0.680370330811,0.0902619883418,0.591447174549,0.501891427266,0.0375473373042,0.434260480319,0.0359703538311,0.939005251689,0.341261738424,0.0227089524371
-0.120016187429,-0.213869035244,0.219655767083,-2.06932640076,-0.0520973540843,1.8909945488,-0.592811226845,0.0494049750268,0.124174438417,0.393961697817,0.178472727537,-0.50217628479,-0.612408936024,0.370336681604,0.360441833735,0.499836925677,0.0415922924025,0.41536616062,0.0490772600339,0.937708179843,0.343908598506,0.00465484294598
-0.117993555963,-0.205851525068,0.222363203764,-2.07912158966,-0.0631663501263,1.8989803791,-0.586535930634,0.0494049750268,0.0887415260077,0.445749819279,0.109341919422,-0.512315630913,-0.557098686695,0.472387671471,0.290833026171,0.499683606844,0.0419567187919,0.405199239315,0.0534215382221,0.936894953703,0.345494092233,-0.00279587152108
-0.116679728031,-0.196239605546,0.22392617166,-2.08957505226,-0.0736956000328,1.90966379642,-0.58163279295,0.0494049750268,0.0424584075809,0.515565395355,0.0517480745912,-0.535330712795,-0.505330622196,0.566592276096,0.194427058101,0.500072575986,0.0413685848905,0.396579689632,0.0561427006405,0.936294383885,0.346606996384,-0.00802580919804
-0.117510586977,-0.170430883765,0.222596913576,-2.11306929588,-0.0946972742677,1.93671143055,-0.578615128994,0.0494896844029,-0.0739095658064,0.623834848404,-0.108109161258,-0.462367594242,-0.409602314234,0.620024979115,-0.00106236990541,0.501494311106,0.0364557541084,0.375470468574,0.0597712976369,0.934951894734,0.349129810227,-0.0200180370961
-0.133941993117,-0.112287275493,0.197627112269,-2.14454436302,-0.118836030364,1.98594760895,-0.590886712074,0.0494896844029,-0.306279838085,0.694601237774,-0.481295496225,-0.237592533231,-0.190535753965,0.494880020618,-0.358211249113,0.505664028153,0.0121189753844,0.336682460678,0.0560815033328,0.936526540498,0.34370178965,-0.0405213944006
-0.139359012246,-0.101184040308,0.189318686724,-2.14788913727,-0.121691800654,1.99345552921,-0.597313702106,0.0494896844029,-0.364180028439,0.685876369476,-0.549041211605,-0.189548119903,-0.165476828814,0.446350753307,-0.441591799259,0.506421117055,0.00489915062364,0.330292925357,0.0543284517301,0.937266584735,0.341522127497,-0.0440727193201
-0.146863147616,-0.0880699679255,0.178163856268,-2.15065002441,-0.124941542745,2.00152158737,-0.606515586376,0.0494896844029,-0.429520517588,0.68633133173,-0.630448698997,-0.107575617731,-0.163836762309,0.402336448431,-0.517641186714,0.50727784205,-0.00484441934639,0.32319686386,0.0521298137525,0.938288704126,0.338492921063,-0.048159446681
-0.16773532331,-0.0595877468586,0.147962525487,-2.15144133568,-0.131310984492,2.01661372185,-0.632107377052,0.0494896844029,-0.530106842518,0.625142872334,-0.764771461487,0.036647990346,-0.126880735159,0.341273367405,-0.641190648079,0.509077022631,-0.0313112518423,0.309799884156,0.0469973108863,0.94139958907,0.329276415001,-0.0559920412135
-0.181518375874,-0.0449614226818,0.128305003047,-2.14963650703,-0.133336901665,2.02448797226,-0.64790892601,0.0494896844029,-0.595144093037,0.583435595036,-0.841132879257,0.107683837414,-0.0640248954296,0.298529118299,-0.675375103951,0.509778994907,-0.0484582808968,0.303796395386,0.0439471357921,0.94385431654,0.322075374751,-0.0589502423376
-0.190121054649,-0.0370063446462,0.116288818419,-2.14775562286,-0.134122163057,2.02839493752,-0.657573223114,0.0494955927134,-0.636648237705,0.553295493126,-0.88542509079,0.157292470336,-0.0463463142514,0.252373278141,-0.704944610596,0.509973852759,-0.0590308008986,0.300866077498,0.0421904036577,0.945428905076,0.317399482559,-0.0603466937383
-0.223780110478,-0.0115968640894,0.0698088631034,-2.13498330116,-0.135316103697,2.03765034676,-0.694259285927,0.0494955927134,-0.710256934166,0.459531277418,-0.954304993153,0.345212966204,-0.00403803028166,0.130160838366,-0.752017199993,0.509285171503,-0.100366294275,0.294082392889,0.036544515576,0.95182220703,0.297781545217,-0.0634439564035
-0.237282022834,-0.00337072717957,0.051719494164,-2.12779426575,-0.135310664773,2.0398337841,-0.70858091116,0.0494955927134,-0.704224944115,0.40899887681,-0.948720037937,0.414122790098,-0.000951141933911,0.103778764606,-0.743845760822,0.508555920732,-0.116827154201,0.293113594911,0.0350003888721,0.954372146698,0.289668109477,-0.0635701535941
-0.250186920166,0.00377153838053,0.0345222502947,-2.11961531639,-0.135274589062,2.04147863388,-0.721647679806,0.0494955927134,-0.730976998806,0.377572506666,-0.963531851768,0.471602022648,0.0095669189468,0.0696321502328,-0.707282602787,0.50780718695,-0.131773485233,0.293076360881,0.0341157135985,0.956721960181,0.282032135256,-0.0630641210669
-0.261780053377,0.00946787931025,0.0195241589099,-2.11173391342,-0.135028868914,2.04225039482,-0.732729136944,0.0494955927134,-0.718310534954,0.328290402889,-0.905520260334,0.505782365799,0.0297178272158,0.0339333377779,-0.680828332901,0.506717714286,-0.146720606056,0.293618311453,0.0334687946848,0.959111165776,0.274050102972,-0.0623069195013
-0.29720172286,0.0216794274747,-0.0234855599701,-2.08500170708,-0.131094574928,2.0424053669,-0.764528334141,0.0494955927134,-0.684198737144,0.166842445731,-0.773878097534,0.536859214306,0.118105128407,-0.0105099724606,-0.569068491459,0.50233200376,-0.188231470028,0.298958848659,0.0327828743425,0.965906906706,0.250351046755,-0.0572143671574
-0.308593302965,0.023757070303,-0.0365259535611,-2.07616090775,-0.128986179829,2.04206776619,-0.773728132248,0.0494955927134,-0.640689313412,0.0757753029466,-0.727630198002,0.515287518501,0.130959510803,-0.0219821706414,-0.516513884068,0.500418111423,-0.201137283636,0.30175254614,0.0329797003667,0.968089524689,0.242326310615,-0.0547080471881
-0.320543944836,0.0244500823319,-0.0496121384203,-2.06654477119,-0.125870242715,2.04125738144,-0.782920181751,0.0494955927134,-0.616439402103,0.0088041163981,-0.658476471901,0.484200030565,0.193202391267,-0.0602912455797,-0.449901491404,0.49825346831,-0.214285485901,0.305609340817,0.0333677336595,0.970381764824,0.233696246196,-0.0513019400803
-0.329853445292,0.0242451764643,-0.0597258135676,-2.05893158913,-0.122208565474,2.03985881805,-0.78956001997,0.0494955927134,-0.552106916904,-0.0237683095038,-0.598474442959,0.465127885342,0.251078873873,-0.107420161366,-0.380928456783,0.496277935372,-0.224280995842,0.309012025634,0.0333497929132,0.97225624025,0.226431626878,-0.0483147249879
-0.3525210917,0.0180720407516,-0.0822813212872,-2.03883624077,-0.106103606522,2.02931642532,-0.802580058575,0.0494955927134,-0.380224525928,-0.202566161752,-0.353666573763,0.365579634905,0.401725500822,-0.330665796995,-0.151795312762,0.490522792053,-0.24621683112,0.320495424462,0.0310908475346,0.97721855266,0.206286111556,-0.0390294685019
-0.359183251858,0.0134149342775,-0.088157132268,-2.03195738792,-0.0978657603264,2.02175712585,-0.80473959446,0.0494955927134,-0.284602344036,-0.26754206419,-0.229606300592,0.306003630161,0.430689960718,-0.43533924222,-0.0625028759241,0.488398203986,-0.251532921893,0.325480090379,0.029044215113,0.978923194985,0.199004743212,-0.0355376386812
-0.362963348627,0.00896767061204,-0.0908495634794,-2.02783679962,-0.0912100449204,2.01482129097,-0.805142819881,0.0495015047491,-0.21748816967,-0.325046777725,-0.134996369481,0.251889973879,0.461950182915,-0.492777854204,0.000261059380136,0.486969020495,-0.253738997241,0.329154847247,0.0269726240683,0.980010230968,0.194291483123,-0.0332151175131
-0.366046726704,0.00254360446706,-0.0924048125744,-2.02373456955,-0.0826663449407,2.00533556938,-0.805066883564,0.0495015047491,-0.111828126013,-0.375920087099,-0.0259638186544,0.20678088069,0.489024341106,-0.563496470451,0.00910117384046,0.485522034575,-0.254503453131,0.333921480455,0.0238370642132,0.981100265743,0.1896059865,-0.0303913229128
-0.366737574339,-0.00703686987981,-0.0920614376664,-2.01928544044,-0.069974757731,1.99072194099,-0.804232239723,0.0495015047491,0.0412629693747,-0.414171755314,0.0570987537503,0.158135890961,0.557132661343,-0.655717790127,0.0668127387762,0.484584606696,-0.252162398806,0.339594415967,0.0190380246132,0.981960781671,0.18613764552,-0.0272645098364
-0.365260571241,-0.0144074130803,-0.0900148078799,-2.01704740524,-0.0601884424686,1.97918617725,-0.802237927914,0.0495015047491,0.119265057147,-0.458328694105,0.181520447135,0.109822437167,0.573843300343,-0.70269972086,0.163201153278,0.484356480615,-0.248260487576,0.343585146278,0.0147892903103,0.982372397679,0.184626582205,-0.0252739789131
-0.358986437321,-0.0290101375431,-0.0804341211915,-2.0138862133,-0.0423749759793,1.95606946945,-0.793714940548,0.0495015047491,0.272038131952,-0.446215510368,0.405182689428,0.0904085114598,0.54371547699,-0.738898992538,0.383228451014,0.485409582622,-0.236155643067,0.350914644437,0.00662435377872,0.982589480418,0.184316945661,-0.0223895991139
-0.353776484728,-0.0361404083669,-0.0729658603668,-2.01247763634,-0.0338474214077,1.94432008266,-0.78663289547,0.0495015047491,0.387275099754,-0.438187092543,0.532468855381,0.0882019847631,0.517780661583,-0.721938967705,0.513916671276,0.486910701054,-0.22717701746,0.35462442148,0.00239124308025,0.982430835695,0.185392368235,-0.021297993514
-0.346142083406,-0.0439319126308,-0.0626809597015,-2.01093435287,-0.0248885862529,1.93140971661,-0.776169598103,0.0495015047491,0.46286791563,-0.417183965445,0.615757107735,0.0826303362846,0.473479568958,-0.7007163167,0.645327925682,0.488998771361,-0.216606097463,0.358232276484,-0.0015050605915,0.982111697636,0.187176058377,-0.020480991815
-0.336832910776,-0.0511877089739,-0.0505908168852,-2.00926375389,-0.0170227587223,1.91931414604,-0.763397455215,0.0495015047491,0.562879920006,-0.393035709858,0.725439786911,0.0993842855096,0.390481829643,-0.638457655907,0.757960796356,0.491797251784,-0.203950559598,0.361906862952,-0.00498297176989,0.981587928564,0.189905973782,-0.0199004851
-0.322769641876,-0.059294231236,-0.0326503440738,-2.00704932213,-0.00927298236638,1.90605843067,-0.744797289371,0.0495015047491,0.701775610447,-0.330074936152,0.878197133541,0.107330136001,0.306749671698,-0.55724388361,0.926999211311,0.496345223605,-0.185097413115,0.366379745837,-0.00813123416419,0.980512767728,0.195311290078,-0.0195472509062
-0.303932905197,-0.0665462836623,-0.00928975176066,-2.00406718254,-0.0024473615922,1.89367198944,-0.719565749168,0.0495047867298,0.825183331966,-0.264305859804,1.01506149769,0.12300530076,0.236283674836,-0.43916836381,1.0773525238,0.502099490545,-0.162028846411,0.37062913886,-0.0101425673835,0.97903992214,0.202480950245,-0.019478800434
-0.286625057459,-0.0711210817099,0.0119202323258,-2.00138521194,0.00187141750939,1.88591444492,-0.696910619736,0.0495047867298,0.889281272888,-0.189304769039,1.08559262753,0.148201271892,0.189693123102,-0.3359118402,1.17563283443,0.506618339679,-0.143535280233,0.373380980145,-0.0107474658195,0.977707449834,0.208797393771,-0.019398004215
-0.272571265697,-0.0733436495066,0.0289555713534,-1.99900889397,0.0042593870312,1.88151752949,-0.678766727448,0.0495047867298,0.96890515089,-0.128689900041,1.1776444912,0.16583353281,0.140628218651,-0.248569950461,1.24395644665,0.510776629681,-0.126107053667,0.375441309111,-0.010682455112,0.976348407873,0.215069900902,-0.0193548189919
-0.218296304345,-0.0756479725242,0.0943880826235,-1.9902561903,0.00774952536449,1.87535786629,-0.610295474529,0.0495047867298,1.10201585293,0.0217947252095,1.31731295586,0.142707377672,0.0135603202507,0.00421279203147,1.36136078835,0.52323262815,-0.0635456466983,0.380097614721,-0.00720873378835,0.97072949429,0.239358962979,-0.0184274145628
-0.202716648579,-0.075158379972,0.113099358976,-1.98848736286,0.007707150653,1.87564122677,-0.591473460197,0.0495047867298,1.12877190113,0.0552428252995,1.34711945057,0.115931876004,-0.00429669255391,0.0349456444383,1.32526671886,0.52568194486,-0.0455871248005,0.380613306533,-0.00582466207171,0.968868843934,0.246837828375,-0.0181747831632
-0.185611754656,-0.0739512965083,0.133619189262,-1.98697435856,0.00771553069353,1.87651252747,-0.571400046349,0.0495067574084,1.12280535698,0.0953995212913,1.34645104408,0.0813139230013,-0.00825708918273,0.0769849270582,1.2914096117,0.527832608583,-0.0241519216149,0.380640359739,-0.00438773408848,0.966495935229,0.256007846779,-0.0180648015704
-0.111509650946,-0.0657151713967,0.220156133175,-1.98741328716,0.00320529541932,1.88682746887,-0.494190365076,0.0495067574084,1.08838307858,0.157332807779,1.21699786186,-0.101824708283,-0.192229896784,0.251049757004,1.01897203922,0.527262405586,0.0633073725339,0.375959399859,0.00261051331688,0.954195190996,0.298564333086,-0.0190803930708
-0.0910216718912,-0.0627341791987,0.242750585079,-1.98983812332,-0.0010901595233,1.89219963551,-0.475270867348,0.0495067574084,1.0685955286,0.161700323224,1.16347968578,-0.161925658584,-0.261408001184,0.323638826609,0.965417206287,0.525837446294,0.0771417018247,0.374430875915,0.00447521386344,0.95175063419,0.306228388925,-0.0193617221774
-0.0715124979615,-0.0597622804344,0.263565033674,-1.99373054504,-0.00698509346694,1.89918196201,-0.457642376423,0.0495067574084,0.994505107403,0.142853319645,1.04871189594,-0.249576970935,-0.368228465319,0.398038119078,0.88898473978,0.522538010666,0.100693771049,0.371064834056,0.00852140490539,0.94721865098,0.319866773762,-0.0197347314835
-0.0425774790347,-0.0560687556863,0.293603509665,-2.00347948074,-0.0204777475446,1.91294956207,-0.432379454374,0.0495139807463,0.870895683765,0.0945991948247,0.878569722176,-0.368874639273,-0.477035373449,0.475084662437,0.753226578236,0.516718039808,0.129072594008,0.365531046744,0.0159392848578,0.940785169578,0.338038235451,-0.0199838674981
-0.0286516603082,-0.0545951351523,0.30767083168,-2.01042866707,-0.0289560444653,1.92101085186,-0.420115441084,0.0495139807463,0.761997282505,0.0770207569003,0.782563447952,-0.449017971754,-0.521357893944,0.465514987707,0.68723243475,0.51316805183,0.141994677673,0.362117619279,0.0203849241146,0.937461131857,0.346903652538,-0.0202221825926
-0.0157377701253,-0.0534894056618,0.32025384903,-2.01893901825,-0.0386130474508,1.92915213108,-0.408652126789,0.0495139807463,0.680288076401,0.0469064377248,0.648870050907,-0.490449249744,-0.545805156231,0.438185483217,0.591643452644,0.509292216079,0.1532217764,0.358210219999,0.0252971491151,0.934214188272,0.35519942389,-0.0209110887255
-0.0064535937272,-0.0529076941311,0.329069018364,-2.0264582634,-0.0465885363519,1.93541634083,-0.400662690401,0.0495139807463,0.565750598907,0.0255291908979,0.531576275826,-0.511900782585,-0.536761164665,0.417723029852,0.500094771385,0.506121308652,0.160841614205,0.354916272562,0.0292971764764,0.931705208888,0.361379919916,-0.0217170980607
0.00450829276815,-0.0525180138648,0.338816344738,-2.03806805611,-0.0586209893227,1.94437110424,-0.39093798399,0.0495139807463,0.425440460443,0.0149700418115,0.355629891157,-0.544943153858,-0.53392791748,0.36897957325,0.387236922979,0.502022803029,0.168848168186,0.350089567951,0.0352166128942,0.928571632052,0.36876096464,-0.0230187959255
0.0130609609187,-0.0524177700281,0.345514267683,-2.05210232735,-0.0717727988958,1.95244252682,-0.382864236832,0.0495139807463,0.229715570807,-0.00545760570094,0.172880798578,-0.510496854782,-0.462364017963,0.256540119648,0.226851865649,0.497907484818,0.173515197692,0.344298789566,0.0414977599097,0.925882404332,0.374639379088,-0.0257884584724
0.016063330695,-0.0525072999299,0.347204834223,-2.06125068665,-0.0799866467714,1.95673751831,-0.379936337471,0.0495139807463,0.091479845345,0.00554992351681,0.0114761441946,-0.460492223501,-0.395578950644,0.197744175792,0.0941424146295,0.495869054299,0.173882017997,0.340572343515,0.0452919210143,0.924645249035,0.377083219438,-0.0280722394715
0.0161450244486,-0.0525254160166,0.346396327019,-2.06934309006,-0.0870444327593,1.95941925049,-0.379361659288,0.0495139807463,-0.0665133371949,-0.00374143593945,-0.104528523982,-0.401051521301,-0.365638434887,0.105272330344,-0.00117389496882,0.49464986735,0.171711569158,0.337197156145,0.0483815893071,0.924073154088,0.377888184792,-0.0307984932578
0.0139571493492,-0.0524139665067,0.342986643314,-2.07606911659,-0.0936025902629,1.96073544025,-0.379429250956,0.0495139807463,-0.164334431291,0.00448263064027,-0.251250743866,-0.329365104437,-0.328695356846,0.0466973036528,-0.00782292895019,0.494317178381,0.167250313819,0.334311946733,0.0510730519422,0.924341857541,0.376627379369,-0.0336970407704
0.00586500158533,-0.0522630773485,0.331562936306,-2.08353948593,-0.101901471615,1.96123838425,-0.380555778742,0.0495185777545,-0.350677967072,0.0129068540409,-0.477186590433,-0.178637474775,-0.227084130049,0.00131115363911,-0.080869294703,0.495867746566,0.155483515648,0.331124582212,0.0540338180556,0.926791395106,0.369747414977,-0.0377479173582
0.00075697095599,-0.0521960556507,0.32471883297,-2.08550906181,-0.104821652174,1.96118676662,-0.381858706474,0.0495185777545,-0.433389127254,0.00126958976034,-0.583555400372,-0.121788717806,-0.221453815699,-0.00623763166368,-0.126876100898,0.497259849408,0.148872649016,0.330304500983,0.0548808442446,0.928415896508,0.365378954166,-0.0391182257112
-0.00913795270026,-0.0521214976907,0.311394512653,-2.08675050735,-0.10877328366,1.960968256,-0.385153859854,0.0495185777545,-0.549018085003,0.00636022351682,-0.73211991787,-0.00676664989442,-0.182111591101,-0.0205630771816,-0.204838782549,0.500381542384,0.136528646881,0.329866246736,0.0557728506952,0.931603338883,0.356875492839,-0.0405523168711
-0.0713919848204,-0.0519198775291,0.233062937856,-2.06928086281,-0.11888269335,1.95451319218,-0.415614783764,0.0495185777545,-0.935787379742,0.00599577557296,-1.14475822449,0.466509014368,-0.041127409786,-0.206311166286,-0.508959233761,0.519237246427,0.063023222036,0.338126179757,0.0557167227744,0.94963400791,0.305823759239,-0.0395313267905
-0.0895469710231,-0.051853209734,0.210996553302,-2.05943441391,-0.119304969907,1.94995486736,-0.425541400909,0.0495185777545,-0.985740482807,0.00477066775784,-1.19032585621,0.568397581577,-0.0150925824419,-0.283045858145,-0.528401792049,0.523224199388,0.0433246513972,0.34217676014,0.0549646097291,0.954091194403,0.291936829885,-0.038233120288
-0.121065437794,-0.051965072751,0.173140645027,-2.03938484192,-0.11949596554,1.93971049786,-0.442243218422,0.0495185777545,-1.04604005814,-0.00886891316622,-1.23955881596,0.736420333385,-0.00238130358048,-0.380759119987,-0.550533771515,0.528673985916,0.00821455935943,0.350538758135,0.0538055312189,0.961563361364,0.266907773463,-0.0355120690618
-0.140954732895,-0.0522102154791,0.149447381496,-2.02507758141,-0.1195044294,1.93178200722,-0.452698737383,0.0495185777545,-1.04916524887,-0.033178254962,-1.24950456619,0.790860533714,-0.00353546533734,-0.444196462631,-0.553179562092,0.531139599621,-0.0161307667694,0.357089684067,0.0532338250857,0.966323126859,0.249535399299,-0.0334343917693
-0.158842876554,-0.0529929809272,0.12817235291,-2.0110604763,-0.119508944452,1.92386627197,-0.461996793747,0.0495185777545,-1.04801869392,-0.0547898411751,-1.25091385841,0.83869767189,0.00551893888041,-0.48658490181,-0.541365504265,0.532419161331,-0.0371052637417,0.363478323776,0.0530293929789,0.970162908673,0.234512219019,-0.0312383248675
-0.174519881606,-0.0538081079721,0.109587706625,-1.99837458134,-0.119512617588,1.91625130177,-0.469846099615,0.0495185777545,-1.04685544968,-0.0653492361307,-1.23849511147,0.873852193356,0.00426308531314,-0.530268967152,-0.508498668671,0.532744955102,-0.0555717167547,0.369292003543,0.0529468605698,0.97335971723,0.221141473309,-0.0293928444767
-0.194891825318,-0.0557995922863,0.0852582901716,-1.98084688187,-0.119474850595,1.90557587147,-0.479322373867,0.0495185777545,-1.02158641815,-0.114625744522,-1.20555043221,0.845048189163,-0.00395696237683,-0.554120898247,-0.443624258041,0.532155016635,-0.0797701008116,0.377790808405,0.0531753981511,0.977340797138,0.203170181609,-0.0264427737038
-0.222615033388,-0.0602935254574,0.0528484247625,-1.95701110363,-0.119456298649,1.88951480389,-0.491089075804,0.0495185777545,-0.968594968319,-0.196297854185,-1.11334228516,0.823581397533,-0.00327404867858,-0.592653810978,-0.400353491306,0.528965301909,-0.112353066836,0.39021662339,0.0538668806022,0.982249005702,0.178284753387,-0.0223561261797
-0.239590138197,-0.0644743815064,0.0333986543119,-1.94262576103,-0.119366429746,1.87853646278,-0.497943341732,0.0495185777545,-0.934937953949,-0.281119257212,-1.04085981846,0.791698694229,0.00336543330923,-0.606099069118,-0.369179397821,0.525524237695,-0.131964385115,0.39841356291,0.0544223636474,0.984937034547,0.162923285544,-0.019830457318
-0.255775213242,-0.0699729025364,0.0153729580343,-1.92907941341,-0.119152784348,1.8676276207,-0.50413441658,0.0495198890567,-0.865884423256,-0.328685194254,-0.962564647198,0.698687136173,0.00964347273111,-0.600994706154,-0.317004948854,0.521273204231,-0.150206867378,0.406931310027,0.0551473772323,0.987264574651,0.148253123624,-0.0169834465447
-0.26994857192,-0.0761095061898,-0.000191005499801,-1.91798043251,-0.118547335267,1.85732829571,-0.509083807468,0.0495198890567,-0.799778521061,-0.407335489988,-0.863753378391,0.625436306,0.047796163708,-0.589977681637,-0.278917849064,0.516522055086,-0.165758070108,0.41466147477,0.0556070831826,0.989155710046,0.135162168759,-0.0144921156808
-0.30160844326,-0.0989861637354,-0.0350348763168,-1.89626705647,-0.116249866784,1.83128917217,-0.518767952919,0.0495198890567,-0.591602981091,-0.576703131199,-0.646647751331,0.330311089754,0.0594588592649,-0.536394357681,-0.149722084403,0.501682683546,-0.199066488133,0.43502328915,0.0567665554217,0.99284731495,0.104783554272,-0.00722314575499
-0.319817632437,-0.124162711203,-0.0549282133579,-1.88829684258,-0.111576512456,1.81235778332,-0.522363841534,0.0495198890567,-0.358805477619,-0.70704382658,-0.398626595736,0.0924494713545,0.170545011759,-0.46243545413,-0.0435475409031,0.489054040108,-0.21590061175,0.450386321664,0.0564180378111,0.994717939857,0.0857495849286,-0.000483239775745
-0.329388856888,-0.158607929945,-0.0664995983243,-1.88871955872,-0.103183858097,1.79338169098,-0.522723913193,0.0495231747627,-0.0359891727567,-0.733021497726,-0.081271700561,-0.0901871398091,0.198434010148,-0.342687755823,0.00495023652911,0.476935301274,-0.222056462525,0.466224029618,0.0546334084039,0.995779272195,0.0733017020428,0.00810505581568
-0.329245865345,-0.171822994947,-0.0669338405132,-1.89080941677,-0.0994638651609,1.78776478767,-0.522678136826,0.0495231747627,0.0551168359816,-0.727423548698,0.0421262457967,-0.145878911018,0.225191012025,-0.275087177753,0.00837098900229,0.473947700794,-0.220393118414,0.471442313455,0.0538591756187,0.995852109244,0.0724200218784,0.0115371506688
-0.327403098345,-0.183924362063,-0.0653025209904,-1.89386725426,-0.0956754982471,1.78412842751,-0.522446334362,0.0495231747627,0.148242294788,-0.695953726768,0.147937461734,-0.197870358825,0.208103150129,-0.163399577141,0.0238183885813,0.472133302689,-0.217001283575,0.475778909706,0.053182906817,0.995769104088,0.0734264582439,0.0149674545217
-0.32303404808,-0.19755333662,-0.0607314109802,-1.89876544476,-0.0917088165879,1.78216552734,-0.521550774574,0.0495231747627,0.274098902941,-0.660080432892,0.291327029467,-0.283506929874,0.191744938493,-0.042717974633,0.0628204420209,0.471277509165,-0.210855853418,0.480149259118,0.0528836077676,0.995455043328,0.0768594041077,0.0191105321916
-0.31182667613,-0.216578140855,-0.0490466505289,-1.90924358368,-0.0864476561546,1.78232002258,-0.519443392754,0.0495231747627,0.433976024389,-0.555677354336,0.46951508522,-0.381100416183,0.155598059297,0.0298607721925,0.0679570958018,0.471998709105,-0.19727163906,0.484720577498,0.0528161139812,0.994543617306,0.0865525662034,0.0245378149456
-0.296022236347,-0.231071144342,-0.0311431083828,-1.92254602909,-0.0815858989954,1.78499829769,-0.516530930996,0.0495231747627,0.570037603378,-0.390538752079,0.64083468914,-0.467227369547,0.15556666255,0.167220667005,0.108455210924,0.475147907718,-0.178057847823,0.485796672892,0.0525296563862,0.993018492749,0.101925487321,0.0276785655717
-0.282554537058,-0.238524451852,-0.0159458070993,-1.93385183811,-0.0779451727867,1.79024362564,-0.513745129108,0.0495231747627,0.648887276649,-0.285461187363,0.736303269863,-0.56707239151,0.172910168767,0.292117089033,0.140188574791,0.478322505259,-0.163388902827,0.484549383266,0.0522577203736,0.991679182251,0.113985206455,0.0291359324282
-0.262516528368,-0.243368119001,0.0073493369855,-1.95158314705,-0.073300935328,1.80235028267,-0.50914901495,0.0495231747627,0.732533872128,-0.0606551319361,0.838279664516,-0.64631485939,0.157834947109,0.544180393219,0.152951255441,0.484023675238,-0.140708273657,0.479463905451,0.0517763415268,0.989309457281,0.133022444824,0.0298502439311
-0.249078854918,-0.243603542447,0.0229238998145,-1.96386539936,-0.0704352036119,1.81340742111,-0.506573736668,0.0495231747627,0.76922160387,0.0185517147183,0.89101678133,-0.70638102293,0.150154486299,0.672933638096,0.132727369666,0.488153255854,-0.125691792232,0.474613176268,0.0514795861285,0.987475758819,0.146084069048,0.0300153698103
-0.235927060246,-0.24229671061,0.0381643176079,-1.97652423382,-0.0678805336356,1.82599329948,-0.504263579845,0.0495231747627,0.772910356522,0.128073737025,0.889622032642,-0.75605815649,0.158156946301,0.810392081738,0.136174604297,0.492132152665,-0.111041008778,0.468929131094,0.0511980204175,0.985494757748,0.159007921617,0.0299219938501
-0.222647950053,-0.238505378366,0.0534276068211,-1.98976755142,-0.065130777657,1.84074282646,-0.502021253109,0.0495231747627,0.797519981861,0.288112789392,0.918393671513,-0.821701645851,0.168085306883,0.908137440681,0.121283225715,0.496266187407,-0.0963013130548,0.461891759214,0.0505879087989,0.983346811165,0.172055110457,0.0294440336492
