imanlab/tactile_prediction_flat_dataset/train/data_sample_2021-11-24-16-01-25/robot_state.csv
position_panda_joint1,position_panda_joint2,position_panda_joint3,position_panda_joint4,position_panda_joint5,position_panda_joint6,position_panda_joint7,position_panda_finger,velocity_panda_joint1,velocity_panda_joint2,velocity_panda_joint3,velocity_panda_joint4,velocity_panda_joint5,velocity_panda_joint6,velocity_panda_joint7,ee_state_position_x,ee_state_position_y,ee_state_position_z,ee_state_orientation_x,ee_state_orientation_y,ee_state_orientation_z,ee_state_orientation_w
0.0853761583567,-0.149235799909,-0.100236073136,-2.42628288269,6.52437811368e-05,2.29717159271,-0.763614416122,0.0786483064294,-0.00189503387082,0.0017492439365,9.55486830208e-05,-0.00031896456494,3.07101981889e-05,6.46371609037e-06,0.000432145810919,0.472590465342,-0.00531429019226,0.253784603734,-0.0032337067416,0.930497639663,0.366093552295,0.0117981513518
0.0853747725487,-0.149235144258,-0.100233688951,-2.42629027367,6.50532310829e-05,2.29717230797,-0.763614118099,0.0786483064294,0.00027058768319,-0.00228151772171,-0.000295048695989,0.000381964346161,-4.27995837526e-05,-0.00014518944954,4.26621081715e-05,0.472587591566,-0.00531379729146,0.253781141878,-0.00323483628764,0.930497519278,0.366093960502,0.0117946691576
0.0853767991066,-0.149236604571,-0.100234307349,-2.42628550529,6.57235214021e-05,2.29717087746,-0.763613522053,0.0786483064294,9.90686603473e-05,0.000251306191785,8.18684420665e-05,0.000472587591503,6.65081170155e-05,0.000116321301903,1.56526002684e-05,0.472589329568,-0.00531309217731,0.25378378103,-0.00323428579182,0.930497428809,0.36609411965,0.0117970173081
0.0853763520718,-0.149235531688,-0.10023354739,-2.42628502846,6.47217821097e-05,2.29717302322,-0.763614118099,0.0786483064294,0.00100914645009,1.18441830637e-05,-9.68472377281e-05,-0.000552362122107,-0.000100318851764,9.88534884527e-05,-0.000137846669531,0.472589904463,-0.00531308502403,0.253783686511,-0.00323353562969,0.930497144448,0.366094831543,0.0117975600779
0.0853748843074,-0.149236187339,-0.100233785808,-2.42628455162,6.50133151794e-05,2.29717302322,-0.763612687588,0.0786483064294,0.000107247804408,0.000299885665299,-9.19760896068e-06,-0.000158779032063,-0.000134200687171,1.83565080079e-05,-0.000277043582173,0.47259003495,-0.00531378312499,0.253784041577,-0.00323349316954,0.930497679759,0.3660934585,0.0117979580415
0.0853741690516,-0.149232834578,-0.100233651698,-2.42628574371,6.54736795695e-05,2.29717111588,-0.763612806797,0.0786483064294,0.000209013160202,-2.51010806096e-06,-0.000178833332029,0.00017936223594,-7.01610188116e-05,3.82738362532e-05,2.11067490454e-05,0.472588977281,-0.00531408632589,0.253781929244,-0.00323468222128,0.930497915867,0.366092937915,0.0117951638724
0.0853780731559,-0.149233847857,-0.100233003497,-2.42628765106,6.50014408166e-05,2.29717206955,-0.763614356518,0.0786483064294,0.000411801447626,-0.000165794437635,3.8747315557e-05,-9.78996540653e-05,-2.18898640014e-06,7.01125054547e-06,-9.65767248999e-05,0.472588518284,-0.00531196998394,0.253781662601,-0.00323452461739,0.930496741694,0.366095924999,0.0117951231663
0.0853759646416,-0.149237200618,-0.10023611784,-2.42628669739,6.56742122374e-05,2.29717254639,-0.763613700867,0.0786483064294,2.06479235203e-05,-0.000201750372071,-8.41966630105e-06,3.86061146855e-05,-3.91584653698e-05,-3.63965264114e-05,2.5366232876e-05,0.472589241891,-0.00531430547511,0.253783681158,-0.00323420554119,0.930497865373,0.366092993275,0.0117975595275
0.085376419127,-0.14923645556,-0.100233264267,-2.42628502846,6.46468688501e-05,2.29717302322,-0.763612389565,0.0786483064294,0.000107133411802,-0.0024415992666,0.000140247968375,0.000303253502352,-0.000351977243554,9.11163951969e-05,0.000194368869415,0.472589979401,-0.00531292598756,0.253784122916,-0.00323336965527,0.930497383004,0.366094213049,0.0117979828671
0.0853793844581,-0.149234756827,-0.100228883326,-2.42628765106,6.50740985293e-05,2.29717159271,-0.763612151146,0.0786483064294,0.000369895045878,0.000375896401238,-0.000228655684623,-0.000127697989228,-6.82985992171e-05,9.42019905779e-05,-0.000709352141712,0.472588519299,-0.00530945725317,0.253782074264,-0.00323426191985,0.930496164803,0.366097389543,0.0117952486197
0.0853783711791,-0.149234861135,-0.100230634212,-2.42629003525,6.50821093586e-05,2.29717278481,-0.763613462448,0.0786483064294,-0.00015146707301,0.000932303722948,0.00177017087117,7.36251968192e-05,-1.85823028005e-05,0.00536655029282,-0.000117409057566,0.472587807349,-0.0053107087209,0.253781177781,-0.00323457652274,0.930496430979,0.366096724949,0.0117947918913
0.0853740125895,-0.149233475327,-0.100237168372,-2.42628931999,6.48284403724e-05,2.29717111588,-0.763612389565,0.0786483064294,-0.00426489813253,0.000134760965011,-0.00019460740441,0.000552487676032,0.000183654192369,7.22795448382e-05,9.80677650659e-05,0.472587559871,-0.00531578289013,0.253780640371,-0.00323527433337,0.93049858836,0.366091267172,0.0117938053894
0.0853679999709,-0.149235576391,-0.100241705775,-2.42628669739,6.57436612528e-05,2.29717302322,-0.763612449169,0.0786483064294,0.000235293540754,-0.000329273228999,-0.000450657273177,-0.000208628829569,-6.74371258356e-05,4.22199191235e-05,0.000128709594719,0.472589140023,-0.00532062110925,0.253782923298,-0.00323469716515,0.930500579375,0.366086103879,0.0117971499907
0.0853720679879,-0.149236679077,-0.100235499442,-2.42628884315,6.5258005634e-05,2.29717254639,-0.763613700867,0.0786483064294,0.000348262750776,0.00042300822679,0.000578646140639,-0.000378759694286,-6.98266958352e-05,-3.90718851122e-05,0.000179640075658,0.472588316765,-0.00531588667993,0.253782500089,-0.00323447756204,0.930498427737,0.366091603688,0.0117962505342
0.0853782743216,-0.149235278368,-0.100229725242,-2.42628622055,6.58450444462e-05,2.29717254639,-0.763614058495,0.0786483064294,0.00243281736039,-2.95370318781e-05,-0.00281220697798,0.000627599074505,1.94392978301e-05,-2.11854967347e-05,-6.07401452726e-05,0.472589335251,-0.00531030222799,0.253783029231,-0.00323404263076,0.930496251197,0.366097124035,0.0117967340719
0.0853806436062,-0.149234384298,-0.100228488445,-2.42628502846,6.51269583614e-05,2.29717206955,-0.76361322403,0.0786483064294,0.000340101774782,0.000215005857171,0.000132760760607,-0.000706675986294,9.28042281885e-05,-5.173151294e-06,8.30408680486e-05,0.472589872271,-0.00530887751905,0.253783420086,-0.00323360288343,0.930495776358,0.366098331195,0.011796845899
0.085377573967,-0.149235501885,-0.100232973695,-2.42628836632,6.51311056572e-05,2.29717278481,-0.763611018658,0.0786483064294,-0.000119758544315,-0.00111442606431,0.00114661967382,-0.000362271763152,5.29580393049e-05,0.000100781333458,-0.000146233651321,0.472588513082,-0.00531216199304,0.253782193956,-0.0032343487095,0.930497443981,0.36609411561,0.0117959286706
0.0853753760457,-0.14923453331,-0.100233905017,-2.42628574371,6.52954477118e-05,2.29717206955,-0.763612747192,0.0786483064294,-0.000111222660053,0.000404932885431,0.000208304976695,-0.000359114608727,-9.81551929726e-05,3.22721934936e-05,0.000297638762277,0.472589323081,-0.00531364278185,0.253782814301,-0.00323422076088,0.930497717472,0.366093406498,0.0117963977331
0.0853773355484,-0.149235203862,-0.100235529244,-2.42628717422,6.54084215057e-05,2.29717183113,-0.763611972332,0.0786483064294,-0.000411238870583,-0.000268273201073,-0.000109400840302,-0.00035864248639,6.44672472845e-05,-0.000149960571434,0.000293305667583,0.472588746951,-0.0053134220157,0.253782470742,-0.0032346032107,0.930497808879,0.366093183752,0.0117959954134
0.0853750780225,-0.149235978723,-0.100234188139,-2.42628860474,6.49105713819e-05,2.29717159271,-0.763611197472,0.0786483064294,0.000531375408173,-0.000409370084526,-3.41894701705e-05,-0.000258358108113,-4.82021641801e-05,-6.87824967827e-06,-0.000105586041173,0.472588174318,-0.00531390674925,0.253782195393,-0.00323453827923,0.930498063436,0.366092553399,0.0117954963497
0.0853784531355,-0.149236872792,-0.100230045617,-2.42628717422,6.56312186038e-05,2.29717159271,-0.763612806797,0.0786483064294,0.000131619250169,-0.00124037428759,0.000856962695252,-3.99346117774e-06,-5.6244633015e-05,1.48755061673e-05,0.000202583352802,0.472588867462,-0.00531035974585,0.253783271367,-0.00323413114046,0.930496476781,0.366096554517,0.0117965905449
0.0853775218129,-0.149237334728,-0.10023290664,-2.42628645897,6.6250708187e-05,2.29717254639,-0.763612210751,0.0786483064294,0.00015881768195,0.000563376932405,-6.45362742944e-05,-0.000632602022961,5.20581379533e-05,-0.000203747797059,-8.62602028064e-05,0.472589377964,-0.00531204783942,0.253783871283,-0.0032341508054,0.930497338628,0.366094326865,0.0117977369539
0.0853763446212,-0.14923556149,-0.100231952965,-2.42628908157,6.52826929581e-05,2.29717206955,-0.76361232996,0.0786483064294,0.000215585081605,-0.000105871265987,-0.000169601727976,0.000405152299209,-5.03518422192e-05,-2.01246857614e-05,-0.000337678415235,0.47258807366,-0.00531224980729,0.253781850105,-0.00323458256233,0.93049726636,0.366094585338,0.0117952975272
0.0853765681386,-0.149235770106,-0.100230708718,-2.42628645897,6.51327791275e-05,2.29717230797,-0.76361143589,0.0786483064294,-0.000150532010593,-0.00270981225185,0.000569025345612,0.000430581480032,-8.65222027642e-05,6.28140332992e-05,-0.000182198084076,0.472589209748,-0.00531162435238,0.253783126417,-0.00323388340899,0.930497136177,0.366094878178,0.0117966698943
0.0853775814176,-0.149236604571,-0.100232362747,-2.42628693581,6.49865251034e-05,2.29717230797,-0.763611733913,0.0786483064294,0.000117868934467,0.000657531316392,-0.000406873819884,0.000580400112085,1.88905523828e-05,3.46324741258e-05,0.000455947534647,0.472589077872,-0.00531190306836,0.253783298794,-0.00323391593337,0.930497174551,0.366094774064,0.0117968651449
0.0853761062026,-0.149236723781,-0.100233562291,-2.42628765106,6.4708001446e-05,2.29717278481,-0.763611853123,0.0786483064294,0.000493697705679,0.000835269573145,0.000130810265546,-0.000384270504583,-0.00552316755056,0.000148091683513,-6.99888405506e-05,0.472588886269,-0.00531316871622,0.253783077186,-0.00323391572426,0.930497606969,0.366093677006,0.0117968027417
0.085378549993,-0.14923389256,-0.100227609277,-2.42628931999,6.49706635159e-05,2.29717254639,-0.763613820076,0.0786483064294,-2.83079571091e-05,-0.00255928840488,0.000199229005375,0.00353533099405,-1.42662374856e-05,3.09544775519e-05,4.69072147098e-05,0.472587964973,-0.00530922715534,0.253780895234,-0.00323438302623,0.930495779805,0.366098397454,0.0117943036602
0.0853804275393,-0.149234995246,-0.100229501724,-2.42628931999,6.55735639157e-05,2.29717159271,-0.763609468937,0.0786483064294,-0.000333963107551,0.00437987223268,3.03608176182e-05,0.000327902525896,-5.23364105902e-05,0.000133762892801,-0.000408709282055,0.472587982574,-0.00530920326148,0.253781389504,-0.00323471025398,0.930496579325,0.366096350232,0.0117946829674
0.0853781253099,-0.14923556149,-0.100231401622,-2.42628884315,6.49746289128e-05,2.29717278481,-0.763610064983,0.0786483064294,0.000261870358372,-0.00144230003934,-0.00419273599982,0.000211273509194,3.05690227833e-05,0.000146744496305,-0.000612410309259,0.472588337765,-0.00531119551174,0.25378202368,-0.00323428187268,0.930497216055,0.366094703648,0.0117956763118
0.085378266871,-0.149237781763,-0.100231684744,-2.42628765106,6.47400374874e-05,2.29717206955,-0.763610005379,0.0786483064294,0.000135772672365,-0.000513661769219,0.000475563778309,0.000288633367745,7.52441046643e-05,-6.85991763021e-05,-7.87782337284e-05,0.472588837684,-0.00531127855106,0.253783521695,-0.00323381232983,0.930497209792,0.36609468319,0.0117969339555
0.0853772759438,-0.149234697223,-0.100232042372,-2.42628574371,6.49534340482e-05,2.29717159271,-0.763610720634,0.0786483064294,5.74008045078e-05,0.000937482633162,-0.000136650240165,-0.000565752736293,-9.27346336539e-05,1.24331236293e-05,-0.000254901999142,0.472589253697,-0.00531192909243,0.253782859524,-0.00323406942635,0.930497364076,0.366094313759,0.0117961587265
0.0853757783771,-0.149234265089,-0.100231848657,-2.42629027367,6.53474780847e-05,2.29717159271,-0.763611137867,0.0786483064294,0.000551055010874,0.000859224877786,-0.000278279476333,-0.000556697428692,2.18651184696e-05,0.000228124961723,7.6883174188e-05,0.472587384097,-0.00531245535385,0.253780675284,-0.00323510335778,0.930497590026,0.366093802782,0.0117939099117
0.0853761658072,-0.149233654141,-0.100232645869,-2.42628836632,6.48553614155e-05,2.29717159271,-0.763609886169,0.0786483064294,-0.000114682763524,-0.00021824594296,-0.000376565672923,-0.000231844387599,9.07587018446e-05,2.66961469606e-05,-0.000387985346606,0.472588129594,-0.00531269541835,0.253781377137,-0.00323467810357,0.930497759874,0.366093352154,0.0117946140261
0.0853779241443,-0.149233102798,-0.100229345262,-2.42628574371,6.56542033539e-05,2.29717254639,-0.763610720634,0.0786483064294,-0.000138695701025,0.00026115323999,0.000337784469593,0.000102522259112,-1.79222097358e-05,9.49065281475e-07,0.000127149702166,0.472589356336,-0.00531033513461,0.253782216812,-0.00323418875736,0.930496846696,0.366095636962,0.0117958718997
0.0853806436062,-0.149235099554,-0.10022880137,-2.42628908157,6.50805523037e-05,2.29717135429,-0.763611793518,0.0786483064294,0.000197813453269,0.000588333874475,3.89829838241e-05,0.00184875784907,9.16886347113e-05,-9.24786145333e-05,-5.12761289428e-05,0.472587924089,-0.00530880356181,0.253781587891,-0.00323453569466,0.930495988914,0.366097853877,0.0117946371166
0.0853746160865,-0.149234905839,-0.100235983729,-2.42628765106,6.50739602861e-05,2.29717326164,-0.763610541821,0.0786483064294,-0.000131868611788,-0.000135228066938,0.000444207107648,-0.000113687958219,2.54868773482e-05,-4.11146575061e-05,3.96578361688e-05,0.472588823813,-0.005314951985,0.253782250134,-0.00323437013143,0.930498610159,0.366091140694,0.0117962592554
0.0853749066591,-0.149233952165,-0.100232705474,-2.42628979683,6.505989586e-05,2.29717278481,-0.763610839844,0.0786483064294,-0.000146663718624,-0.00031912594568,0.000603599357419,0.000153128727106,-9.7655421996e-05,2.65958442469e-05,8.08851764305e-05,0.472587800487,-0.0053133010318,0.253780840476,-0.00323478380864,0.930497921897,0.366092942689,0.011794512152
0.0853765979409,-0.149233683944,-0.100231558084,-2.42629051208,6.55249386909e-05,2.29717278481,-0.763610005379,0.0786483064294,-0.000394082802814,0.000256141502177,0.000239542525378,-4.3399992137e-05,-2.46467243414e-06,-4.33088862337e-05,0.000123010788229,0.472587507316,-0.00531192323691,0.253780409722,-0.00323506013192,0.930497616136,0.366093731068,0.0117940878302
0.0853770747781,-0.149234384298,-0.100227870047,-2.42628693581,6.4963605837e-05,2.29717278481,-0.763610601425,0.0786483064294,9.0172406999e-06,-8.23003501864e-05,-0.000309066817863,-0.000357658951543,-1.9364986656e-05,8.45917747938e-05,0.000185157856322,0.472589031588,-0.00531011511745,0.253782328736,-0.00323384422205,0.930496671251,0.366096084536,0.0117959151379
0.0853772759438,-0.149233728647,-0.100231319666,-2.42628455162,6.55375406495e-05,2.29717230797,-0.763610303402,0.0786483064294,-0.000605453213211,-0.00371998362243,-0.000947045395151,0.00189043174032,0.000115648581414,-2.17942942982e-05,-0.000399810407544,0.472589775451,-0.00531188805905,0.25378304428,-0.00323406067959,0.930497450717,0.366094078812,0.0117966183324
0.0853773728013,-0.149231150746,-0.100231125951,-2.42628908157,6.50749716442e-05,2.29717278481,-0.763610839844,0.0786483064294,-0.000302564614685,0.000233348488109,-0.000225760813919,0.000170368221006,-4.34709218098e-05,-2.86165977741e-05,-0.000137631126563,0.472587894444,-0.00531136966674,0.253779860879,-0.00323496822141,0.930497253015,0.366094674454,0.0117934784223
0.0853771269321,-0.149233132601,-0.100231871009,-2.42628955841,6.54272735119e-05,2.29717159271,-0.763609588146,0.0786483064294,0.000120390912343,1.30321332108e-05,-0.000545668008272,0.000125994934933,-5.75429567107e-06,-0.00533604715019,0.000111388420919,0.47258759069,-0.00531183610892,0.253780455608,-0.00323517590066,0.930497644836,0.366093669425,0.0117937052274
0.0853758081794,-0.149230137467,-0.100230365992,-2.42629027367,6.50145229883e-05,2.29717111588,-0.763610064983,0.0786483064294,0.000119712247397,6.22776788077e-05,-0.000221284091822,4.53235443274e-05,-4.79290865769e-05,-0.00020553394279,-5.24842971572e-06,0.472587105091,-0.00531163641321,0.253778955969,-0.00323539287557,0.930497440432,0.366094240262,0.0117920530081
0.0853785052896,-0.149234205484,-0.100229404867,-2.42628622055,6.55740659568e-05,2.29717302322,-0.763610064983,0.0786483064294,0.000113385896839,0.000153158136527,-0.000248096766882,0.00262845354155,-2.59140651906e-05,-4.38175175077e-06,0.000569440075196,0.472589356983,-0.00531008496522,0.253782570249,-0.00323401454878,0.930496855058,0.366095600607,0.0117963883546
0.0853780955076,-0.149232596159,-0.100231088698,-2.42628860474,6.64149192744e-05,2.29717373848,-0.763609170914,0.0786483064294,-1.67300495377e-05,0.00012390059419,-0.00382595136762,-7.74874279159e-05,9.25334461499e-05,-5.29730823473e-05,6.58076669424e-06,0.472588411033,-0.00531094251071,0.253780825439,-0.00323496756163,0.930497512114,0.366093966861,0.0117950009317
0.0853776782751,-0.149230822921,-0.100229658186,-2.42628931999,6.60286314087e-05,2.29717278481,-0.763610422611,0.0786483064294,0.000196869441424,0.000692084955517,0.00223983754404,-0.000180909803021,-7.64292053645e-05,2.01193188332e-06,8.87588612386e-06,0.472587781249,-0.00531052778638,0.25377959934,-0.00323529835192,0.930497071127,0.36609513975,0.0117932948663
0.0853786841035,-0.14923414588,-0.100229769945,-2.42628788948,6.50438669254e-05,2.29717326164,-0.7636089921,0.0786483064294,-0.000405814469559,0.000267260416877,-0.000210828773561,9.58524033194e-05,-8.68517417985e-06,0.00428669992834,-0.000264989823336,0.472588728003,-0.00531020390545,0.253781830349,-0.00323413992366,0.930497027229,0.36609518634,0.0117956297085
0.0853798761964,-0.149234771729,-0.100229419768,-2.42628598213,6.60064179101e-05,2.29717254639,-0.76360976696,0.0786483064294,-5.69976873521e-05,-0.00035147217568,0.00213301368058,-0.00014636029664,0.00483363075182,-1.51249814735e-05,0.000114216127258,0.472589402193,-0.00530939533841,0.253782897588,-0.00323414098069,0.930496709571,0.366095962198,0.0117966078056
0.0853800699115,-0.149232134223,-0.100229755044,-2.42628931999,6.45979234832e-05,2.29717087746,-0.763609111309,0.0786483064294,-0.000139606825542,0.000176438697963,0.000452153908554,-0.00048704945948,-0.000170078070369,-0.000177563517354,-0.000206225449801,0.472587482988,-0.00530945268244,0.25378004424,-0.00323505540653,0.930496686085,0.366096134403,0.0117928648169
0.0853760913014,-0.149232849479,-0.100233092904,-2.42628979683,6.49516150588e-05,2.29717278481,-0.76360887289,0.0786483064294,6.22172447038e-05,-0.000514368002769,0.000105826511572,-0.000209787656786,2.08726050914e-05,-3.88072003261e-05,-6.60361911287e-05,0.472587717163,-0.00531293654314,0.253780318961,-0.00323494722151,0.930498129053,0.366092432107,0.0117939723035
0.0853762403131,-0.149234905839,-0.100231952965,-2.42628741264,6.45452746539e-05,2.29717516899,-0.763609111309,0.0786483064294,-6.62929160171e-05,-0.000221410504309,-0.00200609723106,0.000121030636365,-2.74107369478e-05,0.00545605411753,1.37553779496e-05,0.472589367486,-0.00531241483703,0.253782556881,-0.0032335329223,0.930497776804,0.36609323976,0.0117970807584
0.0853782966733,-0.149233579636,-0.100230626762,-2.42628860474,6.40423313598e-05,2.29717445374,-0.763607084751,0.0786483064294,-0.000335445511155,-0.000377372518415,0.000264008849626,-0.000216399785131,-0.000129883163027,7.9389747043e-07,-6.50307702017e-05,0.472588644537,-0.00531088318867,0.253781353442,-0.00323384503202,0.930497486317,0.366094027708,0.011795455264
0.0853769853711,-0.149230182171,-0.100231438875,-2.42628598213,6.47625201964e-05,2.29717564583,-0.763608157635,0.0786483064294,0.000591533898842,9.31458816922e-06,0.000297530117678,-0.000160215451615,0.000102565070847,-0.00033733327291,0.000208974888665,0.472589683394,-0.00531185689904,0.253781008772,-0.00323389796801,0.930497769982,0.366093297855,0.0117957158718
0.0853778123856,-0.149229973555,-0.100230909884,-2.42628788948,6.56771153444e-05,2.29717540741,-0.763608515263,0.0786483064294,-0.000346882967278,0.000604289991315,-0.000230032295804,0.000112986723252,1.9675355361e-05,-8.35946266307e-05,5.8572000853e-05,0.472588853928,-0.00531110614233,0.253780058772,-0.00323462243236,0.930497573087,0.366093823377,0.0117947389138
0.0853769406676,-0.149232313037,-0.10023059696,-2.42628836632,6.45875916234e-05,2.29717469215,-0.763607501984,0.0786483064294,0.000130653221277,0.000123228383018,-0.000391393143218,-0.000427448918344,7.03970436007e-05,-2.87819857476e-05,0.000164393073646,0.472588686408,-0.00531146552865,0.253780885023,-0.00323411374173,0.930497723035,0.366093433577,0.0117951478205
0.0853790715337,-0.149233803153,-0.100230947137,-2.42628669739,6.45345717203e-05,2.29717469215,-0.763607442379,0.0786089077592,-0.000556848302949,2.38579991674e-06,0.000647855806164,-1.17775844046e-05,-0.000269817828666,-0.00247640791349,0.00238532433286,0.472589438906,-0.00531056077985,0.253782309116,-0.00323359611458,0.930497393531,0.366094231503,0.0117965178085
0.0853763818741,-0.149233549833,-0.100231721997,-2.42628788948,6.42323429929e-05,2.29717540741,-0.76360732317,0.0786089077592,-0.000295332836686,-0.00199723173864,-0.000155213740072,-0.000432992266724,1.41917798828e-05,2.72564211627e-05,0.00043421681039,0.472589191206,-0.00531232065043,0.253781682113,-0.00323367443796,0.930498056869,0.366092554231,0.0117962254432
0.0853767022491,-0.149231746793,-0.100231319666,-2.42628979683,6.35444012005e-05,2.29717469215,-0.763609409332,0.0786089077592,0.000316414108966,0.000507662247401,0.000319367041811,6.24439562671e-05,1.01279447335e-05,-9.0993984486e-05,2.92451459245e-05,0.472588101539,-0.00531217361225,0.253780264635,-0.00323411839109,0.930497531947,0.366093943308,0.0117944002046
0.0853775888681,-0.14923158288,-0.100231103599,-2.42628669739,6.47453343845e-05,2.29717421532,-0.763608336449,0.0786089077592,-0.000350958027411,-0.000356478034519,-0.000660467369016,-2.60498800344e-05,-6.22100415058e-05,0.000162852971698,3.98140582547e-05,0.472588722527,-0.00531071556578,0.253780500707,-0.00323428718859,0.930497216337,0.366094740929,0.0117944955115
0.0853752195835,-0.149234235287,-0.100232347846,-2.42628550529,6.48298155284e-05,2.29717564583,-0.763608694077,0.0786089077592,-0.000134252142743,-0.000368633161997,0.000245735427598,-0.000279864034383,-1.46707498061e-05,0.00138680532109,-0.000167186604813,0.472590180893,-0.00531307681301,0.253783118091,-0.00323329861813,0.93049814143,0.366092288256,0.0117979125133
0.0853772982955,-0.149233385921,-0.100232243538,-2.4262881279,6.51041627862e-05,2.29717469215,-0.763608574867,0.0684561878443,-0.000222761678742,0.00284992484376,-0.000370678782929,-0.000115972223284,-8.8677770691e-05,5.33595921297e-05,7.83221476013e-05,0.472588859718,-0.00531198795877,0.253781483736,-0.00323419963055,0.930497812535,0.366093181629,0.011795883571
0.085377715528,-0.149232208729,-0.100231461227,-2.42628836632,6.44579922664e-05,2.29717421532,-0.763608515263,0.0684561878443,8.82078238646e-05,-9.07285721041e-06,-0.000289547577268,-0.000135363952722,-3.24111897498e-05,-4.14728601754e-05,0.000266200950136,0.472588573119,-0.00531150535982,0.253780785921,-0.00323422878605,0.9304975389,0.366093909232,0.0117948791129
0.0853768214583,-0.14923171699,-0.100231133401,-2.42628622055,6.37987977825e-05,2.29717445374,-0.763607442379,0.0684561878443,-0.000241812493186,0.00031324007432,0.000364275882021,0.00311836623587,1.73970947799e-05,-9.82020574156e-05,0.00014889704471,0.472589448961,-0.00531187816555,0.253781517036,-0.00323359620395,0.93049775755,0.366093334367,0.0117956461058
0.0853784829378,-0.149233162403,-0.100229665637,-2.42628693581,6.43872044748e-05,2.29717493057,-0.763609051704,0.0684561878443,0.000134454938234,0.000140253701829,-0.000428942294093,-3.70876841771e-05,-9.78603347903e-05,-6.66625637677e-05,9.23401894397e-05,0.472589396644,-0.00531034601172,0.253781938738,-0.00323354522383,0.930496954685,0.366095355102,0.011796277541
0.0853763371706,-0.149229809642,-0.100231990218,-2.42628693581,6.36528493487e-05,2.29717445374,-0.76360732317,0.0684561878443,-0.000566422299016,3.82824400731e-05,-1.91077797354e-05,-5.24731985934e-05,0.000151094282046,-0.000189909362234,-0.000111112669401,0.472589066466,-0.00531238936945,0.253780393077,-0.0032339328995,0.930497976533,0.366092809197,0.0117945786471
0.0853768885136,-0.149231821299,-0.100231200457,-2.42628788948,6.39911886537e-05,2.29717612267,-0.76360720396,0.0674311295152,0.000536386214662,-0.00188545149285,-0.000262453395408,6.95208509569e-05,4.34615431004e-05,0.000980076380074,0.000137535724207,0.472589145963,-0.00531184323228,0.253780989318,-0.00323365477014,0.930497823067,0.366093164811,0.0117957241594
0.0853771269321,-0.149230822921,-0.100231140852,-2.42628765106,6.39380014036e-05,2.29717516899,-0.763606131077,0.0674311295152,-5.25662726432e-05,-0.00332619738765,-0.000118397649203,0.000347641267581,0.00010648828902,-0.000123287230963,-6.33755189483e-05,0.472588957852,-0.00531171445185,0.253780536404,-0.00323391802924,0.930497967025,0.366092823014,0.0117949039015
0.085378319025,-0.149232491851,-0.100230358541,-2.42628908157,6.40545622446e-05,2.29717612267,-0.763604998589,0.0674311295152,0.000150974155986,-0.000662222795654,-3.70053458028e-05,-3.30880975525e-05,9.41442413023e-05,-0.000143796161865,-8.71711818036e-05,0.472588730447,-0.00531075802799,0.253780788748,-0.00323377351158,0.930497819824,0.366093179944,0.0117954777501
0.0853794887662,-0.149231791496,-0.100230962038,-2.42628741264,6.37662524241e-05,2.29717588425,-0.763606786728,0.0674311295152,0.000293532153592,-0.00290214037523,-3.04817276628e-05,0.000200964408577,-0.00010450919217,5.80538107897e-06,0.0003204853856,0.472589299359,-0.0053105343442,0.2537811633,-0.00323353737114,0.930497353316,0.366094358067,0.0117957782434
0.0853779837489,-0.149231955409,-0.100229613483,-2.42628836632,6.4496343839e-05,2.29717588425,-0.763604640961,0.0674311295152,-0.000166441095644,-0.000264314498054,-0.000148598774103,-0.000262778950855,7.77630339144e-05,-8.44301539473e-05,0.000205188145628,0.472588812163,-0.00531066671352,0.253780616734,-0.00323392003985,0.930497863549,0.366093074724,0.0117952539556
0.085378497839,-0.149233385921,-0.100231193006,-2.42628884315,6.33682939224e-05,2.29717493057,-0.763605713844,0.0674311295152,0.000505324278492,-0.000103923310235,0.000356772914529,1.26827599161e-05,-0.00301497080363,-2.30013338296e-05,-0.000196583030629,0.47258863309,-0.00531111756216,0.253781197028,-0.00323363802712,0.930497723955,0.36609342769,0.0117953883534
0.0853755772114,-0.149230733514,-0.100231833756,-2.42628765106,6.4880689024e-05,2.29717636108,-0.763605594635,0.0674311295152,3.95939678128e-05,6.20255450485e-05,0.000421640463173,0.000196764347493,0.00604257220402,6.3558727561e-05,-1.0662499335e-05,0.472589198534,-0.00531266911704,0.253780601061,-0.00323407396115,0.930498581899,0.366091237587,0.011795562578
0.0853779315948,-0.149232938886,-0.100230850279,-2.42628765106,6.43782259431e-05,2.29717564583,-0.763606190681,0.0674311295152,-0.000246855983278,-0.000572194927372,0.000351444323314,2.6577463359e-05,0.000167796053574,-5.94378761889e-05,-0.000605041859671,0.472589235172,-0.00531114324775,0.253781578419,-0.00323366507609,0.930497793844,0.366093223906,0.0117961924664
0.0853765234351,-0.149233311415,-0.10023278743,-2.42628908157,6.3801977376e-05,2.29717493057,-0.763604462147,0.0674311295152,4.93779261888e-05,0.000273132522125,-0.000442063523224,-0.000293741642963,-4.48539103672e-05,0.000103245023638,-9.01322346181e-05,0.472588511094,-0.00531272904372,0.25378104749,-0.00323394556467,0.93049865505,0.366091059936,0.0117953408699
0.0853787586093,-0.149232551455,-0.100231841207,-2.42628788948,6.46913322271e-05,2.2971765995,-0.763606190681,0.0674311295152,-0.000315088866046,0.000449306331575,3.42959319823e-05,0.000123810954392,0.00498524866998,3.77187025151e-05,3.98217962356e-05,0.472589314111,-0.00531117483233,0.253781373524,-0.00323376402615,0.93049785859,0.366093051681,0.011796403033
0.0853774249554,-0.149234309793,-0.100230664015,-2.42628836632,6.43148159725e-05,2.29717469215,-0.763606131077,0.0674311295152,2.47022035182e-05,-0.00389442918822,0.000400588382035,5.59863947274e-05,-0.000134714704473,5.42577836313e-05,0.000274277554126,0.472588845769,-0.0053112824319,0.253781823443,-0.00323374870527,0.930497853353,0.366093076028,0.01179606477
0.0853769257665,-0.149233415723,-0.100230515003,-2.42628788948,6.37165285298e-05,2.29717540741,-0.763606250286,0.0674311295152,9.98853647616e-05,0.000926974578761,-0.000187623532838,-0.000875369471032,-5.81104868616e-05,-3.58911893272e-05,0.000173746797373,0.472589120536,-0.00531152834438,0.253781677614,-0.00323342772043,0.930497827196,0.366093144166,0.0117961013742
0.0853783339262,-0.149231806397,-0.100233070552,-2.42628884315,6.41805236228e-05,2.2971765995,-0.763606905937,0.0674311295152,0.000213566032471,0.000472365092719,-0.00202667969279,5.24467614014e-05,-7.62340496294e-05,-6.89475768922e-07,0.000210713682463,0.472588859493,-0.00531198291472,0.253780596451,-0.00323394607511,0.930497975115,0.366092780974,0.0117955628717
0.0853783488274,-0.149232298136,-0.1002311185,-2.42628884315,6.43239472993e-05,2.29717540741,-0.76360732317,0.0674311295152,-0.000122989615193,-0.000150668784045,0.000584649678785,-4.32003398601e-05,-6.45094041829e-05,-6.2954655732e-05,-0.000326678622514,0.472588811872,-0.0053117543758,0.253780687945,-0.00323364339679,0.930497677874,0.366093549393,0.011795244722
0.085377112031,-0.149232685566,-0.100230298936,-2.4262881279,6.4471285441e-05,2.29717516899,-0.763605117798,0.0549275390804,-0.000103791739093,-0.00244195782579,0.000403500365792,-0.000253788661212,-3.22700980178e-05,8.85620465851e-05,-7.24298224668e-05,0.472588918274,-0.00531126345091,0.253781210439,-0.0032338799309,0.930498056014,0.366092573776,0.0117956299553
0.0853772759438,-0.149234458804,-0.100229598582,-2.42628788948,6.44590181764e-05,2.29717612267,-0.763605952263,0.0549275390804,-0.000270426942734,0.00350697687827,-0.00334187271073,0.000665054074489,4.01375436923e-05,-5.45002467334e-06,0.000216697502765,0.472589366901,-0.00531086326354,0.253782241633,-0.00323334691309,0.93049773075,0.366093360591,0.0117970145337
0.0853771194816,-0.149230584502,-0.100232034922,-2.42628765106,6.40168291284e-05,2.29717612267,-0.76360565424,0.0549275390804,5.7841418311e-05,0.00210817134939,-0.000687274616212,-0.000340319209499,0.000516854808666,-1.06333236545e-05,0.000387573236367,0.472589140665,-0.00531212279562,0.253780506257,-0.00323386014255,0.930498225074,0.366092156118,0.0117952616042
0.0853756070137,-0.149232193828,-0.100231461227,-2.42628884315,6.3330604462e-05,2.29717612267,-0.763606369495,0.0549275390804,-1.37726055982e-06,5.36888655915e-05,5.27362790308e-05,-0.000322104868246,-0.000513692037202,-0.00016169322771,-0.000172370695509,0.472588780848,-0.0053126231668,0.253780744304,-0.00323356567653,0.930498180592,0.366092268118,0.0117953752266
0.0853777304292,-0.149234130979,-0.100229978561,-2.42628765106,6.37805860606e-05,2.29717469215,-0.763604998589,0.0548776350915,-0.000233429978834,-9.02567699086e-05,5.76366801397e-07,-0.000179446869879,-1.31953956952e-05,0.000176985617145,-0.000396323186578,0.472589125631,-0.00531089184171,0.253782056221,-0.00323341546593,0.930497816741,0.366093167124,0.0117962169324
0.0853781849146,-0.149231150746,-0.100230656564,-2.42628741264,6.41603110125e-05,2.29717707634,-0.76360720396,0.0548776350915,-7.36892761779e-05,0.000635084754322,-0.000958118587732,4.9730129831e-05,5.04239505972e-05,2.93402208627e-05,-0.00028349031345,0.472589503282,-0.00531097942058,0.253780974503,-0.00323351060169,0.930497506834,0.366093958579,0.0117960739635
0.0853760018945,-0.149231210351,-0.100229568779,-2.42628860474,6.48591303616e-05,2.29717540741,-0.763604640961,0.0548776350915,-7.04476551618e-05,0.000353978539351,0.00245291530155,-0.000313486292725,-1.71247666003e-05,-0.000283541361568,7.35423691367e-06,0.472588456782,-0.00531135049107,0.253780056964,-0.00323432358343,0.930498245233,0.366092123502,0.0117945565002
0.0853768363595,-0.149233490229,-0.100229650736,-2.42628359795,6.41226797597e-05,2.29717588425,-0.763606667519,0.0548776350915,4.72654537589e-05,-4.08373416576e-05,-2.61476561718e-05,-0.000238383901888,-4.94375526614e-05,-3.21004336001e-05,4.61486233689e-05,0.472591002819,-0.00531106164874,0.253783837674,-0.00323252387217,0.930497521272,0.366093849955,0.0117985763913
0.0853766277432,-0.149232745171,-0.10022996366,-2.4262843132,6.42717932351e-05,2.29717588425,-0.763604938984,0.0548776350915,-3.81803074561e-05,-0.000532208185177,0.00144187861588,-6.58619137539e-06,-9.19659651117e-05,0.000875502708368,-0.000176266665221,0.472590618056,-0.00531140931416,0.253782976203,-0.00323291951288,0.930498078659,0.366092457381,0.011797719141
0.0853774100542,-0.14923286438,-0.100231073797,-2.42628908157,6.45039399387e-05,2.29717564583,-0.763606131077,0.0548776350915,6.17940022494e-05,0.00243379804306,-2.60067663476e-05,-0.000356676930096,7.27641527192e-05,4.06076942454e-05,-0.000263775582425,0.472588647625,-0.00531146156905,0.253780915877,-0.00323400264725,0.930497960389,0.366092819333,0.0117955184456
0.0853756293654,-0.149231657386,-0.100231640041,-2.42628979683,6.36531694909e-05,2.29717588425,-0.763604164124,0.0548776350915,2.6597885153e-05,-0.000766557524912,0.0036859062966,-0.000210923986742,-4.79726877529e-05,2.44087786996e-05,7.80089540058e-05,0.472588301065,-0.00531265119466,0.253780051813,-0.00323400579062,0.930498657453,0.366091076764,0.011794612481
0.0853772163391,-0.149229764938,-0.100231640041,-2.42628765106,6.33498639218e-05,2.29717588425,-0.763604938984,0.0548776350915,-0.000142090415466,0.000741160241887,-0.00108448008541,0.000525072333403,-0.00487038400024,-9.7587624623e-05,2.92446056847e-05,0.472589026206,-0.00531197180727,0.253780100364,-0.00323376794575,0.930498194065,0.366092255309,0.011794654495
0.0853792801499,-0.149230897427,-0.100229226053,-2.42628741264,6.34310563328e-05,2.29717469215,-0.763606846333,0.0548776350915,-0.00017948380264,-0.000664915307425,0.00213245861232,0.00025846218341,-7.64325159253e-05,5.14427338203e-05,0.000372198439436,0.472588953343,-0.00530996890331,0.253780783382,-0.00323368211032,0.930497148945,0.366094908514,0.0117947763506
0.0853786394,-0.149231985211,-0.100228764117,-2.42628645897,6.41429651296e-05,2.2971765995,-0.763605415821,0.0548776350915,0.000423519406468,0.000315062701702,0.000197514469619,-5.85011875955e-05,-0.000981320859864,-4.52912172477e-05,-0.000117964715173,0.472589864919,-0.00530990804219,0.253781753327,-0.00323318454889,0.930497400144,0.366094214227,0.0117966451842
0.0853741914034,-0.149231657386,-0.100235961378,-2.42628908157,6.3956809754e-05,2.29717588425,-0.763605356216,0.0548776350915,0.000224488147069,0.00034336358658,-0.0003969669051,0.000203994975891,-0.000108432643174,-7.67673263908e-05,-0.000352473725798,0.472588555658,-0.00531527623471,0.253780336085,-0.0032342436104,0.930499517423,0.366088873506,0.0117950889446
0.0853741839528,-0.149232581258,-0.100235283375,-2.42628693581,6.4007974288e-05,2.29717540741,-0.763607978821,0.0548776350915,0.000208060111618,0.000343302468536,-1.32563291118e-05,-0.000392084795749,0.000108603540866,-8.56426481732e-07,0.000213531253394,0.472589395804,-0.00531498304209,0.253781670655,-0.00323375356373,0.930498911319,0.366090379372,0.0117962997598
0.0853764787316,-0.149230763316,-0.100230649114,-2.42628741264,6.40784273855e-05,2.29717516899,-0.763604044914,0.0548776350915,0.000133260095026,-0.000223777446081,-0.000233316401136,7.33966880944e-05,-5.93831427977e-05,-0.000120904216601,0.000398476520786,0.472589049265,-0.00531178524676,0.253780616281,-0.00323390679273,0.930498394739,0.366091733158,0.0117949918476
0.08537979424,-0.14923132956,-0.100225478411,-2.42628693581,6.40943399048e-05,2.29717516899,-0.76360476017,0.0548776350915,2.92828572128e-05,0.000463830132503,-4.95270251122e-05,-6.27843182883e-05,3.32385025104e-05,5.9300869907e-05,-8.4400679043e-05,0.472589336491,-0.00530786284582,0.25378112645,-0.0032334183214,0.930496718774,0.366095985273,0.0117953638433
0.085379242897,-0.14923144877,-0.10022777319,-2.42628860474,6.45832114969e-05,2.2971765995,-0.763606011868,0.0548776350915,0.000143065961311,0.000175014967681,0.000214704079553,0.000131641019834,0.00391513062641,-2.04757689062e-05,0.000142532240716,0.472588966097,-0.00530910276955,0.253780569121,-0.00323375692702,0.930497063147,0.366095104714,0.0117954346537
0.0853788927197,-0.149233177304,-0.100232250988,-2.42628669739,6.39843274257e-05,2.29717612267,-0.7636038661,0.0548782907426,-0.000189072758076,-2.40709396166e-05,0.00241639348678,0.000220633184654,-2.74252561212e-05,-7.72869243519e-05,0.000291443953756,0.47258946642,-0.00531029705328,0.25378204015,-0.0032333217547,0.930497622772,0.366093639602,0.0117968798236
0.085374802351,-0.149233594537,-0.10023354739,-2.42628979683,6.40987636871e-05,2.29717516899,-0.763606011868,0.0548782907426,-0.000169943494257,0.000518934975844,-0.00032094900962,-2.43599133682e-05,-8.8303386292e-05,-3.7564743252e-05,-4.92398066854e-05,0.472588282918,-0.00531384790726,0.253780884888,-0.00323412974527,0.930498858571,0.366090541678,0.011795320273
0.0853751823306,-0.149231374264,-0.100235395133,-2.42628717422,6.39833378955e-05,2.29717636108,-0.763606011868,0.0548782907426,-0.000453950662632,0.000224389033974,2.26438023674e-05,0.000399479817133,-3.18895145028e-05,3.53923205694e-05,7.82045390224e-05,0.472589415978,-0.00531457417671,0.253781085654,-0.00323380643669,0.930499110939,0.366089879684,0.0117960466168
0.0853812247515,-0.149226784706,-0.100225657225,-2.4262919426,6.43500679871e-05,2.29717445374,-0.763604998589,0.0548782907426,-7.65709046391e-05,-0.000600986764766,-3.62554092135e-05,0.000311574229272,0.000222959773964,3.44026702805e-05,0.000353726034518,0.472586807342,-0.00530720854395,0.253776730112,-0.00323525935771,0.930496521051,0.366096625758,0.0117905768528
0.0853842645884,-0.149230614305,-0.100224524736,-2.42628741264,6.45665641059e-05,2.29717636108,-0.763606369495,0.0548782907426,-0.000105774575786,0.000245968753006,0.000211007980397,0.000172452797415,-0.00205279141665,0.000125952559756,-0.000127490377054,0.472589376784,-0.00530527029852,0.253780698395,-0.00323350451084,0.930495491043,0.366099104081,0.0117953920413
0.0853816866875,-0.149231374264,-0.100226908922,-2.42628717422,6.38282945147e-05,2.2971765995,-0.763606369495,0.0548782907426,-3.6711080611e-05,0.000461714429548,-0.000579800922424,-3.15267461701e-05,2.62134562945e-05,8.86807083589e-06,0.000184444608749,0.472589344261,-0.00530854482668,0.253780986256,-0.00323313307758,0.930496716447,0.366095973726,0.0117959839459
0.0853691771626,-0.149227097631,-0.100237168372,-2.4262881279,6.40415164526e-05,2.29717636108,-0.763606786728,0.0548782907426,0.0001880050404,-8.77552956808e-05,0.000137028866448,-0.000495366984978,-3.65135906577e-06,1.38903951665e-05,-0.000160497962497,0.47258865035,-0.00531823129763,0.253778644484,-0.00323469380467,0.930500424565,0.36608661127,0.0117936157861
0.0853766947985,-0.149225786328,-0.100231677294,-2.42629361153,6.36681070318e-05,2.29717540741,-0.763605475426,0.0548789463937,0.000418675597757,-0.000215273001231,0.000360951438779,-5.90417803323e-05,3.07656482619e-05,4.9239875807e-05,0.000209153004107,0.472586199019,-0.00531215463366,0.253775575999,-0.00323566305797,0.930498279708,0.366092176702,0.0117898171089
0.0853829756379,-0.149225383997,-0.100225545466,-2.42629218102,6.43279054202e-05,2.29717707634,-0.763606369495,0.0548789463937,-0.000138413335662,9.67173546087e-05,3.46550259565e-05,-0.000150758656673,-0.000375325995265,-0.000109135064122,-7.64535798226e-05,0.472587180122,-0.00530635056107,0.253776209406,-0.00323499459739,0.930495927729,0.366098122415,0.0117910024559
0.0853782594204,-0.149227440357,-0.10023124516,-2.42628908157,6.41185033601e-05,2.29717588425,-0.7636064291,0.0548789463937,-0.00256840372458,-0.000294549390674,-0.000332576833898,-4.33009954577e-05,-2.18836612476e-05,-1.14657641461e-05,-0.000320749764796,0.472588274164,-0.00531121649385,0.253778384559,-0.00323461114403,0.930497767876,0.366093385094,0.0117929785829
0.0853753238916,-0.149227410555,-0.100234791636,-2.42628788948,6.41857914161e-05,2.29717493057,-0.763604044914,0.0548782907426,-0.000241999296122,-0.000152751032147,0.000572146731429,-9.32890325203e-05,7.97586835688e-05,-5.60619519092e-05,-0.00014193172683,0.472588508372,-0.00531422290166,0.253778780472,-0.00323482249151,0.93049939033,0.366089253381,0.0117931658866
0.0853750109673,-0.149225398898,-0.100235104561,-2.42629265785,6.4245374233e-05,2.29717683792,-0.763604700565,0.0548782907426,-7.21459364286e-05,0.00011708628881,-6.28792258794e-05,0.00045498504187,-0.000680123222992,3.01833297272e-05,3.92534930143e-05,0.472586834732,-0.00531447147029,0.253775920784,-0.00323568726958,0.930499412319,0.366089262984,0.0117908953579
0.0853768661618,-0.149226605892,-0.100230976939,-2.42629146576,6.40508078504e-05,2.29717564583,-0.763604640961,0.0548782907426,0.00011151072249,-0.000562804867513,-0.000513607345056,0.00022183888359,-3.5532988818e-07,8.72255404829e-05,-0.000274576508673,0.472587187879,-0.00531173568394,0.253776928121,-0.00323518829795,0.930498307022,0.366092062132,0.0117913490847
0.085381038487,-0.149226143956,-0.100227169693,-2.42628717422,6.41588703729e-05,2.29717564583,-0.763604104519,0.0548782907426,-3.64065308531e-05,-0.000310500821797,0.000224768591579,-5.15071042173e-05,-0.000132935674628,0.00010102646047,-0.000333717063768,0.4725889306,-0.00530807282711,0.253778615312,-0.00323425755211,0.930496954928,0.366095452692,0.0117930339842
0.0853801071644,-0.149226635695,-0.100228130817,-2.42628908157,6.41331207589e-05,2.29717612267,-0.763605594635,0.0548782907426,-3.74951850972e-05,0.00142085144762,-0.000296946731396,0.000324304448441,-2.22105500143e-05,-0.00222944188863,2.89548042929e-05,0.472588291752,-0.00530892931446,0.253778049152,-0.00323449801645,0.930497024984,0.366095285521,0.0117926299838
0.0853784009814,-0.149227187037,-0.100233308971,-2.42628908157,6.46261250949e-05,2.29717516899,-0.7636064291,0.0548782907426,-7.93690560386e-05,0.00024922148441,-0.00108734588139,0.000205337186344,7.74775071477e-06,-0.000173284250195,-0.000243563423282,0.472588087381,-0.00531203502304,0.253778186244,-0.00323509622848,0.93049817869,0.366092347402,0.0117926445172
0.0853749886155,-0.149227544665,-0.100235290825,-2.42628860474,6.40085418127e-05,2.29717683792,-0.763606011868,0.0548782907426,-0.000222223592573,-2.7469743145e-05,-4.77845569549e-05,0.000150831721839,0.000306255329633,4.0378949052e-05,-0.000161629795912,0.472588639255,-0.00531462624018,0.253778702699,-0.00323453449879,0.930499156538,0.366089830639,0.0117937718583
0.0853795930743,-0.149226263165,-0.100231409073,-2.42629003525,6.39355494059e-05,2.29717588425,-0.763605237007,0.0548782907426,7.38176458981e-05,-5.82930661039e-05,0.000190312974155,0.000531239260454,0.000106367544504,-4.84764386783e-05,-0.000151785905473,0.472587801913,-0.00531067660705,0.253777411945,-0.00323492146737,0.930497760163,0.366093435176,0.0117919472182
0.0853786990047,-0.149225741625,-0.10022829473,-2.42628741264,6.37445773464e-05,2.29717516899,-0.763605475426,0.0548782907426,0.000139268173371,0.00014457704674,-0.000366147200111,-0.00028079256299,-0.00552473356947,0.00012687544222,3.36070115736e-05,0.472588678929,-0.0053097323725,0.253778269438,-0.00323435730329,0.93049729161,0.366094613798,0.0117924837029
0.0853799805045,-0.149227097631,-0.100229620934,-2.42628836632,6.37519769953e-05,2.29717540741,-0.763604819775,0.0548782907426,0.000218089859118,0.000142083750688,-0.000394082540879,0.000179707800271,-5.21345973539e-05,-7.16964786989e-05,4.31904045399e-05,0.472588451147,-0.00530971056817,0.253778502883,-0.0032344000772,0.930497411864,0.366094296596,0.0117928306936
0.0853773355484,-0.149227246642,-0.100230827928,-2.42629027367,6.45659019938e-05,2.29717516899,-0.763605594635,0.0548782907426,9.14819320315e-05,-0.000332960335072,0.000547018309589,9.95617447188e-05,0.000141449068906,6.79431541357e-05,0.000286898488412,0.472587620459,-0.00531139972257,0.253777709195,-0.00323512890557,0.930498074081,0.366092631929,0.0117920568401
0.0853763520718,-0.1492267102,-0.100232452154,-2.42628979683,6.39452118776e-05,2.29717564583,-0.763604938984,0.0548782907426,0.000194750537048,-0.000729496998247,0.000212039420148,0.000337515870342,-7.98668861535e-06,5.45276343473e-05,0.000117708310427,0.472588240113,-0.00531208049368,0.253778526385,-0.00323456089145,0.930498328563,0.366091959143,0.0117930188301
0.0853770524263,-0.149225801229,-0.100231081247,-2.42628717422,6.44181709504e-05,2.29717731476,-0.76360398531,0.0548782907426,-0.000225112453336,0.000605871318839,0.000145340120071,6.25713655609e-05,-9.11738607101e-05,-9.50093090069e-05,0.000160957832122,0.472589212718,-0.00531150134369,0.253778805926,-0.00323432127622,0.930498340644,0.366091901274,0.011793927708
0.085378780961,-0.149226635695,-0.100230030715,-2.42629003525,6.44564352115e-05,2.29717564583,-0.76360476017,0.0548782907426,-0.000270731368801,-0.00036114564864,0.000374413793907,6.2033701397e-05,0.00238458765671,8.87622445589e-05,-0.000277722341707,0.472587784596,-0.00531037403841,0.253777575363,-0.00323500355516,0.930497806621,0.366093312809,0.0117920577458
0.0853789672256,-0.149225458503,-0.100229158998,-2.42628931999,6.42938830424e-05,2.29717683792,-0.763603568077,0.0548782907426,0.000339859630913,0.00212643179111,0.000490838719998,0.000133645749884,4.47374077339e-05,8.59414212755e-05,-0.000178162954398,0.472588245665,-0.00530992775839,0.253777450265,-0.00323470435042,0.930497815043,0.36609328524,0.0117923311533
0.0853783786297,-0.149224996567,-0.100231319666,-2.42629265785,6.4879823185e-05,2.29716968536,-0.763604640961,0.0548796020448,-0.000442256947281,-0.000130772750708,-0.000264613161562,-0.00101444660686,4.43964527221e-05,-2.05984670174e-05,-0.000136458911584,0.47258529183,-0.00531106023237,0.253775098606,-0.00323709473323,0.930498221824,0.366092389301,0.0117873907212
0.0853782519698,-0.149226397276,-0.10023034364,-2.42629742622,6.29633577773e-05,2.29718470573,-0.763603925705,0.0548796020448,-0.000490103207994,-0.000334860058501,0.000191862738575,0.00102042977232,-0.000254021288129,0.00125594902784,-0.00297529902309,0.472584214739,-0.0053115020589,0.253773960052,-0.00323650069618,0.930498372922,0.366091997338,0.0117877997358
0.0853808522224,-0.149227395654,-0.100227959454,-2.42626595497,6.23626619927e-05,2.29718399048,-0.763604104519,0.0548796020448,0.000394192291424,0.000554597820155,0.000388445798308,0.000580155989155,-6.04961642239e-05,-0.00168270349968,6.54513205518e-05,0.472599402298,-0.00530899369038,0.25378925385,-0.00322789897473,0.930496819835,0.36609539952,0.0118070775616
0.0853774920106,-0.149226680398,-0.100229024887,-2.42630457878,6.18446065346e-05,2.29717636108,-0.763603329659,0.0548796020448,0.000128054816741,-6.20788996457e-05,-9.96723028948e-05,-0.003786964342,-0.000526724907104,0.000245077477302,-0.000187905345229,0.472582065962,-0.00531062719555,0.253771299025,-0.00323663894977,0.930497858486,0.366093384431,0.0117852909407
0.0853782817721,-0.1492267102,-0.100229680538,-2.42628717422,6.27218760201e-05,2.29717564583,-0.76360309124,0.0548796020448,-0.000436474452727,6.95984954291e-06,0.00376385473646,-0.000869059527759,-2.47035495704e-05,-0.000140513046063,0.000275962433079,0.47258894287,-0.00531066698715,0.253778862405,-0.00323382804923,0.930497926625,0.366092982566,0.0117931633718
0.0853813439608,-0.149225875735,-0.100228056312,-2.42630529404,6.20804421487e-05,2.29717254639,-0.763603627682,0.0548796020448,-1.1269657989e-05,0.00164491019677,0.000286119087832,-0.00414270581678,7.06010687281e-05,-0.000494384847116,1.52428065121e-05,0.472580911833,-0.00530832087303,0.253770262599,-0.00323765230861,0.930496970477,0.36609571221,0.0117828148736
0.0853791981936,-0.149226740003,-0.100229747593,-2.42629313469,6.21693325229e-05,2.29717421532,-0.763603389263,0.0548796020448,0.000343601772329,-0.00331271858886,0.000332539872034,0.000782478717156,-7.72401836002e-06,-6.70325277952e-07,0.000359743396984,0.472586231115,-0.00531024424391,0.253776134138,-0.00323503910135,0.930497674528,0.366093724785,0.0117896809815
0.0853804275393,-0.149228855968,-0.100227810442,-2.42629098892,6.20132923359e-05,2.29717302322,-0.763603925705,0.0548796020448,5.43949909115e-06,-0.00254584429786,2.48322066909e-05,-0.000312609830871,-0.000115740345791,2.68726598733e-05,0.000162135256687,0.472587024145,-0.00530880351101,0.253777971726,-0.00323437924623,0.930496966883,0.366095484528,0.0117910688549
0.0853774622083,-0.149225667119,-0.100230425596,-2.42629623413,6.17603727733e-05,2.29717040062,-0.763602852821,0.0548796020448,-0.000351731316186,-0.000949469977058,5.31685000169e-05,-0.0024861546699,1.11938497867e-05,0.000140965625178,-0.000341740611475,0.4725840521,-0.0053113697669,0.253773915739,-0.0032363966738,0.930498193164,0.366092515414,0.0117859279263
0.085379563272,-0.149227842689,-0.100231923163,-2.42629861832,6.21329745627e-05,2.29717278481,-0.763602554798,0.0449435785413,0.000101961253677,-0.000390813773265,-0.00232439138927,6.38883939246e-05,-7.0380338002e-05,8.90942683327e-05,-0.000220547808567,0.472583830931,-0.00531086089037,0.253774210708,-0.00323630000637,0.930498121256,0.366092662402,0.011787065833
0.0853801071644,-0.149225920439,-0.100227370858,-2.42629504204,6.23576488579e-05,2.29717183113,-0.763603448868,0.0449435785413,-7.41365656722e-05,-1.23234995044e-05,-0.000572305580135,3.10382574753e-06,-8.09974226286e-05,7.93849631009e-06,-0.000226280229981,0.472584898254,-0.00530868412977,0.253774710265,-0.00323588472116,0.930497107975,0.36609523483,0.0117872736394
0.0853792801499,-0.149225637317,-0.100229516625,-2.42629694939,6.20269347564e-05,2.29717183113,-0.763603448868,0.0449435785413,-0.000283010595012,-0.000363369937986,8.5355801275e-05,6.1471349909e-05,4.17145156462e-06,0.000113264570246,-0.000352762552211,0.472584087359,-0.00531006628157,0.253773727129,-0.00323630635,0.93049761621,0.366093971987,0.0117862593183
0.0853781923652,-0.149226039648,-0.100234180689,-2.42629528046,6.26328619546e-05,2.29717326164,-0.763601779938,0.0449435785413,0.000143854049384,0.00208450923674,-9.63879429037e-05,0.000884556211531,-7.5287236541e-05,-3.4308739032e-06,-7.85649026511e-05,0.472585069739,-0.0053126651788,0.253774748168,-0.00323618204196,0.930499023426,0.366090337841,0.0117880767537
0.0853790193796,-0.149226754904,-0.100229747593,-2.42629766464,6.26614928478e-05,2.29717254639,-0.763600885868,0.0448910482228,9.01116654859e-05,-0.000488427525852,0.00304887886159,7.64710712247e-05,-0.000152840264491,8.93097312655e-05,-9.91556735244e-05,0.472584040189,-0.00531021490347,0.253774005157,-0.00323639748707,0.930498242808,0.366092358395,0.0117868855828
0.0853815749288,-0.149226799607,-0.100230403244,-2.42629623413,6.22887091595e-05,2.29717111588,-0.763603150845,0.0448910482228,0.000264855392743,0.00376741588116,0.000283523608232,0.00103156198747,-1.12096449811e-05,2.50475586654e-05,0.000283983710688,0.472584319606,-0.00530935584277,0.25377451541,-0.00323630533861,0.93049743486,0.366094413299,0.0117868690908
0.0853812769055,-0.149226799607,-0.100227177143,-2.42629480362,6.20557329967e-05,2.29717278481,-0.763605177402,0.0448910482228,0.00221700896509,4.20040923927e-05,-0.000127358100144,-0.000396753661335,-9.04295011424e-05,1.49248853631e-05,5.20943376614e-06,0.47258527807,-0.00530807595268,0.253775316977,-0.00323541177983,0.930496497869,0.366096759858,0.0117882004687
0.0853830054402,-0.149226948619,-0.100226767361,-2.42629814148,6.13872834947e-05,2.29717254639,-0.76360476017,0.0448910482228,0.000179874157766,0.00307024014182,0.000156029243954,-3.77993710572e-05,4.17063383793e-05,0.000122584446217,0.00013465914526,0.472583900868,-0.00530710042746,0.253773905759,-0.00323582021331,0.93049611544,0.366097782668,0.011786510457
0.0853787213564,-0.149228408933,-0.100230783224,-2.42629694939,6.26654727967e-05,2.29717111588,-0.763602912426,0.0448910482228,-0.00260827131569,-0.00251998216845,-0.000320519902743,-0.000697834067978,-6.72579481034e-05,7.55505925554e-06,-3.07490081468e-05,0.472584140813,-0.00531081835626,0.253774957386,-0.0032363524435,0.930498106463,0.366092689579,0.011787375174
0.0853777900338,-0.14922863245,-0.100231736898,-2.42629790306,6.26341934549e-05,2.29717159271,-0.76360219717,0.0448910482228,-0.000304037908791,-0.000459253555164,-0.00096267455956,0.000143218116136,7.82560382504e-05,-2.59665539488e-05,0.000269385578576,0.472583865948,-0.00531168533512,0.253774682543,-0.00323646106036,0.930498576813,0.366091496212,0.011787279369
0.0853790491819,-0.149226471782,-0.100229658186,-2.42629504204,6.22019069851e-05,2.29717254639,-0.763602018356,0.0448910482228,0.000323839078192,-0.000153585584485,-0.00124616746325,-0.000144723962876,-1.38950526889e-05,-1.35917598527e-05,-0.000247232819675,0.47258507699,-0.00531024201008,0.25377501983,-0.00323576782796,0.930497953263,0.366093067287,0.0117878984277
0.0853803902864,-0.149224981666,-0.100229680538,-2.4262983799,6.21375875198e-05,2.29717159271,-0.763603210449,0.0448910482228,0.000262402492808,-0.00174983101897,0.000544301234186,-0.000281616521534,-9.81590201263e-05,0.000195934073417,2.28993144447e-06,0.472583411153,-0.00530959081131,0.253772769616,-0.00323677353917,0.930497508495,0.366094276054,0.0117851901206
0.0853815749288,-0.149226605892,-0.100229471922,-2.42629623413,6.27061526757e-05,2.29717230797,-0.763603270054,0.0448910482228,0.00137757242192,0.000196720153326,-0.000162178796018,0.000114779635624,5.62177956454e-06,5.73025427002e-05,-7.06291684764e-05,0.472584569687,-0.00530889411689,0.253774541181,-0.00323619146641,0.930497291147,0.366094763596,0.0117873654322
0.0853793472052,-0.149227336049,-0.100230969489,-2.42629694939,6.2751409132e-05,2.29717159271,-0.763603925705,0.0449068062007,0.00024012826907,0.00308511359617,0.000406112550991,-0.000161144052981,-5.32215744897e-05,-2.16156931856e-05,0.000108508691483,0.472584130419,-0.00531042474821,0.253774191153,-0.00323631892688,0.930497803687,0.366093475032,0.0117868908832
0.0853781029582,-0.149227976799,-0.100230172276,-2.42629742622,6.23412415734e-05,2.29717254639,-0.763603806496,0.0449068062007,-0.00408906210214,4.00182507292e-05,0.000149723957293,-2.66804727289e-05,-4.71224848297e-06,5.75470112381e-05,-7.97151515144e-05,0.472584224935,-0.00531086980232,0.253774680928,-0.00323607108261,0.930497906976,0.3660931934,0.0117875522492
0.0853793025017,-0.149226546288,-0.100229486823,-2.4262983799,6.22574225417e-05,2.29717326164,-0.76360231638,0.0449068062007,-3.33764874085e-05,-5.15127030667e-05,0.000178656016942,-0.000258130865404,-5.95030360273e-05,-6.32839946775e-05,0.000347093475284,0.472583892789,-0.00531000073531,0.253773661028,-0.00323626208597,0.930497835694,0.366093399532,0.0117867247105
0.0853805243969,-0.149227619171,-0.100230030715,-2.42629766464,6.2805323978e-05,2.29717206955,-0.763602972031,0.0449068062007,0.00027804117417,0.000402248435421,0.000424793921411,2.01692528208e-05,-6.32527371636e-05,3.84746344935e-05,1.10636347017e-06,0.472584011265,-0.00530960958369,0.253774366053,-0.00323642992136,0.930497649881,0.366093858029,0.0117871067206
0.0853802785277,-0.149228513241,-0.100229814649,-2.42629647255,6.22899533482e-05,2.29717206955,-0.763603031635,0.0449068062007,0.000102602432889,0.000262110348558,0.000158666167408,-0.000152305292431,3.55079282599e-05,-0.000105110586446,-7.90227750258e-06,0.472584356844,-0.00530950710016,0.253775010119,-0.00323610124913,0.930497577699,0.366094024123,0.0117877364577
0.0853793174028,-0.149228036404,-0.10023085773,-2.42629694939,6.17631521891e-05,2.29717206955,-0.763602972031,0.0449068062007,5.38779459021e-05,-0.000438802555436,0.000484260206576,0.000159617280588,3.80413257517e-05,6.23957166681e-05,6.37234261376e-05,0.47258431995,-0.00531067227632,0.253774868164,-0.00323591728895,0.930497893008,0.366093231562,0.0117875118586
0.0853803083301,-0.149225652218,-0.100230537355,-2.42629694939,6.26598048257e-05,2.29717326164,-0.763604879379,0.0449068062007,0.000109589665954,0.0038172272034,-0.00368382665329,-6.93265537848e-05,-3.94257804146e-05,4.15133508795e-05,-9.85709048109e-05,0.472584399257,-0.00530998496072,0.253773860126,-0.00323631889386,0.930497420631,0.366094443804,0.0117870412124
0.0853785127401,-0.149225741625,-0.100230187178,-2.42629671097,6.2735445681e-05,2.29717326164,-0.763603925705,0.0449068062007,0.000168392696651,-0.000210540834814,-1.62431260833e-05,-4.30686304753e-05,-0.000106781582872,-4.05225036957e-05,0.0001017175382,0.472584495362,-0.00531066829983,0.253774009038,-0.00323625954801,0.930497868158,0.366093301792,0.0117871983678
0.0853798910975,-0.14922735095,-0.100228764117,-2.42629623413,6.22767038294e-05,2.29717278481,-0.76360398531,0.0449068062007,0.000234367762459,-0.000139319701702,-0.000441622338258,-6.3462088292e-05,0.00015768953017,-0.000132062501507,-3.75644594897e-05,0.47258472694,-0.00530940964713,0.253774939757,-0.00323578412355,0.930497283937,0.366094769265,0.0117878703994
0.0853788405657,-0.149227127433,-0.100228138268,-2.42629575729,6.28397901892e-05,2.29717254639,-0.763603210449,0.0449068062007,-0.000156104579219,-0.000309187424136,-1.68569004018e-05,0.000564585905522,1.83781685337e-05,0.000144797813846,0.000321344268741,0.472584849225,-0.00530956793142,0.253775026476,-0.00323592524646,0.930497571726,0.366094034341,0.0117879389432
0.0853782072663,-0.149227201939,-0.100229099393,-2.42629742622,6.26968467259e-05,2.29717278481,-0.763603508472,0.0449068062007,-0.000291523174383,0.000495534040965,0.00280696083792,-0.000138902280014,-0.000170012193848,-9.95628288365e-05,0.00024583589402,0.47258422334,-0.00531030055483,0.253774346242,-0.00323619305645,0.930497794153,0.366093486685,0.0117873161371
0.085377573967,-0.149226740003,-0.100232549012,-2.42629790306,6.26883556833e-05,2.29717230797,-0.763605177402,0.0449068062007,7.01229728293e-05,-0.000225561379921,-7.87791068433e-05,-0.000307308248011,4.23790879722e-05,0.000166269601323,-0.00015389409964,0.472583933784,-0.00531232030658,0.253774061049,-0.00323651284561,0.930498258032,0.366092304862,0.0117873147476
0.0853786468506,-0.149225875735,-0.100229762495,-2.42629671097,6.22626175755e-05,2.29717206955,-0.763602852821,0.0449068062007,-0.000376965734176,0.000150461637531,0.000371033995179,-5.168928692e-05,-1.91145045392e-05,-1.26772938529e-05,-0.000143072902574,0.47258424969,-0.00531045508706,0.253773964333,-0.0032362802677,0.9304979105,0.366093212192,0.0117866329795
0.0853800401092,-0.149227142334,-0.100229553878,-2.42629671097,6.30884969723e-05,2.29717159271,-0.763605117798,0.0449061505497,-0.00113968004007,-0.000268754200079,0.000344801082974,4.1090992454e-05,-0.00014704374189,8.45632021083e-05,0.000199594855076,0.472584255997,-0.00530960404233,0.253774518895,-0.00323645998151,0.930497294194,0.366094760993,0.011787132046
0.0853792056441,-0.149226516485,-0.100229106843,-2.42629790306,6.23436426395e-05,2.29717278481,-0.763603568077,0.0449061505497,-0.000348206900526,0.000258964922978,-0.000268131232588,-0.000356174859917,-4.44440120191e-05,-2.27648069995e-05,0.000256134720985,0.472583981411,-0.00530986818612,0.253773814471,-0.00323626370432,0.930497565905,0.366094085517,0.0117867160689
0.0853786170483,-0.149228990078,-0.100228846073,-2.42629981041,6.21571452939e-05,2.29717230797,-0.763604044914,0.0449061505497,0.00014023874246,0.000393552996684,-0.000152082211571,-0.000461013143649,-0.000188945647096,3.51490689354e-06,-3.51608032361e-05,0.472583301074,-0.00531000536535,0.253774100687,-0.00323627392596,0.930497509893,0.366094226127,0.0117867678081
0.0853784158826,-0.149228811264,-0.100232601166,-2.42629766464,6.2660779804e-05,2.29717254639,-0.763603448868,0.0449061505497,1.68972510437e-05,-0.000606181274634,-0.00314742908813,0.000146703867358,-7.19677918823e-05,7.26854777895e-05,-0.000221408728976,0.472584181452,-0.00531178636505,0.253774953146,-0.00323627177769,0.930498387745,0.366091957135,0.0117879410492
0.0853801220655,-0.149225667119,-0.100228078663,-2.42629957199,6.23924061074e-05,2.29717135429,-0.763603806496,0.0449061505497,0.00026249626535,-0.000409783620853,0.000745103985537,-6.3819308707e-05,0.000114292015496,2.91219603241e-05,-0.000116021226859,0.472582941028,-0.00530894088792,0.253772559529,-0.00323692605232,0.930497189151,0.366095097088,0.0117848573996
0.0853804424405,-0.149227455258,-0.100229844451,-2.42629528046,6.23707092018e-05,2.29717278481,-0.763602674007,0.0449061505497,-0.000229804689297,6.3965046138e-05,0.000115971095511,0.000733186374418,3.91425746784e-05,-0.000204536379897,0.000495502375998,0.472585116606,-0.00530964219302,0.253775399095,-0.0032357030523,0.930497625853,0.366093883999,0.0117883964622
0.0853788554668,-0.149226993322,-0.10023124516,-2.42629575729,6.20427890681e-05,2.29717254639,-0.76360219717,0.0449061505497,0.000103391423181,0.000349604553776,-0.000198242851184,-0.000131707522087,4.61462841486e-05,-8.96003548405e-05,7.3301482189e-05,0.472584818125,-0.0053110611726,0.253774941078,-0.0032358748869,0.930498223386,0.366092381912,0.0117878318492
0.0853791087866,-0.149226173759,-0.100230179727,-2.4262945652,6.28106572549e-05,2.29717278481,-0.763604104519,0.0449061505497,0.000397822383093,4.08998166677e-05,0.00350387836806,-7.90594858699e-05,0.00011176616681,2.19783651119e-05,-0.00015640410129,0.472585295753,-0.00531039618956,0.253775107767,-0.00323590992222,0.93049772597,0.366093634439,0.0117881873144
0.0853783637285,-0.149227023125,-0.10023137182,-2.42629599571,6.24211752438e-05,2.29717326164,-0.763602256775,0.0449061505497,2.36140222114e-05,-2.93840876111e-05,0.000169913531863,-0.000498736684676,-9.92133237787e-08,-4.71518869745e-05,3.22240412061e-05,0.472584876706,-0.00531131148904,0.253774916429,-0.00323591765459,0.930498368236,0.366092003969,0.0117881237212
0.085378959775,-0.149227008224,-0.100230157375,-2.4263048172,6.10706410953e-05,2.29717254639,-0.763602912426,0.0449061505497,-0.000250114942901,0.000239366927417,-0.00120607507415,-0.000378532684408,-3.38228419423e-05,0.000124495607452,0.000189493177459,0.472581166532,-0.00531050920836,0.253770988222,-0.00323717472839,0.930497790684,0.366093610099,0.0117834868002
0.0853809863329,-0.149226352572,-0.100226581097,-2.42629814148,6.19912898401e-05,2.29717254639,-0.763603389263,0.0449061505497,0.000405740982387,-0.000749660888687,0.000254897488048,0.000636450888123,0.000101124511275,4.55924455309e-05,-7.51463812776e-05,0.472583845141,-0.00530791021719,0.253773627584,-0.00323610054334,0.930496776937,0.366096105449,0.0117863065748
0.0853776559234,-0.149225965142,-0.100233569741,-2.42630434036,6.17037876509e-05,2.29717230797,-0.763603806496,0.0449061505497,0.000677691248711,-0.000690576154739,0.000590525800362,0.000742094474845,6.29068308626e-05,-6.4489482611e-05,-0.000182895586477,0.472581197609,-0.00531262515075,0.25377066215,-0.00323771013672,0.930498562816,0.366091649887,0.0117832677415
0.0853784754872,-0.149225816131,-0.100232444704,-2.42629337311,6.15580865997e-05,2.29717373848,-0.763603568077,0.0449061505497,0.000166103520314,-0.000218828790821,-0.000341396807926,0.000664613442495,8.84778273758e-05,1.51361637108e-05,-0.000294764147839,0.472585936731,-0.00531188019999,0.253775531963,-0.00323526378252,0.930498197737,0.366092418611,0.0117888844323
0.0853807255626,-0.149225473404,-0.100228086114,-2.42629957199,6.1934311816e-05,2.29717206955,-0.763604700565,0.0449061505497,0.0003250289883,0.000143936282257,0.000188197664102,-0.000707818428054,3.76025600417e-05,5.44631366211e-05,0.000182734365808,0.472583362611,-0.00530895672256,0.253772803882,-0.00323649524971,0.930496857215,0.366095930092,0.01178530722
0.085383541882,-0.149225845933,-0.100227937102,-2.42629861832,6.21564977337e-05,2.29717373848,-0.763603150845,0.0449061505497,-0.000122363009723,-0.000239906468778,-0.00012311647879,0.000797549262643,-4.68201978947e-05,0.000134670292027,0.000159902745509,0.47258387685,-0.00530730578847,0.25377328153,-0.00323620023875,0.930496618264,0.366096503425,0.0117864443708
0.0853783264756,-0.149227678776,-0.100231297314,-2.42629170418,6.19013299001e-05,2.29717230797,-0.763603806496,0.0449061505497,-0.000520741741639,4.00348617404e-05,0.00143049715552,-0.000154471592396,-9.05966444407e-05,3.5258653952e-05,0.000304507702822,0.472586513717,-0.00531161279722,0.25377709974,-0.00323486759151,0.930498100497,0.366092631426,0.0117900595329
0.0853788182139,-0.149224922061,-0.100231528282,-2.42630362511,6.28240959486e-05,2.29717230797,-0.763604521751,0.0449061505497,-7.41184412618e-05,0.000540068955161,-0.000187125551747,-0.00307134073228,5.91045409237e-06,-3.2947264117e-05,-0.000108109459688,0.472581424689,-0.0053110435607,0.253770500156,-0.0032379844216,0.930497985772,0.366093116024,0.0117832090675
0.0853799656034,-0.149228006601,-0.100230053067,-2.42630457878,6.22942534392e-05,2.29717111588,-0.763601899147,0.0449061505497,0.000371228379663,0.000262332236161,0.00018196363817,0.0004508420825,2.65670842055e-05,-5.0406128139e-05,8.3889826783e-06,0.472580641422,-0.00530993656213,0.253771236977,-0.00323792605067,0.930497889016,0.366093359127,0.011783312765
0.085380628705,-0.149228006601,-0.10023111105,-2.42629909515,6.27629051451e-05,2.29717087746,-0.763603508472,0.0449061505497,4.91439732286e-06,0.000659389828797,0.00100280868355,0.000809692719486,7.29745443095e-05,3.48063658748e-05,0.000245551549597,0.47258319895,-0.00531003186425,0.253773804821,-0.00323692489572,0.930497728893,0.366093685294,0.0117860983779
0.0853809863329,-0.149224936962,-0.100228093565,-2.42629480362,6.14058371866e-05,2.29717302322,-0.763604342937,0.0449061505497,0.000279553874861,0.000161868563737,0.000794335384853,-2.0043036784e-05,7.2180882853e-05,-9.70290057012e-06,0.000385010294849,0.472585174611,-0.00530871282187,0.253774455521,-0.00323546823131,0.930496803523,0.366096009969,0.011787346917
0.0853824540973,-0.149225696921,-0.100226253271,-2.42630386353,6.12867879681e-05,2.29717254639,-0.763603031635,0.0449061505497,-0.00019125219842,1.2131481526e-05,0.00101218163036,-0.000150926789502,3.29813019562e-06,-3.7056801375e-05,9.03661930352e-06,0.472581491429,-0.00530707678786,0.253770815619,-0.00323702126045,0.930496453495,0.36609701825,0.0117832355481
0.0853804126382,-0.149228155613,-0.100229427218,-2.42629528046,6.31024086033e-05,2.29717326164,-0.763603508472,0.0449054948986,-0.00294981035404,2.83947447315e-05,-0.000706055667251,-0.000138792209327,-4.83092037484e-07,8.33919984871e-05,-0.00012743336265,0.472585278978,-0.00530938652611,0.253775776499,-0.0032357362974,0.930497483486,0.366094224596,0.0117890474126
0.0853785946965,-0.149225577712,-0.100233323872,-2.42629885674,6.27829649602e-05,2.29717183113,-0.763601541519,0.0449054948986,-0.000576038321014,-0.000379255245207,5.6184730056e-05,-0.00040149918641,-8.39305648697e-05,7.93805884314e-05,8.6366700998e-05,0.472583286035,-0.00531202259754,0.253772839585,-0.00323719696705,0.930498874649,0.366090788707,0.0117855394893
0.0853772312403,-0.149227887392,-0.100234776735,-2.42630124092,6.22312290943e-05,2.29717183113,-0.763603270054,0.0449054948986,-9.6892908914e-06,0.000312777934596,-4.45505211246e-05,4.35457441199e-05,2.30364057643e-05,7.14722118573e-05,-0.000104160251794,0.4725824884,-0.00531334255983,0.253772871755,-0.0032372029711,0.930498999276,0.366090473039,0.0117855037136
0.0853774696589,-0.14922516048,-0.100232437253,-2.42629718781,6.24825188424e-05,2.29717278481,-0.763602375984,0.0449054948986,0.000577462196816,-0.0003966394288,0.000328862399329,1.0474706869e-05,2.47458615377e-06,0.000103122081782,-0.000325344182784,0.472584133362,-0.00531220907994,0.25377346732,-0.00323658489588,0.930498726411,0.366091140179,0.0117864936368
0.0853836536407,-0.149227768183,-0.100226476789,-2.42630243301,6.15085009485e-05,2.29717183113,-0.763602852821,0.0449054948986,0.000853035715409,0.000778836430982,-9.79885498964e-06,0.000140304546221,-2.55525756074e-05,-4.10457250837e-05,3.40800870617e-05,0.472582082553,-0.00530658853587,0.253772348998,-0.00323669045454,0.930496318459,0.366097320697,0.0117845929906
0.0853810980916,-0.149229675531,-0.100228235126,-2.4262983799,6.11906507402e-05,2.29717063904,-0.763602674007,0.0449054948986,0.000184131407877,0.000630655675195,-0.000141040974995,3.20906183333e-05,-3.88253865822e-05,3.24628927046e-05,0.00021836104861,0.472583585947,-0.00530866157901,0.253774898023,-0.00323586598573,0.930497079102,0.366095322668,0.0117868298968
0.085379563272,-0.149224534631,-0.100228458643,-2.42630410194,6.18710691924e-05,2.29717206955,-0.76360398531,0.0449054948986,0.000319760147249,0.000224255709327,-0.00177042081486,-0.000276678154478,-5.26912081114e-05,-8.2819009549e-05,0.000244456925429,0.472581171528,-0.00530938908609,0.253770106509,-0.00323764865142,0.930497284896,0.366094923662,0.0117824863949
0.0853803232312,-0.149225920439,-0.100229799747,-2.42629981041,6.29783171462e-05,2.29717135429,-0.763602793217,0.0449054948986,-0.00224283686839,0.000141073993291,-0.000154428722453,-0.000436828180682,-2.79020623566e-05,-9.23528641579e-05,-0.000211561695323,0.472582855895,-0.00530956368079,0.253772563587,-0.00323725975944,0.930497717223,0.366093747736,0.0117849881569
0.0853780806065,-0.149227246642,-0.100231356919,-2.42629909515,6.17074256297e-05,2.29717230797,-0.763602256775,0.0449054948986,-0.00430604210123,0.00047082657693,0.000420117052272,-6.92692992743e-05,4.78944675706e-05,1.48719964272e-05,0.000395040231524,0.472583433088,-0.00531147054994,0.253773575917,-0.00323640149924,0.930498344795,0.366092119428,0.0117862553727
0.085380859673,-0.14922426641,-0.100228346884,-2.42629718781,6.17811601842e-05,2.29717254639,-0.763603150845,0.0449054948986,0.000851508229971,0.000252547411947,-6.36695913272e-05,-2.96209764201e-05,-9.2414811661e-05,3.74777373509e-05,-0.000169211329194,0.472584053572,-0.00530882227501,0.253773051378,-0.00323626019897,0.930497147917,0.366095178762,0.0117857587553
0.0853824093938,-0.149225413799,-0.100230120122,-2.42630171776,6.1920574808e-05,2.29717302322,-0.763601720333,0.0449054948986,0.000577078026254,-0.000285157264443,-0.0012393129291,0.000173562468262,7.35862922738e-05,3.30657712766e-05,-0.000311345094815,0.472582435824,-0.0053085211123,0.253771740263,-0.0032370301605,0.930497297706,0.366094828721,0.0117845944496
0.0853803232312,-0.149227172136,-0.100228711963,-2.42629694939,6.27549961791e-05,2.29717254639,-0.763604044914,0.0449054948986,0.000111447872769,-0.000680429628119,-7.11070388206e-05,3.16366749757e-05,-4.00841017836e-05,-6.42495215288e-05,-0.000341654580552,0.472584375506,-0.00530912286243,0.253774521677,-0.00323615644297,0.93049724484,0.366094880203,0.0117874089461
0.0853812247515,-0.149227157235,-0.100228793919,-2.42629885674,6.21990911895e-05,2.29717326164,-0.763603627682,0.0449054948986,-0.00278503168374,-0.000274851161521,-0.000221832364332,0.000118293311971,8.39031054056e-05,-0.000151946878759,0.000204960204428,0.472583762907,-0.00530877288682,0.253773744306,-0.00323620312952,0.930497109458,0.366095244403,0.0117867718401
0.0853820219636,-0.149226948619,-0.100226677954,-2.42630290985,6.29059504718e-05,2.29717206955,-0.763602912426,0.0449054948986,0.0038438893389,0.000504007388372,0.000125569320517,3.71384267055e-05,1.15202865345e-05,-8.97177742445e-05,-0.000296981044812,0.472581869191,-0.00530730502879,0.253771777564,-0.00323734458833,0.930496812697,0.366096068355,0.0117842937826
0.0853814780712,-0.149226665497,-0.100229643285,-2.42630004883,6.27400295343e-05,2.29717183113,-0.763604640961,0.0449054948986,0.00270987744443,0.000825149239972,-0.000108240317786,0.00021750885935,1.00342003861e-05,-2.8734893931e-05,-7.63286516303e-05,0.472582928768,-0.00530896589456,0.253772854364,-0.00323701058108,0.930497106054,0.366095289452,0.0117854195136
0.085380807519,-0.149227455258,-0.100230060518,-2.42630314827,6.30817739875e-05,2.29717230797,-0.763602137566,0.0449054948986,0.00313284713775,1.4818917407e-05,3.90524364775e-05,-8.32549267216e-05,-2.28018075177e-06,1.250097921e-05,0.000483008247102,0.472581837345,-0.00530939626413,0.253771910865,-0.0032375524561,0.930497806208,0.366093530209,0.0117846391571
0.085381038487,-0.149225860834,-0.10023047775,-2.42629909515,6.25886459602e-05,2.29717087746,-0.763603270054,0.0449054948986,0.00204157014377,0.000497449014802,-0.000241132773226,-0.000250689772656,-0.000102508958662,8.38822597871e-05,0.000299175706459,0.472583035451,-0.00530958251891,0.253772799452,-0.00323713254827,0.930497575387,0.36609410801,0.0117850302041
0.085381925106,-0.149226769805,-0.100227594376,-2.42629885674,6.27088302281e-05,2.29717230797,-0.76360231638,0.0449054948986,0.000141716838698,0.000807207194157,-3.28017486027e-05,-0.000183683121577,7.19903109712e-05,5.87092181377e-05,0.000389870459912,0.47258353713,-0.00530784020247,0.253773483045,-0.00323655083928,0.930497069648,0.366095361373,0.0117861860197
0.0853829160333,-0.14922773838,-0.100228153169,-2.42630028725,6.26440960332e-05,2.29717135429,-0.763603687286,0.0449054948986,0.00365045596845,0.000686956977006,0.000116269889986,-0.000135697322548,-0.000417945586378,-0.000256113853538,6.72758760629e-05,0.472582795872,-0.00530765559585,0.253773018002,-0.00323695243254,0.930496708635,0.366096302237,0.0117853523517
0.0853804722428,-0.149223700166,-0.100229002535,-2.42630052567,6.21775106993e-05,2.29717159271,-0.763603568077,0.0439671166241,-6.67688145768e-05,1.47349392137e-05,3.73939801648e-05,3.02968874166e-06,2.06913045986e-05,0.000108988730062,-0.000378638826078,0.472582448185,-0.00530922175721,0.253771232201,-0.00323733100939,0.930497324562,0.36609479065,0.0117835738966
0.085380576551,-0.149226397276,-0.100229136646,-2.4263010025,6.30184222246e-05,2.29717230797,-0.763602852821,0.0439671166241,-1.85543212865e-05,9.47147491388e-05,-0.000126696351799,-5.07333534188e-05,-2.33175651374e-05,-5.5589416661e-06,-0.000127773193526,0.472582624829,-0.00530912420572,0.25377235859,-0.00323720866712,0.930497542634,0.366094188449,0.0117850965202
0.0853812247515,-0.149227097631,-0.100229553878,-2.42630052567,6.182135985e-05,2.29717111588,-0.763601124287,0.0439671166241,0.000258660933468,0.000454548397101,8.00014458946e-05,-0.000264035363216,-6.43470193609e-05,2.67713603535e-05,0.000167705133208,0.472582612833,-0.00530912977128,0.253772782129,-0.00323686685798,0.930497673035,0.366093865118,0.0117849385596
0.0853797569871,-0.149225637317,-0.10022970289,-2.42630171776,6.2102371885e-05,2.29716968536,-0.763602554798,0.0439671166241,-7.69851540099e-05,-0.000513738545123,0.000209729987546,-1.48632470882e-05,-6.05294044362e-05,2.69353040494e-05,9.79038013611e-05,0.472581697098,-0.00530985095569,0.253771440904,-0.00323766320112,0.930497756875,0.366093705027,0.0117830730625
0.0853836536407,-0.149226605892,-0.100227952003,-2.42630171776,6.21842409601e-05,2.29717135429,-0.763602912426,0.0439671166241,-8.44446985866e-05,-0.000169849619851,0.000132686123834,-0.000259837455815,-7.43714990676e-05,7.91502043285e-06,-0.000293182121823,0.472582167829,-0.00530720390697,0.253772062421,-0.0032371436628,0.930496660073,0.366096458652,0.0117842751387
0.0853793695569,-0.149226903915,-0.100232414901,-2.4263010025,6.21832950856e-05,2.29717063904,-0.763602852821,0.0439671166241,-0.000129220454255,0.000191196333617,0.000203175164643,-0.000405341241276,-0.000199809335754,8.955168596e-05,5.25638552062e-06,0.472582274176,-0.0053112653462,0.253772419488,-0.00323736785273,0.93049826037,0.366092381125,0.0117845264816
0.0853785872459,-0.149226933718,-0.100231386721,-2.42630267143,6.23298401479e-05,2.29717063904,-0.763602852821,0.0439671166241,-0.00257312809117,0.000102603211417,-0.00029445218388,-0.000427352992119,1.62978585649e-06,-8.04823139333e-05,5.89702976868e-05,0.472581605043,-0.00531113085879,0.253771710183,-0.0032376592412,0.930498239938,0.366092454927,0.0117837670217
0.085387840867,-0.149226933718,-0.100223101676,-2.4263010025,6.10166898696e-05,2.29716992378,-0.763604402542,0.0439671166241,-0.000178736227099,2.49478107435e-05,0.00018565566279,1.68976512214e-05,7.59112881497e-05,-5.23263770447e-05,0.000101155128505,0.472582222664,-0.00530313836881,0.253772428844,-0.00323652266334,0.930494606555,0.366101698048,0.0117838221196
0.0853833705187,-0.149225860834,-0.100224524736,-2.42630076408,6.14141536062e-05,2.29717087746,-0.763603031635,0.0434378422797,-2.87943057629e-05,-0.000428595114499,-0.000192533814698,-0.000114891969133,2.18221757677e-05,2.65704384219e-05,-0.000157615126227,0.472582409376,-0.00530587176965,0.253772107431,-0.00323666371761,0.930495982627,0.366098195108,0.011783952931
0.0853796973825,-0.149225518107,-0.100232988596,-2.42630195618,6.25523825875e-05,2.29716873169,-0.763604462147,0.0434378422797,-0.000534466002136,0.000257247767877,-0.000286157039227,8.5995226982e-05,-9.16987701203e-05,-1.75408058567e-05,0.000100517027022,0.472581364032,-0.0053113224645,0.253771170963,-0.00323826686757,0.930498070265,0.366092918185,0.0117826058401
0.085376881063,-0.149225860834,-0.100233666599,-2.42630362511,6.28414418316e-05,2.2971701622,-0.763603031635,0.0434378422797,-0.000446064135758,-0.000359879457392,-9.92121786112e-05,0.000554990023375,4.7852518037e-06,7.15056885383e-05,-1.81070354301e-05,0.472581009056,-0.00531291567443,0.25377072943,-0.00323840040473,0.930499002956,0.366090542762,0.0117827180998
0.0853889510036,-0.149226993322,-0.100220166147,-2.42630195618,6.26687906333e-05,2.29716944695,-0.76360398531,0.0434378422797,2.60798551608e-05,0.000828447868116,0.000312606221996,0.000401192577556,-3.76932694053e-05,0.000142413380672,2.64935297309e-05,0.472581765284,-0.00530108845728,0.253772017962,-0.00323718009395,0.93049414734,0.366102874531,0.0117833516666
0.0853883326054,-0.149226605892,-0.100221700966,-2.42630124092,6.1783932324e-05,2.29717063904,-0.763601958752,0.0434378422797,-0.00032810823177,-0.000154784618644,0.00321180047467,4.43012004325e-06,-3.70157322322e-05,4.67808895337e-05,0.000246589974267,0.472582327001,-0.00530202019119,0.253772402349,-0.00323667798607,0.930494842655,0.366101089634,0.0117840384467
0.0853874906898,-0.149225488305,-0.100222885609,-2.42630243301,6.24818640063e-05,2.29717111588,-0.763603448868,0.0434378422797,-0.000333084084559,-0.000549587595742,-0.000217690656427,-0.000506308744662,2.39829751081e-05,2.86085942207e-05,0.000336285622325,0.472581791428,-0.00530304892758,0.253771236439,-0.00323727601016,0.930494987981,0.366100741346,0.0117832193063
0.0853762328625,-0.149225607514,-0.100234001875,-2.4263021946,6.20163991698e-05,2.29716992378,-0.763603150845,0.0434378422797,-0.000637848861516,0.000257702369709,-0.00243869028054,-3.26290100929e-05,4.72000829177e-06,0.000123509540572,1.68971314451e-06,0.472581583082,-0.00531265273896,0.253771418796,-0.00323777860735,0.930498640892,0.366091455786,0.0117831138791
0.0853783041239,-0.149228349328,-0.100229568779,-2.42630434036,6.23848900432e-05,2.29716897011,-0.763602256775,0.0434378422797,0.000161376272445,0.000829059397802,-0.000575459038373,-0.00191760796588,7.01956014382e-05,-9.85496808426e-05,0.000119067095511,0.472580690246,-0.00531039362782,0.253771504087,-0.0032379919323,0.930498080552,0.366092886071,0.0117828667951
0.0853826776147,-0.149227276444,-0.100228242576,-2.4263010025,6.19964703219e-05,2.29716992378,-0.763601601124,0.0434378422797,-6.15568642388e-05,-0.000154665889568,-0.000363128114259,-6.66115665808e-05,6.595665036e-05,0.000169374921825,0.000238084976445,0.472582508424,-0.00530758660306,0.253772916938,-0.00323684152802,0.930497079866,0.366095378802,0.0117847580597
0.0853764638305,-0.149225398898,-0.100233919919,-2.42629694939,6.22334919171e-05,2.29716801643,-0.763603389263,0.0430438444018,-0.000529996003024,-0.000255231425399,-0.00361804640852,-0.000741311407182,8.43540965434e-06,-7.14366178727e-05,2.18219497583e-06,0.472583197715,-0.00531336654328,0.253773233689,-0.00323740732838,0.930498976661,0.366090560568,0.0117845141651
0.0853759422898,-0.149226680398,-0.100233078003,-2.42629337311,6.31927832728e-05,2.29716110229,-0.763603031635,0.0430438444018,9.0756751888e-05,0.000668943393975,0.000486983451992,5.74977857468e-05,9.15909331525e-05,5.6985518313e-05,0.000124624421005,0.472583245129,-0.00531313273653,0.253774771576,-0.00323813659246,0.930499100931,0.366090264469,0.0117836999019
0.0853788629174,-0.149219706655,-0.100227311254,-2.42602682114,6.20642895228e-05,2.29707551003,-0.76360309124,0.0430438444018,-0.000236157982727,0.00062035152223,0.000631916278508,0.0151601554826,5.90975105297e-05,-0.0058489413932,-0.00015016591351,0.472671782401,-0.00531213227351,0.253880320784,-0.00320408824569,0.93049684821,0.366093703204,0.0118637873192
0.0853793472052,-0.149199649692,-0.100230239332,-2.42565608025,6.12414005445e-05,2.29692983627,-0.763603508472,0.0430438444018,0.00113643507939,0.00140662689228,0.000220725414692,0.0285026077181,0.00010066012328,-0.0197069346905,-0.000369869580027,0.472805705853,-0.00531789280549,0.254043399356,-0.0031594924015,0.930496389042,0.366091828943,0.0119691291834
0.0853778794408,-0.149165630341,-0.100229837,-2.42488574982,6.04587512498e-05,2.29643368721,-0.763601779938,0.0430438444018,0.000253056379734,0.00130143051501,-0.000284554960672,0.0555343180895,-3.45414191543e-05,-0.0322259962559,1.7321719497e-05,0.47298856183,-0.00532523929468,0.25429535132,-0.00311681916331,0.930496243991,0.366089294633,0.0120686948749
0.0853773206472,-0.149074390531,-0.100233219564,-2.42024517059,5.41951230844e-05,2.29296326637,-0.763604164124,0.0430865250528,0.000146075850353,0.00220081000589,-0.000245663424721,0.143856555223,8.51325967233e-05,-0.118839614093,-9.61812474998e-05,0.474095704402,-0.00536909228506,0.255966997864,-0.00290616779684,0.930492334386,0.366084246666,0.0125655825484
0.0853792503476,-0.14906860888,-0.100230187178,-2.41782283783,5.36302140972e-05,2.29097676277,-0.76360231638,0.0430865250528,-0.00014143458975,0.000126653831103,0.000790282385424,0.181652083993,-0.000364227656974,-0.151335060596,0.000109652144602,0.474635976819,-0.00538738666799,0.256844787649,-0.00282406635738,0.930490161839,0.366083536139,0.0127643105399
0.0853858664632,-0.149049058557,-0.10022302717,-2.41414165497,5.10158424731e-05,2.28806304932,-0.763601958752,0.0430865250528,0.000333900010446,0.00165024050511,3.82234575227e-05,0.24583876133,-0.00511289620772,-0.196837872267,-6.13531119598e-06,0.475532187984,-0.00541506527938,0.258277154115,-0.00267038567804,0.930484425913,0.366086225041,0.0131330763319
0.0853839814663,-0.149042353034,-0.100225694478,-2.40815448761,4.81871975353e-05,2.28287363052,-0.763599991798,0.0430865250528,-0.000416361843236,0.000288143928628,-0.000761270348448,0.315207004547,-5.09412384417e-05,-0.297502666712,0.000406519044191,0.476733896333,-0.0054647504053,0.260341604898,-0.0025291704495,0.930482413843,0.366079914142,0.0134750500115
0.0853822603822,-0.149104297161,-0.100226290524,-2.39723110199,4.19232055719e-05,2.27273750305,-0.763601541519,0.0430865250528,4.77719513583e-05,-0.00255097053014,4.45004516223e-05,0.420928418636,0.000126963888761,-0.405508697033,-9.05683773453e-05,0.478858378664,-0.00555307613787,0.264265231308,-0.00236907007742,0.930478115677,0.366077230066,0.0138681312569
0.0853842943907,-0.149253085256,-0.10022573173,-2.38960623741,3.84838604077e-05,2.26536750793,-0.76359975338,0.0430865250528,-0.000241263289354,-0.0133379474282,0.00069364864612,0.49983522296,0.00026780780172,-0.458398759365,-0.000179175214726,0.480259315065,-0.00561062871537,0.267039769249,-0.00229838512206,0.930475406332,0.366077368856,0.0140568606995
0.0853808373213,-0.149453639984,-0.100229151547,-2.38003015518,3.52721617674e-05,2.25651073456,-0.763600349426,0.0430865250528,-0.000584048684686,-0.0133111458272,-0.00077978981426,0.559196174145,-0.000131013424834,-0.530548751354,-0.000496882479638,0.482075879449,-0.00568919880756,0.270583059417,-0.00213258569303,0.930471536169,0.366071503266,0.0144853939999
0.0853773653507,-0.149818629026,-0.100232742727,-2.37051320076,3.46002525475e-05,2.24732756615,-0.763596892357,0.0430865250528,0.000104654893221,-0.0212963223457,0.000309473049128,0.595621883869,-0.000274543010164,-0.592391312122,-4.86959870614e-05,0.483774819527,-0.0057645476389,0.274164868519,-0.00201732988512,0.930469108487,0.366065147551,0.0148147211803
0.0853935331106,-0.150593355298,-0.100218445063,-2.35655093193,3.32785893988e-05,2.23375678062,-0.763593614101,0.0430865250528,0.00256978650577,-0.0362146571279,0.000649019901175,0.695478260517,-8.27932453831e-05,-0.651900589466,-0.000376666343072,0.486196116839,-0.00585407793781,0.279555918474,-0.00183147125715,0.930456187545,0.36607621766,0.0153665650304
0.0853883847594,-0.151622593403,-0.100220896304,-2.33860349655,3.06811925839e-05,2.21634697914,-0.763573884964,0.0430865250528,-0.000685974315275,-0.0681014657021,-0.000374629424186,0.753613770008,-9.59072494879e-05,-0.721833825111,0.00362954777665,0.488965306789,-0.00597931368978,0.285969775526,-0.00160102969835,0.930449194703,0.366065889573,0.0160467117237
0.085389867425,-0.153136342764,-0.100216090679,-2.32219958305,2.53231828538e-05,2.20071339607,-0.763005197048,0.0430865250528,0.0012196112657,-0.0744348540902,-0.00185018172488,0.812447309494,-0.0003140688641,-0.766834914684,0.0513536296785,0.491920155347,-0.00611161344079,0.293311076227,-0.0012229303687,0.930535317493,0.365796498889,0.0171886132208
0.0854052901268,-0.154316782951,-0.100208595395,-2.3100669384,2.69707797997e-05,2.18877100945,-0.762336790562,0.0430865250528,0.00182343798224,-0.098744802177,-0.000580948719289,0.851671695709,0.000860209111124,-0.804447591305,0.0461269393563,0.493774854054,-0.00618914710981,0.298331676704,-0.00102495723486,0.930641974887,0.365494357409,0.0178420410243
0.085410900414,-0.158537015319,-0.100208237767,-2.27824544907,2.76123373624e-05,2.15805959702,-0.760641634464,0.0430871844292,-0.000111543689854,-0.134559005499,-0.00136724323966,0.893334150314,0.000478048023069,-0.837568104267,0.0703706890345,0.498615841178,-0.00642924660507,0.312639219077,-0.000202451752366,0.930912913963,0.364667061788,0.0204704509493
0.0854019746184,-0.162144854665,-0.100207060575,-2.25597572327,2.57273895841e-05,2.13700914383,-0.758816957474,0.0430871844292,0.000994073110633,-0.165746316314,-0.00378322834149,0.906218230724,-0.000416982511524,-0.839857399464,0.0720263719559,0.501595477404,-0.00659739590728,0.322434644456,0.000490675000336,0.931187779385,0.363833844819,0.0226718285757
0.0854094326496,-0.167144775391,-0.100196927786,-2.22850584984,2.2197205908e-05,2.11174440384,-0.75691640377,0.0430871844292,-9.56813819357e-05,-0.183541327715,-4.36188129243e-05,0.924549400806,-0.000676509982441,-0.835878014565,0.0703643113375,0.505233488682,-0.00680868748826,0.335474028941,0.00159070468461,0.931448681912,0.362932645435,0.0260905574031
0.0854107365012,-0.170663535595,-0.100194036961,-2.21176052094,1.60771014635e-05,2.09673643112,-0.755670011044,0.0430871844292,0.000199983129278,-0.190090969205,0.00019051907293,0.903887569904,0.000442339893198,-0.848260223866,0.0653187632561,0.507332603968,-0.00694727185545,0.343757804666,0.00239829242967,0.931607266148,0.362332950377,0.0285829076677
0.0854165479541,-0.174279168248,-0.100200258195,-2.19523453712,2.7066515031e-05,2.08181858063,-0.754370212555,0.0430871844292,-0.000626871129498,-0.204353451729,-0.000805385468993,0.931046962738,0.000565725553315,-0.81659078598,0.0744737833738,0.509112826887,-0.00707776024774,0.351561648095,0.00313238003594,0.931761530802,0.36173932148,0.0309079422224
0.0853915736079,-0.177586764097,-0.100204586983,-2.1806781292,1.92700154003e-05,2.06885886192,-0.753085851669,0.0430871844292,-0.000167877486092,-0.215763360262,-0.000239126558881,0.907281279564,0.000248647818808,-0.800818920135,0.0824563801289,0.510702083526,-0.0072230552731,0.358981067957,0.00388305072442,0.931924890914,0.361103263807,0.0332468369073
0.0854061990976,-0.18923355639,-0.100196607411,-2.13909959793,2.73201840173e-05,2.03256750107,-0.749877929688,0.0430871844292,-0.000523271562997,-0.237561225891,0.000845109811053,0.828152537346,-0.000407989224186,-0.714040696621,0.0743750557303,0.514635228856,-0.00761456662985,0.381951736483,0.00647937677906,0.932212583858,0.359472392433,0.041440498758
0.0854139104486,-0.193983361125,-0.100194312632,-2.12421536446,2.8434144042e-05,2.01932692528,-0.748511195183,0.0430871844292,0.000524058996234,-0.278262138367,-0.000359045574442,0.765056729317,-0.000193934945855,-0.671696126461,0.0737670436502,0.515651697822,-0.00776043881249,0.390332744238,0.00741606815024,0.932326222226,0.358794919891,0.0444862049096
0.0854066312313,-0.198417201638,-0.1001958251,-2.11220479012,2.48805354204e-05,2.0088596344,-0.747304320335,0.0430871844292,-0.000401348283049,-0.269805639982,-0.000161096191732,0.721864700317,-0.000329694332322,-0.64447259903,0.0768688768148,0.516366372961,-0.00789551856777,0.397445175791,0.00829191722721,0.932413819833,0.358183305189,0.0473332046455
0.0854100361466,-0.203369170427,-0.100200392306,-2.09919643402,3.12884149025e-05,1.99696969986,-0.745862483978,0.0430871844292,-0.0033052500803,-0.259799271822,0.00240913662128,0.687303602695,-0.00245544943027,-0.589516758919,0.0685681700706,0.516890866896,-0.00803855776909,0.405181811901,0.00914655455353,0.932530476604,0.357462813078,0.0502353231924
0.0854029506445,-0.211942821741,-0.100200213492,-2.08049726486,2.863566624e-05,1.98012804985,-0.744339466095,0.0430871844292,0.00127665582113,-0.288723766804,0.00131549709477,0.522781014442,0.000479605834698,-0.501931011677,0.045153811574,0.517347483183,-0.00826879814431,0.41710406942,0.0106352507713,0.93253955378,0.356662166532,0.0552174856879
0.0854128971696,-0.216474846005,-0.100192695856,-2.07252645493,2.94524870696e-05,1.97267520428,-0.743601560593,0.0430871844292,-0.000486193370307,-0.267301797867,-0.00221276772209,0.478096336126,-2.25024905376e-06,-0.433351635933,0.0488146618009,0.517315157214,-0.00836521447949,0.422614715126,0.0113345112799,0.932530034074,0.356282669605,0.0576361295436
0.085396297276,-0.220745041966,-0.100214742124,-2.06549930573,2.77567432931e-05,1.96597421169,-0.742852032185,0.0430871844292,-0.0012779457029,-0.267184555531,-0.000671850284562,0.405745476484,-0.000186851917533,-0.40342143178,0.0426475182176,0.517165017477,-0.00849006469146,0.427897469466,0.0119957685109,0.932539474239,0.35585076238,0.0599705354427
0.0853885039687,-0.226078435779,-0.100231312215,-2.05859422684,2.82757537207e-05,1.95879638195,-0.742014706135,0.0430871844292,0.000726443366148,-0.276428997517,0.000592674245127,0.324348270893,0.000212120547076,-0.347107380629,0.0441928841174,0.516761110136,-0.00860034509548,0.433020674117,0.0126156150578,0.932540021978,0.355431240355,0.0622783006476
0.0853671431541,-0.233898848295,-0.100279472768,-2.05057239532,2.82760611299e-05,1.94921731949,-0.740263104439,0.0430871844292,8.61413645907e-05,-0.241744443774,0.000788900593761,0.210899725556,4.91088067065e-05,-0.281540334225,0.0545193403959,0.515768871718,-0.00877116039595,0.440004443694,0.0133423169089,0.932662330724,0.354536638731,0.0653202182351
0.0853875726461,-0.237851828337,-0.100347138941,-2.04769039154,2.85209498543e-05,1.94493031502,-0.739404439926,0.0430871844292,6.38409983367e-05,-0.242913171649,-0.00172707147431,0.151563555002,-9.13196054171e-05,-0.258049488068,0.0412384904921,0.515088572055,-0.0088523455592,0.442998544634,0.013590462674,0.932735632602,0.354101147333,0.0665726380779
0.0853821486235,-0.241599187255,-0.100385129452,-2.04554438591,2.82783421426e-05,1.94076275826,-0.738843381405,0.0430871844292,-0.000817959022243,-0.194247618318,-0.00465904222801,0.103699795902,3.9857266529e-05,-0.236418768764,0.028961058706,0.514279520938,-0.0089203768068,0.445523554583,0.0137099041834,0.932778926294,0.353818743404,0.0674374502041
0.0853704065084,-0.249579921365,-0.100850276649,-2.04378700256,2.77411127172e-05,1.93046116829,-0.73736256361,0.0430871844292,0.000639803474769,-0.111715257168,-0.0101904254407,-0.0047922488302,-0.000175296954694,-0.211775943637,0.0397076234221,0.511626637438,-0.0092198267109,0.449282988824,0.0131441509267,0.933111649569,0.352983353214,0.0673248302853
0.0853432267904,-0.250805020332,-0.101088561118,-2.0439016819,2.4900686185e-05,1.92706632614,-0.736842632294,0.0430871844292,-0.00150074262638,-0.055534016341,-0.0197051726282,-0.00563792325556,-5.26838630321e-05,-0.21615357697,0.0251572299749,0.510761937023,-0.00935088532536,0.449449304565,0.0126326906061,0.933311215461,0.352669497508,0.0662934041694
0.0852366313338,-0.251559942961,-0.101363889873,-2.04412531853,2.50197081186e-05,1.9231762886,-0.736420869827,0.0430871844292,-0.00756310252473,-0.0317616909742,-0.00981170684099,-0.0185575056821,0.000324585242197,-0.208490729332,0.021389676258,0.509824937467,-0.00953175066166,0.449264629649,0.0119480570108,0.933544531175,0.352361307666,0.0647561641242
0.0850654989481,-0.251754373312,-0.10159035027,-2.04460310936,2.14185984078e-05,1.91967129707,-0.73606723547,0.0430871844292,-0.0135158337653,0.0153186609969,-0.0204783715308,-0.034684907645,-0.0024998341687,-0.1792678684,0.0174068845809,0.508976787037,-0.00971258687166,0.448714187351,0.0112213795638,0.93377955888,0.352079334386,0.0630076030548
0.0842198356986,-0.249293267727,-0.102355860174,-2.047508955,-0.00289589585736,1.91190302372,-0.73508387804,0.0430871844292,-0.0272716246545,0.0838828235865,-0.0152709186077,-0.0773272290826,-0.16222012043,-0.149064153433,0.0288711804897,0.507009520798,-0.0109418595962,0.445097526219,0.0101644836858,0.934449648284,0.351456001517,0.0563845437768
0.0837223157287,-0.247707650065,-0.102642804384,-2.04911160469,-0.00681993830949,1.9093862772,-0.734654843807,0.0430878400803,-0.0322049185634,0.102247990668,-0.014287782833,-0.095294624567,-0.268246620893,-0.127442240715,0.0214538853616,0.506298646317,-0.0119839098032,0.443192465193,0.0109242958809,0.934624754949,0.35148915106,0.0530339850268
0.0831782966852,-0.245939850807,-0.102878078818,-2.05057168007,-0.0114697376266,1.90758872032,-0.734294652939,0.0430878400803,-0.0460307821631,0.137068405747,-0.0145403947681,-0.0955002382398,-0.344545185566,-0.113509662449,0.0196066293865,0.505778518252,-0.01315780883,0.441353946868,0.012147616603,0.934727303744,0.351639894227,0.049866697504
0.0819611400366,-0.2426982373,-0.103137657046,-2.05275082588,-0.0200633443892,1.9050360918,-0.733868420124,0.0430878400803,-0.0677620619535,0.146883279085,-0.00903107505292,-0.102563068271,-0.429360359907,-0.117273159325,0.0143485078588,0.505070006926,-0.0153607775376,0.438336037186,0.0146696074777,0.934824421992,0.35199106274,0.044613833068
0.0780310332775,-0.234678342938,-0.103774540126,-2.05761504173,-0.0447904318571,1.90045499802,-0.733461558819,0.0430878400803,-0.101966269314,0.19981791079,-0.0218366403133,-0.108563363552,-0.648954212666,-0.0894825384021,0.00354254292324,0.503689353792,-0.0219246585031,0.431425341032,0.0228563400961,0.934730469688,0.353172165505,0.0320305784053
0.0764259323478,-0.231569766998,-0.104184530675,-2.05921673775,-0.0551389753819,1.89914464951,-0.733399510384,0.0430878400803,-0.107017986476,0.21569904685,-0.030141113326,-0.100440196693,-0.747487843037,-0.0901582613587,0.0114059047773,0.503225924414,-0.0251416026729,0.428651755529,0.0269973426249,0.934575733073,0.353731140468,0.0267137154225
0.0739764869213,-0.227101758122,-0.104960978031,-2.0613617897,-0.0716152861714,1.89719212055,-0.733339190483,0.0430878400803,-0.12657289207,0.218321681023,-0.0435177311301,-0.101574406028,-0.827614665031,-0.09083750844,-0.000147815488162,0.502672018222,-0.029251946525,0.425586223933,0.0323608580097,0.934298788181,0.354432995696,0.0203911872979
0.067151710391,-0.216133311391,-0.107681401074,-2.06572198868,-0.116028770804,1.89340341091,-0.733294785023,0.0430878400803,-0.163803249598,0.242919579148,-0.0739305838943,-0.0808856114745,-1.0544706583,-0.0702731311321,0.00088380521629,0.501404324555,-0.041883480645,0.418094676831,0.0487141512305,0.933149095353,0.356157619809,0.00338331925794
0.0641840100288,-0.212072834373,-0.109100282192,-2.06712555885,-0.134568944573,1.8922059536,-0.733289062977,0.0430878400803,-0.181715801358,0.236229240894,-0.0904850959778,-0.0816526412964,-1.11537373066,-0.0697273388505,-0.000213058548979,0.500937241311,-0.0473683853923,0.415576261337,0.0556742799875,0.932558073438,0.356687482827,-0.00313902751803
0.0604561567307,-0.207632541656,-0.110840938985,-2.06867408752,-0.156490579247,1.89096832275,-0.733285844326,0.0430878400803,-0.205022007227,0.238292068243,-0.0858895927668,-0.082300812006,-1.15691196918,-0.0466232262552,-0.000272158125881,0.500364527153,-0.0539930487805,0.412930755508,0.0639557989495,0.931783501665,0.357179422575,-0.010584024764
0.0495399609208,-0.196615353227,-0.116089738905,-2.07237911224,-0.219830453396,1.88929069042,-0.733278155327,0.0430878400803,-0.235114872456,0.212566405535,-0.137238413095,-0.061563398689,-1.37479770184,-0.0300016663969,-0.00027258467162,0.498909809303,-0.0732606887832,0.407215170691,0.088333915052,0.928878142905,0.358426962887,-0.0302097177297
0.0459320172668,-0.193432047963,-0.11821552366,-2.07326769829,-0.24056057632,1.88882648945,-0.733276605606,0.0430878400803,-0.24744579196,0.213493734598,-0.148361355066,-0.0526329725981,-1.3919788599,-0.0318247228861,2.4018345357e-05,0.498398279223,-0.0797714960011,0.405861431906,0.0963212527419,0.927793483136,0.358611603881,-0.0363206024959
0.0414991863072,-0.189565345645,-0.121231436729,-2.07402062416,-0.266170024872,1.88826417923,-0.73327678442,0.0430878400803,-0.25404921174,0.206896156073,-0.187387689948,-0.0327387601137,-1.44314289093,-0.0314593315125,-0.000312400836265,0.49776994978,-0.0879862341995,0.404481056665,0.106167311445,0.92638171479,0.358654003056,-0.0437347260101
0.036378543824,-0.185660883784,-0.125290408731,-2.07458424568,-0.295568436384,1.88769900799,-0.73327600956,0.0430878400803,-0.261143475771,0.181779712439,-0.20822685957,-0.0289148632437,-1.49255537987,-0.0168585348874,0.000449181476142,0.496973352247,-0.0977071497562,0.40343284012,0.117479692059,0.924701347886,0.358372818292,-0.0519120599047
0.028474945575,-0.180410534143,-0.131349802017,-2.07516169548,-0.339284181595,1.88742756844,-0.733272016048,0.0430878400803,-0.272073000669,0.183851450682,-0.215121433139,-0.0101161897182,-1.53786039352,-0.00131708791014,0.000211570193642,0.495753046118,-0.112236047278,0.402576218205,0.134361925038,0.921895795393,0.357784054842,-0.0636049158468
0.0234136451036,-0.177320241928,-0.135602742434,-2.0752248764,-0.367088913918,1.88740849495,-0.733270466328,0.0430878400803,-0.288467824459,0.146791100502,-0.249981001019,-0.002562380163,-1.55383872986,-0.00189409661107,-0.00051226222422,0.494922956383,-0.121645787911,0.402459103941,0.145076555168,0.919976775055,0.357180100958,-0.0708371488796
0.0190805848688,-0.175253629684,-0.139460787177,-2.07523727417,-0.3903003335,1.88741469383,-0.733269870281,0.0430878400803,-0.286619901657,0.13528303802,-0.262198150158,0.00011217554129,-1.54791641235,0.00342309288681,-2.2610560336e-05,0.494095208355,-0.129673327922,0.402718368573,0.154012346164,0.918338333111,0.356445178529,-0.076692486931
0.0135920858011,-0.172818154097,-0.144609898329,-2.07520103455,-0.419685453176,1.88743340969,-0.733266174793,0.0430884957314,-0.301307022572,0.120954580605,-0.294461965561,0.00346152787097,-1.54690897465,-0.000772799772676,6.73436079524e-05,0.492925995599,-0.139919487565,0.403271021971,0.165246862108,0.916153059953,0.35536665337,-0.0840927265359
-0.00113699305803,-0.168411612511,-0.159928902984,-2.07519745827,-0.495120495558,1.88758206367,-0.733262121677,0.0430884957314,-0.299584358931,0.0660498738289,-0.32664501667,0.00424577714875,-1.52546441555,0.00342736486346,0.000370796653442,0.48888456917,-0.167268938857,0.406082058745,0.193623174528,0.910271866621,0.351186586595,-0.102874565366
-0.00702236127108,-0.16719442606,-0.166465938091,-2.07503437996,-0.523890435696,1.88782036304,-0.73326176405,0.0430884957314,-0.306034475565,0.0617036186159,-0.345611095428,0.0128869535401,-1.48763895035,0.0223094765097,-0.00021236872999,0.487013235031,-0.178043626133,0.4076623401,0.204296948324,0.907911836745,0.349102748203,-0.109936911361
-0.0119322156534,-0.16635414958,-0.172070547938,-2.07483768463,-0.547365605831,1.88815331459,-0.733260750771,0.0430884957314,-0.312375217676,0.041400257498,-0.364859074354,0.0163101386279,-1.46525120735,0.0171099212021,-0.000419883872382,0.485353242414,-0.186958502651,0.40914079607,0.212945786654,0.905933673541,0.347220560827,-0.115655319411
