imanlab/tactile_prediction_flat_dataset/train/data_sample_2021-11-24-15-31-50/robot_state.csv
position_panda_joint1,position_panda_joint2,position_panda_joint3,position_panda_joint4,position_panda_joint5,position_panda_joint6,position_panda_joint7,position_panda_finger,velocity_panda_joint1,velocity_panda_joint2,velocity_panda_joint3,velocity_panda_joint4,velocity_panda_joint5,velocity_panda_joint6,velocity_panda_joint7,ee_state_position_x,ee_state_position_y,ee_state_position_z,ee_state_orientation_x,ee_state_orientation_y,ee_state_orientation_z,ee_state_orientation_w
0.124684423208,0.0708945766091,-0.137427017093,-2.51547718048,-0.0592414289713,2.5942196846,-0.765608966351,0.0627871826291,0.000179839888006,7.54813081585e-05,-0.000274789636023,8.37519473862e-05,-2.18370405491e-05,7.20109746908e-05,6.08846457908e-05,0.46701620497,-0.0099491612765,0.141609296022,0.0204164115128,0.920137983394,0.391042242063,-0.00390208427024
0.124680250883,0.0708958730102,-0.137427046895,-2.51547455788,-0.0592414438725,2.59422707558,-0.765608727932,0.0627871826291,-4.41812408098e-05,-0.000706778024323,-0.000319569167914,0.000266696384642,-1.1324676052e-05,-4.33597670053e-05,0.000114027629024,0.467018842273,-0.00995107429267,0.14161030961,0.0204180733048,0.920138802777,0.39104026702,-0.00389809659027
0.124675326049,0.0708970502019,-0.137428477407,-2.51547527313,-0.0592400841415,2.59423804283,-0.765608370304,0.0627871826291,-0.000383657199563,4.94124506076e-05,3.65144529724e-07,-0.000358902208973,6.15772441961e-05,1.86353645404e-05,0.000175169450813,0.46702058919,-0.00995390226585,0.14161049261,0.0204194276439,0.92014028086,0.391036761045,-0.00389380359683
0.124672673643,0.0708973929286,-0.13742877543,-2.5154774189,-0.0592408590019,2.59424543381,-0.765608727932,0.0627871826291,-0.000220182162593,-0.00143004627898,-0.000249094533501,-0.000225447423873,1.49790848809e-05,0.00133451772854,-0.00252964789979,0.467021033331,-0.00995522794708,0.141610220367,0.0204204543379,0.920140611715,0.391035950712,-0.0038916126724
0.124676957726,0.0708922147751,-0.137427076697,-2.51547765732,-0.0592391379178,2.59426116943,-0.765609025955,0.0627871826291,0.000142244418385,-0.00321846897714,-9.85820224741e-05,0.000168800557731,-1.99406185857e-05,0.000229620345635,0.000109332875581,0.467025382653,-0.00995203438052,0.141613924714,0.0204234509577,0.920139608145,0.391038254894,-0.0038816318986
0.124676920474,0.0708949863911,-0.137429639697,-2.51547527313,-0.0592393241823,2.59426879883,-0.76560908556,0.0627871826291,-0.000600965868216,0.000138611008879,0.000482197006932,0.000411182205426,7.7550575952e-05,0.00207902654074,-0.00529750389978,0.467027375938,-0.00995318675727,0.14161394536,0.0204249590161,0.920139896398,0.391037524081,-0.00387898803739
0.1246734038,0.0708946585655,-0.137428998947,-2.51547551155,-0.0592374652624,2.59428191185,-0.765608727932,0.0627871826291,0.000162140364409,-0.000635185919236,0.000129488253151,0.000475527398521,3.79792400054e-05,0.0001557370706,0.00020514211792,0.467030462628,-0.0099543668183,0.141615436842,0.0204268891733,0.92014089586,0.39103514034,-0.00387203638975
0.124676443636,0.0708986371756,-0.137427687645,-2.51547598839,-0.059237845242,2.59429097176,-0.765609681606,0.0627871826291,0.0004893943551,5.14701532666e-05,0.000287012255285,-0.000195827364223,-0.000132308923639,-0.000170851824805,-0.000167830759892,0.467031485449,-0.00995231849444,0.141614230496,0.0204279140135,0.920139730939,0.391037848846,-0.00386992608177
0.124679200351,0.0708951205015,-0.13742941618,-2.51547694206,-0.059237703681,2.59430623055,-0.765608489513,0.0627878382802,-2.21574155148e-05,-4.83723160869e-05,-0.000232654347201,0.000103476791992,6.48550048936e-05,4.82469768031e-05,0.000232075413805,0.467035015833,-0.00995158547038,0.141616884101,0.0204309460162,0.920139709755,0.391037823363,-0.00386152275946
0.124672524631,0.0708982944489,-0.13742980361,-2.51547408104,-0.0592356584966,2.59432268143,-0.765607774258,0.0627878382802,-0.000114056776511,2.89976596832e-05,-0.000281186803477,0.000231053796597,5.99477134529e-05,0.000252683908911,-0.000524723320268,0.467039360566,-0.00995469645081,0.141617926134,0.0204335205846,0.920141476871,0.391033605714,-0.00385391530046
0.124680161476,0.070905700326,-0.137426704168,-2.51547765732,-0.0592368580401,2.59433555603,-0.765608429909,0.0627871826291,0.000443541357527,0.000924563559238,-0.000103568396298,-9.94926813291e-05,8.92502139322e-05,5.53009485884e-05,-5.50281001779e-05,0.467039073659,-0.00994970340538,0.141614346076,0.0204342812112,0.920138951037,0.391039517621,-0.00385308669884
0.124676056206,0.0708989202976,-0.137429878116,-2.5154747963,-0.0592366084456,2.59434890747,-0.76560819149,0.0627871826291,-0.000340902683092,0.000380183599191,-3.93731606891e-05,0.000317073077895,3.75330419047e-05,-8.05133240647e-05,-7.44963617763e-05,0.467044638029,-0.00995281924326,0.141619727463,0.0204381932924,0.920140405143,0.391035997131,-0.00384235711398
0.124679140747,0.0708982869983,-0.137427777052,-2.51547503471,-0.0592369399965,2.59435772896,-0.765607714653,0.0627871826291,0.000574342906475,0.000957353797276,-1.3016046978e-05,-0.000456343957921,1.19638316392e-05,0.00115597597323,0.000259124819422,0.467046449969,-0.00995011333515,0.141620202591,0.0204397399372,0.92013937641,0.391038377154,-0.00383826605144
0.124679476023,0.0709037557244,-0.137427955866,-2.51547861099,-0.0592364817858,2.59436869621,-0.765608489513,0.0627871826291,-0.0001194837605,3.05825997202e-05,3.19669306919e-05,6.67106432957e-05,-5.86430869589e-05,3.22743871948e-05,-5.97548896621e-05,0.467046173819,-0.00995016411851,0.141617871607,0.0204401974201,0.920139198705,0.391038782835,-0.00383710008038
0.124674029648,0.070904545486,-0.137429252267,-2.51547765732,-0.0592365339398,2.59437417984,-0.765608251095,0.0627871826291,-0.000575186510105,0.000565589230973,0.000129441759782,8.22153597255e-05,4.16863440478e-05,-1.75535205926e-05,-9.85797305475e-05,0.467047632382,-0.00995328710357,0.141618349757,0.020441300869,0.920140519304,0.391035642546,-0.00383456576046
0.124670311809,0.0709031522274,-0.137430861592,-2.51547622681,-0.0592360794544,2.59438180923,-0.765609025955,0.0627871826291,-0.000695677590556,-0.000427988212323,-2.98743016174e-05,-0.000158216003911,5.22192458448e-05,-6.07905203651e-05,1.73871067091e-05,0.467050226052,-0.00995565687081,0.141620202637,0.0204430696529,0.920141446144,0.391033416736,-0.00382970872724
0.124674998224,0.0709021314979,-0.137430176139,-2.51547694206,-0.0592360161245,2.59438920021,-0.765609383583,0.0627871826291,0.000680832599755,-0.000716777576599,0.000475004577311,2.51542787737e-05,-0.000132496468723,0.00033743455424,0.000131754568429,0.467051725436,-0.00995302255083,0.141621073426,0.0204443508488,0.920140298766,0.39103608567,-0.00382602808993
0.124681726098,0.0709034353495,-0.137427181005,-2.51547956467,-0.0592361912131,2.59441399574,-0.765608370304,0.0627871826291,-0.000416952971136,-0.000159425282618,-8.8488595793e-05,-0.000649339635856,-2.82839864667e-05,0.00184199307114,-9.17920406209e-05,0.467055662758,-0.00994817910237,0.141621725898,0.0204480155467,0.920138424057,0.391040401892,-0.00381615032087
0.124676950276,0.0709016099572,-0.137427985668,-2.51547956467,-0.0592366307974,2.59442210197,-0.765610337257,0.0627878382802,3.26263543684e-05,-0.000848433119245,-0.000199427406187,0.000326084555127,-1.06341094579e-05,0.000297314749332,-1.51506237671e-05,0.467058123711,-0.00995062409245,0.14162375335,0.0204500922145,0.920138952374,0.391039101734,-0.00381085933883
0.124673508108,0.070901222527,-0.137427791953,-2.51547408104,-0.0592361018062,2.59443283081,-0.765609681606,0.0627878382802,-0.000146628837683,0.000574720441364,0.000499478308484,0.000299005856505,0.0003659108188,-5.47056260984e-05,4.76847071695e-06,0.467062849318,-0.00995204385833,0.141626426825,0.0204527514964,0.920139807252,0.391037019044,-0.0038038777191
0.124675236642,0.0709016397595,-0.137430861592,-2.51547551155,-0.0592345446348,2.59444785118,-0.765608727932,0.0627878382802,0.000109351429273,-0.00024190552358,0.000140062184073,0.000378661265131,4.01103425247e-05,5.89661140111e-05,-1.70248986251e-05,0.467065318314,-0.00995247425979,0.141627072645,0.0204548059317,0.920140432298,0.391035501897,-0.00379759175366
0.124676801264,0.0709029063582,-0.137428402901,-2.51547789574,-0.0592352561653,2.59448218346,-0.765609145164,0.0627878382802,0.000452405452961,-0.000512529048137,0.000143013705383,-1.65117526194e-05,-0.000140247153467,0.000429603271186,-8.21672365419e-05,0.467071406383,-0.00995020600301,0.141628686641,0.020460353994,0.920139244868,0.391038144641,-0.00378326394405
0.124679327011,0.0709018111229,-0.137427702546,-2.51547861099,-0.0592357181013,2.59449791908,-0.76560819149,0.0627878382802,0.00030288900598,0.00032570559415,0.000159430957865,5.95896599407e-05,-6.79501135892e-06,0.000611948198639,0.000137479932164,0.467074718659,-0.00994849245967,0.141630340191,0.0204632541106,0.920138635599,0.391039499541,-0.00377571054264
0.124674916267,0.0709052234888,-0.137427613139,-2.51547527313,-0.0592357069254,2.59451413155,-0.765607714653,0.0627878382802,0.000140801246744,-0.000801060697995,-0.0002424253762,6.98927033227e-05,2.95852532872e-05,-5.44045287825e-05,0.000672967056744,0.467079234167,-0.00995040582122,0.141631425181,0.0204663294592,0.920139471652,0.391037442918,-0.00376828672551
0.124673984945,0.0709016919136,-0.137429460883,-2.51547956467,-0.0592347867787,2.59457111359,-0.765609502792,0.0627878382802,0.000202310271561,-0.000538535008673,-0.000316283112625,-5.18008273502e-05,0.000101590943814,0.00284419860691,-0.00010777990974,0.467090153513,-0.00995091456041,0.141636612774,0.0204759158264,0.920139505662,0.391037114393,-0.00374190332934
0.124676004052,0.0709037035704,-0.137428939342,-2.5154800415,-0.0592351518571,2.59457969666,-0.765608787537,0.0627878382802,-0.000366693100659,0.000496187072713,-0.00046884935,0.000508269644342,-1.83554002433e-05,0.000316498451866,-8.16425381345e-05,0.467092683888,-0.00994976036552,0.141637078716,0.0204776571067,0.920139025261,0.391038193918,-0.00373769042363
0.124678343534,0.0709025189281,-0.137426942587,-2.5154774189,-0.0592348836362,2.59460830688,-0.765610337257,0.0627878382802,3.36752018484e-05,0.000293837540084,-7.72218991187e-05,-0.000217325054109,-8.52403827594e-05,-0.000126844417537,-0.000308008224238,0.4670992446,-0.00994725631229,0.141640328811,0.020482798384,0.920137767544,0.391041016019,-0.00372386643761
0.124675936997,0.0709064751863,-0.137429252267,-2.51547718048,-0.0592344850302,2.59467029572,-0.765611827374,0.0626854002476,-7.39523093216e-05,-0.000668647058774,0.000190596023458,-0.00011214222468,3.75552881451e-05,0.00144872022793,-0.000348912290065,0.467112084337,-0.0099488263407,0.141644151055,0.0204933011821,0.920138094411,0.391039953942,-0.00369674500635
0.124676734209,0.0709056556225,-0.137429654598,-2.51547956467,-0.0592337734997,2.59474635124,-0.765615105629,0.0626854002476,-0.00160855031572,-0.000222615242819,-1.87857312994e-06,-0.000231147816521,-0.000136957634822,0.00583177991211,-0.000436627684394,0.467127630964,-0.00994768465522,0.141650481404,0.0205062971429,0.920137061427,0.391042031428,-0.00366187181201
0.124675922096,0.0709048807621,-0.13742865622,-2.51547622681,-0.059230722487,2.59504771233,-0.765618085861,0.0626854002476,4.04288221034e-05,-0.000437514478108,0.000239370172494,-0.000885150046088,0.000169345497852,0.0120489820838,-0.00237637781538,0.467195142425,-0.0099438571814,0.141679058824,0.020559898419,0.920135214404,0.391044875782,-0.00351889143468
0.124672688544,0.0709084123373,-0.137430891395,-2.5154812336,-0.0592307150364,2.59515023232,-0.765617489815,0.0626854002476,0.000336053635692,0.000323775602737,6.32989831502e-05,0.000151944914251,-0.000171721883817,0.00239242822863,0.00024734143517,0.467214261758,-0.00994528484445,0.141684816031,0.0205767075013,0.920135788145,0.391043033626,-0.00347505652957
0.124675311148,0.0709062442183,-0.137429863214,-2.51547384262,-0.0592300742865,2.59521961212,-0.765616118908,0.0626854002476,0.000386975065339,-0.000913597643375,-0.000341026956448,0.000336435070494,9.69039974734e-05,0.00608029821888,0.000578279432375,0.467233531257,-0.0099426810911,0.141694718572,0.0205906500135,0.920135049443,0.39104436465,-0.00343809193561
0.124675214291,0.0709054172039,-0.137429028749,-2.5154736042,-0.0592301040888,2.59528470039,-0.765618860722,0.0566191151738,-0.000349162728526,0.00102076679468,-0.000110150474939,5.33781276317e-05,-0.000109687571239,0.00449116528034,0.000243931674049,0.467242168985,-0.00994095613464,0.141698541074,0.0205977551379,0.920134046597,0.391046513809,-0.00341942930019
0.124677240849,0.0709065422416,-0.137429490685,-2.5154774189,-0.0592310987413,2.59543323517,-0.765619039536,0.0566191151738,0.00051067234017,0.00110373238567,-0.000240224369918,7.71682753111e-05,-4.92019098601e-05,0.00251088943332,-0.000350136222551,0.467278269365,-0.00993908473632,0.141712454996,0.0206281169083,0.920132588777,0.391049028586,-0.00334017773047
0.124674700201,0.0709065869451,-0.137429580092,-2.51547765732,-0.0592306144536,2.59560751915,-0.765617489815,0.0566191151738,0.000207581266295,0.000492467428558,-0.000388264306821,-0.000665172934532,-5.90081108385e-05,0.00329297268763,2.0068275262e-05,0.467316099147,-0.00993821361636,0.141727996257,0.0206589443596,0.920132449629,0.391048414833,-0.00325884907545
0.124677360058,0.07090639323,-0.137429490685,-2.51547455788,-0.0592308603227,2.59600663185,-0.765617012978,0.0566191151738,-0.000230554011068,0.00121186149772,-9.59393582889e-05,-0.000257129897363,-0.000117656389193,0.0068217003718,0.00043862379971,0.467404689684,-0.00993217002183,0.141765071785,0.0207306389946,0.920129555885,0.391052950934,-0.00307086974222
0.124675408006,0.0709085986018,-0.137429714203,-2.51547765732,-0.0592310018837,2.59649777412,-0.765618026257,0.0566191151738,0.000610296672676,0.000580614432693,0.000379412784241,0.000185172350029,5.74093137402e-05,0.00854993984103,0.000132527638925,0.467509708033,-0.00992736715558,0.14180710523,0.020817100237,0.920126742573,0.391056693585,-0.00284394526094
0.124676398933,0.0709087476134,-0.137428298593,-2.5154800415,-0.0592311583459,2.59669160843,-0.765617489815,0.0566191151738,-0.000184605931281,0.000353215145878,8.34752354422e-05,7.68214522395e-05,-0.000100190853118,0.00873915944248,-0.000334978161845,0.467550734322,-0.00992390990689,0.1418236134,0.0208510667492,0.920125149211,0.391059273111,-0.00275452356675
0.124676771462,0.0709092840552,-0.137428343296,-2.51547431946,-0.0592310503125,2.59685444832,-0.765618085861,0.0566191151738,-0.000239108398091,-0.000736100540962,0.000123371370137,-0.000188183505088,2.79712512565e-05,0.0136705581099,-0.000312727614073,0.467588972171,-0.00992183373659,0.141840108904,0.0208810804902,0.92012396387,0.391061005308,-0.00267607893306
0.124675638974,0.0709075182676,-0.137427166104,-2.51547384262,-0.0592310465872,2.59701895714,-0.765617847443,0.0518477745354,-0.000552493031137,1.47956052388e-05,0.000225061608944,-4.59931470687e-05,-1.36691614898e-05,0.00637239264324,0.000270885066129,0.467625377056,-0.00991979000469,0.141855915458,0.0209106346191,0.920122973385,0.391062282191,-0.00259814126739
0.124675139785,0.0709095224738,-0.137429952621,-2.51547932625,-0.0592311248183,2.59723234177,-0.765616416931,0.0518477745354,-0.000106138992123,-3.32205272571e-05,-0.000713187095243,-0.000637227320112,-6.56314005028e-05,0.00840596389025,0.000502739916556,0.467669893235,-0.00991890201515,0.14187273281,0.0209484163973,0.92012259298,0.391061800535,-0.00249911618097
0.124674580991,0.0709082409739,-0.137428939342,-2.51547646523,-0.0592309683561,2.59732270241,-0.765618145466,0.0518477745354,-0.000213992607314,-0.000363362167263,0.000239154076553,0.000188236255781,0.000194960011868,0.00216984702274,-0.000202595692826,0.467690056458,-0.00991750978928,0.141882019082,0.0209640652353,0.920121553375,0.391063669694,-0.00245782643867
0.12467224896,0.0709091946483,-0.137429535389,-2.51547956467,-0.0592309311032,2.59740710258,-0.765617609024,0.0518477745354,6.8033747084e-05,0.00021144420316,0.000278491410427,-0.000257737323409,8.03354487289e-05,0.00474612182006,4.12713307014e-05,0.467706676579,-0.00991788990762,0.141888066589,0.0209783296135,0.920121697502,0.39106279969,-0.00242030027697
0.124676913023,0.0709059461951,-0.137428805232,-2.51547908783,-0.0592312924564,2.5974984169,-0.765618085861,0.0518477745354,-9.34414347284e-05,6.89333683113e-05,-0.000638768833596,-0.000123220015666,3.69726185454e-05,0.00858259014785,-0.000155103814905,0.467727469611,-0.00991420347479,0.141897977863,0.02099517772,0.92011991102,0.391066371522,-0.0023758375267
0.124676644802,0.0709058642387,-0.137428939342,-2.51546883583,-0.0592306964099,2.59762883186,-0.76561820507,0.0518477745354,-0.000190614766325,-3.59341138392e-05,-0.000386231287848,-0.000162543481565,8.12536090962e-05,0.011476055719,-9.35184798436e-05,0.467761011461,-0.00991283602837,0.141913508512,0.021020305746,0.920119220799,0.391067039352,-0.00231012487303
0.12467584759,0.0709048956633,-0.137429475784,-2.5154337883,-0.0592300184071,2.59790086746,-0.765619039536,0.0518477745354,2.61516888713e-05,-0.000211697712075,7.78031608206e-05,0.00269892602228,-9.06818877411e-06,0.0212649274617,0.000199926944333,0.467837957287,-0.00991025713714,0.141951255056,0.021075722937,0.920117640153,0.391068597811,-0.00216648777531
0.124674044549,0.0709013566375,-0.137429684401,-2.51540613174,-0.0592299625278,2.59849953651,-0.765618145466,0.0518477745354,-3.92389665649e-05,0.000525986542925,0.000103783808299,-0.000225089257583,-0.00131453818176,0.0269949771464,9.12789546419e-05,0.467982778669,-0.0099040251556,0.142017059558,0.0211882326538,0.920114249996,0.391072013022,-0.00187244856288
0.124669410288,0.0709042698145,-0.137430101633,-2.51544809341,-0.0592305324972,2.59898400307,-0.765618860722,0.0518477745354,0.000399139302317,-0.000329211557982,-0.000163562217494,-0.000328357215039,-4.11336004618e-05,0.00674506789073,0.000190650476725,0.46806662258,-0.00990057413052,0.142044300594,0.0212656930396,0.920111786967,0.391074533948,-0.00166684220089
0.124667257071,0.0709099844098,-0.137432798743,-2.51544547081,-0.0592301040888,2.59909105301,-0.765619575977,0.0518477745354,-0.000573627126869,0.00134754809551,-0.000142950884765,0.000595949764829,-0.000180498114787,0.0022066491656,-0.000155570814968,0.468090104856,-0.00990172280158,0.142052314276,0.0212844607981,0.920111924634,0.39107339244,-0.00161841962393
0.124667778611,0.0709202513099,-0.137433767319,-2.51544618607,-0.0592305622995,2.59914636612,-0.765620946884,0.0518477745354,0.000281762186205,0.000429637002526,0.000482726929476,-0.000540666282177,2.99369676213e-05,0.00636917958036,-0.00012575337314,0.468099836685,-0.00990154096422,0.142052313734,0.0212928907465,0.920111267261,0.391074564511,-0.00159791693741
0.124667301774,0.0709249526262,-0.137431398034,-2.51545763016,-0.0592300370336,2.59919071198,-0.765619218349,0.0518477745354,-0.00177312409505,-0.000868708884809,-0.000183786978596,-0.000435796304373,9.81537050393e-06,0.000670431822073,-0.000342480896506,0.468102883385,-0.00990015640537,0.142049978667,0.021297626789,0.920111030752,0.391074917325,-0.00158458288661
0.124669328332,0.0709152966738,-0.137432053685,-2.51545333862,-0.059230979532,2.59922623634,-0.765621066093,0.0482111535966,-0.000251198129263,3.86685023841e-05,-0.00035603690776,-0.000283341360046,-3.62762002624e-05,-0.000110615197627,-0.000310938543407,0.468114606878,-0.00989891518217,0.142059235494,0.0213063776484,0.920110011654,0.391076931266,-0.00156148635423
0.124665498734,0.0709172710776,-0.137433037162,-2.51545786858,-0.0592299029231,2.59922671318,-0.765623450279,0.0482111535966,0.000192305451492,-0.000233889964875,0.000664724386297,-0.000164359575137,7.19058516552e-06,6.13808078924e-05,4.48752252851e-05,0.468112022241,-0.0099011688018,0.142056719564,0.021305049714,0.920110668517,0.391075447067,-0.00156426363917
0.124665409327,0.0709080845118,-0.137433335185,-2.51545286179,-0.0592306554317,2.59922671318,-0.765623807907,0.0482111535966,-0.000169641687535,-0.000388308457332,-0.00012098915613,0.00073719752254,-5.11894450028e-06,3.22022265209e-06,-0.000399157521315,0.468116265888,-0.00990117746447,0.142062798847,0.021307504665,0.920110557781,0.391075600285,-0.00155764204393
0.124671049416,0.0709018334746,-0.137433737516,-2.51545596123,-0.059230312705,2.59922766685,-0.765625238419,0.0482111535966,-0.00018346257275,0.000305653869873,-0.000557947088964,0.000168098820723,-6.43568637315e-05,0.000132082670461,0.000408905005315,0.468116158782,-0.00989854946626,0.142064655164,0.0213078400299,0.920109322717,0.391078496193,-0.00155553828
0.124666050076,0.0709043964744,-0.137434095144,-2.51545596123,-0.0592304430902,2.59922909737,-0.765626251698,0.0482111535966,0.000448978273198,-0.00025883235503,0.000276197621133,0.000144710604218,-6.22933439445e-05,0.00010776858835,0.00020450798911,0.468115932265,-0.00990111015998,0.142063599382,0.0213077823543,0.920110134113,0.39107658774,-0.00155618674086
0.124671421945,0.0709045156837,-0.137430921197,-2.51545667648,-0.0592308230698,2.59923100471,-0.765625834465,0.0482111535966,0.000627415720373,0.000256731465925,0.000369494926417,1.29180091335e-06,-0.000116316565254,-1.9882190827e-05,-1.48499816532e-06,0.468116046537,-0.00989706322838,0.14206344211,0.0213079515395,0.920108470954,0.391080493881,-0.00155559250561
0.124668136239,0.0709034428,-0.137432679534,-2.51545357704,-0.0592311024666,2.59923362732,-0.765626072884,0.0482111535966,-0.00109039410017,6.06446883467e-05,-0.000597368751187,2.10351117857e-05,-1.6062591385e-05,-0.000135225665872,-0.00078389828559,0.468118068294,-0.0098997737109,0.142065113733,0.0213092550081,0.920109334564,0.391078402044,-0.00155281530937
0.124665945768,0.0709051787853,-0.137433037162,-2.51545405388,-0.0592308342457,2.5992333889,-0.765626907349,0.0482111535966,0.000365276093362,0.000211496648262,0.000180721675861,0.000322003033943,3.31335722876e-05,-0.000133591296617,-0.000409448344726,0.468117680558,-0.00990063781801,0.142064315031,0.0213088806138,0.920109720254,0.391077511453,-0.00155371108202
0.124671682715,0.0709030255675,-0.137431949377,-2.51545500755,-0.0592317394912,2.59923458099,-0.765626192093,0.0482111535966,0.000551634118892,2.13766943489e-05,-0.00056798820151,-0.000443319033366,-9.38312659855e-05,-3.90793393308e-05,0.000254390703049,0.468117937673,-0.00989739581068,0.142065069813,0.0213093817832,0.920108369075,0.391080667712,-0.00155255586938
0.12466969341,0.0709026381373,-0.137432873249,-2.51545763016,-0.0592308528721,2.59923768044,-0.765626490116,0.0403107963502,0.000275002676062,-6.16450342932e-05,-9.06333079911e-05,0.000430285406765,-7.51145635149e-05,-0.00139923242386,-8.1139143731e-05,0.468117344651,-0.00989868414627,0.142064579321,0.0213092739926,0.920109014504,0.391079156966,-0.00155207554983
0.124668598175,0.0709062740207,-0.137431964278,-2.51545834541,-0.0592306740582,2.59923934937,-0.765625238419,0.0403107963502,0.000241813715547,-0.000217288557906,3.91542525904e-05,-0.000106299266918,-3.21082952723e-05,-0.000196324050194,-0.000188127087313,0.468116657421,-0.00989881790961,0.142062781394,0.0213088562749,0.920109309401,0.391078480917,-0.00155333315234
0.124672174454,0.0709040462971,-0.137432083488,-2.51545763016,-0.0592293068767,2.5992398262,-0.765627145767,0.0403107963502,0.000245032715611,-0.000468561745947,-0.000227320080739,-6.70502922731e-05,7.20361686035e-06,9.33037445066e-05,-2.51573565038e-05,0.468117573623,-0.00989709296104,0.142064115212,0.0213090662914,0.920108495588,0.39108039121,-0.00155155861159
0.124669641256,0.0709035247564,-0.137432843447,-2.51545667648,-0.0592311397195,2.59924006462,-0.765626907349,0.0403107963502,0.000302374828607,-0.000148954059114,0.000290967902401,-0.000126514045405,8.83890752448e-05,1.35927866722e-05,0.000496258202475,0.46811817285,-0.00989870010447,0.142064731773,0.0213098362276,0.920108868744,0.391079473593,-0.0015509848595
0.124671541154,0.0709075257182,-0.137432649732,-2.51545739174,-0.059229966253,2.59924197197,-0.765627503395,0.0403107963502,-7.13833142072e-05,0.00108573085163,2.92194617941e-05,2.13963157876e-05,4.79721056763e-05,0.000392038782593,-1.41543732752e-05,0.468117490704,-0.00989774378466,0.142062788235,0.0213091964749,0.920108524057,0.391080314556,-0.00155220853777
0.124670498073,0.0709048584104,-0.137433379889,-2.51546239853,-0.059230890125,2.59924077988,-0.765627145767,0.0403107963502,0.000138900941238,-0.00270895240828,-0.000324427470332,-0.000351069524186,-0.000135298701935,-1.22612063933e-05,0.000137791867019,0.468115216227,-0.00989855504836,0.142062099778,0.0213085877898,0.920108801178,0.391079689052,-0.00155388986657
0.1246695593,0.0709067359567,-0.137432351708,-2.51546239853,-0.059230197221,2.59924125671,-0.765626907349,0.0403107963502,0.000115379880299,-0.000286553142359,-0.000181493887794,-5.56322884222e-05,-3.97765106754e-05,2.22168546316e-05,-0.000170443265233,0.468114962418,-0.00989851341663,0.142061267182,0.0213082143188,0.920108943382,0.391079372461,-0.00155448646146
0.124666891992,0.0709057226777,-0.13743545115,-2.51546168327,-0.0592310875654,2.59924197197,-0.76562923193,0.0403107963502,-0.00359997292981,-0.0026376999449,-1.04492153241e-06,-0.00352509622462,0.000117241914268,6.40731814201e-05,-0.000163896809681,0.468115617423,-0.00990125366207,0.142062077847,0.0213089374866,0.920109456094,0.391078130523,-0.00155354379022
0.124671109021,0.0709065571427,-0.137433439493,-2.51546287537,-0.0592315904796,2.59924435616,-0.765627264977,0.0403107963502,-0.000563114299439,-0.000222450966248,4.37368998973e-06,1.23375921248e-05,-1.35805903483e-05,-4.43238022854e-05,-6.53461102047e-05,0.468115440561,-0.00989832026619,0.142061464797,0.0213090662008,0.920108522354,0.391080321246,-0.00155332072535
0.124668948352,0.0709065049887,-0.137433990836,-2.51545906067,-0.0592306703329,2.59924507141,-0.765627264977,0.0403107963502,0.000131552646053,0.00165768177249,-0.000219669309445,0.000327503919834,-1.68380447576e-05,-0.000173408974661,0.000260566594079,0.468116760943,-0.00989940239161,0.142062177057,0.0213094142913,0.920108901719,0.391079415479,-0.00155187327826
0.124667748809,0.0709061026573,-0.13743300736,-2.5154633522,-0.059229966253,2.59924435616,-0.765626788139,0.0403107963502,0.000317695230478,2.4752029276e-05,3.76722673536e-05,-3.13136843033e-05,3.33271746058e-05,-0.000139342562761,0.000306225178065,0.468115256014,-0.00989961250033,0.142061497321,0.0213086252214,0.920109469148,0.391078118275,-0.00155317847196
0.124669477344,0.0709075555205,-0.137431994081,-2.51546144485,-0.0592291839421,2.5992462635,-0.765628576279,0.0404894091189,-0.000182619711268,0.00265440880321,0.000174238244654,-0.00011340596393,0.000127014849568,-0.000710828928277,0.000188196834642,0.468116374554,-0.00989830397281,0.142061684727,0.0213089275784,0.920108700502,0.391079914851,-0.00155201408396
0.124665908515,0.0709063783288,-0.137433081865,-2.51546311378,-0.0592306256294,2.59924817085,-0.765628457069,0.0404894091189,-7.92427599663e-05,1.96739420062e-05,0.000105253631773,-0.00032445054967,1.93348587345e-05,-1.53466498887e-05,-0.000129614796606,0.468116135307,-0.00990049608205,0.142061803333,0.021309472205,0.920109376997,0.391078295497,-0.00155152518494
0.124672286212,0.07090754807,-0.137431785464,-2.51546192169,-0.0592314265668,2.59924912453,-0.765627145767,0.0404894091189,0.000427207385655,-0.00025991210714,-3.88526605093e-05,0.000172891726834,7.51209518057e-05,3.14156131935e-05,0.000254547718214,0.46811679264,-0.00989693751219,0.14206177642,0.021309877068,0.920107986422,0.391081546904,-0.0015510690263
0.124676063657,0.0709065198898,-0.137429177761,-2.51546430588,-0.0592312067747,2.59924936295,-0.765629053116,0.0404894091189,2.09960780921e-05,0.000184780947166,0.000278076040559,-3.76594471163e-05,-7.42572665331e-05,0.000123045305372,-0.000171601568582,0.468115904677,-0.00989387465828,0.142061394265,0.0213094421416,0.920106409371,0.391085279402,-0.0015514593721
0.124663755298,0.0709092766047,-0.137433975935,-2.51546120644,-0.0592299252748,2.59924983978,-0.765625834465,0.0404894091189,0.000473575782962,0.000951202644501,0.00283018988557,0.000180319882929,0.000118277625006,-5.13070117449e-05,3.53001451003e-05,0.468116874181,-0.00990196114219,0.142061308867,0.0213096180217,0.920110584988,0.391075446694,-0.00155120852853
0.124666601419,0.0709073916078,-0.137434735894,-2.51546263695,-0.0592290908098,2.59924864769,-0.765627682209,0.0404894091189,0.000449468177976,0.00108401838224,-0.000687013554852,-0.000107806125015,6.38719429844e-05,-8.99970327737e-05,0.000331933959387,0.468116276827,-0.00990092817032,0.142061556171,0.0213092014544,0.920109971996,0.391076910723,-0.00155143444699
0.12467225641,0.0709080025554,-0.137433096766,-2.51546192169,-0.0592300742865,2.59925079346,-0.76562744379,0.0404894091189,-0.000544434937183,-0.00338691403158,0.000363490253221,-0.000125448816107,-6.12680596532e-05,-0.000111850131361,-6.92681933288e-05,0.46811705674,-0.00989752132451,0.142061721327,0.0213098299044,0.920108408645,0.391080558744,-0.00155040152098
0.124670550227,0.0709066540003,-0.137432768941,-2.51546287537,-0.0592310167849,2.59925079346,-0.765628516674,0.0404894091189,-0.000107486572233,0.000168367638253,-0.00359838968143,-0.000161897274666,-2.52968420682e-05,-6.28836714895e-05,1.80337865459e-05,0.468116822152,-0.00989816340543,0.142061999059,0.0213100360669,0.920108310954,0.391080777722,-0.00155030766979
0.124670289457,0.070909678936,-0.137431934476,-2.51546311378,-0.059230659157,2.59925246239,-0.765628218651,0.0404894091189,0.000165738340002,0.000141078402521,0.000187216515769,0.000210461235838,-0.000138995907037,-6.81154851918e-05,3.52522729372e-05,0.468116496665,-0.00989792238384,0.142060657673,0.0213097572795,0.920108302066,0.391080810929,-0.00155103803256
0.124678298831,0.070908665657,-0.137429773808,-2.51546120644,-0.0592293031514,2.59925198555,-0.76562666893,0.0404894091189,-4.37490925833e-05,0.00363401765935,0.000537946179975,-0.000310327188345,-1.14679360195e-05,-4.5619730372e-05,0.000334034964908,0.468117634336,-0.00989307092695,0.142061765095,0.0213098043405,0.920106854943,0.391084218668,-0.00154961807758
0.124669916928,0.0709070712328,-0.137431919575,-2.51546049118,-0.0592301227152,2.5992538929,-0.765628755093,0.0404894091189,-0.000676430936437,-0.00156089710072,0.000207481105463,5.12156111654e-05,9.7078125691e-05,-6.7453351221e-05,-1.25960423247e-05,0.468118610031,-0.00989799744468,0.142062948289,0.0213107660245,0.920108351641,0.391080651873,-0.00154787089785
0.124677084386,0.070908434689,-0.137430086732,-2.51546144485,-0.0592300966382,2.59925508499,-0.765629649162,0.0405117385089,0.000480937364046,-0.00041672133375,0.000394601433072,-0.000156739537488,-0.000102385580249,4.35067449871e-05,0.000168632133864,0.468118219801,-0.00989377635495,0.142062068934,0.0213105371344,0.920106413827,0.391085221777,-0.00154829926795
0.124676808715,0.070909537375,-0.13743057847,-2.51546239853,-0.0592301078141,2.59925532341,-0.765626788139,0.0405117385089,-0.000372063397663,-0.000508604804054,6.72691385262e-05,-0.000158379465574,-5.64914444112e-05,0.000112314832222,-0.000266102870228,0.468117578811,-0.00989416280668,0.142061235236,0.0213102578176,0.920107118075,0.391083576786,-0.00154913809709
0.124667972326,0.0709082707763,-0.137433290482,-2.51546549797,-0.0592295303941,2.59925460815,-0.765628874302,0.0405117385089,-4.76672721561e-05,-0.00194066145923,-0.000200785478228,0.000225601994316,5.3637457313e-05,0.000134254369186,-0.000100417964859,0.468116001668,-0.00989955047711,0.142060642065,0.0213096231589,0.920109075563,0.39107900095,-0.00155039502214
0.124665401876,0.0709081366658,-0.137435257435,-2.51546025276,-0.0592306703329,2.59925436974,-0.765626847744,0.0405117385089,0.000178599628271,-0.00275679072365,0.00369736948051,-0.000100949124317,4.9068898079e-05,-8.91938543646e-05,-0.000211783713894,0.468118559983,-0.00990175523608,0.142062601575,0.0213109938247,0.920110156215,0.39107639244,-0.00154820215079
0.124677121639,0.070906676352,-0.13743185997,-2.51546406746,-0.0592300668359,2.5992565155,-0.765629827976,0.0405117385089,-4.65365410491e-05,-0.00126025010832,-0.000401618424803,-6.74604380038e-05,-5.71885757381e-05,0.000103376776678,0.00026167568285,0.468117800154,-0.00989465729075,0.142062511582,0.0213107069797,0.920106853399,0.39108418135,-0.00154753886224
0.12467508018,0.070908986032,-0.137431874871,-2.51546239853,-0.0592307820916,2.5992565155,-0.765627622604,0.0405117385089,-0.000940724974498,0.000202761424589,-0.000233058774029,-0.000261197710643,-2.35293882724e-05,0.000130336367874,-2.33035461861e-05,0.468117915917,-0.00989559270157,0.142061605946,0.0213107485648,0.920107422032,0.391082837696,-0.00154843778572
0.124668389559,0.0709070041776,-0.13743327558,-2.51546430588,-0.0592290237546,2.59925603867,-0.765627086163,0.0405117385089,-3.87750260415e-05,-0.000552413926926,-0.000249892298598,-0.000306729198201,0.000151721425937,3.54264302587e-05,-0.000167560530826,0.468117152981,-0.00989928496227,0.142061791158,0.0213101701279,0.920109419127,0.391078170347,-0.00154849721813
0.1246663481,0.0709087774158,-0.137435749173,-2.51546692848,-0.0592319965363,2.59925603867,-0.765627503395,0.0405334085226,-0.000117248157039,0.00157748442143,0.000238866094151,0.000151559142978,6.67407730361e-05,1.60060117196e-05,0.000184150732821,0.468115468425,-0.00990157566292,0.142060032334,0.0213101950508,0.920109706446,0.391077483369,-0.00155092654583
0.124665297568,0.0709092617035,-0.137432545424,-2.51546216011,-0.0592285990715,2.59925699234,-0.765628814697,0.0405334085226,-0.000390622910345,7.80100308475e-05,0.00023074701312,0.000260887609329,-2.60343967966e-05,-7.27034512238e-06,0.000100215118437,0.468118070406,-0.00990057780731,0.142061734867,0.02131033626,0.920109698921,0.391077504654,-0.00154808157288
0.124666579068,0.0709078460932,-0.137434765697,-2.51545953751,-0.0592302978039,2.59925889969,-0.765627622604,0.0405334085226,0.000849608564749,0.000953018723521,0.000359815952834,0.00044261594303,-3.43403044099e-05,-1.28465699163e-05,-0.000286958587822,0.468119735341,-0.00990145468215,0.14206336602,0.0213117499506,0.920110068961,0.391076566314,-0.00154572723269
0.124676436186,0.070909768343,-0.137431576848,-2.51546168327,-0.0592313148081,2.59925889969,-0.765627682209,0.0405334085226,0.000359512632713,-0.000596940575633,0.000219119669055,-2.05228152481e-05,4.92328108521e-05,0.00011757487664,7.49547907617e-05,0.468118641982,-0.00989512473048,0.142061582556,0.0213113151736,0.920107071502,0.391083635368,-0.00154746437823
0.124678365886,0.070909127593,-0.137428060174,-2.51546597481,-0.0592308267951,2.59925723076,-0.765626907349,0.0405590161681,4.42786040367e-06,-0.000311369163683,0.00049192039296,0.000118416144687,2.44529419433e-05,-0.000154037887114,-0.000532211503014,0.468116318954,-0.00989220905594,0.142060286122,0.0213100235726,0.920106169808,0.391085818345,-0.00154969281716
0.124664977193,0.0709057897329,-0.137434095144,-2.51546430588,-0.0592311359942,2.5992577076,-0.765627741814,0.0405590161681,0.000196712106117,0.000302585744066,-4.78782858409e-05,0.000208974481211,5.55455699214e-05,-2.19025096158e-05,0.000293890887406,0.468117708749,-0.00990130665628,0.142062512174,0.0213111651463,0.920109745849,0.391077351745,-0.00154740678139
0.124663807452,0.0709080249071,-0.137433558702,-2.51546669006,-0.0592292100191,2.59925866127,-0.765629410744,0.0405590161681,0.000345197331626,4.36049049313e-06,-5.45167749806e-05,-0.00054000178352,5.33483434992e-05,-0.000140724063385,0.000363436236512,0.468116289813,-0.00990155936446,0.142060690419,0.0213100659579,0.920109866544,0.391077121558,-0.001548952066
0.124668687582,0.0709072425961,-0.137433066964,-2.51546430588,-0.0592307709157,2.59925985336,-0.765627324581,0.0405590161681,0.0027402206324,-0.000311309238896,1.20017639347e-05,0.000500559108332,-9.22593026189e-05,1.43038778333e-05,-4.98662011523e-05,0.468117945063,-0.00989907093815,0.142062028032,0.0213112291472,0.920108947131,0.391079229047,-0.00154700113298
0.124671451747,0.070909075439,-0.137431934476,-2.5154645443,-0.0592308528721,2.59925985336,-0.765626847744,0.0405590161681,0.0033845200669,-0.000193371830392,1.09392358354e-05,-0.000334710552124,-7.81228118285e-06,-4.47601814813e-05,-0.000167064383277,0.468117515267,-0.00989727893473,0.142061086912,0.021310914919,0.920108262207,0.391080853892,-0.00154794220032
0.124669909477,0.0709114074707,-0.137431055307,-2.51546216011,-0.0592301338911,2.59926104546,-0.765628397465,0.0405590161681,6.24126332696e-05,-0.00124155613594,-0.0020526398439,0.000276307226159,6.69583314448e-05,-4.56412235508e-05,-0.000263871042989,0.468118516823,-0.00989759904112,0.142060976412,0.0213110830923,0.920108197374,0.391080999575,-0.00154735786187
0.124670393765,0.0709107741714,-0.137432947755,-2.51546287537,-0.0592306889594,2.59926176071,-0.765627682209,0.0405590161681,0.000117798277643,-0.000157179267262,0.00305943703279,-5.51145094505e-05,-1.3016561752e-05,-9.46307845879e-05,-0.000159636038006,0.468118365338,-0.00989837105043,0.142061150208,0.0213113272441,0.920108481437,0.391080319052,-0.00154707828267
0.12466801703,0.0709066092968,-0.137433618307,-2.51545596123,-0.0592293739319,2.59926247597,-0.765628755093,0.0405590161681,-0.000432116561569,0.00261547346599,-0.000274991529295,0.00112152204383,-2.89415838779e-05,0.000143014171044,0.000210983096622,0.468122798275,-0.0098995731448,0.142065594625,0.0213131422605,0.920109118469,0.39107874322,-0.00154154491656
0.12466968596,0.0708904787898,-0.13743300736,-2.51545071602,-0.0592311359942,2.5992629528,-0.765629768372,0.0405590161681,-0.000405298807891,-0.000995903159492,-0.000226262913202,-0.00023856072221,-3.38605459547e-05,-0.000100144752651,-0.000373627379304,0.468128606653,-0.00989819007527,0.142075018055,0.0213168933993,0.920108196489,0.391080748103,-0.00153132446058
0.124678686261,0.0708805546165,-0.137431710958,-2.51544594765,-0.0592296533287,2.59926486015,-0.765630185604,0.0405590161681,0.000165421355632,-0.00035473756725,-0.00010374114936,-0.000601928215474,-5.8069555962e-05,-0.000112945541332,-7.42293850635e-05,0.468132948933,-0.00989279012132,0.142081051849,0.0213189803885,0.920106250604,0.391085241339,-0.00152393010446
0.124675489962,0.0708854198456,-0.137431010604,-2.51544737816,-0.0592307299376,2.5992667675,-0.765629053116,0.0405590161681,0.000285731657641,0.000155437373905,-0.00101277895737,-0.000226866963203,4.8744110245e-05,-2.20849688048e-05,-0.000199763147975,0.46813213856,-0.00989434177959,0.142078911201,0.0213187765041,0.920106863415,0.391083804838,-0.00152543127804
0.12466891855,0.0708910375834,-0.137432083488,-2.51544451714,-0.0592311024666,2.59926843643,-0.765630602837,0.0405590161681,-0.00012723384134,0.000473793392302,0.00038550386671,0.000437898561358,-1.03542124634e-05,3.43309766322e-05,-0.000181853058166,0.468132795838,-0.00989806853648,0.142077506306,0.0213189995585,0.920107963127,0.391081202409,-0.00152618913931
0.1246695593,0.0708908364177,-0.137432083488,-2.5154440403,-0.0592301115394,2.59927105904,-0.76562833786,0.0405590161681,-3.61972306564e-05,0.000352316448698,-9.66183943092e-05,-2.80754993582e-05,-0.000153214597958,9.70356122707e-05,-4.15682334278e-05,0.468133641085,-0.00989785887961,0.14207810818,0.0213191934323,0.920108615595,0.391079663562,-0.00152444385945
0.124674417078,0.0708753466606,-0.137431338429,-2.51543569565,-0.0592317432165,2.59927415848,-0.765630543232,0.0405590161681,0.00037200798397,-0.00182800961193,-0.000394246599171,0.000684521277435,-8.23760274216e-05,2.28979697567e-05,-5.83688561164e-05,0.46814148895,-0.00989474333231,0.142088500141,0.0213240726497,0.920106627071,0.391084124597,-0.00151192465444
0.124673321843,0.0708539187908,-0.137433588505,-2.51542496681,-0.0592297054827,2.59927916527,-0.765631616116,0.0406220555305,-0.000622657418717,-0.000162766795256,-0.000191598883248,-0.000583289773203,4.10480824939e-05,-0.000146709819091,-0.000112853980681,0.468151815142,-0.00989599637794,0.142102829225,0.0213295845798,0.920107531183,0.391081764884,-0.00149423516226
0.124672591686,0.0708540678024,-0.137432292104,-2.51542425156,-0.0592295788229,2.59928512573,-0.765630841255,0.0406220555305,-0.000254652142758,-0.000332317227731,-0.000782773364335,0.000556133221835,-5.97121879764e-06,-0.00012692528253,0.000224905845243,0.468153603454,-0.00989536893376,0.142103516334,0.0213307469755,0.92010743704,0.391081934732,-0.00149115606456
0.12466853857,0.0708565115929,-0.1374322474,-2.51542520523,-0.0592304654419,2.59928870201,-0.76563090086,0.0406220555305,-9.81418270385e-05,-0.000313710101182,3.02127918985e-05,0.000281977409031,1.34417832669e-05,1.34735273605e-05,-0.000411613000324,0.468153403073,-0.00989729091107,0.142102362516,0.0213310653729,0.920108028662,0.39108052516,-0.00149122916564
0.124667182565,0.0708576962352,-0.137433901429,-2.51542568207,-0.0592302121222,2.59929060936,-0.765630543232,0.0406220555305,-3.79992852686e-05,-0.000383946695365,-0.00146608811338,-0.000284007866867,1.21634366224e-05,0.000524055329151,0.00203438079916,0.468153327783,-0.00989871479107,0.142101820672,0.0213311399492,0.920108713726,0.391078909637,-0.00149114459757
0.124670296907,0.0708574354649,-0.137432321906,-2.51542401314,-0.0592304132879,2.59929633141,-0.765629947186,0.0406220555305,0.000194728301722,-0.000265849608695,0.000477789231809,0.000203502757358,-1.88762817288e-06,1.60338186106e-05,-0.000150912965182,0.468155501395,-0.00989643537797,0.142103059892,0.021332527633,0.920107839016,0.391080905671,-0.00148753078605
0.124672442675,0.0708608105779,-0.137432292104,-2.51542425156,-0.059229567647,2.59929847717,-0.765629708767,0.0406220555305,-0.00255223852582,-0.000420080847107,-3.35804434144e-05,0.000541903311387,-7.89437908679e-05,0.000120054326544,0.000388970249332,0.468155229975,-0.00989543850961,0.142101602536,0.0213321969107,0.920107584104,0.391081521099,-0.00148814881145
0.124670550227,0.0708593279123,-0.137433215976,-2.5154235363,-0.0592294298112,2.59929847717,-0.765631139278,0.0406220555305,0.000629108631983,-0.000671983871143,0.000155284971697,-0.000198337904294,-2.49185995926e-05,-0.00011575595272,3.47248624166e-06,0.468155842217,-0.00989672983395,0.142102553865,0.0213325388448,0.920107879756,0.39108081066,-0.00148714890766
0.124671928585,0.070858605206,-0.137432917953,-2.51542401314,-0.0592286363244,2.59930348396,-0.765630960464,0.0406220555305,-7.31104082661e-05,-0.00262934807688,5.45977891306e-05,0.00036071476643,0.000199054542463,0.00284617510624,-0.000260761647951,0.468156844911,-0.00989583318135,0.142103166363,0.0213332325893,0.920107691324,0.391081225916,-0.0014845778406
0.124675177038,0.0708561316133,-0.137431025505,-2.51542472839,-0.0592284761369,2.59930443764,-0.76563167572,0.0406220555305,0.000102181023976,0.000666791456752,-0.000248863711022,-0.00043857327546,2.36505111388e-05,0.000301532330923,-0.000218756293179,0.468157210479,-0.00989332520075,0.142104129249,0.0213334970207,0.920106575529,0.391083841914,-0.00148318870102
0.124671198428,0.0708576366305,-0.137431994081,-2.5154299736,-0.0592293106019,2.59930372238,-0.765630602837,0.0406220555305,-0.000131032604259,0.000222102782573,-0.000361383135896,-0.000256457016803,2.85099631583e-05,0.000112597292173,0.000292705924949,0.468154099122,-0.00989571467851,0.142101465081,0.0213323391452,0.920107616759,0.391081441709,-0.00148678194398
0.124670214951,0.0708561092615,-0.137432605028,-2.5154311657,-0.0592305026948,2.59930586815,-0.765629708767,0.0377044863999,-0.000348077184753,0.000311454350594,0.000134960428113,3.62499631592e-05,9.98362083919e-05,5.25307477801e-05,8.6466265202e-05,0.468154245813,-0.00989644825847,0.142101938314,0.0213329967669,0.920107887874,0.391080771998,-0.00148572438674
0.124663256109,0.0708596631885,-0.137436464429,-2.51542282104,-0.0592310093343,2.59930801392,-0.76563000679,0.0377044863999,-0.00397035898641,-5.65654372622e-05,-0.000258313404629,-0.000236620006035,-2.46405033977e-05,8.47673654789e-05,0.000221102221985,0.468158115166,-0.009901660274,0.142103541167,0.0213348163678,0.920109820444,0.391076136916,-0.00148281852909
0.124669782817,0.0708624571562,-0.137434259057,-2.51542878151,-0.0592300705612,2.5993077755,-0.76562923193,0.0377044863999,0.00100807659328,-0.000390485074604,0.000161188698257,-0.000126180850202,-0.000139766838402,-3.94576782128e-05,0.00285756983794,0.468154632973,-0.0098975631601,0.142100044851,0.021332898458,0.920108431966,0.39107949323,-0.00148678372518
0.124679759145,0.0708612501621,-0.137428566813,-2.51542329788,-0.0592294447124,2.59930896759,-0.765629947186,0.0377044863999,-0.000212110709981,-0.00151855684817,-0.000251550896792,0.000462451687781,-2.75601469184e-05,0.00570644531399,-1.1921335954e-06,0.468158009253,-0.00989010643583,0.142102678459,0.0213340459129,0.92010533,0.391086743576,-0.00148285912625
0.124669767916,0.0708602443337,-0.137430518866,-2.51543092728,-0.0592314973474,2.59930944443,-0.765631258488,0.0377044863999,-0.000252082070801,-0.000582405133173,-0.000347710243659,-0.000451736035757,5.00637252117e-05,-0.000275957019767,0.000240406763623,0.468154374115,-0.00989574874592,0.142100424923,0.0213332832379,0.920107062734,0.391082696604,-0.00148601190464
0.124670289457,0.0708589330316,-0.137433171272,-2.51542329788,-0.0592289157212,2.59931302071,-0.765630483627,0.0377044863999,6.57167038298e-05,0.000208745055716,0.00138357782271,0.000282148015685,-2.44466900767e-05,-0.000146394755575,-0.000229394907365,0.468159197938,-0.00989662829631,0.142104140698,0.0213351024475,0.920108039325,0.391080322515,-0.00147999845859
0.124668687582,0.0708615109324,-0.137433841825,-2.51542925835,-0.059229940176,2.59931230545,-0.765632212162,0.0377038307488,-0.000251212914009,0.000459183182102,1.98747238755e-05,-0.000537413114216,-4.87279576191e-05,-3.93536938645e-05,8.56232727529e-05,0.468155551691,-0.0098977925985,0.142100718134,0.0213336892905,0.920107976199,0.391080531245,-0.00148445253901
0.124669916928,0.07085929811,-0.137433588505,-2.51540517807,-0.0592291653156,2.59931254387,-0.765631139278,0.0377038307488,3.94749586121e-05,-0.000511377700604,0.000350390357198,-0.000161594871315,-0.000120645643619,-3.24207394442e-05,-0.000274165504379,0.468168084788,-0.00989707558777,0.142110522242,0.0213386872459,0.920108001297,0.391080246032,-0.00147214847723
0.124678388238,0.0708518996835,-0.137430116534,-2.51540827751,-0.0592293813825,2.59931159019,-0.765631616116,0.0377038307488,-0.000389551278204,0.00112980953418,-0.000335249089403,0.00161308015231,-8.52295215736e-06,0.000113665773824,0.00010317943088,0.468167840308,-0.00989127724783,0.142112719617,0.0213388483505,0.920105565599,0.391085974618,-0.0014703213208
0.124671511352,0.0708323270082,-0.137432336807,-2.51538300514,-0.0592305809259,2.59930920601,-0.765632450581,0.0377038307488,-0.00055478856666,-0.0015237624757,0.00273028737865,-4.99874295201e-05,-7.10129243089e-05,-0.000293562887236,-9.59660028457e-05,0.468183589099,-0.00989524037079,0.142130778143,0.0213465447029,0.920106996293,0.39108226185,-0.00145070669207
0.124665178359,0.0707744583488,-0.13743391633,-2.51531982422,-0.0592303201556,2.59929060936,-0.76563346386,0.0377038307488,0.00299148052,-0.00353862438351,0.000323872925946,0.00107546593063,4.99705929542e-05,-2.37986914726e-05,-2.62329194811e-05,0.468222035878,-0.00989797381748,0.142178899216,0.0213638539243,0.920108550981,0.391077833891,-0.00140273972293
0.12466814369,0.0707276314497,-0.137432441115,-2.51528263092,-0.059229966253,2.5992808342,-0.76563000679,0.0377038307488,0.000203861287446,-0.00651197507977,0.00238460395485,0.00208809878677,0.000140120115248,-0.0016943361843,-0.000497794011608,0.468251749959,-0.00989436732288,0.142219523614,0.0213777969171,0.920108448719,0.391077459162,-0.00136125369295
0.124665334821,0.0706381201744,-0.137433245778,-2.51512479782,-0.0592292845249,2.59923839569,-0.765630960464,0.0377038307488,-0.000595934630837,-0.00208914582618,-0.000206860713661,0.00607885001227,6.53731258353e-05,-0.00307676312514,2.66309798462e-05,0.468334047809,-0.00989545607911,0.142308316274,0.0214121983525,0.920109426335,0.391073576938,-0.00127217731017
0.124655537307,0.0705793350935,-0.137440606952,-2.5149269104,-0.0592279434204,2.59903097153,-0.765632688999,0.0377038307488,-0.000119614240248,-0.00602164771408,-0.000104638158518,0.00897998455912,-0.000103833932371,-0.0207156017423,0.000487289624289,0.468398856892,-0.00990515471538,0.142388816516,0.0214230888988,0.92011394912,0.391062409481,-0.00125038813465
0.124681808054,0.070081859827,-0.137424230576,-2.51420903206,-0.0592264831066,2.59713983536,-0.765629947186,0.0377038307488,0.000812574813608,-0.0167277585715,-0.000389902997995,0.0183283537626,0.00018368435849,-0.0533955730498,0.000263679568889,0.468440709236,-0.00989770356919,0.14270931638,0.0212983905787,0.920119521164,0.391054976549,-0.00156535300939
0.124682672322,0.0697012022138,-0.137423872948,-2.51386094093,-0.0592269934714,2.59602069855,-0.765629827976,0.0377038307488,0.000133940833621,-0.0282180644572,-0.000183281794307,0.0211238674819,-6.79840741213e-05,-0.0728173777461,-1.00431861938e-06,0.468442963269,-0.00990246524806,0.142911262009,0.0212215701797,0.920127201643,0.391040316755,-0.00174588399293
0.124689429998,0.0691450685263,-0.137422278523,-2.51339864731,-0.0592275187373,2.59442186356,-0.765630125999,0.0377038307488,-0.000258809217485,-0.0452867113054,-0.000304280925775,0.0367544367909,2.57484207395e-05,-0.126360192895,-0.000431078573456,0.46843078424,-0.00990577528049,0.143192949152,0.0211063615472,0.920136828885,0.391022610546,-0.00201379142424
0.124681375921,0.0680138170719,-0.1374245435,-2.51247143745,-0.0592269524932,2.59097146988,-0.765628874302,0.0377038307488,-0.00115834455937,-0.0643660053611,-0.000511890219059,0.0490785837173,6.73089671182e-05,-0.206826671958,0.00286584720016,0.468354956455,-0.00992765502887,0.143744135905,0.0208337868667,0.920163397168,0.390970860039,-0.00265746497041
0.124670170248,0.0654835626483,-0.137431457639,-2.51064538956,-0.0592271983624,2.58361339569,-0.765629589558,0.0377038307488,0.000361200713087,-0.110751256347,0.00018153716519,0.0820266380906,0.000100795659819,-0.320922851562,-0.00021137384465,0.468135052893,-0.00996946218018,0.14492293274,0.0202381566245,0.920217220869,0.390863581922,-0.00404270236649
0.124680228531,0.0637005716562,-0.137426361442,-2.50924253464,-0.059227604419,2.57823348045,-0.765629649162,0.0377038307488,0.00251468853094,-0.12812384963,-0.00126512162387,0.100673489273,-0.000117951771244,-0.404605209827,0.000180014365469,0.467980046982,-0.00998993025843,0.145844798398,0.0197736858133,0.92025186846,0.390792963212,-0.00513415344447
0.124691210687,0.0608090534806,-0.137420013547,-2.50708699226,-0.0592284314334,2.56985545158,-0.765628695488,0.0377025157213,0.000234056598856,-0.177159205079,0.00051299209008,0.124434761703,0.000246245996095,-0.473502844572,7.04234626028e-05,0.467767729022,-0.0100184416553,0.147167697909,0.019143752276,0.920299414924,0.39069046628,-0.00659263830846
0.124704532325,0.0567093081772,-0.137410923839,-2.50425696373,-0.0592283979058,2.55890679359,-0.765630304813,0.0377025157213,0.000356438162271,-0.213778659701,0.000190309932805,0.143872693181,-7.08880033926e-05,-0.55880343914,0.000501643109601,0.467538224446,-0.0100489651301,0.149038102714,0.0183643287158,0.920358822785,0.390554385047,-0.00834630190779
0.124687694013,0.0443558059633,-0.137420117855,-2.4958012104,-0.0592290014029,2.52831435204,-0.765630662441,0.0377025157213,-1.30261369122e-05,-0.316293716431,6.32211231277e-05,0.222159534693,4.30418640462e-06,-0.754618287086,-0.00037037927541,0.467193186,-0.0101674010223,0.155339219625,0.0162544907729,0.920544013668,0.390086776144,-0.0129157728745
0.124686874449,0.0390359535813,-0.137422859669,-2.49181866646,-0.0592346191406,2.5156929493,-0.765629589558,0.0377025157213,-0.000687032123096,-0.351606041193,-0.000614476797637,0.260353863239,0.000509611330926,-0.809971570969,-0.000381358782761,0.46729284494,-0.0102113884885,0.158209336114,0.0155289700309,0.92061501601,0.389895713561,-0.0144282922145
0.124677337706,0.0315687097609,-0.137430980802,-2.48619389534,-0.0592338480055,2.49887895584,-0.76562911272,0.0377025157213,-6.12830044702e-05,-0.392476409674,-0.00211127405055,0.302555352449,0.00014583284792,-0.871778011322,-3.85735693271e-05,0.467581083958,-0.0102679334276,0.162133539428,0.0147152804251,0.920709561957,0.389641365655,-0.0160302493629
0.124688580632,0.0237608272582,-0.137424781919,-2.4799258709,-0.0592336654663,2.48153233528,-0.765628933907,0.0377025157213,0.00146135140676,-0.426973521709,0.000438537885202,0.346813678741,-0.000454243796412,-0.939670264721,-0.00161073391791,0.468129389623,-0.0103216344684,0.167138311137,0.0138526095859,0.920816817771,0.389348953088,-0.0176602867891
0.124707140028,0.0111223021522,-0.137412518263,-2.46932625771,-0.0592357926071,2.45393872261,-0.76562923193,0.0377025157213,0.000136222646688,-0.484865307808,6.12544754404e-05,0.425375312567,0.000183543903404,-1.0160523653,0.000104603474028,0.469143965084,-0.0104055994302,0.174811647122,0.0127680001029,0.920974313859,0.388921372434,-0.019582061489
0.12469098717,0.00276771374047,-0.137425884604,-2.46167802811,-0.0592408999801,2.43626976013,-0.765629291534,0.0377025157213,-2.01197472052e-05,-0.495100110769,-0.00029092427576,0.477051496506,0.000249589065788,-1.06714987755,4.96508473589e-05,0.470081871913,-0.010483625791,0.179891170034,0.0123040899497,0.921085861159,0.388637546548,-0.0202559334392
0.124686934054,-0.00541030429304,-0.137429282069,-2.45373725891,-0.0592392608523,2.41902542114,-0.765628278255,0.0377025157213,0.000314106437145,-0.518318235874,0.000263782916591,0.511833369732,-0.000704255478922,-1.0856423378,0.000158603070304,0.471189859295,-0.0105607852954,0.185381629384,0.0119112294708,0.921203046857,0.388346886499,-0.0207307622086
0.124697163701,-0.0342914499342,-0.137430161238,-2.42262244225,-0.0592394135892,2.35900235176,-0.765625596046,0.0377025157213,0.000492384599056,-0.549029946327,9.62669437286e-05,0.646427035332,-3.13353230013e-05,-1.16491019726,-0.000727993552573,0.475979892866,-0.0108769289767,0.206407243268,0.0112560254799,0.921648049103,0.387317357618,-0.0205776491363
0.124690428376,-0.043938074261,-0.137433305383,-2.4109814167,-0.0592370890081,2.33924627304,-0.765625536442,0.0377025157213,-0.00105631316546,-0.573352396488,0.000650311121717,0.705286800861,-0.00103910767939,-1.15764343739,-0.000188570571481,0.477923375534,-0.0110137514186,0.214086957635,0.0113226628739,0.921815971429,0.386955522938,-0.0198124979473
0.124680943787,-0.049087934196,-0.137439474463,-2.40439391136,-0.0592352375388,2.32884955406,-0.765625238419,0.0377025157213,-0.000723525008652,-0.567362129688,-0.000536619045306,0.738504230976,0.00183936662506,-1.15966022015,0.000499204383232,0.479224648957,-0.0111066217284,0.218861983065,0.0114730424671,0.921922984462,0.386732662742,-0.0190847391258
0.124703474343,-0.0632054507732,-0.137434005737,-2.38546824455,-0.0592374540865,2.30026245117,-0.765626192093,0.0377025157213,-0.000209850913961,-0.567821800709,-0.000327911606291,0.784462034702,-0.000971349247266,-1.11510586739,-0.000224278599489,0.482405644365,-0.0113193824253,0.230615372558,0.0119689956712,0.9221711645,0.386222090996,-0.0170171271604
0.124691329896,-0.0794608816504,-0.137442946434,-2.36185216904,-0.0592352189124,2.26806235313,-0.765623211861,0.0377025157213,-0.000175562105142,-0.566754460335,-0.00157683517318,0.817638814449,0.00268923258409,-1.08472073078,-1.46656357174e-05,0.486652982208,-0.0116429617377,0.245741918697,0.0130252602153,0.922496416701,0.38555414461,-0.0133680599119
0.124707520008,-0.0889079272747,-0.137435033917,-2.34719991684,-0.0592377856374,2.2499434948,-0.765623211861,0.0377025157213,0.000320066901622,-0.542432069778,-0.000532556616236,0.843876242638,-0.000745710276533,-1.05239224434,-2.96297730529e-05,0.489364852259,-0.011835599083,0.255092057878,0.0139202958857,0.922680777285,0.385169184745,-0.0105407493193
0.124696902931,-0.0974710434675,-0.137443393469,-2.33343458176,-0.0592270903289,2.23339772224,-0.765623867512,0.0377025157213,-0.00161186943296,-0.544897735119,-0.00110597535968,0.88454669714,-0.000383277627407,-1.00093662739,-0.00012067885109,0.491804360579,-0.0120467825473,0.263841281642,0.0147915441833,0.922855576435,0.38478283299,-0.0078080972955
0.124675005674,-0.106830701232,-0.13745868206,-2.31771230698,-0.0592322424054,2.21620488167,-0.765621542931,0.0377025157213,-0.000192932711798,-0.511316776276,-0.000221214650082,0.876662611961,-6.70107983751e-05,-0.945906698704,0.000363832106814,0.49471631243,-0.0123018171848,0.273863661376,0.0160357508951,0.923041640737,0.384343882868,-0.00409433059088
0.124722242355,-0.131761983037,-0.137460380793,-2.27372670174,-0.0591963082552,2.17301774025,-0.765608906746,0.0377025157213,0.00222589937039,-0.473406106234,-0.000544205307961,0.867926001549,0.00269752624445,-0.752412080765,0.00103923224378,0.502643803012,-0.012986351299,0.302186649862,0.0201741900153,0.923434846721,0.383140967087,0.00800530707125
0.124800413847,-0.138713136315,-0.137460559607,-2.26119875908,-0.0590153746307,2.16188359261,-0.765592932701,0.0377025157213,0.00581578817219,-0.452345132828,-0.000705099257175,0.809819221497,0.0311882849783,-0.726781010628,0.000900283979718,0.504818550967,-0.0131396591826,0.310403813602,0.0214648871506,0.923518333951,0.382766559146,0.0119543447417
0.124969817698,-0.147667363286,-0.137465953827,-2.24462723732,-0.0581609196961,2.14831709862,-0.765512824059,0.0377025157213,0.0135504025966,-0.429767280817,-0.000538799737114,0.808353126049,0.0461863987148,-0.639476597309,0.00759979151189,0.507712955519,-0.0132342021787,0.321338573228,0.0230965816949,0.923655350004,0.382117604575,0.0177053178468
0.12584361434,-0.166801542044,-0.137415409088,-2.20872759819,-0.0537458434701,2.12125635147,-0.764007806778,0.0377025157213,0.0297653861344,-0.365131169558,0.00174768699799,0.706407248974,0.162399694324,-0.494518786669,0.0557453483343,0.513591998012,-0.012814407031,0.345404079416,0.025896590078,0.924182263391,0.379762037537,0.0315801390789
0.126498550177,-0.173332840204,-0.137406766415,-2.19604539871,-0.050530962646,2.11280846596,-0.762846827507,0.0377025157213,0.0409132167697,-0.344426691532,0.0015215590829,0.664117872715,0.183181494474,-0.441451728344,0.074200771749,0.5156151477,-0.0122574720814,0.353989994292,0.0263282679161,0.924503156401,0.378441749292,0.0371830363075
0.127233341336,-0.178677067161,-0.137319415808,-2.18599557877,-0.0475273802876,2.10588979721,-0.761567175388,0.0377025157213,0.0519292056561,-0.326577275991,0.00911880191416,0.597191095352,0.208650752902,-0.425229012966,0.0976391136646,0.517060889471,-0.0115979289268,0.36088835693,0.0264328085446,0.924782561458,0.37728058142,0.0416879265773
0.130648672581,-0.192663148046,-0.136182263494,-2.15990877151,-0.0344617292285,2.08881735802,-0.754286110401,0.0377025157213,0.0811575874686,-0.248219966888,0.0485355444252,0.463235467672,0.325308948755,-0.318392366171,0.199076130986,0.520597311599,-0.00773203922653,0.379408643296,0.0243943539727,0.926102400251,0.372437740879,0.0550398818629
0.132343679667,-0.19725048542,-0.135029584169,-2.15134978294,-0.028247082606,2.08309936523,-0.750163555145,0.0377025157213,0.0917693302035,-0.233983546495,0.0737263858318,0.440402030945,0.333505511284,-0.279146075249,0.237797871232,0.521516375106,-0.00560055136364,0.385097208798,0.0229119835362,0.926659071158,0.370474436664,0.0593860110876
0.133975505829,-0.20056438446,-0.133655279875,-2.14467144012,-0.0228055920452,2.07882404327,-0.745808124542,0.0377025157213,0.107764422894,-0.182966440916,0.0949487909675,0.393139958382,0.342673838139,-0.259246021509,0.301555454731,0.522274283878,-0.00334354546008,0.389694361421,0.021396329103,0.927200934247,0.368603396867,0.0630250754341
0.136434927583,-0.203851386905,-0.131588622928,-2.1372191906,-0.0156172113493,2.07392859459,-0.739259839058,0.0377025157213,0.137693032622,-0.148783698678,0.116005249321,0.35292378068,0.369812339544,-0.238501384854,0.357924759388,0.52305813191,-2.77147903735e-05,0.394623069225,0.0190720014318,0.927966109004,0.366093095981,0.0670149540015
0.141031786799,-0.207633793354,-0.127155020833,-2.12785124779,-0.00456288643181,2.06734752655,-0.727721691132,0.0377025157213,0.171533435583,-0.100249350071,0.181606516242,0.293937623501,0.371360093355,-0.195766568184,0.401878714561,0.523860472918,0.00622929707249,0.400644315747,0.0150334991665,0.929031328099,0.362624540942,0.0719599006668
0.143572032452,-0.20872195065,-0.124459728599,-2.1238322258,0.000653775932733,2.0647289753,-0.721866607666,0.0377025157213,0.197041541338,-0.0628073811531,0.199477776885,0.272207587957,0.373063355684,-0.186912894249,0.429131448269,0.52422549786,0.00972022721319,0.402995926507,0.0130302364293,0.929427340987,0.361281028353,0.0739665397368
0.147545292974,-0.209482654929,-0.120393589139,-2.11898517609,0.00770677346736,2.06130838394,-0.713236927986,0.0377025157213,0.21805369854,-0.0231305155903,0.228731930256,0.24326685071,0.365430027246,-0.170770987868,0.474555760622,0.524579761254,0.0149728355326,0.405534463417,0.0101028589281,0.929937985638,0.359617186167,0.0760838629839
0.151919618249,-0.209584414959,-0.115693211555,-2.11461520195,0.0143613805994,2.05822587013,-0.703681409359,0.0377025157213,0.242050379515,0.00198785751127,0.267437011003,0.216706812382,0.334714561701,-0.154328212142,0.525269031525,0.524849387542,0.0207379862907,0.407538886329,0.0072015442705,0.930412963171,0.35810813562,0.0777072622761
0.165028870106,-0.207758620381,-0.100358165801,-2.10613775253,0.0281255338341,2.05142521858,-0.676108241081,0.0377025157213,0.311237752438,0.0735810026526,0.374191612005,0.150068581104,0.237525090575,-0.136610984802,0.603589773178,0.524770875129,0.0378396419599,0.41035170563,0.00059947873576,0.931135173519,0.355936748163,0.0793470872328
0.170375093818,-0.206393286586,-0.0938862189651,-2.10376763344,0.0316966325045,2.04918146133,-0.665815532207,0.0377025157213,0.337642133236,0.0926923155785,0.412777811289,0.146642610431,0.213980749249,-0.142589956522,0.657369971275,0.52447565628,0.0446367854096,0.410664994818,-0.00131943797884,0.931131952926,0.356001478035,0.0790853503836
0.176495075226,-0.204592630267,-0.0863232240081,-2.10117864609,0.0352321602404,2.04671573639,-0.653346836567,0.0377025157213,0.356136709452,0.112693168223,0.439215064049,0.141451463103,0.180044099689,-0.12315685302,0.720761299133,0.524010785302,0.0528662036702,0.410841853609,-0.00342363547228,0.931199413712,0.355938638173,0.0785087011852
0.184050828218,-0.202020764351,-0.0768316835165,-2.09837317467,0.038876209408,2.04410290718,-0.638175666332,0.0377025157213,0.366701364517,0.141567617655,0.461706548929,0.132600903511,0.17199023068,-0.120680525899,0.741435050964,0.523358545599,0.0620037242406,0.410706245339,-0.00547704343598,0.931180141259,0.356167055823,0.0775794724927
0.195154085755,-0.197706416249,-0.0621023066342,-2.09487271309,0.0428099855781,2.04063749313,-0.615674972534,0.0377031750977,0.382204204798,0.147568807006,0.533572673798,0.105976030231,0.115991421044,-0.10868550092,0.797137498856,0.521974224882,0.0762699878558,0.409927670614,-0.0080359517331,0.930996943918,0.357040388554,0.0755134062382
0.202125862241,-0.194912075996,-0.0523826293647,-2.09316015244,0.0447910539806,2.03893375397,-0.601157844067,0.0377031750977,0.389624744654,0.16587947309,0.541571497917,0.0831589102745,0.101722754538,-0.0901477411389,0.812711715698,0.520859459368,0.0853827800341,0.409185412738,-0.00939886329909,0.930843637764,0.357710319069,0.0740615333343
0.207944840193,-0.192354604602,-0.0442207343876,-2.0919482708,0.0463685169816,2.03774452209,-0.588966608047,0.0377031750977,0.394803613424,0.175804287195,0.562908172607,0.0814518034458,0.0977249220014,-0.0730741918087,0.848467886448,0.519815049543,0.0929917841789,0.408353952736,-0.0105046058376,0.93072345493,0.358267965885,0.0727156654647
0.215887367725,-0.18870921433,-0.0329348705709,-2.09045052528,0.047895796597,2.03644943237,-0.571406602859,0.0377031750977,0.393887430429,0.173537507653,0.561341881752,0.0624309778214,0.0605376847088,-0.0654905512929,0.875876426697,0.518250624174,0.103340168452,0.407077677189,-0.0117280013997,0.930661027317,0.358777018504,0.0707923505301
0.227734789252,-0.183408945799,-0.0158482044935,-2.08901882172,0.0495430715382,2.03448796272,-0.545181751251,0.0377031750977,0.394854277372,0.186955913901,0.552897393703,0.0322574228048,0.0403234399855,-0.0532363727689,0.884136140347,0.515307581498,0.118710627644,0.404803370012,-0.0132612732192,0.930508315492,0.359756510599,0.0674808580207
0.234691888094,-0.18011623621,-0.00613840762526,-2.08873939514,0.0501585379243,2.03371715546,-0.529442489147,0.0377031750977,0.392563700676,0.176305785775,0.52809458971,0.00196479819715,0.0291561037302,-0.0409953780472,0.856946825981,0.513368234527,0.127457381752,0.403115835749,-0.0140139334476,0.930526860102,0.360079332517,0.065316508446
0.241564258933,-0.177068755031,0.00299583608285,-2.08881425858,0.0504714213312,2.03275799751,-0.514209210873,0.0377031750977,0.376756101847,0.167505383492,0.497730642557,-0.00560187269002,0.00340050156228,-0.0650794357061,0.834046959877,0.511235459675,0.135747495996,0.401347863715,-0.0146278931457,0.930557528454,0.360389902398,0.0629907049772
0.247608184814,-0.174432530999,0.0109623949975,-2.08887815475,0.0504881441593,2.03143191338,-0.50080114603,0.0377031750977,0.366576433182,0.165499657393,0.486106455326,-0.00190341798589,0.000718634517398,-0.0875533148646,0.834642529488,0.509165229957,0.142908956622,0.399755628349,-0.0150487876146,0.930588612533,0.360683574895,0.0607101861359
0.263705730438,-0.167032048106,0.0317944996059,-2.09001803398,0.0503364130855,2.02695226669,-0.462398916483,0.0377025157213,0.279279023409,0.131921470165,0.355393946171,-0.0467857420444,-0.0131390690804,-0.0679206773639,0.698427319527,0.502926917691,0.161148223129,0.39480902791,-0.0160761074536,0.931232106357,0.360105162482,0.0535965903476
0.268217772245,-0.164950832725,0.0372559428215,-2.09085988998,0.0498663745821,2.02567720413,-0.451130777597,0.0377025157213,0.245436489582,0.116217166185,0.291283100843,-0.0497530959547,-0.0501359142363,-0.0803910344839,0.633874237537,0.500843814017,0.166305085667,0.393024552098,-0.0161690146539,0.931575094258,0.359570912478,0.0511386870044
0.271816015244,-0.163184449077,0.0419231466949,-2.09186220169,0.0487684309483,2.02417945862,-0.441010802984,0.0377025157213,0.186820879579,0.097046174109,0.25646930933,-0.0716500654817,-0.0826894417405,-0.0861553028226,0.564490556717,0.499047370637,0.17014303217,0.391403710844,-0.0159187124811,0.931953895037,0.358925312623,0.0487970466533
0.274814784527,-0.161384701729,0.0465663075447,-2.09329795837,0.0466355383396,2.02259016037,-0.430281281471,0.0377025157213,0.125137090683,0.0812440291047,0.194891214371,-0.0807971432805,-0.124247454107,-0.0772571414709,0.512120723724,0.49724866939,0.173449121863,0.38953694302,-0.0151767733165,0.932496147106,0.3578966076,0.0461586301536
0.277462005615,-0.159326955676,0.0502947308123,-2.09590649605,0.0419598929584,2.02050995827,-0.416604280472,0.0377025157213,0.0466062016785,0.0568168126047,0.0629055127501,-0.0943629592657,-0.192493855953,-0.057491723448,0.384359747171,0.495386099064,0.175586032892,0.386899032414,-0.0133854984624,0.933657839418,0.355381509176,0.0425188187219
0.27777838707,-0.158527076244,0.0507549159229,-2.09757184982,0.038088042289,2.01946926117,-0.410995543003,0.0377025157213,-0.00673414813355,0.0362167321146,-0.00379281491041,-0.097306445241,-0.243962094188,-0.0675900280476,0.278644144535,0.494843972715,0.17518095293,0.385527217873,-0.0117965803816,0.93433990575,0.353860775624,0.0406488914206
0.275448948145,-0.157351002097,0.0484071858227,-2.10075712204,0.0266473032534,2.01698088646,-0.404029130936,0.0377025157213,-0.125222653151,0.0238435566425,-0.132692068815,-0.0837997123599,-0.406107157469,-0.0660956352949,0.116303831339,0.494919453171,0.170897024815,0.383116859971,-0.00711890739007,0.935727870662,0.350692926592,0.037109892863
0.272246062756,-0.156830057502,0.0450108200312,-2.10235977173,0.0180430654436,2.01576781273,-0.402769058943,0.0377025157213,-0.194909274578,0.025547562167,-0.200108513236,-0.0744097605348,-0.450997978449,-0.0494852252305,0.0184800215065,0.495843234025,0.165901480041,0.381865797023,-0.00325032693157,0.936620542905,0.348555798303,0.0352171710842
0.265214025974,-0.156170859933,0.0380335785449,-2.1042714119,0.00416985852644,2.01463127136,-0.402782201767,0.0377025157213,-0.284795433283,0.0217234417796,-0.299422472715,-0.056071896106,-0.494697600603,-0.0201824977994,-0.00884997472167,0.49806791241,0.15658490368,0.380484927499,0.00270212292566,0.938149913654,0.344631709187,0.0331122749352
0.260565578938,-0.15574721992,0.0329155698419,-2.10496759415,-0.00350713334046,2.01427865028,-0.402993857861,0.0377025157213,-0.331713050604,0.0361787043512,-0.37830939889,-0.0392446555197,-0.528681993484,-0.0190285816789,-0.0298825819045,0.499691301604,0.150457355932,0.379908287026,0.00593640510892,0.939271905117,0.34160802813,0.0322025178458
0.25406190753,-0.154933452606,0.0256150085479,-2.10539627075,-0.0135600101203,2.01402688026,-0.404059737921,0.0377025157213,-0.381199836731,0.0499719455838,-0.43646645546,-0.00957398023456,-0.575550317764,-0.00443837465718,-0.0963471978903,0.502040496242,0.141953523597,0.37928427624,0.0101511384115,0.940741514455,0.337536014834,0.0311736386694
0.245714977384,-0.153880059719,0.0159168113023,-2.105448246,-0.0252772644162,2.01394987106,-0.406815111637,0.0377025157213,-0.447180300951,0.0646458044648,-0.524011671543,0.00794846192002,-0.588081598282,0.0020494251512,-0.172327756882,0.505036383848,0.131058015004,0.378752885018,0.0150295889102,0.94247542165,0.332573039845,0.030155661122
0.230529814959,-0.151771605015,-0.00199771369807,-2.10507583618,-0.0433028787374,2.01401615143,-0.414601951838,0.0377025157213,-0.531933009624,0.0766447037458,-0.647588431835,0.020765054971,-0.567595005035,0.00343545363285,-0.330545276403,0.509997899769,0.111505951648,0.377930990823,0.0224133980438,0.94533708369,0.324082807664,0.0283861102135
0.221683740616,-0.150450348854,-0.0127712460235,-2.10466146469,-0.052448887378,2.01402926445,-0.420773297548,0.0377025157213,-0.582433283329,0.0904130116105,-0.695135653019,0.0349025651813,-0.584753215313,0.000283999397652,-0.428377598524,0.512593579592,0.100083079017,0.377489535801,0.0260869752519,0.946838942423,0.31948471218,0.0272947834676
0.211955174804,-0.148815736175,-0.0244249086827,-2.10398292542,-0.0614484734833,2.01407003403,-0.428245842457,0.0377025157213,-0.616496026516,0.111128345132,-0.748874902725,0.055863302201,-0.546478033066,0.00230791815557,-0.498651921749,0.515185564181,0.0877362370072,0.377010592838,0.0296573194971,0.948390547458,0.314636981112,0.0260649706932
0.19963504374,-0.146427348256,-0.0391295738518,-2.10269498825,-0.0714488402009,2.01428127289,-0.438720464706,0.0377012044191,-0.672981142998,0.139057919383,-0.813366413116,0.0875707343221,-0.508904099464,0.0075611229986,-0.583935618401,0.518174115487,0.0722869376983,0.376444780818,0.0335643340054,0.950240253168,0.308729216252,0.024559467907
0.162632852793,-0.137046337128,-0.0839604139328,-2.09591984749,-0.0947957038879,2.01474785805,-0.474133878946,0.0377012044191,-0.769413352013,0.225724712014,-0.937226355076,0.17460514605,-0.401799589396,0.00995613820851,-0.759696245193,0.525185586549,0.0261450589264,0.374858249527,0.0423289241898,0.955518529448,0.29120128485,0.0198598451981
0.147897198796,-0.13268314302,-0.101910106838,-2.09229278564,-0.101651310921,2.01497840881,-0.48919904232,0.0377012044191,-0.781845450401,0.23747779429,-0.965727388859,0.199587836862,-0.327546924353,0.00839890819043,-0.812148690224,0.527116812119,0.00792237232303,0.374297006999,0.0447864783046,0.957568101605,0.28413269391,0.0180586293008
0.124051690102,-0.124735251069,-0.131715893745,-2.08551573753,-0.110748887062,2.0152759552,-0.514631271362,0.0377012044191,-0.797102093697,0.290273189545,-1.00506520271,0.248923495412,-0.282204419374,0.00667122798041,-0.876591384411,0.529109244301,-0.0208486043058,0.373330224952,0.0478198164656,0.960762124,0.272801750741,0.0151198784746
0.112717367709,-0.120662406087,-0.146021157503,-2.08194160461,-0.114488780499,2.01532244682,-0.527117729187,0.0377012044191,-0.807319760323,0.283554762602,-1.02551138401,0.256681501865,-0.248630568385,0.00139775767457,-0.909056484699,0.529673820873,-0.0391181491771,0.372705944038,0.0494307893006,0.96271617981,0.265632526461,0.0131725009028
0.0958307906985,-0.114729098976,-0.167381450534,-2.07628679276,-0.119498483837,2.01536250114,-0.546400308609,0.0377012044191,-0.788998782635,0.290303200483,-1.01140248775,0.288736224174,-0.219022646546,0.0012810381595,-0.920660018921,0.52969194867,-0.0572498726233,0.372271945522,0.0508973892653,0.96455552269,0.258674945927,0.0113741574014
0.081464111805,-0.109188184142,-0.185883581638,-2.07074022293,-0.123216569424,2.01538920403,-0.562910854816,0.0377018600702,-0.772636651993,0.302678853273,-1.02153670788,0.316684603691,-0.201032161713,-0.00112516141962,-0.911383807659,0.52924871868,-0.0764364176855,0.37188315083,0.0522992029989,0.966500442138,0.251098971546,0.00953912435392
0.0450079590082,-0.0954961255193,-0.233469814062,-2.05568671227,-0.132549077272,2.01533007622,-0.606329917908,0.0377018600702,-0.734297394753,0.271137773991,-0.951394498348,0.307926535606,-0.178779825568,-0.00280256569386,-0.893045723438,0.525596760435,-0.122063448847,0.371589337479,0.0559123463325,0.970722970324,0.2335432615,0.0053168707127
0.0334581956267,-0.0915417820215,-0.248669534922,-2.05073928833,-0.135193541646,2.01526999474,-0.620502471924,0.0377018600702,-0.698451697826,0.225501313806,-0.927774429321,0.313755631447,-0.157275646925,-0.00715448101982,-0.874334692955,0.523583119529,-0.136857336835,0.371766485609,0.0570696628969,0.972002743532,0.227896757525,0.00409728537803
0.0219158492982,-0.0880361273885,-0.263881266117,-2.04524159431,-0.137964621186,2.01499581337,-0.634992480278,0.0377018600702,-0.65752440691,0.194438785315,-0.869777619839,0.331700861454,-0.161717966199,-0.0259936712682,-0.831564426422,0.521233804136,-0.151688300492,0.372427393641,0.0584347763201,0.973203078724,0.222376423091,0.00314175540691
0.00915857590735,-0.0842482298613,-0.281010270119,-2.03862714767,-0.140919193625,2.01440453529,-0.651059806347,0.0377018600702,-0.62713932991,0.168770253658,-0.844194471836,0.331053972244,-0.144180431962,-0.0309382937849,-0.77978348732,0.518176535189,-0.168229255692,0.373434507958,0.060001847685,0.974527472834,0.216081758201,0.00215787698765
-0.00670721661299,-0.0807857215405,-0.301784276962,-2.02967453003,-0.144769281149,2.01324772835,-0.671183824539,0.0377018600702,-0.553192019463,0.0834975093603,-0.706590056419,0.329874992371,-0.125043809414,-0.0624006725848,-0.721306920052,0.513612585568,-0.18923137033,0.375763761093,0.0624095097078,0.976079363114,0.208259243414,0.00148903639935
-0.017944322899,-0.0791598409414,-0.316077739,-2.02238273621,-0.147228047252,2.01161146164,-0.685685396194,0.0377018600702,-0.501663088799,0.0634908601642,-0.643812298775,0.375207990408,-0.114318847656,-0.102271839976,-0.664947271347,0.510152773956,-0.203291978135,0.378193329776,0.064164548703,0.977052831163,0.203097421011,0.0014536437138
-0.0250543728471,-0.0784838944674,-0.325089544058,-2.01664018631,-0.148954436183,2.00984454155,-0.695374548435,0.0377018600702,-0.441849350929,0.0170509647578,-0.544890105724,0.385527521372,-0.125367298722,-0.152023658156,-0.631717801094,0.507874959455,-0.212213289932,0.380399154304,0.065527937112,0.977584304512,0.200080730005,0.0016486979238
-0.0335552431643,-0.0785179510713,-0.335328429937,-2.00846791267,-0.151365533471,2.00627875328,-0.707264363766,0.0377018600702,-0.405810952187,-0.00776311103255,-0.479314804077,0.430720686913,-0.10138617456,-0.20513805747,-0.562455177307,0.505288660013,-0.221729856396,0.383603995605,0.0672512321673,0.978073392764,0.197092853215,0.00202905075721
-0.0486894696951,-0.0807582810521,-0.352683633566,-1.98480141163,-0.154761150479,1.99418091774,-0.730519354343,0.0377018600702,-0.227275565267,-0.0700250789523,-0.237771242857,0.552011370659,-0.052995480597,-0.27840667963,-0.419110000134,0.500540006798,-0.241071237313,0.395159094411,0.0718288417481,0.978824818135,0.191613832257,0.00517028818742
-0.0522347427905,-0.0821963101625,-0.356270700693,-1.97467148304,-0.155673936009,1.98893475533,-0.737511873245,0.0377018600702,-0.162244930863,-0.0951608270407,-0.167171776295,0.577144563198,-0.0511225424707,-0.295059680939,-0.360346585512,0.499929931517,-0.24561621736,0.400332214406,0.0737528869867,0.978777963477,0.191060288192,0.00708349105243
-0.0547155514359,-0.0844058394432,-0.358680009842,-1.96241307259,-0.156359449029,1.9831713438,-0.743806302547,0.0377018600702,-0.0918294414878,-0.119192063808,-0.0764903947711,0.637520432472,-0.0232164282352,-0.290644735098,-0.288560926914,0.50010874534,-0.249195322326,0.406937322852,0.0762083662059,0.978561337827,0.191067935101,0.0101507094622
-0.0556571818888,-0.086298763752,-0.359321624041,-1.95273864269,-0.15652923286,1.97870993614,-0.74770629406,0.0377018600702,-0.0340496748686,-0.132438987494,-0.0114817125723,0.642942249775,-0.00191897433251,-0.309118807316,-0.225099310279,0.500772195449,-0.250810980507,0.412266214228,0.0780920506809,0.978279044161,0.191588045233,0.0128749367061
-0.0552730001509,-0.089496947825,-0.358867287636,-1.9378811121,-0.15653847158,1.97207891941,-0.751653552055,0.0377018600702,0.0573361963034,-0.153727754951,0.0584772378206,0.705498874187,0.00430634152144,-0.304102838039,-0.139946863055,0.502534657353,-0.251588547246,0.420672834182,0.0810166798927,0.977705745726,0.19292520098,0.0175396372522
-0.0535616092384,-0.0926091969013,-0.356951594353,-1.92445313931,-0.156539842486,1.96620202065,-0.753710746765,0.0377018600702,0.115949556231,-0.164189338684,0.140521138906,0.706421971321,0.00242702593096,-0.31210270524,-0.0696278214455,0.504735783304,-0.250800687574,0.428456591564,0.0837391988817,0.977017384832,0.194775533413,0.0220741383774
-0.0449400879443,-0.101766444743,-0.346133232117,-1.88933491707,-0.156316116452,1.95232653618,-0.754152238369,0.0377018600702,0.240975990891,-0.219475656748,0.327351331711,0.761138677597,0.0231066644192,-0.279077798128,0.00382280931808,0.512583669087,-0.243412851721,0.449773398825,0.0912607001753,0.974480360019,0.201945084991,0.0357448581401
-0.0404682867229,-0.105529181659,-0.33999145031,-1.87677598,-0.155640795827,1.94766485691,-0.753948509693,0.0377018600702,0.283515453339,-0.226233452559,0.381551593542,0.712856888771,0.0570642761886,-0.275978893042,0.0233153607696,0.516069480732,-0.238660649723,0.457779620255,0.0938273090095,0.973167590695,0.205990891024,0.0413404041474
-0.035412427038,-0.109224192798,-0.333468228579,-1.86554837227,-0.154581665993,1.94341397285,-0.753270328045,0.0377018600702,0.33761036396,-0.239019706845,0.421388566494,0.701493680477,0.0816504135728,-0.249503090978,0.0610332451761,0.519504378747,-0.233161273135,0.465141160097,0.0959115042893,0.971799808511,0.210294933184,0.0467135557788
-0.014847856015,-0.122253879905,-0.307634741068,-1.83186638355,-0.148617491126,1.93099105358,-0.746820867062,0.0377018600702,0.464292645454,-0.257519125938,0.58121830225,0.591565072536,0.141143068671,-0.230555772781,0.230644583702,0.531246118636,-0.209450732834,0.488542760554,0.100881337424,0.966618830489,0.226245293082,0.0654527261125
-0.00845722574741,-0.1256916821,-0.299625515938,-1.82429838181,-0.146625831723,1.92798841,-0.743320643902,0.0377018600702,0.475199103355,-0.259335786104,0.601125955582,0.535030424595,0.165768012404,-0.213750809431,0.282037675381,0.534315262518,-0.201713829671,0.494118847766,0.101560015263,0.965166628425,0.230651078953,0.0702781768836
0.00921341683716,-0.135381519794,-0.277611017227,-1.80833482742,-0.139208689332,1.92100226879,-0.731295108795,0.0377018600702,0.549846291542,-0.280117154121,0.679561495781,0.389039695263,0.260694354773,-0.182906299829,0.397913962603,0.54152522981,-0.179475720619,0.507213080564,0.101325512469,0.961484209517,0.241726369444,0.0827624152561
0.0284652076662,-0.144493386149,-0.253810971975,-1.79755842686,-0.130007088184,1.91482925415,-0.716084837914,0.0377018600702,0.587221682072,-0.281490474939,0.714086771011,0.238705903292,0.280274748802,-0.189900249243,0.492802411318,0.547690019568,-0.154408463807,0.517426928062,0.098622775587,0.95783134922,0.253077108418,0.093726364879
0.038007222116,-0.148834735155,-0.24220700562,-1.79435575008,-0.12550111115,1.91173839569,-0.707761108875,0.0377018600702,0.609548151493,-0.254963666201,0.747923314571,0.164598420262,0.289006084204,-0.194014042616,0.552740752697,0.549980182586,-0.141878970627,0.521260911668,0.0966159829368,0.956181200455,0.258385392796,0.0980808453103
0.0484411641955,-0.152861341834,-0.229457989335,-1.79213857651,-0.120413318276,1.90860450268,-0.697896838188,0.0377018600702,0.623451888561,-0.229341879487,0.757788360119,0.0944535061717,0.301979869604,-0.173485979438,0.602912664413,0.552283560379,-0.12717272727,0.524572591192,0.093760384359,0.954415303186,0.264281655554,0.102252753493
0.0599684529006,-0.157115995884,-0.215534299612,-1.79114258289,-0.114859767258,1.90515720844,-0.686368227005,0.0377018600702,0.628527522087,-0.230689138174,0.764181852341,0.0120773529634,0.277981251478,-0.187158197165,0.634053766727,0.554001218169,-0.112649752911,0.527015612901,0.0905663440509,0.952801986204,0.269845627481,0.105590953356
0.0783839896321,-0.162365436554,-0.193160757422,-1.79178082943,-0.1071318537,1.89946317673,-0.667097687721,0.0377018600702,0.611118197441,-0.118363313377,0.747447192669,-0.0555277988315,0.25080537796,-0.198856174946,0.697953820229,0.556019010331,-0.0880877962626,0.529122088524,0.0849393900909,0.95023241303,0.279217735408,0.109000537431
0.0895740166306,-0.164267241955,-0.179770290852,-1.7932600975,-0.102769307792,1.8959454298,-0.654136896133,0.0377018600702,0.628289103508,-0.0977037474513,0.755016982555,-0.113862857223,0.23431314528,-0.186376452446,0.736785829067,0.556803926927,-0.0732719454018,0.52909777784,0.081246859199,0.948939373944,0.284369222534,0.109759543606
0.100659713149,-0.16567350924,-0.166327133775,-1.79579520226,-0.0987784042954,1.89268326759,-0.640771567822,0.0377018600702,0.602005004883,-0.0546684376895,0.736071050167,-0.154114186764,0.216047108173,-0.175583735108,0.739973902702,0.55720350593,-0.0585208634582,0.528273876219,0.077541918995,0.947727377115,0.289408579262,0.109739434129
0.129058837891,-0.164980605245,-0.131981447339,-1.8083871603,-0.0895257890224,1.88660776615,-0.603139579296,0.0377018600702,0.552307248116,0.0693863928318,0.662941455841,-0.339902937412,0.158307135105,-0.0831888094544,0.769028306007,0.5568980018,-0.0208739092403,0.520863533886,0.0675546788387,0.945336085603,0.301168070559,0.105232331476
0.137100696564,-0.163514599204,-0.122332148254,-1.81393659115,-0.0873543471098,1.8854432106,-0.591662347317,0.0377018600702,0.521280109882,0.119149893522,0.621313631535,-0.400172531605,0.139183700085,-0.0656258687377,0.770672976971,0.556441305937,-0.0110245973952,0.517367311826,0.0648739361216,0.944887746227,0.304032361543,0.1026783437
0.146658867598,-0.160904973745,-0.110820114613,-1.82180011272,-0.0847390517592,1.88446307182,-0.577009499073,0.0377018600702,0.486755281687,0.155485898256,0.594813585281,-0.433007091284,0.126537889242,-0.0287307891995,0.776338040829,0.555573414168,0.00219758319205,0.511519635422,0.0611153496194,0.944492749003,0.307464683492,0.0983047771696
0.156016245484,-0.157261967659,-0.0995711907744,-1.83133339882,-0.0828211456537,1.88392710686,-0.561898887157,0.0377018600702,0.457227498293,0.214494094253,0.534016609192,-0.500707447529,0.0659246593714,-0.0208817347884,0.740382432938,0.554434613025,0.014311127033,0.50457011289,0.0577541797009,0.944293683736,0.310405334372,0.0928569957808
0.168913006783,-0.148891344666,-0.0847417116165,-1.84754145145,-0.0812864974141,1.8836479187,-0.539735615253,0.0377018600702,0.380415052176,0.305985540152,0.444199025631,-0.533342421055,0.028754176572,-0.00433470029384,0.693447649479,0.55245750368,0.0303567750531,0.491635654661,0.0532931938214,0.944427999359,0.31378481721,0.082186846239
0.174361333251,-0.143983200192,-0.0784359350801,-1.85568153858,-0.0812127813697,1.88356125355,-0.529670774937,0.0377018600702,0.336866617203,0.354122698307,0.38988211751,-0.554466247559,-0.00319553120062,-0.00600781524554,0.651603579521,0.551394911523,0.0370133727858,0.484774057601,0.0515466104343,0.944607153904,0.315022277494,0.0762970256029
0.179510474205,-0.137898340821,-0.0728551223874,-1.86469435692,-0.081211797893,1.8835272789,-0.51966625452,0.0377018600702,0.306683272123,0.415921598673,0.32690089941,-0.565294802189,0.000941417063586,-0.00214025471359,0.607796013355,0.55023841019,0.0430516825993,0.476834743743,0.0497533105013,0.94495765472,0.315859500944,0.0693715664472
0.185056969523,-0.129046842456,-0.067265637219,-1.87557125092,-0.0815075114369,1.88354218006,-0.508132457733,0.0377012044191,0.25272372365,0.473112463951,0.240249186754,-0.553488373756,-0.0417603738606,-0.00474566593766,0.56996011734,0.548915462331,0.0492403966073,0.466459300584,0.047779845477,0.945536744438,0.316315301527,0.0601828961657
0.190954595804,-0.113847538829,-0.0615633316338,-1.89183747768,-0.0840590372682,1.88350105286,-0.492308557034,0.0377012044191,0.146837204695,0.562971413136,0.152918606997,-0.544911682606,-0.136744335294,-0.00796509068459,0.497848004103,0.547011518017,0.0552208331205,0.449953037617,0.0459941771322,0.946733323313,0.315515368169,0.0450622051798
0.193005979061,-0.103148929775,-0.0591947957873,-1.90127396584,-0.0870241448283,1.88354086876,-0.483896374702,0.0377012044191,0.0851914063096,0.628173947334,0.102987959981,-0.517192661762,-0.196534603834,-0.0121337994933,0.440650582314,0.546039581781,0.0571249422608,0.439426153352,0.0456998267568,0.947495611176,0.314524383606,0.0351852872898
0.194072917104,-0.0927472561598,-0.0580347813666,-1.90945637226,-0.0906887948513,1.88349747658,-0.476994514465,0.0377012044191,0.0491486303508,0.671699881554,0.0373503193259,-0.502202272415,-0.269765943289,0.0059513701126,0.420751273632,0.545246655441,0.0576750495379,0.429728171081,0.0459445434643,0.948206395307,0.313246161413,0.0258954218714
0.194394305348,-0.0796159654856,-0.0579897612333,-1.91879332066,-0.0962146371603,1.88347434998,-0.469312250614,0.0377012044191,-0.0156405400485,0.712735295296,-0.0210111346096,-0.475511372089,-0.320979446173,0.000822295201942,0.394960284233,0.544411585089,0.0568482946716,0.418047588462,0.046824004998,0.949127203104,0.31105281914,0.0145330064918
0.190708711743,-0.0434914790094,-0.0626515075564,-1.93961501122,-0.115924365819,1.88344204426,-0.452734172344,0.0377012044191,-0.138319835067,0.772039532661,-0.160051494837,-0.391266167164,-0.479571282864,0.00205683545209,0.280530273914,0.5427549554,0.048620532821,0.388678109345,0.0519168998771,0.951359091705,0.303310891053,-0.01493376026
0.188149437308,-0.0300639327615,-0.0658520236611,-1.94603598118,-0.124533772469,1.88339269161,-0.448313266039,0.0376998893917,-0.166444987059,0.787322640419,-0.213065519929,-0.358406662941,-0.524637162685,-0.00284670176916,0.241413593292,0.542224441777,0.0438785489555,0.378531009237,0.0544961941836,0.951977728397,0.300201330709,-0.0254505439158
0.185225963593,-0.0173093769699,-0.069850191474,-1.95148527622,-0.133360058069,1.88337385654,-0.444458812475,0.0376998893917,-0.196920573711,0.811117231846,-0.276409655809,-0.320767998695,-0.573529660702,-0.00371579476632,0.23284612596,0.541778863363,0.0384770255738,0.369273099378,0.057265213676,0.952558921714,0.296838037993,-0.0352047561541
0.180509984493,-0.000465607910883,-0.076427526772,-1.95780813694,-0.145956680179,1.88329839706,-0.439994066954,0.0376998893917,-0.243407979608,0.78582072258,-0.33478230238,-0.286948055029,-0.627253174782,-0.00680573470891,0.198950260878,0.541217061088,0.0300174381576,0.357560762316,0.0613524358379,0.953294913578,0.291848543165,-0.0478446852462
0.171949252486,0.0228856597096,-0.0876291617751,-1.96579480171,-0.165981531143,1.88271141052,-0.434587270021,0.0376998893917,-0.318798065186,0.75917673111,-0.422332078218,-0.23788009584,-0.701685667038,-0.0330324061215,0.165914148092,0.540106686855,0.0155979228883,0.341899277015,0.068042896771,0.954200728044,0.283839532263,-0.0656220573782
0.16688247025,0.0341020710766,-0.0941229835153,-1.96938240528,-0.176696792245,1.88206827641,-0.432074964046,0.0376998893917,-0.360260903835,0.731597661972,-0.453072845936,-0.228149011731,-0.714182376862,-0.0573111698031,0.166250512004,0.539337179072,0.0073528571816,0.334587487982,0.0716529426704,0.954642702526,0.279260379219,-0.0744097211994
0.159607827663,0.0474666729569,-0.103106580675,-1.97351562977,-0.190219223499,1.88102805614,-0.429271548986,0.0376998893917,-0.399239182472,0.670463144779,-0.484425753355,-0.210831716657,-0.697706460953,-0.0610324777663,0.138119086623,0.538142535194,-0.00394040193579,0.326037722938,0.0761581132067,0.955244297897,0.272870397748,-0.0851470425242
0.152136296034,0.0589772090316,-0.112382560968,-1.97719073296,-0.202282294631,1.8800483942,-0.426992714405,0.0376998893917,-0.437643140554,0.609595417976,-0.539979815483,-0.198501557112,-0.656315922737,-0.0583495013416,0.12757486105,0.536751038091,-0.0152014849976,0.318726857314,0.0800590677313,0.955898691474,0.266237612441,-0.0946877538301
0.128971606493,0.0845586061478,-0.140771821141,-1.98510015011,-0.230907618999,1.87496495247,-0.421214073896,0.0376998893917,-0.513787686825,0.438343703747,-0.626945436001,-0.129515901208,-0.532208681107,-0.160331368446,0.0964655652642,0.531367131687,-0.0481565959086,0.302940957188,0.0886188784139,0.958316887455,0.244564674442,-0.118167496854
0.120418705046,0.0912303552032,-0.151137560606,-1.98683917522,-0.239036783576,1.87208366394,-0.419689565897,0.0376992337406,-0.55374199152,0.392773598433,-0.673715591431,-0.0852118954062,-0.483269542456,-0.197622820735,0.0925970822573,0.529020236022,-0.059751089624,0.299061156695,0.090765130039,0.959285296493,0.236300566158,-0.125281495944
0.110199719667,0.0976696237922,-0.163631156087,-1.98811173439,-0.247333392501,1.86842894554,-0.418257683516,0.0376992337406,-0.573122441769,0.322764337063,-0.700890421867,-0.0542302057147,-0.431808233261,-0.215984523296,0.0630327314138,0.525954457317,-0.0740938083064,0.295393501492,0.0928794367895,0.960601457156,0.225631218238,-0.13307442947
0.0918573066592,0.105384349823,-0.185641542077,-1.98895430565,-0.25929915905,1.8616297245,-0.41604116559,0.0376992337406,-0.617466747761,0.175643205643,-0.7466121912,0.00366752641276,-0.341154694557,-0.227767258883,0.0726862102747,0.520650135334,-0.0967835132261,0.291864428247,0.0953158649114,0.962939490754,0.207654473696,-0.143324953476
0.0798426270485,0.108135357499,-0.199884951115,-1.9888215065,-0.265288591385,1.85753715038,-0.414495050907,0.0376992337406,-0.632123827934,0.105252109468,-0.752403318882,0.00939267501235,-0.290538609028,-0.194949924946,0.0801532641053,0.516933903338,-0.111572107501,0.290895824988,0.0963404427068,0.964678660965,0.195080296808,-0.148516927209
0.0696397051215,0.109268501401,-0.212066218257,-1.98851025105,-0.269562244415,1.85459017754,-0.412954509258,0.0376992337406,-0.632811963558,0.0376052260399,-0.784911394119,0.0328109525144,-0.251531928778,-0.180980473757,0.104785613716,0.513686264828,-0.123934227697,0.290772081806,0.0969712625524,0.966250184505,0.184059054669,-0.151919120818
0.0580199174583,0.109295770526,-0.226194292307,-1.98773252964,-0.273754715919,1.85119307041,-0.411176204681,0.0376992337406,-0.658975064754,-0.012923989445,-0.787953853607,0.067149117589,-0.214263647795,-0.18786637485,0.0875413790345,0.50979044025,-0.137932818495,0.291434541897,0.097473421468,0.968089784985,0.17114256441,-0.154955873251
0.0455226935446,0.108666233718,-0.241003602743,-1.98582828045,-0.277562320232,1.84756052494,-0.409319847822,0.0376992337406,-0.657133102417,-0.0600678473711,-0.782619774342,0.133723244071,-0.191458672285,-0.205205798149,0.102553091943,0.50564132766,-0.152594256878,0.292892684203,0.0978748398201,0.970027636875,0.157224204112,-0.157313218653
0.0288894753903,0.105903156102,-0.2608050704,-1.98200559616,-0.282149404287,1.84257996082,-0.406494140625,0.0377005450428,-0.650913715363,-0.133174479008,-0.766233682632,0.174786061049,-0.165985450149,-0.175903350115,0.122294776142,0.49993076872,-0.171952686153,0.296312521301,0.0984683362332,0.972598838758,0.13817257247,-0.158945983017
0.0132431555539,0.102490134537,-0.279597580433,-1.97733139992,-0.285817444324,1.83897042274,-0.403304427862,0.0377005450428,-0.660173177719,-0.181340008974,-0.798657596111,0.201837405562,-0.15523122251,-0.140422031283,0.144309610128,0.494485743982,-0.190030237961,0.300386473545,0.0991076362458,0.974967223964,0.119717738709,-0.159010224094
0.00283579644747,0.0990989357233,-0.29215207696,-1.97398662567,-0.288344591856,1.83697497845,-0.400704503059,0.0377005450428,-0.641960799694,-0.237408623099,-0.764048933983,0.219241455197,-0.134113758802,-0.115754880011,0.180838167667,0.490677267659,-0.202025980626,0.303765144405,0.0997477205762,0.976494094735,0.107127636995,-0.158219291727
-0.00795916840434,0.0947806611657,-0.30487844348,-1.9699794054,-0.290310829878,1.83521389961,-0.397370100021,0.0377005450428,-0.63828510046,-0.261043399572,-0.752244532108,0.258487552404,-0.107614345849,-0.0947634130716,0.211317718029,0.48674604831,-0.214179193983,0.307853900566,0.10036520429,0.97808824314,0.0937088372282,-0.156489194261
-0.0374146327376,0.079494677484,-0.340348511934,-1.95665884018,-0.294096946716,1.83147621155,-0.383453726768,0.0377005450428,-0.563069105148,-0.361607074738,-0.69424110651,0.279432326555,-0.0390292778611,-0.0496737323701,0.346408247948,0.475232274273,-0.24727380453,0.321671365524,0.102491047611,0.982181663355,0.0536859606313,-0.148096531547
-0.0561134926975,0.0659687593579,-0.363227248192,-1.94734370708,-0.294409483671,1.83026921749,-0.370605826378,0.0377005450428,-0.49910992384,-0.425845593214,-0.615038096905,0.256875455379,0.000534150400199,-0.0341541878879,0.399957746267,0.467086913868,-0.267897029912,0.33257091623,0.103721729398,0.984450076557,0.0254746313281,-0.139466456446
-0.065147832036,0.0576011091471,-0.374604225159,-1.9424983263,-0.294303894043,1.82968938351,-0.362468332052,0.0377005450428,-0.458751112223,-0.451753765345,-0.581264078617,0.255039840937,0.00873497128487,-0.0365637391806,0.458792299032,0.462757319061,-0.277902938166,0.338844754721,0.104449874434,0.985389375742,0.0105365294492,-0.134115558939
-0.0842607915401,0.0347317606211,-0.398120433092,-1.93244361877,-0.291130930185,1.82815992832,-0.338274329901,0.0377005450428,-0.35860657692,-0.51583814621,-0.435911417007,0.178323462605,0.151339590549,-0.0335778668523,0.557253777981,0.452960149075,-0.297649011695,0.353937111676,0.105149094542,0.986905858117,-0.0243485527464,-0.119865102541
-0.0899008363485,0.025904128328,-0.404894709587,-1.92952692509,-0.28794491291,1.82769632339,-0.328996509314,0.0377005450428,-0.311354190111,-0.519812405109,-0.369583547115,0.165380001068,0.223577350378,-0.0248470827937,0.546104192734,0.449689098699,-0.303389416451,0.359626531574,0.104470484762,0.98731445057,-0.037044433864,-0.113682906041
-0.0950859487057,0.0166306681931,-0.41109135747,-1.9267321825,-0.283698379993,1.82712304592,-0.318965554237,0.0377005450428,-0.267269670963,-0.511672198772,-0.321100771427,0.146500617266,0.266555905342,-0.0401888266206,0.568530201912,0.446815675028,-0.308077380927,0.365074299451,0.103358998543,0.987609182421,-0.049057400309,-0.107416904581
-0.106606543064,-0.0165053345263,-0.42301183939,-1.9198050499,-0.256741881371,1.82464504242,-0.280432224274,0.0377005450428,-0.0781524628401,-0.48976367712,-0.076866671443,0.0787898600101,0.5396682024,-0.0310494024307,0.590248942375,0.441329470155,-0.314585460128,0.382490968112,0.0939321662055,0.988328351035,-0.0862436864351,-0.0833417358894
-0.107588000596,-0.0256370976567,-0.423734247684,-1.91837978363,-0.246022090316,1.8238902092,-0.268985599279,0.0377005450428,-0.0174367129803,-0.472423166037,-0.00592113984749,0.0730895400047,0.574925541878,-0.0468130037189,0.617096781731,0.441347856742,-0.31363345217,0.386947810025,0.0898485326819,0.988495715775,-0.0949284512991,-0.0761055181972
-0.107306018472,-0.03377578035,-0.423380464315,-1.91708159447,-0.235208749771,1.82297587395,-0.257981210947,0.0377005450428,0.0448393821716,-0.430826961994,0.0411886461079,0.0741161778569,0.633355557919,-0.0530106052756,0.594064116478,0.442072734382,-0.311600015617,0.39089744845,0.0856538881588,0.98863947808,-0.102153115554,-0.0694271885105
-0.103029429913,-0.0504265390337,-0.418334573507,-1.91389381886,-0.205591186881,1.82088685036,-0.232092648745,0.0377005450428,0.155724585056,-0.33487418294,0.181662350893,0.0633750557899,0.685362040997,-0.0486713163555,0.619406104088,0.446904820051,-0.302097018453,0.399438160311,0.0733822075664,0.98908838125,-0.116071031276,-0.0533548599909
-0.0994501709938,-0.0568827316165,-0.413945943117,-1.91278755665,-0.191518455744,1.81986451149,-0.219722494483,0.0377005450428,0.202735483646,-0.303244739771,0.259384512901,0.0485345907509,0.719248652458,-0.0535217635334,0.615459680557,0.449767085252,-0.296690869965,0.402234752244,0.0682452858247,0.989273552617,-0.120049136251,-0.0476300707295
-0.0954251140356,-0.0618590265512,-0.408611625433,-1.91189754009,-0.178233101964,1.81881558895,-0.208853393793,0.0377005450428,0.239361003041,-0.252945244312,0.326699793339,0.0464335158467,0.752156674862,-0.0556841269135,0.61214441061,0.453238165843,-0.290190425236,0.404642650647,0.0628054236904,0.989527478467,-0.12287408367,-0.042341556108
-0.0801302790642,-0.0727862343192,-0.389089852571,-1.91036188602,-0.139652833343,1.81591892242,-0.176085576415,0.0377005450428,0.371905505657,-0.166118457913,0.456487745047,0.0241902507842,0.801986157894,-0.0469793602824,0.691218435764,0.464990335799,-0.267396183008,0.40978533744,0.0467217408866,0.990296246621,-0.127497998957,-0.0295750370721
-0.0735023841262,-0.075449988246,-0.380903303623,-1.90997195244,-0.126018419862,1.81527447701,-0.164055854082,0.0377005450428,0.396550685167,-0.147365063429,0.500872910023,0.0139759322628,0.80958122015,-0.0318275541067,0.729275405407,0.469694735689,-0.258051044006,0.411089212131,0.0410277168746,0.990590896926,-0.127996905902,-0.0257525368416
-0.0645059496164,-0.078338816762,-0.369570672512,-1.90978372097,-0.108868189156,1.81471657753,-0.148114427924,0.0376998893917,0.452409446239,-0.122885070741,0.569090545177,0.00681811524555,0.825300455093,-0.0160174984485,0.786714553833,0.475815494969,-0.245353540045,0.412456837301,0.0338240396066,0.99095089934,-0.128122541417,-0.0213743659628
-0.0575085319579,-0.079855427146,-0.360711276531,-1.90968382359,-0.096653714776,1.81450784206,-0.136217013001,0.0376998893917,0.490005612373,-0.0879354476929,0.616638839245,0.0107324402779,0.806277394295,-0.00971063319594,0.800368070602,0.480386414298,-0.235568458543,0.413215009788,0.0287078914526,0.991214826526,-0.12776391611,-0.0185851037618
-0.0421209782362,-0.0820348933339,-0.341309458017,-1.90958034992,-0.0734186023474,1.81417429447,-0.111284017563,0.0376998893917,0.54035037756,-0.0653968304396,0.684812963009,-0.00141560239717,0.765596091747,-0.0130197890103,0.877522170544,0.489313259764,-0.215193680261,0.414357071298,0.0193119392151,0.991746947546,-0.125960455045,-0.0141068954665
-0.032022215426,-0.082858376205,-0.328463822603,-1.90954041481,-0.0598378740251,1.81389069557,-0.0951615720987,0.0376998893917,0.572672605515,-0.0304653439671,0.723682582378,0.00344377546571,0.731884539127,-0.00910502206534,0.911133825779,0.495159948402,-0.200629300729,0.414900041545,0.0133085969757,0.992093878435,-0.124231185863,-0.0117995667836
-0.0238927546889,-0.0832259654999,-0.318213433027,-1.90950036049,-0.0498722232878,1.81380653381,-0.0821912586689,0.0376998893917,0.595754206181,-0.0237223990262,0.741901993752,-8.22208821774e-05,0.691831886768,-0.00105605414137,0.948224425316,0.499331638403,-0.189634595383,0.415199960416,0.00916961973039,0.992333290039,-0.122811431929,-0.0103880431086
-0.0121701359749,-0.0835334733129,-0.303537815809,-1.90952467918,-0.0370001718402,1.81376290321,-0.0637067258358,0.0376998893917,0.624181807041,-0.00893803685904,0.786698937416,-5.06228570885e-05,0.668111741543,-0.00383999035694,0.984851837158,0.504851023712,-0.173957980254,0.415510531962,0.00385649191322,0.992665298652,-0.1205097708,-0.00883895709937
