imanlab/tactile_prediction_flat_dataset/train/data_sample_2021-11-24-16-25-24/robot_state.csv
position_panda_joint1,position_panda_joint2,position_panda_joint3,position_panda_joint4,position_panda_joint5,position_panda_joint6,position_panda_joint7,position_panda_finger,velocity_panda_joint1,velocity_panda_joint2,velocity_panda_joint3,velocity_panda_joint4,velocity_panda_joint5,velocity_panda_joint6,velocity_panda_joint7,ee_state_position_x,ee_state_position_y,ee_state_position_z,ee_state_orientation_x,ee_state_orientation_y,ee_state_orientation_z,ee_state_orientation_w
0.294493913651,0.0485417619348,-0.283874511719,-2.49030423164,-0.036011043936,2.54122900963,-0.778847396374,0.0755632892251,-1.86688794201e-05,-0.000739478273317,0.000801269197837,5.53898189537e-08,4.65594695243e-07,-1.48658546095e-05,-0.000134337882628,0.472299429736,0.000935995582527,0.157248934885,0.0165316769132,0.917088930168,0.398314872819,-0.00445641046729
0.294495552778,0.0485349297523,-0.283874809742,-2.49030399323,-0.0360099971294,2.54122948647,-0.778844892979,0.0755632892251,0.000170330124092,-0.000469829130452,0.00423982692882,-9.60012766882e-05,7.68128520576e-05,-2.31380508922e-05,-0.000454309076304,0.47230057367,0.000937090827029,0.157251780298,0.0165319129703,0.917089251721,0.398314160956,-0.00445298705719
0.294493943453,0.0485391765833,-0.283876508474,-2.49030423164,-0.0360080376267,2.54123091698,-0.778847157955,0.0755632892251,-0.000190012768144,8.46012044349e-05,-0.00281536881812,-5.18216038472e-05,5.30157594767e-05,1.60147665156e-05,-0.000626528810244,0.472300058823,0.000935413407506,0.157249905041,0.0165313965329,0.917089763526,0.398312988457,-0.00445437670574
0.294492900372,0.0485577657819,-0.283876895905,-2.49030923843,-0.036009773612,2.54122710228,-0.778845667839,0.0755632892251,-0.000277608633041,-0.000717332586646,0.000325470260577,-0.000217925859033,2.81102784356e-05,8.62263404997e-05,0.000179248847417,0.472293664234,0.000933600344152,0.157239287319,0.0165291313636,0.917089986131,0.398312418655,-0.0044678831888
0.294494599104,0.0485494583845,-0.283874899149,-2.49030590057,-0.036010555923,2.54122853279,-0.778845071793,0.0755632892251,0.000485675904201,-0.000462149851955,0.000560434244107,-4.68557118438e-05,1.71187707565e-07,-2.57511092059e-05,0.000398492411477,0.472296994385,0.000935796593103,0.157244411365,0.0165306810459,0.917089268538,0.39831407702,-0.0044615967221
0.294497162104,0.048541110009,-0.283874481916,-2.49030351639,-0.0360103175044,2.54122948647,-0.778845071793,0.0755632892251,-0.000183375494089,1.24541784317e-05,-0.000144246732816,-0.000431721506175,-4.64691365778e-05,-9.09637819859e-05,0.000221249676542,0.472299764759,0.00093768158724,0.157249162606,0.0165317300762,0.917088748323,0.398315295501,-0.00445585591135
0.294496327639,0.0485526025295,-0.28387349844,-2.49030518532,-0.0360095538199,2.54122877121,-0.778843939304,0.0755632892251,0.000143595680129,0.000491676910315,4.26869009971e-05,-0.000162141979672,-8.65408583195e-05,4.93385632581e-05,0.000502416864038,0.472296857869,0.00093718622607,0.157243267924,0.0165303957875,0.917089025049,0.398314638579,-0.00446256934593
0.294495493174,0.0485553853214,-0.283874005079,-2.49030613899,-0.0360101498663,2.54122829437,-0.778844952583,0.0755632892251,-0.00039855891373,-0.000154993889737,-0.00222747749649,0.000440296455054,5.68992982153e-05,6.1916798586e-05,0.000426006474299,0.472295824502,0.000936360967306,0.157241613789,0.016530127525,0.917088979342,0.398314731086,-0.00446469872516
0.294493734837,0.0485542416573,-0.283876597881,-2.49030590057,-0.0360099002719,2.54122853279,-0.778843402863,0.0755632892251,-0.00336301513016,-0.000660136167426,-0.000404237915063,-0.00022667531448,9.05230481294e-05,0.000168658763869,-3.56655727956e-05,0.472296137632,0.000934412243592,0.157242104807,0.0165302005426,0.917090304627,0.398311683907,-0.00446405340227
0.294495403767,0.0485467873514,-0.283876627684,-2.49030566216,-0.0360105149448,2.5412299633,-0.778843164444,0.0755632892251,-0.00045049705659,-0.00376172736287,-0.00132795970421,3.41749182553e-05,-4.10728171119e-05,-9.70380206127e-05,-8.02695649327e-05,0.472297877306,0.000935504953878,0.15724584703,0.0165311720317,0.917089844268,0.398312754705,-0.00445948563936
0.29449608922,0.0485480688512,-0.283874750137,-2.49030470848,-0.0360106937587,2.54123163223,-0.778844118118,0.0755632892251,-0.000163614939083,0.000607389549259,0.000384033977753,0.00364142330363,-4.24639620178e-05,0.00201948778704,-0.00597518216819,0.472298498398,0.000936793634875,0.157245918415,0.0165315349148,0.917089115172,0.398314425975,-0.00445880341197
0.294494897127,0.0485488809645,-0.283874899149,-2.49030542374,-0.0360092557967,2.54122948647,-0.778843402863,0.0755632892251,-0.000258876767475,0.000566141912714,0.000114764996397,0.000217482360313,-9.06875502551e-05,0.000134200672619,0.000118594347441,0.472297529259,0.000936049477536,0.157244933726,0.0165306431379,0.917089759096,0.398312961535,-0.0044604880013
0.294495582581,0.0485514849424,-0.283874571323,-2.49030637741,-0.0360099337995,2.54122805595,-0.778842866421,0.0755632892251,-0.000261285837041,-0.000568314804696,-0.000428684870712,-0.000216526721488,-5.60791922908e-05,2.19064695557e-05,0.00010161078535,0.472296313609,0.000936336134606,0.157243270454,0.0165302231834,0.91708954465,0.398313445161,-0.00446294755929
0.29449647665,0.0485484264791,-0.283874571323,-2.49030661583,-0.0360113382339,2.54122972488,-0.778842568398,0.0755639448762,-5.14059174748e-05,-0.00145908177365,-0.000216063737753,-0.00258588162251,-6.20119826635e-05,-0.00014938726963,-0.000205434043892,0.472297078307,0.000936860105283,0.157244714708,0.0165310237443,0.91708919616,0.39831423721,-0.00446090322706
0.294495373964,0.0485472753644,-0.28387516737,-2.49030542374,-0.0360105745494,2.54122924805,-0.778842747211,0.0755639448762,0.00050662556896,0.000251005258178,0.000329680129653,0.000614995427895,-1.48340359374e-05,0.000129152511363,-0.000222402333748,0.472297750438,0.000936157731347,0.157245642748,0.0165310457733,0.917089633992,0.398313239019,-0.0044599387777
0.294492542744,0.0485460981727,-0.283878147602,-2.49030542374,-0.0360096618533,2.54123067856,-0.778842687607,0.0755639448762,-0.000185356169823,0.000186157805729,-3.9930051571e-05,-0.000464441545773,-2.49116947089e-05,2.69695046882e-05,-0.000357949873433,0.472298271735,0.000933513974318,0.157246320168,0.0165311917303,0.917090954622,0.398310206783,-0.00445864378909
0.294492155313,0.0485490523279,-0.283877819777,-2.49030637741,-0.0360105112195,2.54122972488,-0.778842270374,0.0755639448762,0.000415030342992,-0.00229874858633,-0.00036934381933,-0.00086512346752,-3.02152002405e-05,2.19910707528e-05,0.000600694387686,0.472297102684,0.000933272978754,0.157244541141,0.0165308798107,0.91709089763,0.398310323633,-0.00446108340213
0.294498682022,0.0485517196357,-0.283872425556,-2.49030590057,-0.0360108949244,2.54122877121,-0.778841853142,0.0755639448762,0.000337971898261,-0.000748927006498,6.42084123683e-05,-0.000207917022635,5.65931550227e-05,-2.8477217711e-05,-6.52876406093e-05,0.472296654567,0.000938782202485,0.157243394143,0.0165306449122,0.917088536837,0.398315752438,-0.00446255770082
0.294499963522,0.0485487505794,-0.283872455359,-2.49030709267,-0.0360092520714,2.54122948647,-0.77884054184,0.0755639448762,-0.000385751016438,-0.00176348839886,-0.000129032618133,0.000525669951458,8.9629975264e-05,-2.91491924145e-05,-0.000528290926013,0.472296724445,0.000939604532314,0.157244350499,0.0165302898805,0.917088836481,0.398315093603,-0.00446109931729
0.29449865222,0.048548322171,-0.283871591091,-2.49030709267,-0.0360100902617,2.54122924805,-0.778840363026,0.0755639448762,0.000158894326887,-0.000156154666911,-0.000200648224563,0.000240819208557,9.49247478275e-05,0.000192582141608,9.03678519535e-05,0.472296744452,0.000939376211661,0.15724451883,0.0165304693213,0.917088823311,0.398315116599,-0.00446108866631
0.294493228197,0.0485457330942,-0.283874958754,-2.49030470848,-0.0360097587109,2.54122972488,-0.77884054184,0.0755632892251,-0.000148351944517,-8.00495326985e-05,-0.00102190615144,5.8990852267e-05,-4.49603430752e-05,-4.05203536502e-05,0.000327680783812,0.472298462269,0.00093537785272,0.157246648036,0.0165311414702,0.917090601325,0.398311023598,-0.00445852948569
0.294492065907,0.0485487133265,-0.283875495195,-2.49030566216,-0.0360096544027,2.54122877121,-0.778840184212,0.0755632892251,-2.42778952497e-08,0.00119879341219,-0.00315270526335,-0.00228185812011,-9.15029813768e-05,3.7387417251e-05,-0.000206972283195,0.472297290529,0.000934403470087,0.157244861268,0.016530595646,0.917091019008,0.398310058072,-0.00446089481439
0.294497638941,0.048554033041,-0.283874899149,-2.49030590057,-0.0360110923648,2.54123044014,-0.778841257095,0.0755632892251,-0.00187481334433,-7.719353016e-05,0.0015693239402,0.000420372845838,9.80053482635e-06,9.54465122049e-06,-0.000678214884829,0.472296639763,0.000936994226657,0.15724251273,0.0165309176862,0.917089303658,0.398313970831,-0.0044629808921
0.294496953487,0.0485522896051,-0.283873468637,-2.49030661583,-0.0360096953809,2.54123020172,-0.778840482235,0.0755632892251,6.87315550749e-05,-0.000394628441427,0.00105749384966,6.02752770646e-05,-5.84018089285e-05,5.07613913214e-05,-0.000321261788486,0.472296525087,0.000937506940207,0.157242999831,0.016530439551,0.917089555067,0.398313418473,-0.00446238740228
0.294495403767,0.0485484600067,-0.283874630928,-2.49030518532,-0.0360090695322,2.54122829437,-0.778839349747,0.0755632892251,0.000491053506266,-0.000285233138129,-4.9376507377e-05,-0.000328801688738,-0.000107923013275,-9.91856795736e-05,0.00020805656095,0.472297454192,0.000936436775047,0.157245105651,0.0165304541973,0.917090450376,0.398311375775,-0.0044606640166
0.294494092464,0.0485501438379,-0.28387594223,-2.49030637741,-0.0360109508038,2.54122877121,-0.77883964777,0.0755632892251,-0.000761611678172,7.77577297413e-05,-0.000155652262038,-0.00232104747556,3.83662154491e-05,-0.000129197869683,-0.00267463293858,0.472296703543,0.000934999470293,0.15724395125,0.0165307291421,0.917090586309,0.398311035755,-0.00446205947774
0.294495970011,0.048551324755,-0.283874869347,-2.49030709267,-0.0360100492835,2.54122805595,-0.778838217258,0.0755632892251,-0.000127934137709,0.000685857376084,7.35073626856e-05,0.000170102779521,7.39626411814e-05,-7.3859373515e-05,0.000184613410966,0.472295837079,0.00093653989417,0.157243195632,0.0165300784642,0.917090392625,0.398311500428,-0.00446279838411
0.294496685266,0.0485489070415,-0.283875316381,-2.4903075695,-0.036008618772,2.54122972488,-0.77883964777,0.0755632892251,0.000291132717393,-0.000615645723883,0.000160981988302,-0.00116232794244,7.7231132309e-05,6.90931847203e-05,0.000844601017889,0.472296529253,0.000936705413147,0.157244139839,0.0165301229228,0.917090340744,0.398311635178,-0.00446126802164
0.294496417046,0.0485471636057,-0.28387516737,-2.49030566216,-0.0360102318227,2.54123067856,-0.778837740421,0.0755632892251,-5.26077601535e-05,-0.000922082515899,0.000145332553075,-0.000225372816203,-8.06223906693e-05,-1.58721522894e-05,4.95584536111e-05,0.472297963705,0.00093668809441,0.157245730201,0.0165311877641,0.917090475715,0.398311302946,-0.00445923888034
0.294497132301,0.0485480688512,-0.283874094486,-2.49030613899,-0.0360091216862,2.54122924805,-0.778839170933,0.0755639448762,0.00239816796966,8.85838162503e-05,0.000525312207174,-0.000280292064417,5.58786341571e-05,0.000176060188096,0.00539434794337,0.47229725996,0.000937529281842,0.157245005984,0.0165304697049,0.917090024548,0.398312357989,-0.0044604485072
0.294496238232,0.0485510751605,-0.283874809742,-2.49030613899,-0.0360096544027,2.54122948647,-0.778839170933,0.0755639448762,0.000284564652247,-0.00231046671979,-0.000217814769712,0.000105552113382,4.23070696343e-06,-1.75649147423e-05,-0.00425252458081,0.472296810779,0.000936586042533,0.157243673235,0.0165304928791,0.917090240216,0.398311844166,-0.0044619035113
0.294496148825,0.0485512688756,-0.283874630928,-2.49030733109,-0.0360099896789,2.54122948647,-0.778839409351,0.0755639448762,-0.000655743060634,0.000446322199423,-1.71792889887e-05,-0.00289886374958,0.000140471835039,-4.3862099119e-05,-0.00035189682967,0.472296070903,0.000936452863624,0.157242797759,0.0165302902688,0.917090060632,0.398312254153,-0.00446296602853
0.294494003057,0.0485510379076,-0.283875912428,-2.49030780792,-0.0360089875758,2.54122853279,-0.778837740421,0.0755639448762,0.000290387979476,-9.2986607342e-05,0.000272371398751,-0.000400619930588,-8.97871213965e-05,-2.36043324549e-05,0.0038879616186,0.472295799607,0.000935008380985,0.157242985552,0.0165298469095,0.917091306436,0.398309403267,-0.00446304499173
0.294496893883,0.0485440306365,-0.283873617649,-2.49030685425,-0.0360093154013,2.54123187065,-0.778837680817,0.0755639448762,2.72328070423e-05,0.000462423282443,0.00150512706023,0.000611292838585,2.65934413619e-05,0.000200362832402,0.000300900574075,0.472298162151,0.000937865357941,0.157246793825,0.0165310790303,0.917090248978,0.398311848353,-0.00445755528883
0.294494062662,0.0485448054969,-0.283876210451,-2.49030518532,-0.0360094048083,2.54123234749,-0.778837025166,0.0755639448762,5.89191367908e-05,-0.000119681011711,-0.000115655544505,-0.000224830379011,-4.7528421419e-05,-4.24449317507e-05,0.000236105755903,0.472298961282,0.000935262869604,0.157247129048,0.016531519745,0.917091437015,0.39830910082,-0.00445700511829
0.294492006302,0.0485490821302,-0.283875077963,-2.49030613899,-0.0360098332167,2.54123163223,-0.778839290142,0.0755639448762,0.00011503231508,8.00705965958e-05,0.00128847628366,0.000442349904915,-7.43151176721e-05,-8.75944315339e-05,-0.00596363795921,0.472297619819,0.000934576656305,0.15724476705,0.0165310373996,0.917091082394,0.398309904133,-0.00445997163701
0.294494956732,0.0485515743494,-0.283876478672,-2.49030685425,-0.0360103137791,2.5412311554,-0.778838634491,0.0755639448762,0.000243465328822,-0.00233079306781,0.000105192419142,-0.000166856116266,-2.77950930467e-05,0.00010374977137,1.58764014486e-05,0.472296669956,0.000935138856316,0.157243123273,0.0165307247184,0.917090881893,0.39831035603,-0.00446200065467
0.29449608922,0.048551812768,-0.283873319626,-2.49030542374,-0.0360101014376,2.54123282433,-0.778838098049,0.0755639448762,0.000479258626001,-0.000449780287454,-8.52625162224e-05,-0.000265285925707,5.65013760934e-05,-0.000519345630892,0.000219760360778,0.472297760325,0.000937217488017,0.157243895086,0.0165312777542,0.91709009463,0.398312163542,-0.00446040844876
0.294495463371,0.0485480576754,-0.283874422312,-2.49030637741,-0.0360108502209,2.5412311554,-0.778838515282,0.0755639448762,0.000385238061426,0.000198768131668,0.000293452205369,0.000190231352462,9.17211073101e-05,0.000132615881739,-0.000722856144421,0.472297568393,0.000936516268484,0.157245096035,0.0165312251133,0.91709025337,0.39831180634,-0.00445986340725
0.29449698329,0.0485492087901,-0.283875524998,-2.49030590057,-0.0360103920102,2.54123234749,-0.778839051723,0.0755639448762,-0.00313279731199,0.000317134894431,0.000383983831853,0.000570437638089,-2.74227986665e-05,-3.37844576279e-05,-5.64651600143e-05,0.472297868974,0.000936688753845,0.157244866602,0.0165313729806,0.917090129586,0.398312088002,-0.00445961376703
0.294497191906,0.0485485382378,-0.283875018358,-2.49030613899,-0.0360099188983,2.54123258591,-0.778836905956,0.0755639448762,-0.000319155282341,0.000482697767438,0.00171618966851,0.000209655961953,-3.29543472617e-05,-4.37659873569e-05,0.000454853376141,0.472297914679,0.000937089123698,0.157245097401,0.016531278659,0.917090496642,0.398311251391,-0.00445920296389
0.294497191906,0.048549938947,-0.28387388587,-2.49030566216,-0.0360108688474,2.54123210907,-0.778837561607,0.0755639448762,5.70634329051e-05,-0.000152031236212,0.00019253915525,-3.93793889089e-05,5.38175409019e-05,-0.000168685946846,-0.000284748413833,0.472297805539,0.000937511972537,0.157244594671,0.0165314269524,0.917089976563,0.398312433793,-0.00445999737212
0.294494181871,0.0485496483743,-0.283876299858,-2.49030566216,-0.0360082127154,2.54123139381,-0.77883797884,0.0755639448762,0.000263552909018,-4.78548536194e-05,0.000173573120264,-0.000588951574173,6.40357466182e-05,-2.70628606813e-05,-0.000488447083626,0.472297703762,0.000935073741607,0.15724467394,0.0165306650524,0.917091424269,0.398309132644,-0.00445995279869
0.294494241476,0.0485513322055,-0.283875823021,-2.49030566216,-0.0360108651221,2.54123282433,-0.778837621212,0.0746964886785,9.1556175903e-05,-0.0002862069814,0.00257655675523,0.000190075428691,0.000118562784337,-0.000100106313766,1.45633384818e-05,0.472297736767,0.000935126464903,0.157244040856,0.0165315105501,0.917090928239,0.398310234615,-0.00446040165803
0.294496148825,0.0485496222973,-0.283874869347,-2.49030709267,-0.0360107459128,2.54123163223,-0.77883708477,0.0746964886785,0.000190998267499,0.000255973340245,0.000297442689771,0.00248804804869,-1.40737711263e-05,-0.00439588353038,-0.000323752436088,0.472297061333,0.000936549187583,0.157244165243,0.0165310695257,0.917090499272,0.398311236988,-0.00446072375977
0.294497996569,0.0485479421914,-0.283872306347,-2.49030661583,-0.0360106192529,2.541233778,-0.778837800026,0.0746964886785,0.000304035231238,7.59651811677e-05,-0.00025349020143,0.000232059159316,5.14087623742e-05,1.63951062859e-05,0.000219313951675,0.472298134574,0.000938898141184,0.157245428268,0.0165316529762,0.917089502315,0.398313534524,-0.00445837299533
0.294492036104,0.0485480576754,-0.283877193928,-2.49030637741,-0.0360095091164,2.54123282433,-0.778837621212,0.0746964886785,-0.00226684031077,0.00278944591992,0.00361087266356,-5.74224395677e-05,0.000159351082402,-0.000195729007828,0.000871850526892,0.472297942727,0.000933655763977,0.157245260118,0.0165312303101,0.917091883324,0.398308062993,-0.00445899101157
0.294492959976,0.0485502071679,-0.283877581358,-2.49030566216,-0.0360101088881,2.54123330116,-0.778837323189,0.0746964886785,0.000124540238176,1.18085326903e-05,-0.000514115497936,-0.00109607633203,-2.18921413762e-05,2.38603606704e-05,-0.00023774773581,0.472298035742,0.000933779042255,0.157244602259,0.0165314996896,0.917091722499,0.398308415671,-0.00445956596177
0.294494599104,0.048550657928,-0.283873975277,-2.49030542374,-0.0360102877021,2.54123330116,-0.778836905956,0.071436136961,0.000485595141072,-3.68385881302e-05,0.00361638166942,3.30705988745e-05,6.61567628413e-06,-5.63775392948e-05,0.000481664872495,0.472298062706,0.000936254137112,0.157244464319,0.016531492542,0.917090730829,0.398310698389,-0.00445964256883
0.294495820999,0.0485474467278,-0.283875346184,-2.49030351639,-0.0360099859536,2.54123497009,-0.778838098049,0.071436136961,-0.000388984219171,0.000186838355148,0.00017737474991,0.000159085597261,-5.91985844949e-05,2.05585201911e-05,0.000565267109778,0.472300172207,0.000936036482989,0.157247190845,0.0165324048026,0.917091053096,0.3983099593,-0.0044559989826
0.294494718313,0.0485521182418,-0.28387516737,-2.49030709267,-0.0360102578998,2.54123353958,-0.778837740421,0.071436136961,2.24147170229e-05,0.000432533037383,0.00320402556099,0.000287930248305,-0.000123258461826,2.12950963032e-05,0.000153568282258,0.472296970183,0.000935528253724,0.157243189369,0.0165311108267,0.917090841639,0.398310443048,-0.00446107581317
0.294496774673,0.0485447347164,-0.283876031637,-2.49030590057,-0.036010555923,2.54123497009,-0.778837203979,0.071436136961,9.9169817986e-05,0.00014973479847,-0.000343566789525,-0.000214216692257,-1.91920407815e-05,3.75129566237e-05,0.000253071426414,0.472299196439,0.000936598149251,0.157247126306,0.0165321607994,0.91709062131,0.398310961581,-0.00445617895095
0.294494301081,0.0485448203981,-0.283875823021,-2.49030447006,-0.0360098183155,2.54123497009,-0.778837919235,0.071436136961,0.000433358567534,0.000650806701742,-0.000216493368498,2.17283140955e-05,0.000140827643918,2.81076790998e-06,-0.000684516387992,0.47229987951,0.000935578184974,0.157247621501,0.0165322289925,0.917091053437,0.398309971322,-0.00445550623762
0.294496953487,0.0485495552421,-0.283874541521,-2.49030685425,-0.0360120423138,2.541233778,-0.778838217258,0.071436136961,-8.91538074939e-05,0.000152757173055,0.000128375482745,-0.000215412088437,-7.44461722206e-05,-0.000125103048049,0.000193760250113,0.47229765825,0.000937051812267,0.157244475503,0.0165318378741,0.917089821045,0.398312777913,-0.00445972014736
0.294494926929,0.0485522970557,-0.283874094486,-2.49030852318,-0.0360119864345,2.54123449326,-0.778837561607,0.071436136961,-0.000201574875973,0.000235290004639,-7.56188092055e-05,0.00167592067737,0.000261090230197,-6.29686765024e-05,2.30740824918e-05,0.472296539912,0.000936163282666,0.157242669942,0.0165314578025,0.917090261072,0.398311760424,-0.00446151757197
0.294490784407,0.0485483668745,-0.283877044916,-2.49030613899,-0.0360087268054,2.54123497009,-0.778836190701,0.0704609900713,-0.000130181608256,-0.00151854089927,0.000749155820813,-0.00030783721013,0.000107818981633,3.80148630938e-05,-0.000392464979086,0.472298474586,0.000933188255105,0.157245397789,0.0165314383515,0.917092509207,0.398306624977,-0.004457946056
0.29449737072,0.0485478825867,-0.283875048161,-2.4903049469,-0.0360091626644,2.5412375927,-0.778835713863,0.0704609900713,-0.000247457704972,-0.000151709406055,1.36954358823e-05,0.00269096740521,-0.000456962967291,3.52817223757e-05,5.64194633625e-05,0.472299697864,0.000937303296554,0.157246284263,0.0165322567109,0.917090813194,0.398310518913,-0.00445590041236
0.294499665499,0.0485494062304,-0.283871293068,-2.49030542374,-0.036010608077,2.54123783112,-0.778834998608,0.0704609900713,0.000297536083963,0.000388317799661,8.94519034773e-05,-0.000183077034308,-3.82492544304e-05,0.000126462473418,0.000208077210118,0.472299249226,0.00094003556974,0.157245415199,0.0165324221913,0.917089501644,0.398313521114,-0.00445685638951
0.294495612383,0.0485464334488,-0.283874332905,-2.49030613899,-0.0360097996891,2.54123830795,-0.778835713863,0.0704609900713,-0.000319861079333,-0.000393323221942,-3.51825328835e-05,-0.00168799143285,5.60385933568e-06,-2.63716010522e-05,0.0001717605046,0.47229951714,0.000936853573206,0.157246552301,0.0165323846473,0.917090917997,0.398310277086,-0.00445547242389
0.294494241476,0.0485461503267,-0.283875465393,-2.4903049469,-0.0360102467239,2.54123950005,-0.778834283352,0.0704609900713,0.000358881166903,0.000178856935236,0.00217743148096,0.000206153781619,0.000137366325362,5.73086072109e-05,0.000546940194909,0.472300412329,0.00093568084566,0.157247241562,0.0165329891976,0.917091621232,0.398308646076,-0.00445428733886
0.294495433569,0.0485511086881,-0.283876210451,-2.49030661583,-0.0360104218125,2.54123854637,-0.778836071491,0.0704609900713,4.54249602626e-05,-0.00234980834648,0.00290132896043,-0.000343024526956,-0.000125007267343,-0.000197577755898,-4.1839077312e-05,0.472298558277,0.000935595683204,0.157244293763,0.0165322689212,0.917091128346,0.398309769338,-0.00445799555031
0.294495224953,0.0485494621098,-0.28387632966,-2.49030661583,-0.0360102839768,2.54123806953,-0.778835296631,0.0704609900713,-5.44093709323e-05,0.000241905683652,-0.00256776646711,-0.00054887519218,6.2578888901e-05,-0.000169917009771,-9.03707550606e-05,0.472298731399,0.000935525308243,0.157244996641,0.0165322453881,0.917091380587,0.398309196409,-0.00445738182267
0.29449647665,0.0485509224236,-0.283874541521,-2.49030685425,-0.0360092148185,2.54123783112,-0.778836429119,0.0704609900713,-0.00376250268891,-0.000244923401624,0.000450624269433,-0.000102973564935,-5.03409683006e-05,-9.47994194576e-05,0.000317278056173,0.472298308003,0.000936949366666,0.157244211963,0.0165317536487,0.917090725371,0.398310716367,-0.00445819108141
0.294497817755,0.0485488288105,-0.283873915672,-2.49030542374,-0.0360111892223,2.54123854637,-0.778835713863,0.0704609900713,2.75469228654e-05,1.27044377223e-05,2.93340071948e-05,-0.000318791891914,-3.73618931917e-05,-0.00049987755483,-0.000104138729512,0.472299514429,0.000937912583812,0.157245758147,0.0165327880539,0.917090149607,0.398312019707,-0.00445634947648
0.294494122267,0.0485480949283,-0.28387311101,-2.49030542374,-0.0360096096992,2.54123854637,-0.778835058212,0.0592116340995,0.000181648894795,0.00388184166513,6.57570344629e-05,-0.000209775520489,5.82527809456e-06,6.2412209445e-06,0.000352109142113,0.472299635304,0.000936671420648,0.15724608197,0.0165323927153,0.917091125915,0.398309794033,-0.00445582954836
0.294492870569,0.0485494993627,-0.28387311101,-2.49030637741,-0.0360093638301,2.54123830795,-0.778836846352,0.0592116340995,-0.00632149307057,0.000576242688112,4.97486598761e-06,0.000111527602712,-3.8619593397e-05,0.000110166889499,-0.000274324469501,0.472298882753,0.000936008364369,0.15724506751,0.0165320127474,0.917091055531,0.398309957915,-0.00445707598917
0.294497013092,0.0485489442945,-0.283873438835,-2.4903049469,-0.0360094569623,2.54123878479,-0.778834402561,0.0592116340995,-5.74798177695e-05,0.000317493308103,0.000199461021111,-0.000252325553447,6.35013857391e-05,4.15685681219e-05,-0.000260585191427,0.472299795564,0.000937741534431,0.157245954005,0.0165324788988,0.917090779529,0.398310587998,-0.00445582930659
0.294495373964,0.0485488064587,-0.283874124289,-2.49030542374,-0.0360098965466,2.54123830795,-0.778836190701,0.0592116340995,-0.000108935964818,-0.000175357447006,0.000165988094523,1.89362708625e-05,5.5094511481e-05,-0.00258600059897,-0.000594283046667,0.472299473449,0.000936848494285,0.157245765411,0.0165324268769,0.917090674831,0.398310825702,-0.00445632232174
0.294494897127,0.0485502295196,-0.283874422312,-2.4903075695,-0.0360089875758,2.54123878479,-0.778835296631,0.0592116340995,-0.000226815216593,0.000217457229155,0.000288426119369,-8.31489232951e-05,-1.09887387225e-05,-9.51827896642e-05,-0.00010181194375,0.472298300732,0.000936084844286,0.157244381224,0.0165318607747,0.917091327755,0.398309330373,-0.00445770740585
0.294494748116,0.0485484674573,-0.283873528242,-2.49030566216,-0.0360092222691,2.54123854637,-0.778833866119,0.0592116340995,-0.00378004321828,-0.0011622736929,0.000127145991428,0.000158949595061,-0.000143809491419,7.73114370531e-05,0.000423537770985,0.472299456449,0.000936765058787,0.157245826147,0.016532236852,0.917091385236,0.398309200717,-0.00445607186834
0.294494479895,0.0485460162163,-0.283874601126,-2.49030613899,-0.0360091552138,2.54123902321,-0.778835296631,0.0592116340995,0.00365505204536,-0.000326604174916,-0.000300297455397,-2.33187038248e-05,-4.43871285825e-05,8.95598641364e-05,0.000424682104494,0.472299721557,0.000936103586464,0.15724674358,0.0165323693055,0.917091421042,0.398309125397,-0.00445494358142
0.294495016336,0.0485503859818,-0.283874034882,-2.49030518532,-0.0360089503229,2.54123902321,-0.778834879398,0.0592116340995,0.000203522911761,0.00015344323765,-0.000268844683887,-0.000814650731627,-2.53189136856e-05,-8.33503800095e-05,0.000369844288798,0.472299471289,0.000936575253217,0.157245182575,0.016532243432,0.917091265562,0.398309470472,-0.00445656477955
0.294495940208,0.0485497415066,-0.283873766661,-2.49030661583,-0.0360102504492,2.54123806953,-0.778835952282,0.0590921193361,0.000368244625861,0.000355205265805,-0.000387983134715,0.00123296375386,-0.000117187519209,-9.29831949179e-05,-0.000440995238023,0.472298674926,0.000937080575597,0.157244853289,0.0165321646253,0.917090603019,0.398310988887,-0.00445748812525
0.294495671988,0.0485499836504,-0.283873051405,-2.49030518532,-0.0360112711787,2.54123926163,-0.778835833073,0.0590921193361,0.000229649507673,7.27692895452e-05,-0.000288296840154,0.000485123426188,7.91928141552e-06,0.000198904628633,-2.29416782531e-05,0.472299591861,0.000937261803096,0.15724538322,0.0165328944419,0.917090359434,0.398311530518,-0.00445649771887
0.294494330883,0.0485477931798,-0.283873558044,-2.49030518532,-0.036010351032,2.54124140739,-0.77883541584,0.0590921193361,-8.55753169162e-05,0.000390713335946,0.000117646108265,1.73176704266e-05,0.000103187921923,-0.000178614340257,-9.27735600271e-05,0.472300429937,0.000936569483608,0.157246566001,0.0165331757193,0.917090966166,0.398310146203,-0.00445432262837
0.294497102499,0.0485467389226,-0.283874332905,-2.49030518532,-0.036010466516,2.54124045372,-0.778835058212,0.0590921193361,-1.05498438643e-05,0.000707144266926,6.26120618108e-06,-0.00343734631315,-0.000237784683122,-6.20844875812e-05,2.08202563954e-05,0.47230020758,0.000937719117195,0.15724667145,0.0165331005227,0.917090537542,0.398311133238,-0.00445458841424
0.294496268034,0.0485488958657,-0.283874839544,-2.49030590057,-0.0360114388168,2.54123926163,-0.778834939003,0.0590921193361,-0.000434231100371,-0.000291470671073,9.75949224085e-05,-0.000225973504712,-0.000156866124598,0.000165987628861,-0.000652566726785,0.472299205511,0.000936616688518,0.157245456115,0.0165327744302,0.917090750705,0.398310634552,-0.00445650364241
0.294495165348,0.0485508516431,-0.283874511719,-2.49030661583,-0.0360092781484,2.54123997688,-0.778835177422,0.0590921193361,0.00034331320785,6.07611509622e-05,0.00396138709038,-0.000409455824411,-9.87598687061e-05,4.41408556071e-05,0.000618522521108,0.472298905988,0.000936372725741,0.157244523734,0.0165322067967,0.917091210387,0.398309593572,-0.00445705264263
0.29449352622,0.0485499203205,-0.283874571323,-2.49030566216,-0.0360109806061,2.5412402153,-0.778835356236,0.0590921193361,-0.000195018292288,0.000642118626274,0.00048827342107,-0.00349569530226,2.6591887945e-06,-0.000111769848445,-0.00215582898818,0.472299584896,0.00093554336851,0.157245327162,0.0165329310404,0.917091228966,0.398309529823,-0.00445624031744
0.294498831034,0.0485489331186,-0.283872544765,-2.49030590057,-0.0360090099275,2.54124093056,-0.778834462166,0.0590921193361,0.00226113083772,0.000209502773941,0.00036293422454,-0.000221054637223,1.31131018861e-05,-0.000110864784801,-0.00225209654309,0.472299774922,0.000939178342844,0.157245730828,0.0165325245219,0.917090281815,0.398311738672,-0.00445523855826
0.294497579336,0.0485463626683,-0.283869683743,-2.49030590057,-0.0360098108649,2.54124069214,-0.778835058212,0.0590921193361,-0.00161814677995,0.00140489649493,0.000253122940194,0.00231300573796,5.7130055211e-05,-5.20750945725e-05,-3.08425842377e-05,0.472300148241,0.000940047603352,0.157246854613,0.0165327720813,0.917089721945,0.398313029705,-0.00445414395165
0.294490396976,0.048550516367,-0.283877909184,-2.49030709267,-0.0360104255378,2.54124045372,-0.77883374691,0.0557043775916,-7.23394550732e-05,3.49849360646e-05,-0.000384400889743,0.000154595429194,4.51293044534e-06,5.26251096744e-05,0.00372871267609,0.472298852454,0.000932449410759,0.157244563258,0.0165325864998,0.917092925856,0.398305627762,-0.00445707337905
0.294492125511,0.0485521331429,-0.283878833055,-2.49030566216,-0.0360107123852,2.54124045372,-0.778836369514,0.0557043775916,-0.000201707647648,-1.48236113091e-05,0.000245702743996,6.40087309876e-05,-3.52600909537e-06,6.3026677708e-06,4.42935124738e-05,0.47229928007,0.000932740225866,0.1572443753,0.0165328645286,0.917092186535,0.398307316338,-0.0044572659376
0.294499099255,0.0485486462712,-0.283872187138,-2.49030637741,-0.036011390388,2.54123973846,-0.778835058212,0.0557043775916,0.000258788117208,-0.000684294500388,0.0004972233437,-0.000441231415607,2.06245022127e-05,-3.27533634845e-05,-6.61373851472e-05,0.472299333831,0.000939350640169,0.157245577675,0.0165328475297,0.917089643994,0.398313183846,-0.00445612918479
0.294502675533,0.0485482662916,-0.283869147301,-2.49030566216,-0.0360111407936,2.54123973846,-0.77883541584,0.0557043775916,2.60598226305e-05,-3.09673559968e-05,-0.000180876028026,0.00052513263654,8.90695955604e-05,4.05254613725e-05,-0.000292884418741,0.472299732178,0.000942538135878,0.157245997293,0.0165328836202,0.917088300417,0.398316282606,-0.00445552359687
0.294494450092,0.0485454238951,-0.283874839544,-2.49030613899,-0.0360103994608,2.54124093056,-0.778836429119,0.0557043775916,-0.000242086156504,-0.000301401218167,0.00012538273586,-0.000573331199121,4.60390538137e-06,2.2841972168e-05,-0.00489531317726,0.47230026371,0.000936113562317,0.157247245985,0.0165330794784,0.917091000047,0.398310077646,-0.00445383457809
0.294490784407,0.0485487058759,-0.283877432346,-2.49030709267,-0.0360106602311,2.54124164581,-0.778834700584,0.0557043775916,7.96148833615e-06,0.000324263557559,-6.73480053592e-06,0.000291270000162,-4.44074357802e-05,-4.01248253183e-05,0.000363898696378,0.472299415785,0.000932955785718,0.157245485073,0.0165329552801,0.917092527706,0.398306545188,-0.00445564337523
0.294493883848,0.0485486462712,-0.283876538277,-2.49030518532,-0.0360106006265,2.54124116898,-0.778833806515,0.0557043775916,-0.000274226855254,-0.00016450601106,-0.000556772167329,-2.05378819373e-06,9.43623308558e-06,0.000103306621895,0.00603589834645,0.472300245491,0.000934869025266,0.157246179174,0.0165332167459,0.917091922552,0.398307935913,-0.00445490789455
0.294495165348,0.0485500134528,-0.2838742733,-2.49030590057,-0.0360106378794,2.54124140739,-0.778834223747,0.0557043775916,-5.93245531491e-05,0.000252328958595,0.000396235554945,-6.9530273322e-05,-2.84492689389e-05,-0.00010191326146,-0.000259876484051,0.472299710063,0.000936484980605,0.157245298831,0.0165330044166,0.91709112129,0.398309779879,-0.00445577713759
0.294498085976,0.0485501922667,-0.2838729918,-2.49030637741,-0.0360108241439,2.54124259949,-0.778834819794,0.0557043775916,-0.00013861626212,-0.000538068125024,0.000325121684,0.0016830645036,-2.24399009312e-05,8.72182208695e-05,0.000164449127624,0.47229970112,0.000938469964818,0.157245136738,0.0165331424356,0.91709012941,0.398312060816,-0.00445551670229
0.294495880604,0.0485500358045,-0.283873230219,-2.49030613899,-0.036010440439,2.54124307632,-0.778834402561,0.0557043775916,-0.000249485281529,0.000331501942128,2.74559661193e-05,-0.000222613904043,3.87746222259e-05,-0.000105001250631,0.0059849829413,0.472299949887,0.000937349672684,0.157245340153,0.0165331845867,0.917090762332,0.398310606655,-0.00445508251903
0.294492930174,0.0485480129719,-0.2838781178,-2.49030637741,-0.0360094681382,2.54124355316,-0.778835535049,0.0546103715897,0.000199338202947,-0.000319679122185,-0.00344606023282,-0.000328617927153,5.61171545996e-05,3.64678635378e-05,0.000206343494938,0.472300295412,0.000933766603889,0.157246238449,0.0165331840911,0.917092266011,0.398307157204,-0.00445394752629
0.294495284557,0.0485503897071,-0.283874362707,-2.49030613899,-0.0360106863081,2.54124140739,-0.778835058212,0.0546103715897,-1.11625931822e-05,0.000205879099667,9.51409037953e-06,-0.000201932096388,0.000136545262649,7.22737459e-05,-0.00155895762146,0.47229953084,0.00093647422312,0.157245039916,0.0165329495306,0.91709093934,0.398310197633,-0.00445608600981
0.294498085976,0.048549156636,-0.283872485161,-2.49030566216,-0.0360113531351,2.54124212265,-0.778834760189,0.0546103715897,0.000330096081598,-0.000330528622726,0.000162658805493,0.000316770892823,8.96917263162e-05,0.00028921107878,0.00373602565378,0.472300119242,0.00093874073043,0.157245828649,0.0165333822418,0.91708995795,0.398312452017,-0.00445494657877
0.294498085976,0.0485499985516,-0.283872038126,-2.49030709267,-0.0360104702413,2.54124140739,-0.778834998608,0.0546103715897,0.00024345163547,-0.000149000450619,-0.000333552132361,7.48722914068e-06,8.32418663776e-06,-2.49235454248e-05,1.46527245306e-05,0.472299120682,0.000938933941434,0.157244843335,0.0165326858775,0.917089970263,0.398312437897,-0.00445625836097
0.294494390488,0.0485497452319,-0.283874690533,-2.49030923843,-0.0360101126134,2.54123950005,-0.778834879398,0.0546103715897,0.00293030356988,0.000170876432094,0.000111512526928,-0.000623161089607,1.76024423126e-05,-0.000114044814836,-0.0055110254325,0.472297737338,0.000935830451919,0.157244201546,0.0165317660095,0.917091418386,0.398309121971,-0.00445803444193
0.294494360685,0.0485480725765,-0.283873915672,-2.4903087616,-0.0360104553401,2.54123997688,-0.778835356236,0.0546103715897,-0.000778502610046,0.000364362582332,0.000310796720441,-0.00349795236252,-0.000104607832327,-9.05782653717e-05,0.00347183016129,0.472298328442,0.000936338037136,0.157244973737,0.0165322426559,0.917091031699,0.398310006437,-0.00445679074638
0.294495105743,0.0485477112234,-0.283874928951,-2.49031186104,-0.0360114835203,2.54123806953,-0.77883374691,0.0546103715897,-0.000209411038668,-2.4349612886e-06,3.65170308214e-05,-0.000118652256788,-1.02863632492e-05,2.15999607462e-05,0.000120496384625,0.472296466529,0.000936114595461,0.157243813746,0.0165316140406,0.917091242628,0.398309521786,-0.00445903223642
0.294494539499,0.0485496558249,-0.283877074718,-2.49030780792,-0.036010928452,2.54123830795,-0.778835117817,0.0546103715897,-0.00042837773799,0.00031422736356,0.000193312487681,0.000376976677217,-1.52491538756e-05,8.21138964966e-05,-0.000906071159989,0.472298174226,0.000934791639465,0.15724448907,0.0165322295616,0.917091590614,0.398308706584,-0.00445799861558
0.29449352622,0.0485504455864,-0.283874720335,-2.49030995369,-0.0360113233328,2.54123783112,-0.778835356236,0.0546103715897,0.000152957567479,0.00015387959138,-0.000331695657223,-0.000183867479791,-3.19648097502e-05,-4.80199014419e-05,-0.0051523046568,0.472296884887,0.000935354452011,0.157243269822,0.0165317305743,0.917091210139,0.398309585072,-0.00445962911333
0.294495254755,0.0485541336238,-0.28387516737,-2.49030733109,-0.0360102690756,2.54123735428,-0.778833687305,0.0546103715897,8.08626937214e-05,-0.000415907619754,0.00141283601988,0.000276208447758,0.000120830212836,2.12415961869e-05,0.00466116797179,0.472297436774,0.000935843650909,0.157242544531,0.0165316833151,0.917091448995,0.398309029151,-0.00446033679831
0.294497191906,0.0485506765544,-0.283875107765,-2.49030828476,-0.0360105484724,2.54123926163,-0.778834164143,0.0524801425636,-0.000105803344923,0.000405522499932,0.0001302248711,-7.69220132497e-05,-4.91460050398e-05,-0.000224508752581,-1.19914593597e-05,0.472298054342,0.000936918279007,0.15724403172,0.0165321671886,0.917090898946,0.398310301934,-0.00445797857001
0.294496655464,0.0485492348671,-0.283873796463,-2.49031281471,-0.0360108166933,2.54123520851,-0.778834342957,0.0524801425636,-0.000257890875218,1.02062513179e-05,-0.000296830578009,0.000829819473438,-2.16554454369e-07,1.77774945769e-05,0.000487130135298,0.472295113843,0.000937302336914,0.157242504441,0.0165306282305,0.917090708329,0.398310765606,-0.00446146940753
0.294494181871,0.0485472269356,-0.283874750137,-2.49030900002,-0.0360109582543,2.54123687744,-0.778834760189,0.0524801425636,-0.000361500307918,0.000288164563244,-0.000352441507857,-0.00281135714613,3.98867450713e-05,-0.000121808865515,0.000658798962831,0.47229778278,0.000935645702082,0.157245045973,0.016531877366,0.917091397418,0.398309166866,-0.00445792378735
0.294492691755,0.0485497638583,-0.283877044916,-2.49030852318,-0.0360088460147,2.54123592377,-0.77883464098,0.0524801425636,0.000198687717784,0.000362321618013,0.000550461641978,-4.51886262454e-06,-6.96419283486e-06,-5.9912505094e-05,-0.000128046594909,0.472297284007,0.000933998217204,0.157243956522,0.0165311060717,0.917092408461,0.398306855822,-0.00445927809093
0.294490605593,0.0485510975122,-0.283877760172,-2.49031209946,-0.0360093824565,2.54123520851,-0.778834342957,0.0524801425636,0.000215457592276,0.000197243323782,-0.000250029814197,-0.000152180175064,0.00017533551727,0.000125225371448,-0.00172661454417,0.472295165468,0.000932528462457,0.157241954091,0.0165303580702,0.917092933249,0.398305648038,-0.00446200271589
0.294500261545,0.0485484600067,-0.283871114254,-2.49031305313,-0.0360104292631,2.54123592377,-0.778833627701,0.0524801425636,-0.000135425390908,-0.000609626586083,0.00013487272372,-0.000262324145297,9.61748228292e-05,8.90503652045e-05,-0.000271420110948,0.472295270785,0.000940357988465,0.157242810495,0.0165306051233,0.917089665886,0.39831317475,-0.0044607535035
0.29449993372,0.0485499091446,-0.283872485161,-2.49030971527,-0.0360094830394,2.54123544693,-0.778833568096,0.0524801425636,-6.14253985987e-06,0.000102425663499,-0.000131062872242,0.000181649142178,1.28924702949e-05,0.000106216743006,-2.26225274673e-05,0.472296595666,0.00093940535082,0.157243366594,0.0165309159598,0.917090100101,0.398312170499,-0.00446000309885
0.294496357441,0.0485479906201,-0.283874630928,-2.49030995369,-0.036010440439,2.54123687744,-0.778833508492,0.0524801425636,0.000264390313532,0.000218143250095,0.00023911955941,-0.000382559519494,8.18334058295e-07,-0.000276229402516,0.000351389840944,0.472297084741,0.000936893493805,0.15724429329,0.0165314772345,0.917091160474,0.398309720126,-0.00445871896487
0.294493466616,0.0485514327884,-0.283874869347,-2.49030995369,-0.0360105969012,2.54123616219,-0.778834104538,0.0524801425636,0.000380660116207,-0.000568093906622,-0.000630896654911,6.96070928825e-05,4.3762360292e-05,-3.53133073077e-05,4.03476005886e-05,0.47229635345,0.000935221657266,0.157242674997,0.016531188723,0.917091625877,0.398308637113,-0.00446081034062
0.294491529465,0.0485496558249,-0.283876806498,-2.49030947685,-0.0360101386905,2.54123592377,-0.778833568096,0.0524801425636,-0.000225050214794,-0.000197812274564,1.18389823456e-06,4.2577390559e-05,-3.61053207598e-05,-6.33387753624e-06,-0.000203564573894,0.472296840187,0.00093349327841,0.157243648318,0.0165312598407,0.917092589258,0.398306427289,-0.00445980249738
0.294494628906,0.0485500022769,-0.283873766661,-2.4903113842,-0.0360088758171,2.54123497009,-0.778835356236,0.0524801425636,0.000217907348997,0.000208313023904,6.27190274827e-06,-3.10586619889e-05,-0.000108775093395,-0.0053475224413,0.000342439452652,0.472295627894,0.000936431502558,0.157242669258,0.0165303037334,0.917091228297,0.398309585827,-0.00446111634331
0.294496536255,0.0485486127436,-0.283874630928,-2.49031019211,-0.0360105335712,2.5412364006,-0.778834402561,0.050102353096,-0.000109530177724,-0.000151649757754,-0.000159738629009,0.000133392051794,-1.31263186631e-05,-1.67614177826e-06,0.000478181173094,0.472296705533,0.000937056262211,0.157243735144,0.0165313233015,0.917090934567,0.398310237535,-0.0044595337058
0.294496536255,0.0485489331186,-0.283873140812,-2.49030947685,-0.0360101945698,2.54123544693,-0.778835058212,0.050102353096,0.00227606156841,2.44978491537e-05,0.000116819479445,0.000560079526622,0.000134175919811,-0.000172728730831,-0.00041189690819,0.472296840539,0.000937645487817,0.157243908707,0.0165311576596,0.917090563355,0.398311098337,-0.00445960244047
0.294495612383,0.0485536567867,-0.283873647451,-2.49031257629,-0.0360113978386,2.54123568535,-0.778834819794,0.050102353096,3.12064366881e-05,0.00061443739105,-0.000227663549595,-0.000104546728835,9.98151517706e-05,-0.000151862783241,-0.000163341988809,0.472294823885,0.000936802644688,0.157240918405,0.0165307538409,0.91709061415,0.398310960185,-0.00446299153309
0.294493854046,0.0485509634018,-0.283874034882,-2.49031066895,-0.0360093899071,2.54123520851,-0.778833448887,0.050102353096,-0.000697517709341,-4.65356133645e-05,-6.25801621936e-05,0.000225255789701,7.50803519622e-05,0.000152127002366,-0.000133283392643,0.472295869719,0.000935871846713,0.157242526728,0.0165305732056,0.917091723448,0.398308433613,-0.00446120240823
0.294493734837,0.0485475957394,-0.283875286579,-2.49031090736,-0.0360095500946,2.54123687744,-0.778833925724,0.050102353096,0.000515066145454,0.000566620903555,0.000415574846556,4.3821237341e-05,-2.36812709886e-07,-2.71780372714e-05,0.000496314954944,0.472296689062,0.000935395834659,0.15724411692,0.0165310894676,0.91709188209,0.398308072723,-0.00445889786047
0.294493198395,0.0485456883907,-0.283875375986,-2.49031066895,-0.0360097847879,2.54123568535,-0.778832316399,0.050102353096,0.000115369664854,0.000778916466516,0.000219333829591,0.00186583434697,-0.000189315207535,7.33015913283e-05,-8.52228622534e-05,0.472296867058,0.000935173202988,0.157244964138,0.016531096126,0.917092301209,0.39830711285,-0.00445841425218
0.294497013092,0.0485523715615,-0.283874005079,-2.49030971527,-0.0360091067851,2.54123520851,-0.77883464098,0.050102353096,-0.000296646932838,0.000503921997733,2.85755959339e-05,-0.000749670725781,0.000126025392092,5.62731111131e-05,-3.87138643418e-05,0.472296094174,0.000937330715761,0.157242246951,0.0165306070844,0.917090891945,0.398310344329,-0.00446141492891
0.294493883848,0.0485535152256,-0.283874839544,-2.49031043053,-0.0360105335712,2.54123425484,-0.778834819794,0.050102353096,-0.00184699706733,-0.000302532804199,-0.00113376253285,0.000172220810782,0.000125641192426,-0.000247583579039,2.02521769097e-05,0.472295510697,0.000934830379639,0.157241700263,0.016530668579,0.917091598921,0.39830869963,-0.00446269713411
0.294495463371,0.0485519617796,-0.283876657486,-2.49031090736,-0.0360099673271,2.54123544693,-0.778834342957,0.050102353096,-0.000248146272497,5.24939350726e-05,0.000468094309326,0.000642416067421,6.91422610544e-05,0.000118958589155,-0.000443537021056,0.472295646265,0.000935293277184,0.15724202529,0.0165307225237,0.917091642892,0.398308606392,-0.00446178273279
0.29449608922,0.048551864922,-0.283873945475,-2.4903113842,-0.03601064533,2.54123520851,-0.778835356236,0.0495560057461,9.22555700527e-05,0.000638103170786,-7.53578133299e-05,0.000223491966608,4.39918840129e-05,8.38749110699e-05,-0.00328456657007,0.472295369588,0.000936852889508,0.157241852324,0.0165307096736,0.917090665294,0.398310854111,-0.00446211246139
0.29449403286,0.048554033041,-0.283875733614,-2.49031090736,-0.0360108651221,2.54123425484,-0.778833329678,0.0495560057461,-0.00380864855833,0.00023870957375,-0.000220194051508,0.000272862176644,-5.78857680011e-06,3.53574091605e-06,-0.000318263977533,0.472295181885,0.000934688834698,0.157241023682,0.0165306457141,0.917091879032,0.398308048899,-0.0044632979552
0.294495463371,0.048551864922,-0.283875614405,-2.49031305313,-0.0360108427703,2.54123592377,-0.778832912445,0.0495560057461,-9.50378380367e-05,0.000229359255172,-0.000153577639139,0.000364484469173,-8.88534268597e-05,-0.000160955009051,-6.5959226049e-05,0.472294718824,0.000935737400694,0.15724130114,0.0165306068762,0.917091572374,0.398308764707,-0.00446257282641
0.294498175383,0.0485511757433,-0.283874541521,-2.49031186104,-0.036010582,2.54123544693,-0.778833091259,0.0495560057461,-1.37200559038e-05,-9.52426671574e-06,-8.62189554027e-05,0.000223732480663,-9.00356753846e-05,-0.000499644374941,0.000295236415695,0.472295305044,0.000937588382095,0.157242010115,0.0165307058989,0.917090832238,0.398310472911,-0.00446184248887
0.294497638941,0.0485523939133,-0.283873558044,-2.49031019211,-0.036010414362,2.54123544693,-0.778832912445,0.0495560057461,0.000518900691532,0.000190835024114,-0.000170882573002,-0.000502380484249,-2.96677480947e-05,-0.00017465709243,-0.00533999176696,0.472295910606,0.000937770818779,0.157242078454,0.0165308937194,0.917090801484,0.398310538056,-0.00446165232665
0.294494926929,0.04855100438,-0.283873587847,-2.49031305313,-0.0360088571906,2.54123520851,-0.778834104538,0.0495560057461,-0.00022105264361,0.000327145768097,0.00189264467917,-9.97530805762e-05,5.61831511732e-05,0.000105811770482,-0.000212972794543,0.472294696839,0.000936593323603,0.157241609986,0.0165299597971,0.917091380954,0.398309235859,-0.00446225501204
0.294492810965,0.0485553778708,-0.283875852823,-2.49031090736,-0.0360105074942,2.54123687744,-0.77883285284,0.0485499948263,0.000241614077822,-0.000652997987345,-0.000245099392487,-9.79061442195e-05,6.35568576399e-05,-7.29504699848e-06,-3.16784735332e-06,0.472295384954,0.000934241886741,0.157240602978,0.0165309052538,0.917092195551,0.398307314129,-0.00446287165452
0.294493734837,0.0485560819507,-0.283874392509,-2.49031257629,-0.0360092334449,2.54123520851,-0.778833627701,0.0485499948263,-0.000121995915833,0.00011556892423,0.000136609742185,-0.000167645441252,3.41601189575e-05,5.24512033735e-05,-0.000124794605654,0.472294079939,0.000935370884216,0.157239498577,0.016529874906,0.917091786486,0.398308279239,-0.00446461258017
0.294496744871,0.0485505461693,-0.283874899149,-2.49030923843,-0.0360104963183,2.54123616219,-0.778833210468,0.0485499948263,0.000251584715443,0.000105389335658,-0.000814027502201,0.000181022769539,3.76692296413e-05,-1.14691110866e-05,0.000102243975562,0.472296848101,0.000936813489479,0.157243344279,0.0165313621978,0.917091177668,0.398309671023,-0.00445999537807
0.294496238232,0.0485532730818,-0.283874124289,-2.49031305313,-0.0360097959638,2.54123497009,-0.77883297205,0.0485499948263,-8.28511183499e-05,0.000447347265435,0.000312957563438,-1.71915417013e-05,-6.92083631293e-05,0.000174770902959,-0.000238256165176,0.472294265742,0.000936788718816,0.157240568026,0.0165300491181,0.917091284361,0.398309439699,-0.00446358062144
0.294496715069,0.0485532730818,-0.283874005079,-2.49031376839,-0.0360106863081,2.54123592377,-0.778832554817,0.0485499948263,0.00028121744981,0.000116659968626,-0.000594049866777,-0.000215761727304,4.82209397887e-05,8.87845089892e-05,-0.000186716162716,0.472294126288,0.000937029572688,0.157240385116,0.0165303145344,0.917091095016,0.398309864946,-0.00446355361309
0.294495970011,0.0485540665686,-0.283875852823,-2.49030995369,-0.0360101424158,2.54123854637,-0.778831779957,0.0485499948263,-0.00382775720209,0.000560922024306,0.0016909991391,-0.000400551798521,2.43853392021e-05,-4.21356089646e-05,-4.24237259722e-05,0.472295943807,0.000935426921957,0.157241072677,0.0165311456186,0.91709194757,0.39830788685,-0.00446182487232
0.294494599104,0.0485540926456,-0.283875495195,-2.49031305313,-0.0360096730292,2.54123568535,-0.778832733631,0.0485499948263,0.000207363904337,-0.000229120778386,0.000316472142003,0.000142006392707,-4.64926743007e-05,2.65219969151e-05,2.54751148532e-06,0.47229429005,0.000935329638395,0.157240269709,0.0165301257149,0.917091944486,0.398307915633,-0.00446366748621
0.294496387243,0.0485529974103,-0.283874839544,-2.49031043053,-0.0360096842051,2.54123735428,-0.778831720352,0.0485499948263,9.17109209695e-05,-0.000379593868274,0.000440870731836,-7.12009132258e-05,-0.000143539800774,-0.00010085998656,-0.00034603572567,0.472296113424,0.000936591325468,0.157241892553,0.0165309936649,0.91709165501,0.398308574798,-0.00446110783827
0.294496059418,0.048553109169,-0.283874839544,-2.49031281471,-0.0360105074942,2.54123663902,-0.77883130312,0.0485499948263,0.000212028899114,-2.62448538706e-05,0.000311215233523,-0.000189441198017,-5.05620528202e-06,-3.88839034713e-05,-0.000254838174442,0.47229479993,0.00093654657288,0.157240946326,0.0165305436643,0.917091595925,0.398308712972,-0.00446258465139
0.294495820999,0.0485531389713,-0.283875077963,-2.49031209946,-0.0360097661614,2.54123592377,-0.778833270073,0.0485499948263,-0.000362976948963,-6.21070430498e-05,0.000548755400814,-0.000212360566366,-4.69665501441e-05,-0.000132752684294,0.000888434762601,0.472294965086,0.000936163646009,0.157241077283,0.0165304254469,0.917091498712,0.398308941051,-0.00446264314639
0.294495433569,0.0485548302531,-0.2838742733,-2.4903113842,-0.0360094383359,2.54123568535,-0.77883207798,0.0481362938881,0.000279744475847,0.000170462793903,0.000381030957215,-0.000101930840174,8.55555026646e-06,6.86291823513e-05,-8.71148658916e-05,0.472294974205,0.000936301900347,0.15724055368,0.0165303225294,0.917091701813,0.398308471299,-0.00446321347689
0.294494897127,0.0485541410744,-0.28387516737,-2.49031352997,-0.0360105894506,2.54123544693,-0.778831720352,0.0481362938881,0.00112546538003,-0.000153565371875,-0.000259791180724,-0.000252327765338,1.53931887326e-05,-2.84787056444e-05,0.000348210567608,0.472293997869,0.000935570664576,0.157240047215,0.0165302228164,0.917091868355,0.398308081961,-0.00446410757867
0.294494181871,0.0485530234873,-0.283876180649,-2.49031233788,-0.0360107123852,2.54123592377,-0.77883297205,0.0481362938881,0.00016087993572,0.000265256385319,0.000446368823759,-0.000227557087783,-6.38700730633e-05,-3.63839099009e-05,-0.000491706363391,0.472294875528,0.000934815425069,0.157241049012,0.0165306544256,0.917091944602,0.3983079029,-0.00446282178141
0.294494718313,0.0485522039235,-0.283875614405,-2.49031114578,-0.0360093973577,2.54123568535,-0.778832376003,0.0481362938881,0.000230620251386,0.000447159545729,0.000186258883332,7.79330730438e-05,-0.000107099236629,6.09129856457e-05,0.000367436732631,0.472295537328,0.000935459051316,0.157241839622,0.0165305361444,0.917092069928,0.398307630494,-0.0044618180912
0.294494688511,0.0485515706241,-0.283875733614,-2.49031209946,-0.0360106490552,2.54123592377,-0.77883207798,0.0481362938881,-0.00320418411866,-1.09050342871e-05,0.000296506885206,0.000319384678733,-0.000211033882806,4.99619745824e-05,0.000834294303786,0.472295233995,0.000935349078037,0.157241792413,0.0165307610113,0.917091950163,0.398307895249,-0.00446196701887
0.294497579336,0.048553660512,-0.283874601126,-2.49031209946,-0.0360096432269,2.54123592377,-0.77883285284,0.0481362938881,-0.00026836496545,-0.000336387922289,0.000300997722661,0.000311042909743,-3.83774495276e-05,-9.35785647016e-05,-2.86133763439e-05,0.472295109717,0.000937237728548,0.157241130003,0.0165304956446,0.917091048227,0.398309977417,-0.00446245973442
0.294493973255,0.0485526882112,-0.283875048161,-2.4903113842,-0.0360100641847,2.54123592377,-0.778833270073,0.0481362938881,-6.79554505041e-05,-0.000183440875844,-0.00014501757687,0.000267114053713,1.53257169586e-05,-9.88778920146e-05,0.000280421983916,0.472295868576,0.000935189683944,0.157242144594,0.0165310405891,0.917091861922,0.398308093755,-0.00446134780485
0.294495582581,0.04855556041,-0.283874243498,-2.49031376839,-0.0360103584826,2.54123568535,-0.778831660748,0.0481362938881,-0.000281787215499,0.000223058625124,0.000334399403073,-0.000172249681782,-1.83461324923e-05,-8.70370131452e-05,-5.98142396484e-05,0.472293690704,0.000936277494531,0.15723933056,0.016530058983,0.91709159184,0.398308718005,-0.00446476965519
0.294496506453,0.0485555753112,-0.283872246742,-2.49031448364,-0.0360111109912,2.54123568535,-0.778831660748,0.0481474548578,0.000160378927831,-0.000139328185469,0.000358843244612,0.000191018800251,-5.92627548031e-05,0.000238940730924,1.65883120644e-05,0.47229333337,0.000937625447932,0.157239043636,0.0165300744829,0.917090884737,0.398310341077,-0.00446515873672
0.294498115778,0.048551723361,-0.283875137568,-2.49031186104,-0.0360109694302,2.54123663902,-0.778831005096,0.0481474548578,-0.00020162317378,-1.76310277311e-05,-5.69993135286e-05,0.000163599805092,-4.43709632236e-06,-0.00012130394316,-0.000200318623683,0.47229527767,0.000937061616211,0.157241679681,0.0165309524425,0.917091332932,0.398309308935,-0.00446192447703
0.29449570179,0.0485553182662,-0.2838729918,-2.4903113842,-0.0360094830394,2.54123592377,-0.778830885887,0.0481474548578,0.000349786569132,0.000302175205434,-0.000257513776887,-4.55825866084e-05,2.47520492849e-05,0.000165558143635,-0.000538424123079,0.47229493966,0.000937019231252,0.157240345748,0.0165303243971,0.91709162059,0.398308657005,-0.0044633233
0.294499576092,0.0485547408462,-0.28387466073,-2.49031162262,-0.036010529846,2.54123473167,-0.778830945492,0.0481474548578,-0.000574749021325,-4.71416569781e-05,0.000609003822319,-0.000130653526867,-4.75024025945e-05,-6.69743531034e-05,-4.3326177547e-05,0.472294664446,0.000938007487818,0.157240424515,0.0165304151272,0.91709099984,0.398310077116,-0.00446380293099
0.294494360685,0.0485555529594,-0.283875852823,-2.49031281471,-0.036009773612,2.5412364006,-0.778831005096,0.0481474548578,-0.000185083539691,-0.000153872460942,-3.09287570417e-05,-3.52879906131e-05,-2.29183733609e-05,4.56350608147e-05,3.33151692757e-05,0.47229439416,0.000934817883975,0.157239848422,0.0165303031478,0.917092428882,0.39830679175,-0.00446377551202
0.294497579336,0.0485528744757,-0.283873945475,-2.49031114578,-0.0360106565058,2.54123616219,-0.778830826283,0.0481474548578,-8.6865722551e-05,-0.000150649313582,-0.000275578000583,-6.3600797148e-05,-4.0972376155e-05,-6.15709286649e-05,0.000392592104618,0.472295847839,0.000937503708904,0.157241521051,0.0165311660859,0.917090882657,0.398310339018,-0.00446172703721
0.29449480772,0.0485533699393,-0.283874809742,-2.49031257629,-0.0360098332167,2.54123592377,-0.778831481934,0.0481474548578,-0.000559612642974,-0.000283542118268,4.9476933782e-05,-0.000194935157197,7.41014737287e-05,-9.6851021226e-05,7.20327952877e-05,0.47229469394,0.000935793619472,0.15724079231,0.0165303329983,0.917091991202,0.398307807224,-0.00446297548086
0.294494777918,0.0485558994114,-0.283875524998,-2.49031305313,-0.0360111072659,2.5412364006,-0.778831124306,0.0481474548578,0.000457532645669,-0.000164365046658,0.000205506235943,0.000162511714734,-0.000173700856976,2.5528781407e-05,0.000467880046926,0.472294145267,0.000935242921512,0.157239518793,0.0165305306468,0.917091982363,0.398307803714,-0.00446437272023
0.294495135546,0.0485543198884,-0.283875226974,-2.49031233788,-0.0360091328621,2.54123592377,-0.778831601143,0.0481474548578,0.000278697058093,-0.000150640858919,-0.00018865588936,-0.00011324317893,-0.000117602176033,-9.87825987977e-05,-0.000127812920255,0.472294650066,0.000935737989035,0.157240453683,0.0165301510815,0.917092098658,0.398307564124,-0.00446326412788
0.294493675232,0.0485521778464,-0.283875614405,-2.49031305313,-0.0360101945698,2.54123616219,-0.778830945492,0.0481474548578,9.45835272432e-05,0.000270495278528,-0.000443223136244,-0.000179248745553,-9.02263782336e-05,-7.370813546e-05,-0.000587592308875,0.472294976114,0.000935567299023,0.157241653966,0.0165304160416,0.917092353315,0.398306981652,-0.00446193730361
0.29449236393,0.0485559254885,-0.283875912428,-2.49031019211,-0.0360095947981,2.54123663902,-0.778830587864,0.0481474548578,-0.000289534742478,0.00040681232349,0.000281822343823,7.1679110988e-05,-0.000163208154845,0.000184296906809,0.000386511354009,0.47229558822,0.000934025420382,0.157240601274,0.016530736264,0.917092899562,0.398305700844,-0.0044628116173
0.294496953487,0.0485573038459,-0.283872783184,-2.49031233788,-0.0360102728009,2.5412364006,-0.778830766678,0.0481474548578,2.60269280261e-05,0.000400183722377,0.000298441445921,4.4980297389e-05,-6.74781185808e-05,-0.000212441373151,0.000232066231547,0.472294244637,0.000937564633209,0.157239132381,0.0165303161852,0.917091209872,0.398309588714,-0.00446459867325
0.294501572847,0.048553109169,-0.283870339394,-2.49031090736,-0.0360108017921,2.54123735428,-0.778828978539,0.0481474548578,-0.000790743913967,0.00016909452097,-0.000701797835063,-5.46147457499e-05,5.09118654008e-05,2.96467314911e-05,0.000425165373599,0.472295844242,0.000941132382572,0.157241635346,0.0165311062357,0.917090086051,0.398312179427,-0.00446138931219
0.294492810965,0.0485513433814,-0.283877879381,-2.49031114578,-0.0360103212297,2.5412364006,-0.778830289841,0.0481474548578,9.80188779067e-05,0.000471139850561,-0.000126221857499,4.43068529421e-06,0.000151602056576,3.6899906263e-05,0.000283980974928,0.472295849678,0.000933476505351,0.157242308837,0.0165310062114,0.917093160174,0.398305107849,-0.00446118121905
0.294486671686,0.0485527999699,-0.28388184309,-2.49031209946,-0.0360093005002,2.54123878479,-0.778831064701,0.0481474548578,0.000271322671324,0.000934364914428,-0.000188592894119,9.2503896667e-06,-3.44274376403e-05,-0.000226597490837,0.000132761604618,0.472295677506,0.000928670949736,0.157241528379,0.0165309716427,0.917095171293,0.398300478212,-0.00446122231576
0.294491261244,0.0485560521483,-0.28387889266,-2.49031162262,-0.036010351032,2.54123663902,-0.778829753399,0.0481474548578,-0.00106310518458,-0.000117587682325,0.000549382530153,0.000237716318225,6.5328549681e-06,-2.6153460567e-05,0.00355040328577,0.472294566585,0.000933200539671,0.157239276564,0.0165306115948,0.917093150145,0.398305113586,-0.00446419180715
0.294504314661,0.0485592447221,-0.283869743347,-2.49031305313,-0.0360089242458,2.54123854637,-0.778830468655,0.0479760654271,-0.000420546886744,-3.10349532811e-05,-0.000173064632691,0.000334960670443,1.83524916793e-05,-6.58952776575e-05,-0.00560350390151,0.472294017978,0.000942487959889,0.157238154322,0.0165300506308,0.917089409298,0.398313744902,-0.00446464813354
0.294500648975,0.0485564470291,-0.283871978521,-2.49031209946,-0.0360108725727,2.54123926163,-0.778830528259,0.0479760654271,-0.00014063778508,-0.000914664822631,0.000124776255689,0.000302586908219,7.95715604909e-05,2.55065333477e-05,-0.000137836817885,0.472295124798,0.000939745767734,0.157239858898,0.01653107579,0.91709025224,0.398311782771,-0.00446275313353
0.294497340918,0.0485529154539,-0.283873140812,-2.49031090736,-0.036010235548,2.54123997688,-0.778830647469,0.0479760654271,0.000160989715368,2.85045571218e-05,2.9541179174e-06,-0.000268984382274,0.000115452727186,1.93100077013e-05,2.64868904196e-05,0.47229646191,0.000937859224616,0.157241973207,0.0165314903873,0.917091238008,0.39830952573,-0.00446008845895
0.294493556023,0.0485568121076,-0.28387516737,-2.49031400681,-0.0360093899071,2.54123783112,-0.778829932213,0.0479760654271,1.92435381905e-05,0.00042024400318,-0.000389737833757,-3.73455914087e-05,-4.83988405904e-05,-4.08085616073e-05,0.000276424165349,0.47229383557,0.000934885604152,0.157238869899,0.0165300939533,0.917092671739,0.398306234169,-0.00446440800706
0.294490873814,0.0485616214573,-0.283878743649,-2.49031209946,-0.0360084921122,2.54123902321,-0.77883040905,0.0465708002448,-0.00327747105621,-0.000492352352012,-0.000115693561384,-1.48966819324e-05,9.97488023131e-05,-0.000288375624223,0.00103236059658,0.472294216906,0.000931792665898,0.157237743976,0.016530015412,0.917094046083,0.398303064039,-0.0044652086018
0.29449480772,0.0485584437847,-0.283874630928,-2.49031090736,-0.0360093303025,2.54124045372,-0.778828918934,0.0465708002448,-0.000287309958367,-0.000121163357107,0.000806708238088,-0.000322996667819,-4.48324099125e-05,-0.000107307663711,0.000378945493139,0.472295641798,0.000935717535459,0.157239523691,0.0165310526227,0.917092508129,0.398306592068,-0.00446253625895
0.294498950243,0.0485557503998,-0.283873677254,-2.49030923843,-0.0360110215843,2.54123854637,-0.778829216957,0.0465708002448,9.24608320929e-05,0.000123599835206,0.000615426979493,0.00314121856354,0.000146329781273,2.1840676709e-05,0.00568138808012,0.472296488302,0.000938177521262,0.157241195147,0.0165316175375,0.917091168976,0.398309664029,-0.00446146057473
0.294493019581,0.0485606528819,-0.28387594223,-2.49031066895,-0.0360098443925,2.54123830795,-0.778829395771,0.0465708002448,-0.000227022916079,-0.00047531267046,7.07461222191e-05,-0.000330684153596,-0.000112747358799,-0.000125339662191,0.000446088291937,0.472294925095,0.000934081742819,0.157238433249,0.016530743011,0.917092941955,0.398305582767,-0.00446461304073
0.294492006302,0.0485641136765,-0.283876776695,-2.49031329155,-0.0360089428723,2.54123902321,-0.778829038143,0.0465708002448,-0.000228055621847,-4.05947976105e-05,8.48810450407e-05,0.000294000346912,-8.9711676992e-05,9.84604557743e-05,4.9733909691e-05,0.472293222522,0.000933053319433,0.157235951833,0.0165299449108,0.917093514906,0.398304268532,-0.00446712325332
0.294495254755,0.0485605672002,-0.283876538277,-2.49031376839,-0.036010120064,2.54123878479,-0.778829872608,0.0465708002448,-0.000286880560452,-0.00117108109407,-0.000313320633722,-0.00033665142837,1.59009105118e-05,-9.82567144092e-05,-7.99202753115e-05,0.47229353308,0.000934814998084,0.157237356115,0.0165303212851,0.917092473314,0.398306666019,-0.00446579829885
0.294495046139,0.048555277288,-0.283878773451,-2.49030995369,-0.0360089689493,2.54123926163,-0.77882963419,0.0465708002448,-0.000222304006456,-0.000386911036912,-0.000472065847134,0.000527577009052,-9.25147469388e-05,4.81531387777e-05,0.000361880724085,0.47229639215,0.00093401788538,0.157241234392,0.0165311998236,0.917093220683,0.398304961508,-0.00446109056027
0.294492691755,0.0485565401614,-0.283876717091,-2.49031209946,-0.0360102243721,2.5412402153,-0.778829932213,0.0465708002448,-4.17358523919e-06,0.00101373158395,6.122879131e-05,0.000153119035531,-0.000108440661279,-7.2100541729e-05,-0.000135079491884,0.472295339674,0.000933753233047,0.157239931603,0.0165311601281,0.917093001386,0.398305453445,-0.00446239744443
0.294494718313,0.0485658459365,-0.283876419067,-2.49031281471,-0.0360106639564,2.54123997688,-0.778828620911,0.0465708002448,2.67456980509e-05,-0.000211400954868,-0.000104830774944,0.00032733642729,2.78373845504e-05,0.000246156821959,-0.000690688204486,0.472293371711,0.00093434591258,0.157235432568,0.0165305592483,0.917092684752,0.398306150493,-0.00446747643075
0.294496834278,0.0485653020442,-0.283876270056,-2.4903113842,-0.0360105186701,2.5412402153,-0.778827667236,0.0465708002448,-0.000283833243884,0.000175607463461,-0.000217720065848,-0.000377009477234,6.23012165306e-05,3.16503815156e-06,-0.000499240064528,0.47229420989,0.000935469703232,0.157236235041,0.0165308768263,0.917092449088,0.398306692072,-0.00446639321922
0.294493466616,0.0485626161098,-0.283878356218,-2.49031162262,-0.0360104031861,2.54123878479,-0.778826832771,0.0465708002448,0.000273526296951,-9.19538724702e-05,-0.00130936899222,0.000102318757854,9.30762780627e-07,-4.91566643177e-05,0.000158512950293,0.472294243044,0.000933001443581,0.15723724693,0.0165307367051,0.917093737963,0.398303736163,-0.00446586762611
0.294495463371,0.0485603995621,-0.283876568079,-2.49031066895,-0.0360081791878,2.54123902321,-0.77882874012,0.0465708002448,0.000111902445497,-0.000452871638117,-8.11709687696e-05,0.000825638708193,1.53871842485e-05,7.18369847164e-05,-2.99121529679e-05,0.472294885801,0.000934786241719,0.15723842636,0.0165304237167,0.917093041422,0.398305371549,-0.00446420686857
0.294493496418,0.0485610924661,-0.283875465393,-2.49031209946,-0.0360109768808,2.54123997688,-0.778827726841,0.0465708002448,-5.74924815737e-05,0.000199468020583,0.000142347460496,7.29877574486e-05,4.17376068071e-05,2.45864903263e-05,0.000670094392262,0.472294518476,0.000934460484882,0.157237844776,0.0165310316072,0.917092885333,0.398305698926,-0.00446481243341
0.294492721558,0.0485617890954,-0.283879518509,-2.49031543732,-0.0360106490552,2.54123878479,-0.778828322887,0.0465708002448,0.000169191305758,-0.000416334863985,8.70613948791e-05,-0.000182247254997,-7.03704135958e-05,5.66774033359e-05,0.000473827152746,0.472292527526,0.00093208162738,0.157236198138,0.016530128404,0.917093784153,0.3983036393,-0.00446727264678
0.294491231441,0.048562657088,-0.283877402544,-2.49031257629,-0.0360103659332,2.5412402153,-0.778827011585,0.0465708002448,0.000339775491739,0.00109668402001,-0.00020811354625,-0.00166261568666,3.85936436942e-05,-7.96117747086e-05,0.000375401054043,0.472294082358,0.000932410327888,0.157236991239,0.016530771213,0.917093958552,0.398303229086,-0.00446566577762
0.294494450092,0.048563875258,-0.283877193928,-2.49031162262,-0.0360103882849,2.54123950005,-0.778827011585,0.0445160903037,0.000145568061271,0.000546855677385,0.00018799569807,-2.36037749346e-06,-2.60219985648e-05,5.47707168153e-05,0.000550127879251,0.472294182546,0.000933968748741,0.157236733261,0.0165307658008,0.917093269484,0.398304810589,-0.0044661383292
0.294496744871,0.0485624819994,-0.283875882626,-2.49031305313,-0.0360105186701,2.54123902321,-0.778827607632,0.0445160903037,0.000153519678861,7.75325024733e-05,0.000248663825914,-2.88988976536e-05,-5.48265379621e-05,5.86800233577e-05,0.000326792214764,0.47229360899,0.000935725685598,0.157236775992,0.0165304913793,0.917092420294,0.398306775261,-0.00446631353241
0.294491797686,0.0485602170229,-0.283877134323,-2.4903113842,-0.0360103622079,2.54123973846,-0.778828263283,0.0445160903037,-0.000193260566448,-0.000400406832341,-3.01256004605e-05,8.62718152348e-05,-4.6726763685e-05,5.79170227866e-05,-0.000137135284604,0.472294968366,0.000932937916877,0.157238497784,0.0165310485346,0.917093556493,0.398304160541,-0.00446412936578
0.29449442029,0.0485648326576,-0.283877491951,-2.49031019211,-0.0360104180872,2.54124093056,-0.778826236725,0.0445160903037,4.94650557812e-05,0.000277334882412,6.82169193169e-05,0.000257858482655,-8.69843188411e-06,-7.50554754632e-05,0.000459040486021,0.472295032433,0.000933793220851,0.157236965844,0.0165312624703,0.917093472963,0.398304331,-0.00446528803764
0.294490724802,0.0485657081008,-0.283878356218,-2.49030995369,-0.0360101647675,2.54123926163,-0.778826653957,0.0445160903037,0.000187353041838,-0.000647780834697,0.000246126524871,-0.000269157753792,-4.08114246966e-05,-9.79317264864e-05,-0.000317501311656,0.472294642831,0.000931584004843,0.15723651655,0.016530900892,0.917094343114,0.398302329935,-0.00446640709194
0.294488251209,0.0485646091402,-0.283881574869,-2.49031615257,-0.0360109806061,2.54123830795,-0.778826713562,0.0445160903037,0.000288815324893,-0.000497091736179,-0.00090718595311,-0.000328721565893,-2.23396509682e-05,0.000170050945599,-1.64106677403e-05,0.472291612208,0.000928809551958,0.157234626396,0.0165298667498,0.917095336856,0.398300052216,-0.00446930741017
0.294497489929,0.0485590808094,-0.283876210451,-2.4903178215,-0.0360115543008,2.54123902321,-0.778826594353,0.0445160903037,-0.000378627300961,-0.00367858936079,0.000643440289423,4.82586947328e-05,-4.0964296204e-05,-9.56127259997e-05,5.61530687264e-05,0.472291858893,0.000935991159877,0.157236529456,0.0165300431451,0.917092381523,0.398306876294,-0.0044669232439
0.294492065907,0.0485541820526,-0.283878475428,-2.4903075695,-0.036009658128,2.54124093056,-0.778828561306,0.0445160903037,-0.000340480095474,0.000163753749803,-0.00042679082253,0.000194889740669,-1.46272304846e-05,-1.36112648761e-05,0.000808149459772,0.472298180696,0.000932107315435,0.15724284777,0.0165323187356,0.917094393261,0.398302242905,-0.00445861689036
0.294491648674,0.0485574230552,-0.283879250288,-2.49031376839,-0.0360109806061,2.54123830795,-0.778827250004,0.0445160903037,0.000643997162115,0.00101642496884,0.00018626198289,-0.00102806347422,-0.000179642986041,-0.000130757834995,0.000315345649142,0.472293972172,0.000931921182445,0.157238755112,0.0165306982353,0.91709412352,0.398302864325,-0.00446459084737
0.294497698545,0.0485555939376,-0.283877342939,-2.4903151989,-0.036010928452,2.54123806953,-0.778828024864,0.0445160903037,-4.10629218095e-05,0.000894058903214,-7.8571792983e-05,0.000132029686938,2.18307941395e-05,0.000146795369801,0.00033548657666,0.472293518077,0.000935772056434,0.157239011849,0.0165304390688,0.917092404267,0.398306835982,-0.0044643824468
0.294499188662,0.0485319271684,-0.283874541521,-2.49030613899,-0.0360107719898,2.5412375927,-0.778827905655,0.0445160903037,0.000109298242023,0.000362408434739,-0.000484480435262,0.000968012318481,4.5195556595e-06,7.86172313383e-05,0.000295708916383,0.472301800039,0.000939124416435,0.157253052211,0.0165333737485,0.917091707089,0.398308495816,-0.00444861583819
0.294498503208,0.0483103394508,-0.283874958754,-2.4903216362,-0.0360106676817,2.54122281075,-0.778825879097,0.0439618639648,0.000181818890269,-0.0121389571577,-0.000116366696602,0.00021577507141,5.96082572883e-05,0.000376413023332,0.000135227484861,0.472328276278,0.000949569257374,0.157346142764,0.0165404211173,0.917093415054,0.398305331615,-0.00435258790661
0.294498950243,0.0480558872223,-0.283875286579,-2.49027705193,-0.0360099002719,2.54121494293,-0.778826475143,0.0439618639648,0.000185931799933,-0.0124621652067,-0.000308427523123,0.00283526140265,-0.000109274988063,-0.000798297696747,-1.98723300855e-05,0.472391042775,0.000963000640918,0.15747726558,0.0165620895605,0.917094547568,0.398303363946,-0.00420927089887
0.294501066208,0.0477491877973,-0.283873677254,-2.49019527435,-0.0360112860799,2.54117059708,-0.778826951981,0.0439618639648,-0.000411713001085,-0.0237354394048,-0.000197959539946,0.00723894359544,9.98191535473e-05,-0.00148646859452,-1.01415898826e-05,0.472472695009,0.000980640975049,0.157642761533,0.0165879272121,0.91709497192,0.398303063781,-0.00404007593529
0.294508129358,0.0472494699061,-0.283868968487,-2.49008727074,-0.0360117182136,2.54113030434,-0.778826236725,0.0439618639648,0.000827359792311,-0.0315084010363,0.000213284656638,0.0104902498424,1.92553161469e-05,-0.00529670109972,-0.0004983501276,0.472591333222,0.00101008176693,0.157887825368,0.0166274489388,0.917095081664,0.398303719833,-0.0037796267924
0.294518560171,0.0464202240109,-0.283862888813,-2.48983383179,-0.0360140241683,2.5409078598,-0.778827488422,0.0439618639648,-0.000672589172609,-0.0463822335005,-0.00151580362581,0.0117268972099,0.000201431452297,-0.0194544550031,0.000132705594297,0.472826070978,0.00106422350533,0.158384703657,0.0166899590839,0.917095775741,0.398303664658,-0.00331267031244
0.294503301382,0.044428575784,-0.283875226974,-2.48913192749,-0.0360142290592,2.53968262672,-0.778826236725,0.0439618639648,8.82763488335e-05,-0.0873074457049,1.71933752426e-05,0.0268589574844,-0.000451555679319,-0.0551676377654,-0.000429955194704,0.473219750875,0.00114217874555,0.159413822,0.0167176081032,0.917113852273,0.398266202994,-0.00259514598077
0.294514447451,0.0428212210536,-0.283866405487,-2.48839640617,-0.0360165759921,2.53849887848,-0.778825819492,0.0439618639648,0.00031442969339,-0.104499526322,0.000451455765869,0.0491699203849,-0.00166684750002,-0.0699340999126,0.000316598801874,0.473584944986,0.00122570673927,0.160314170718,0.0167396546152,0.91712035298,0.398253690172,-0.00200998987682
0.294515788555,0.0406955890357,-0.283863008022,-2.48742079735,-0.0360176749527,2.53692126274,-0.778824925423,0.0439618639648,0.000346296787029,-0.144182920456,0.00367234577425,0.0657283961773,-0.00267600361258,-0.115366511047,-0.000319726066664,0.474063892957,0.00132508283415,0.161506319781,0.0167667546088,0.917133207179,0.398226088023,-0.00124045501769
0.294527083635,0.037583809346,-0.28385540843,-2.48596119881,-0.0360187217593,2.53406429291,-0.778826355934,0.0439618639648,-0.000114540554932,-0.16893196106,0.00077417481225,0.100053071976,-0.000149473940837,-0.173228561878,-0.000403154845117,0.474655223546,0.00146865283833,0.163216852587,0.0167134374179,0.917151253535,0.398188539691,-0.000354526536985
0.294528573751,0.0266269184649,-0.283855229616,-2.48046755791,-0.0360239036381,2.52287220955,-0.778825998306,0.0439618639648,0.00574193987995,-0.300404220819,0.00159485987388,0.144426494837,-6.61325393594e-05,-0.306946188211,-6.41405640636e-05,0.476606585214,0.0019188903934,0.169297379777,0.0163896311624,0.917228082751,0.398017920396,0.00239977663344
0.294533222914,0.0212938115001,-0.283848524094,-2.47776579857,-0.036026224494,2.51706242561,-0.778826594353,0.0439618639648,-0.000627564091701,-0.322206377983,-0.00129225105047,0.169785514474,6.82934332872e-05,-0.367199748755,-6.51517548249e-05,0.477459388487,0.00213108518681,0.172248305608,0.0161710730849,0.917262286097,0.397939122083,0.00358464723714
0.294509083033,0.0148060349748,-0.283876389265,-2.47416520119,-0.036025673151,2.50937843323,-0.778825521469,0.043985504657,-0.000405064289225,-0.371235191822,0.000264863687335,0.198842018843,-0.00102292886004,-0.43108946085,-0.000350075453753,0.478483443671,0.00234603544599,0.175915729059,0.0158535408759,0.917318722724,0.397807966834,0.00488337857919
0.294524133205,0.00235718791373,-0.283863812685,-2.4673948288,-0.0360294021666,2.49491834641,-0.778827190399,0.043985504657,-9.02493629837e-05,-0.447343587875,0.000550906639546,0.263212323189,0.000386782427086,-0.522909998894,-0.000268045987468,0.480353692249,0.00279872612409,0.182962339371,0.0152666722245,0.917390900157,0.39762474136,0.00744511707953
0.294513404369,-0.00499293068424,-0.283877819777,-2.46298313141,-0.0360341668129,2.48634290695,-0.778825700283,0.043985504657,-0.00046211926383,-0.467696160078,-0.000735616602469,0.284134417772,0.000477801222587,-0.551264226437,-2.29468987527e-05,0.481585236362,0.0030334080656,0.187307531344,0.0149930500169,0.917435606965,0.397496850613,0.00913066030565
0.294526994228,-0.0133470939472,-0.283869087696,-2.45800590515,-0.0360383875668,2.47670817375,-0.778826892376,0.043985504657,0.000834845995996,-0.524142503738,0.00112278212328,0.309192955494,-0.00145161966793,-0.58083242178,-0.000417966453824,0.483024513394,0.00332948851255,0.192577218894,0.0146785030241,0.917471949732,0.397371374115,0.0112139965604
0.294541358948,-0.0230375863612,-0.28386220336,-2.45216822624,-0.0360483638942,2.46583294868,-0.77882796526,0.043985504657,0.00105094909668,-0.553541362286,0.00331302103586,0.337954699993,0.000683627091348,-0.622247934341,-9.02235842659e-05,0.484526847313,0.00361692969222,0.19809879029,0.0144120813537,0.917501633728,0.397240941438,0.0135158478692
0.294522076845,-0.0348452925682,-0.283881217241,-2.44486069679,-0.0360513739288,2.45231866837,-0.778826773167,0.043985504657,0.00275822496042,-0.572670698166,-0.000240467299591,0.360429167747,-0.00131812598556,-0.643763542175,0.000166683079442,0.486385934021,0.00392863815286,0.205304748701,0.0140543692142,0.917545961204,0.397040687801,0.0164491852332
0.294517755508,-0.0522644631565,-0.283892452717,-2.43328666687,-0.0360900908709,2.43321204185,-0.778827548027,0.043985504657,-0.000250384851824,-0.62361073494,-0.000253418955253,0.431592077017,-0.000782633491326,-0.677901387215,0.00508694769815,0.489430035332,0.00435595462,0.216435279985,0.0138358323433,0.917561774208,0.396768932719,0.0215261228763
0.294525831938,-0.0623259954154,-0.283893078566,-2.42631101608,-0.0362500883639,2.42226696014,-0.778826713562,0.043985504657,0.000659968121909,-0.626375257969,0.000776361848693,0.446750462055,-0.0110204219818,-0.695291101933,0.000357892451575,0.491203227765,0.00456720962159,0.2230472365,0.013823113925,0.917531230471,0.396660189858,0.0246182065645
0.294546097517,-0.0730873644352,-0.283882081509,-2.41865301132,-0.0363232158124,2.41023397446,-0.778827488422,0.043985504657,-0.000385984691093,-0.645568966866,-0.000493746483698,0.465053349733,-0.00126165687107,-0.712789654732,-0.000416949013015,0.49300320556,0.00478042145469,0.230212422134,0.0137563884885,0.917500195253,0.396518680091,0.027876325209
0.294527739286,-0.0862538143992,-0.283901393414,-2.4087638855,-0.0363377071917,2.39606833458,-0.778827011585,0.043985504657,-0.000144454825204,-0.654440522194,-0.000447793572675,0.506869971752,-0.000538328953553,-0.715286314487,-0.000554785365239,0.495380398196,0.00497168304937,0.239320433159,0.0138487704862,0.917458405608,0.396270654804,0.0323705631269
0.294526070356,-0.105425551534,-0.283916264772,-2.39365053177,-0.0363472178578,2.37542152405,-0.778826594353,0.043985504657,-0.00129601848312,-0.669008851051,-0.00157479208428,0.524999797344,0.00138354382943,-0.709359586239,-0.00135010713711,0.498791412035,0.00518070649969,0.253018375684,0.0141065354045,0.9173463903,0.395900403492,0.0392361575468
0.294512569904,-0.117496207356,-0.283929228783,-2.3837954998,-0.0363542102277,2.36287593842,-0.778823316097,0.043985504657,0.00165086076595,-0.664390325546,0.00124702882022,0.563929617405,-0.00149091437925,-0.68113309145,0.000258598825894,0.500953988934,0.0052510154037,0.261918561836,0.0144125230464,0.917241489481,0.395639750533,0.0439262635981
0.294544637203,-0.128764882684,-0.283912092447,-2.37404990196,-0.036356177181,2.35110926628,-0.778826773167,0.043985504657,0.0012408857001,-0.66340470314,0.000172967789695,0.575469613075,-0.0012645869283,-0.691613554955,0.00012250742293,0.503015119076,0.00530849427042,0.270524586179,0.0147887609144,0.917101455669,0.395412359577,0.048531207853
0.294525384903,-0.13999260962,-0.283925712109,-2.36426854134,-0.0363587848842,2.33939504623,-0.778822124004,0.043985504657,-0.00277549750172,-0.65799343586,-0.000960238219704,0.592294633389,-3.9943275624e-05,-0.674937069416,-6.64358913127e-06,0.505053336546,0.00528183542685,0.279702983167,0.0152029136136,0.91694913581,0.395117159973,0.0534376583668
0.294490277767,-0.170778214931,-0.28396204114,-2.33542728424,-0.0363617613912,2.30852651596,-0.778806269169,0.043985504657,-0.00246203877032,-0.630264997482,-0.000136719536385,0.615727543831,-0.00074511236744,-0.602715909481,-0.000653081398923,0.510345325039,0.00499669006356,0.304292348067,0.0168328613288,0.916376725363,0.394252196728,0.0673465444406
0.294508397579,-0.182436525822,-0.283961087465,-2.32379817963,-0.0363633669913,2.29764676094,-0.778780579567,0.043985504657,-0.000407767889556,-0.607942819595,-0.000123323217849,0.605386137962,0.000394534610678,-0.55036765337,0.00119908747729,0.512450490986,0.00481636880562,0.314341297816,0.0177347556308,0.916058583706,0.393867525411,0.0734201727595
0.29448094964,-0.192615061998,-0.283980876207,-2.31388354301,-0.0363624505699,2.28849339485,-0.778575897217,0.043985504657,-0.000930371461436,-0.587087452412,-0.00178434757981,0.574534237385,0.0009363287827,-0.519034743309,0.0188895277679,0.514106319329,0.00459219726317,0.323088367078,0.018527999902,0.915797265291,0.393404098742,0.0787737067717
0.294433057308,-0.220719844103,-0.28399169445,-2.28571152687,-0.0363602042198,2.26517558098,-0.778316497803,0.043985504657,-0.0015241750516,-0.531998634338,0.0011359017808,0.533991277218,9.04544722289e-05,-0.413542807102,0.00128250336275,0.518489311978,0.00379715202872,0.348098924885,0.0212185321467,0.914759270578,0.39214173232,0.0948162024111
0.294405430555,-0.229088455439,-0.283978819847,-2.27729964256,-0.036358114332,2.25906825066,-0.778278291225,0.043985504657,-0.00131822726689,-0.512085735798,-0.0021308970172,0.506943285465,-9.10743547138e-05,-0.360654383898,0.00738025642931,0.519719613108,0.00350459369163,0.355727004827,0.0221730418699,0.914360268529,0.391734992228,0.0999867545921
0.294326096773,-0.237095922232,-0.284003138542,-2.26943659782,-0.0363605543971,2.25356721878,-0.778247714043,0.043985504657,-0.00934700109065,-0.496006339788,-0.00238710083067,0.468569606543,0.000823721988127,-0.323326855898,0.00311875971965,0.520800049503,0.00315778543622,0.363000807005,0.0231132809784,0.913963519102,0.391293517748,0.105004022023
0.294052064419,-0.24619615078,-0.283974468708,-2.26098465919,-0.0363630391657,2.24782180786,-0.778161585331,0.043985504657,-0.0151211535558,-0.463897526264,0.00227680965327,0.428654819727,0.00136678270064,-0.283673256636,0.00671455031261,0.521858798082,0.0026810604693,0.371116667427,0.0241900569027,0.913515813111,0.390699650049,0.110713519838
0.293455243111,-0.259787350893,-0.283997297287,-2.24846839905,-0.0363607779145,2.24031114578,-0.777779281139,0.0439848452806,-0.0310385040939,-0.419514924288,0.000417688890593,0.372265964746,0.000497019558679,-0.211802944541,0.0203190650791,0.523030563068,0.0020420194235,0.380372725918,0.0255199902206,0.912995788543,0.389857306023,0.117467871448
0.292872309685,-0.266272962093,-0.283983230591,-2.2428085804,-0.0363616533577,2.23709988594,-0.777387559414,0.0439848452806,-0.0386482104659,-0.403534084558,0.00171551213134,0.345448881388,-2.6124400847e-06,-0.206419304013,0.0277878120542,0.523978409674,0.00119454494894,0.38913685085,0.026816737109,0.91258104579,0.388721741959,0.123984291283
0.292207628489,-0.271499663591,-0.283965706825,-2.2385122776,-0.0363610647619,2.23457169533,-0.776908874512,0.0439848452806,-0.0503497794271,-0.349467515945,-2.6297133445e-05,0.279626458883,0.000944121333305,-0.170176893473,0.0395177267492,0.524426777862,0.000491104270051,0.394566048434,0.0275988186021,0.91241527499,0.387742212173,0.128033775842
0.2909925282,-0.278690606356,-0.283983528614,-2.23283958435,-0.0363619141281,2.231341362,-0.775967180729,0.0439848452806,-0.0687623545527,-0.318175673485,0.00175992096774,0.253835976124,-0.000288972398266,-0.141203597188,0.0479302369058,0.524821613868,-0.000412290586279,0.400071231742,0.0284095931377,0.912338943237,0.386460602903,0.132207222777
0.28657656908,-0.29227116704,-0.284327626228,-2.2228615284,-0.0363633148372,2.22524309158,-0.77290314436,0.0439848452806,-0.109516188502,-0.233166411519,-0.0162525996566,0.153647422791,-9.5913244877e-05,-0.11184117198,0.0821817964315,0.525249676426,-0.00358922404139,0.411193144618,0.0299809484672,0.91287352752,0.382114427129,0.140540491465
0.284639745951,-0.295686662197,-0.284714847803,-2.22052526474,-0.0363625213504,2.22350811958,-0.771494865417,0.0439848452806,-0.118051469326,-0.176192522049,-0.0367906317115,0.122251935303,0.00201534479856,-0.0955161005259,0.0835453122854,0.525238579056,-0.004898916955,0.41370460083,0.0302810842883,0.913322200305,0.380344569828,0.142350350355
0.28248795867,-0.298462003469,-0.285420715809,-2.21873784065,-0.0363646447659,2.22201704979,-0.770003199577,0.0439848452806,-0.132933273911,-0.154958665371,-0.0428927689791,0.0967817977071,-1.86820561794e-05,-0.09189042449,0.0964233055711,0.525170705121,-0.00653350682913,0.41580237901,0.0304946957886,0.913962343584,0.378225429242,0.143834739873
0.279664248228,-0.30118098855,-0.286471664906,-2.21729278564,-0.0363688766956,2.22025537491,-0.768091142178,0.0439848452806,-0.140705168247,-0.11401233077,-0.0670461580157,0.0522285141051,0.000127026156406,-0.0840169489384,0.0934469178319,0.524955348399,-0.00868761469248,0.41763295178,0.0305831902569,0.914906159568,0.375478824282,0.145007033808
0.275083094835,-0.303373217583,-0.289053142071,-2.21632933617,-0.0363851711154,2.21793031693,-0.765026032925,0.043985504657,-0.174407631159,-0.0382690653205,-0.110500514507,0.0115551482886,-0.00787984486669,-0.0680083036423,0.0973726958036,0.524522322309,-0.0125329808672,0.418786551925,0.0303776854454,0.916765395062,0.370765989264,0.145433790884
0.272012919188,-0.303696423769,-0.291013419628,-2.21625852585,-0.0365263186395,2.21693348885,-0.763567149639,0.043985504657,-0.190567836165,-0.00237573380582,-0.118377767503,-0.0021930183284,-0.0187171604484,-0.0546656139195,0.0868182480335,0.52425976271,-0.0153593900246,0.418733309384,0.030242510211,0.918068792313,0.36767166534,0.145095242322
0.268694132566,-0.303533256054,-0.292948007584,-2.21638274193,-0.0369039326906,2.21601891518,-0.762228608131,0.043985504657,-0.217873588204,0.0242108553648,-0.128111734986,-0.0107885831967,-0.0360395908356,-0.0694187954068,0.0770581662655,0.524016997801,-0.0179791322929,0.418372438053,0.0301935309347,0.919249703637,0.364956470629,0.144482204026
0.264545530081,-0.302640408278,-0.295540779829,-2.21658396721,-0.0379044227302,2.21469163895,-0.760784745216,0.043985504657,-0.236537083983,0.0761506706476,-0.154962778091,-0.0108086448163,-0.072794996202,-0.0693681687117,0.0923050940037,0.523682880738,-0.0215936289991,0.417495709992,0.0302611917547,0.920815120817,0.361513555784,0.143149300433
0.250896960497,-0.296911478043,-0.305167704821,-2.21757006645,-0.0425065420568,2.21259188652,-0.757309794426,0.043985504657,-0.307124704123,0.160668075085,-0.244389995933,-0.0213266760111,-0.125609055161,-0.0112956408411,0.0528791882098,0.5229258872,-0.0341444314447,0.413322394723,0.031201360147,0.92579038505,0.350545686608,0.138044773018
0.245070025325,-0.293674558401,-0.310034930706,-2.21784639359,-0.0452829636633,2.21248173714,-0.756349265575,0.043985504657,-0.33831551671,0.190555885434,-0.288164943457,-0.0118268048391,-0.179655656219,-0.00175056501757,0.0534794181585,0.522715127074,-0.0399940820972,0.41129994462,0.0320304741074,0.927841753523,0.345911909704,0.135752272748
0.239556148648,-0.290525645018,-0.314690411091,-2.21802043915,-0.0484088771045,2.21249675751,-0.75553882122,0.043985504657,-0.355056077242,0.205224692822,-0.2998290658,-0.0105926711112,-0.211579412222,-0.000587562390137,0.0446093007922,0.522494098628,-0.0456204451144,0.409403623834,0.0330478883165,0.929704178303,0.341649869478,0.133541545197
0.232554271817,-0.286223590374,-0.320858001709,-2.21809220314,-0.0528040826321,2.21259951591,-0.754683375359,0.043985504657,-0.381518006325,0.247862622142,-0.355314195156,-0.000274790072581,-0.241178870201,0.0113342320547,0.0492669306695,0.522176828427,-0.0529542974782,0.406924248828,0.0345216169736,0.932020846208,0.336287091684,0.130600121927
0.212691634893,-0.273408710957,-0.340007185936,-2.21810555458,-0.0633956193924,2.21566009521,-0.752674460411,0.043985504657,-0.44964286685,0.291730850935,-0.451750844717,0.00101169163827,-0.221544504166,0.105121582747,0.0265227165073,0.521177682371,-0.0744340613572,0.400025771187,0.0383493410633,0.938573346416,0.319934009118,0.123497493633
0.204262748361,-0.267742335796,-0.34855723381,-2.21798801422,-0.0674443170428,2.2178709507,-0.752318620682,0.043985504657,-0.4792740345,0.330835103989,-0.504881441593,0.00984944403172,-0.21746750176,0.156026512384,0.0191715173423,0.520621127789,-0.0842793742771,0.397000588181,0.0400738546264,0.941376984881,0.312460282893,0.120714662793
0.194415688515,-0.26097214222,-0.359136074781,-2.21775102615,-0.0717884078622,2.22142863274,-0.752043068409,0.043985504657,-0.517017126083,0.338541775942,-0.565123200417,0.0118027543649,-0.225216835737,0.203124299645,0.0140443807468,0.519978264599,-0.0948950559671,0.393912170382,0.0419226556347,0.944287160856,0.304290609996,0.118200986217
0.185197934508,-0.254739582539,-0.369567126036,-2.21739983559,-0.0755972862244,2.22583413124,-0.751822471619,0.043985504657,-0.509042441845,0.363653004169,-0.592973411083,0.0267449636012,-0.194042652845,0.289549291134,0.0157808978111,0.519294721547,-0.10562504617,0.391113115346,0.0438799219179,0.947092650049,0.295909872281,0.116307402387
0.17053206265,-0.244019821286,-0.38735756278,-2.21627449989,-0.0803843066096,2.23577523232,-0.751630663872,0.043985504657,-0.545175552368,0.399078667164,-0.68395793438,0.0579235702753,-0.1390876472,0.412182241678,0.00278373504989,0.518342034491,-0.123315065134,0.386915890298,0.0472165781495,0.951471675037,0.281679353521,0.114581795411
0.161638826132,-0.237434893847,-0.398590832949,-2.21512365341,-0.0826715826988,2.2429318428,-0.751614630222,0.043985504657,-0.546314835548,0.417176365852,-0.702465653419,0.0795266702771,-0.141462996602,0.466240435839,0.000151342610479,0.517741561427,-0.134306192689,0.384712692838,0.0494049196298,0.954022050709,0.272671459102,0.114242530429
0.151725828648,-0.229846894741,-0.41131156683,-2.21347522736,-0.0853495523334,2.25202703476,-0.75161087513,0.043985504657,-0.572738111019,0.438889443874,-0.741251051426,0.103605613112,-0.144959017634,0.55306828022,-0.00183731992729,0.517062214765,-0.146780939147,0.382476922623,0.0522898078747,0.956702947671,0.262528112257,0.11429888834
0.140315487981,-0.220897570252,-0.426481842995,-2.21094965935,-0.0879659578204,2.26363015175,-0.751613438129,0.043985504657,-0.574046969414,0.445711761713,-0.783787846565,0.143456891179,-0.122043900192,0.600745677948,0.000789622368757,0.516194864486,-0.161517781789,0.38026960645,0.0559374666848,0.959652048471,0.250423638247,0.115008463972
0.124998494983,-0.208708554506,-0.447942197323,-2.20614695549,-0.0911706015468,2.28041672707,-0.751618802547,0.043985504657,-0.567176759243,0.464387327433,-0.834693908691,0.214797124267,-0.114908672869,0.64934694767,-0.00039946945617,0.514732046349,-0.182136910298,0.378102313762,0.0615596835609,0.963355006113,0.233460098991,0.116849986858
0.113077171147,-0.198684170842,-0.465571284294,-2.20105600357,-0.0930830389261,2.29460597038,-0.75162935257,0.043985504657,-0.575746357441,0.478795915842,-0.846618890762,0.25973212719,-0.0762021616101,0.696687221527,-0.00254085310735,0.513396694549,-0.198902563384,0.377008313865,0.0665269016489,0.966023121192,0.219577845169,0.118991891672
0.104160659015,-0.191255480051,-0.479057520628,-2.19674777985,-0.0940883383155,2.30585479736,-0.75164937973,0.043985504657,-0.547546267509,0.460476279259,-0.856620967388,0.287341028452,-0.0613474398851,0.701146841049,-0.00234723649919,0.512209989929,-0.211703737633,0.37659008995,0.0705394056726,0.967846774628,0.208897551925,0.121072811082
0.0942344591022,-0.182998493314,-0.494378626347,-2.19128108025,-0.0950563326478,2.31861758232,-0.751681566238,0.043985504657,-0.548038601875,0.459695637226,-0.858130335808,0.314852535725,-0.0514431297779,0.710410952568,-0.0053491499275,0.510537816501,-0.22706894218,0.37653908081,0.0756429469745,0.969789865809,0.196102350276,0.123812877592
0.0834551900625,-0.173875719309,-0.511731982231,-2.1848859787,-0.095963999629,2.33283925056,-0.751835644245,0.043985504657,-0.51569378376,0.440100938082,-0.858182013035,0.328774988651,-0.0364455282688,0.719825983047,-0.00974621810019,0.508458159011,-0.242540312261,0.376711991716,0.0809947156385,0.971505835118,0.18327830061,0.126591202659
0.0688747391105,-0.161962777376,-0.536296725273,-2.17478322983,-0.0970106422901,2.35306835175,-0.752187013626,0.043985504657,-0.483034729958,0.381170839071,-0.826907396317,0.359004944563,-0.0217700861394,0.669864952564,-0.0143477683887,0.50485357973,-0.265465433528,0.378119807115,0.0896430971508,0.973476631472,0.164411748163,0.131438730483
0.0602409727871,-0.155440256,-0.551317036152,-2.16837835312,-0.0973137393594,2.36472058296,-0.752381086349,0.043985504657,-0.464945733547,0.341716498137,-0.83413618803,0.354164808989,-0.00321767153218,0.618311345577,-0.00696421042085,0.50211389241,-0.279318348816,0.379427090315,0.0949468064495,0.97443735184,0.152884106211,0.134474536798
0.0534912087023,-0.150529101491,-0.563301026821,-2.16314101219,-0.0973616614938,2.37396001816,-0.75250428915,0.043985504657,-0.437617689371,0.310223698616,-0.76307529211,0.338763922453,-4.46792728326e-05,0.599917650223,-0.00789189245552,0.499699365047,-0.290303815139,0.380707253716,0.0992650401627,0.975054075938,0.14367273057,0.137018783326
0.0319700911641,-0.13913577795,-0.600187599659,-2.14665389061,-0.0973864421248,2.40083456039,-0.752572596073,0.043985504657,-0.373892307281,0.142528265715,-0.61155384779,0.28312677145,0.000453279586509,0.429329365492,-0.00077273795614,0.48992332029,-0.324925733251,0.386724127008,0.113294187331,0.976158643958,0.114131629805,0.145783057027
0.0257196370512,-0.137319326401,-0.609976947308,-2.14204072952,-0.0973881259561,2.40785574913,-0.752581596375,0.043985504657,-0.361628741026,0.0702348574996,-0.542606830597,0.248850107193,-0.000120804375911,0.39675283432,-0.000854568439536,0.486946079417,-0.333643548589,0.388900171956,0.117007403673,0.976183484997,0.106587271226,0.148371912475
0.0198355633765,-0.136754974723,-0.618557631969,-2.1381816864,-0.0973892956972,2.41417217255,-0.752585172653,0.043985504657,-0.331551879644,0.00740273110569,-0.470929503441,0.212511599064,-9.21572500374e-05,0.352811276913,8.6870524683e-05,0.485459922513,-0.337675320537,0.390043315458,0.118743525489,0.976150026427,0.103058637286,0.14969975964
0.013819755055,-0.136947318912,-0.626823365688,-2.13453912735,-0.0973846912384,2.42029643059,-0.752588331699,0.043985504657,-0.292378306389,-0.0288975071162,-0.409442394972,0.17182199657,0.000227833035751,0.291867673397,-0.00187962921336,0.480458362245,-0.350072782169,0.394040178031,0.124123478987,0.975881722287,0.0920464324191,0.154193644631
0.00616505602375,-0.139333739877,-0.63721871376,-2.13019347191,-0.097383864224,2.42811536789,-0.752590000629,0.043985504657,-0.224032834172,-0.130337327719,-0.27476605773,0.122895367444,5.94087396166e-05,0.231480807066,-0.000304564193357,0.475836351653,-0.360260235624,0.398341565433,0.128685240274,0.975368556698,0.0827693739955,0.15888838209
0.0030663292855,-0.141506075859,-0.641082108021,-2.12843537331,-0.0973830744624,2.43169760704,-0.752590954304,0.043985504657,-0.169037982821,-0.142281576991,-0.216487243772,0.0968583896756,-3.68731161871e-06,0.213270753622,-0.000198720488697,0.473992655187,-0.364240929236,0.400742452304,0.130719268237,0.974967997724,0.07910138239,0.161532805721
0.000390014174627,-0.14461773634,-0.644567608833,-2.12701320648,-0.0973830968142,2.43536663055,-0.75258898735,0.043985504657,-0.109157681465,-0.191552340984,-0.156450614333,0.0561882779002,2.56163417589e-07,0.168155401945,0.000265351351118,0.472283852418,-0.367777419623,0.403436849222,0.132677089,0.974457593612,0.0757752109499,0.164582214733
-0.00103836960625,-0.148300588131,-0.646716296673,-2.1262524128,-0.097382478416,2.43811392784,-0.75258898735,0.043985504657,-0.0524666048586,-0.214921623468,-0.0891617238522,0.0312007814646,2.67673331109e-05,0.137513190508,-0.000514910614584,0.471208587757,-0.369871960592,0.405948897705,0.134046120334,0.973935693531,0.0737147160956,0.167472513609
0.000106614359538,-0.159403294325,-0.64667314291,-2.12588572502,-0.0973822399974,2.44359374046,-0.752575874329,0.0439874716103,0.109160348773,-0.232341811061,0.0744225978851,0.00342817534693,-5.94766133872e-05,0.0777755528688,0.000101257486676,0.471587866575,-0.369881192057,0.412337462285,0.136152722646,0.972306389901,0.073468951525,0.175171439254
0.00166206806898,-0.1620657444,-0.645618200302,-2.12585330009,-0.0973806753755,2.44450163841,-0.752567529678,0.0439874716103,0.155874401331,-0.212331816554,0.111791104078,-0.00143315107562,0.000418393930886,0.0679887160659,0.000407938612625,0.472542806688,-0.368616054228,0.413951851274,0.136405106563,0.971823319444,0.074657064344,0.177142330138
0.00538910413161,-0.166252911091,-0.642896413803,-2.12594103813,-0.0973795056343,2.44599127769,-0.752553582191,0.0439874716103,0.202371016145,-0.189786493778,0.158317610621,-0.00630258303136,-0.00025034378632,0.0697654634714,0.00330057530664,0.474648962047,-0.365776391037,0.416185448136,0.136608819823,0.971057527357,0.0773964406263,0.179986387212
0.009929548949,-0.169919684529,-0.638921558857,-2.12603735924,-0.0973790511489,2.44734835625,-0.752522468567,0.0439874716103,0.252681314945,-0.184535294771,0.237144872546,-0.00375417876057,0.000264825910563,0.0627812966704,0.0021981804166,0.477578001827,-0.361797816581,0.418350196764,0.136672995309,0.970203941183,0.0812819714423,0.182806032939
0.0163383968174,-0.173634931445,-0.633034586906,-2.12623953819,-0.0973725318909,2.44857811928,-0.752268016338,0.0439874716103,0.326847165823,-0.143786966801,0.285813629627,-0.0142885847017,0.000194224354345,0.0564470402896,0.0199637096375,0.481765009083,-0.355928430119,0.420586341502,0.136447870207,0.969174569183,0.0869041995413,0.185823284228
0.0238559078425,-0.176437467337,-0.626533329487,-2.12670564651,-0.0973673835397,2.44997000694,-0.751900374889,0.0439874716103,0.380638599396,-0.125799030066,0.33462035656,-0.0278448332101,0.000220452348003,0.0772646963596,0.0226435661316,0.486529162795,-0.349128368022,0.422319288642,0.136023356566,0.968117911245,0.0933792180526,0.188482566101
0.03258055076,-0.178971424699,-0.618565678596,-2.12749052048,-0.0973602831364,2.45162892342,-0.751555860043,0.0439874716103,0.441281229258,-0.110431022942,0.41531381011,-0.0447521358728,0.000250515906373,0.0745748654008,0.0235187411308,0.492103941938,-0.340899296634,0.423895017726,0.135428294852,0.966889324294,0.101193897271,0.191164866979
0.0414466038346,-0.180645912886,-0.610220789909,-2.12851214409,-0.0973530709743,2.45305037498,-0.750836193562,0.0439894422889,0.482951372862,-0.0633153691888,0.458877772093,-0.0612735785544,0.000472926010843,0.0742163062096,0.0538900084794,0.497714004825,-0.33225326444,0.42491279463,0.134591144073,0.965715129171,0.109148114474,0.193303393727
0.053211979568,-0.181764662266,-0.598925292492,-2.13014626503,-0.0973534137011,2.45470499992,-0.749191999435,0.0439894422889,0.533928632736,-0.042352758348,0.52206659317,-0.0820174440742,0.00137682445347,0.0591106005013,0.0813775584102,0.505015608853,-0.320451240175,0.425547193514,0.133202863926,0.964239363701,0.119566092357,0.19545688983
0.0633087605238,-0.182400152087,-0.588850319386,-2.13177275658,-0.0973505377769,2.4557993412,-0.747169613838,0.0439894422889,0.583378374577,-0.0216671060771,0.580976068974,-0.0992800146341,0.000596714962739,0.0653143897653,0.139892831445,0.511122645952,-0.309933117428,0.425769318166,0.131759788457,0.962986606968,0.128427644156,0.196983483709
0.0937987864017,-0.182109206915,-0.558690667152,-2.13827776909,-0.0973464548588,2.45861148834,-0.738821387291,0.0439894422889,0.681196570396,0.0286313034594,0.686887145042,-0.16829508543,-2.55907434621e-05,0.0472079515457,0.229770109057,0.52800251261,-0.277334517955,0.42430305448,0.126447111894,0.959349261945,0.154177796466,0.199723129025
0.118086181581,-0.180343240499,-0.53447663784,-2.14459681511,-0.0973494127393,2.46028709412,-0.730328738689,0.0439894422889,0.730494737625,0.0767674520612,0.738598465919,-0.198931708932,0.000594295444898,0.038589451462,0.271336048841,0.540193216216,-0.249579500802,0.421461791773,0.121333241217,0.956349426522,0.17462879878,0.200446504821
0.155836373568,-0.17511664331,-0.495984077454,-2.1545855999,-0.0973544120789,2.46136617661,-0.714591324329,0.0439901016653,0.79721558094,0.143522366881,0.798846900463,-0.208815872669,6.85271879775e-05,0.0121323540807,0.373366475105,0.555341642566,-0.207983148398,0.415695629771,0.113268131576,0.951798866007,0.203555973932,0.199534994934
0.169446051121,-0.17261429131,-0.481817603111,-2.15810871124,-0.097356133163,2.46164488792,-0.707850456238,0.0439901016653,0.801225423813,0.154657796025,0.84582054615,-0.206558480859,-5.30300894752e-05,0.0239823143929,0.424002796412,0.560575068605,-0.191038910973,0.413039436292,0.109958219528,0.949898858284,0.21467008283,0.198791610026
