imanlab/tactile_prediction_flat_dataset/test/data_sample_2021-11-25-13-07-20/robot_state.csv
position_panda_joint1,position_panda_joint2,position_panda_joint3,position_panda_joint4,position_panda_joint5,position_panda_joint6,position_panda_joint7,position_panda_finger,velocity_panda_joint1,velocity_panda_joint2,velocity_panda_joint3,velocity_panda_joint4,velocity_panda_joint5,velocity_panda_joint6,velocity_panda_joint7,ee_state_position_x,ee_state_position_y,ee_state_position_z,ee_state_orientation_x,ee_state_orientation_y,ee_state_orientation_z,ee_state_orientation_w
-0.126511827111,0.030947284773,0.119629725814,-2.53127646446,0.0867092236876,2.62428617477,-0.886188149452,0.0805250629783,0.000255096063484,-0.000455560890259,-0.00312789855525,4.08406685892e-06,2.53302715691e-07,0.0026239855215,0.00238570012152,0.473078075769,0.000122200491664,0.157190964255,-0.00863867388019,0.919348492001,0.391455747089,0.0385502441247
-0.1265078336,0.0309512764215,0.119628489017,-2.53128218651,0.0867088064551,2.62430071831,-0.886153757572,0.0805250629783,0.0036362495739,0.000650738191325,1.5295960111e-05,-0.000636850192677,-3.70179477613e-05,0.000178165690158,0.00293935742229,0.473077664964,0.000123279644743,0.157188376098,-0.00863804155806,0.919354668094,0.391441071562,0.0385521162483
-0.126509636641,0.0309536233544,0.119630523026,-2.53128218651,0.0867089852691,2.62430882454,-0.886126160622,0.0805250629783,-4.44994875579e-05,-0.0012995187426,0.00253477995284,0.000570292701013,6.52414892102e-05,0.00248245173134,0.00291070900857,0.473078977718,0.000123278020657,0.157188096744,-0.00863735584529,0.919360024615,0.391428260777,0.0385546050509
-0.126508072019,0.0309521257877,0.119629867375,-2.53127670288,0.0867091342807,2.62432765961,-0.886073708534,0.0805250629783,0.000352015340468,-0.000305571185891,-0.00298134400509,-0.000438707851572,-0.000128386149299,7.88388497313e-05,0.00652670953423,0.473085917873,0.000123233614284,0.157192787884,-0.00863256694476,0.919369840048,0.391404201377,0.0385658764199
-0.126501977444,0.030949421227,0.119632437825,-2.53128576279,0.086709484458,2.62433743477,-0.886029958725,0.0805250629783,-6.10300849075e-05,0.00287986639887,0.000417091127019,-5.90184208704e-06,-2.64333539235e-06,-2.98269114865e-05,-5.55721771889e-06,0.473084034192,0.000127124751577,0.157191597944,-0.00863254429965,0.91937679336,0.391387753482,0.0385670470372
-0.126500323415,0.030950371176,0.119633540511,-2.53127813339,0.0867103338242,2.62434720993,-0.886000692844,0.0805250629783,0.000594768149313,0.000913685886189,-0.000387588952435,0.000824555871077,-1.08622334665e-05,0.000428087281762,0.00508697982877,0.473089677088,0.000128230016079,0.157195048069,-0.00862982772651,0.919381907585,0.391375072878,0.0385744227465
-0.126506209373,0.0309497378767,0.11963044107,-2.53127503395,0.0867090672255,2.62435793877,-0.885971903801,0.0805250629783,-0.00057662895415,-0.00118357641622,9.31111717364e-05,2.62508983724e-05,2.3043614874e-06,0.000220784146222,0.000347358727595,0.473093576058,0.00012365699015,0.157197600804,-0.00862660180885,0.919388931129,0.39135803445,0.0385806118589
-0.12651103735,0.0309507232159,0.119625501335,-2.53128242493,0.0867127180099,2.624366045,-0.885940074921,0.0805250629783,-0.00332094565965,0.00030154932756,-0.00107227521949,-0.00114981969818,-9.12337418413e-05,-6.18999329163e-05,0.00209586182609,0.473091516431,0.000119004193443,0.157195137971,-0.00862765705602,0.919397743575,0.391337303669,0.0385806568261
-0.126508027315,0.0309512447566,0.11962787807,-2.53127741814,0.0867132544518,2.62437868118,-0.885881066322,0.0805250629783,0.00414220662788,0.000158039852977,-0.00038202595897,0.000410049658967,-3.57648459612e-05,0.000269663898507,0.00135383196175,0.473096558161,0.000121290184619,0.157198080869,-0.00862525805256,0.919408126501,0.39131222673,0.0385881165711
-0.126502677798,0.0309519954026,0.119631208479,-2.5312769413,0.0867120325565,2.62438821793,-0.885857224464,0.0805250629783,0.000364067789633,-7.22206605133e-05,0.000851287331898,-0.000247052143095,7.5243297033e-05,0.000505677249748,-0.000132198765641,0.473098682356,0.00012517879399,0.157198876884,-0.00862352170818,0.919410816056,0.391305564698,0.0385919798747
-0.126496121287,0.030952302739,0.119633488357,-2.53128314018,0.0867126733065,2.6243929863,-0.885834515095,0.0805250629783,0.000249065371463,-3.74662267859e-05,-0.00033172298572,4.64318072773e-05,-0.000121748977108,0.00224570930004,0.000309305760311,0.473096726384,0.000129375321133,0.157197059223,-0.00862429157557,0.919413880488,0.391298416312,0.0385912818506
-0.12649615109,0.0309502370656,0.119631409645,-2.53127884865,0.0867124199867,2.62439990044,-0.885805010796,0.0805250629783,0.000466962257633,0.000348602945451,0.000207946999581,4.40914627688e-05,-0.000113393456559,-3.26248664351e-05,0.00205538864248,0.47310053545,0.00012808705159,0.157200155609,-0.00862197599793,0.919419676764,0.391284301367,0.0385968223353
-0.126501828432,0.0309489779174,0.119628824294,-2.53128290176,0.0867134705186,2.62441778183,-0.885678172112,0.0805250629783,-0.00022951727442,-0.000498135515954,0.000427605235018,0.000364456907846,4.74349617434e-05,0.000310631497996,0.00155275629368,0.473102569041,0.000123794218216,0.157201004299,-0.00862081365621,0.919446169,0.391221461222,0.0386030030612
-0.126500859857,0.0309523940086,0.11962980032,-2.53127884865,0.086713783443,2.62442326546,-0.88561964035,0.0805250629783,2.61316836259e-05,-7.6305695984e-05,-0.000394852046156,0.000318318983773,9.53550697886e-05,-9.60767283686e-05,0.00276132277213,0.473105120547,0.000124664318109,0.157201500792,-0.00862084940237,0.919457227738,0.391195213481,0.0386055947656
-0.126498788595,0.0309495292604,0.119630552828,-2.5312795639,0.0867139697075,2.62442851067,-0.885550439358,0.0805250629783,2.478344868e-05,0.000160827068612,-1.48456265379e-05,-0.000359732628567,3.31064657075e-05,-0.000146927763126,0.00308719230816,0.473106240739,0.000125964317443,0.157202829308,-0.00862069419916,0.919470956299,0.391162678261,0.0386083277393
-0.126497000456,0.0309491287917,0.119631901383,-2.53128361702,0.0867133289576,2.62443423271,-0.885479152203,0.0805250629783,-4.94967171107e-05,-0.000264790374786,0.000140681309858,-0.000196244844119,-8.62997840159e-05,0.000579595507588,0.00802238378674,0.473105684559,0.000127188822748,0.157202326921,-0.00862117622617,0.919483395744,0.39113335931,0.0386090039674
-0.126496240497,0.0309507995844,0.119631178677,-2.53128218651,0.086713835597,2.62445235252,-0.885311424732,0.0805250629783,-0.000138876217534,-0.00041588084423,-0.000586113834288,-0.000484892603708,1.14017766464e-05,-6.16195757175e-05,-1.90791633941e-05,0.473109938652,0.000126848556944,0.15720391613,-0.00862045505158,0.919516112461,0.391055736538,0.0386162826046
-0.126495525241,0.0309525132179,0.119630068541,-2.53128170967,0.0867134779692,2.62445783615,-0.885178565979,0.0805250629783,-4.83074545627e-05,-0.000252583326073,0.000194912892766,-0.000303441483993,-7.72026178311e-05,7.51936095185e-05,0.00338713079691,0.473111035035,0.000126559231174,0.157203844406,-0.00862197785805,0.919542082002,0.390994506361,0.0386175685821
-0.126498699188,0.0309515185654,0.119628712535,-2.53127813339,0.0867139846087,2.62446331978,-0.885094225407,0.0805250629783,0.000108428212116,0.000732563203201,-7.69025245972e-06,0.000207345830859,3.42779117091e-06,0.00250705284998,0.00785333290696,0.473114122183,0.000124264694573,0.157206225342,-0.00862138621786,0.919559403221,0.39095336628,0.0386217648915
-0.126496076584,0.0309494379908,0.119630046189,-2.5312795639,0.0867133066058,2.62447667122,-0.884881317616,0.0805250629783,9.42546757869e-05,0.00157329812646,0.000291091593681,-0.000223728973651,-6.17470213911e-05,5.23658673046e-05,0.00405563879758,0.473116617193,0.000125787593162,0.157208005957,-0.00862209432879,0.919600003012,0.390857333459,0.0386269143547
-0.126492515206,0.0309494249523,0.119630098343,-2.53127837181,0.0867140293121,2.62448239326,-0.884809374809,0.0805250629783,0.000277340004686,-0.000373160844902,-0.000571951968595,-0.000236417836277,4.36425798398e-05,-7.46819132473e-05,0.00624245917425,0.47311841811,0.000127387910045,0.157209045061,-0.00862215679418,0.919613399128,0.39082553193,0.038629753164
-0.126493409276,0.0309509877115,0.11962904036,-2.53128218651,0.0867151468992,2.62448620796,-0.884725570679,0.0805250629783,-0.00060780311469,-0.000425958714914,0.000101717429061,-0.000188989346498,0.000104647850094,-0.00018536762218,0.00241400231607,0.473117091626,0.000126462884503,0.157207243409,-0.00862425318998,0.919630402262,0.390785570966,0.0386287806988
-0.126497730613,0.0309536270797,0.119629882276,-2.53128123283,0.0867142751813,2.62449121475,-0.884657680988,0.0805250629783,-3.9171660319e-05,-0.000147865357576,0.000104007900518,-5.75441226829e-05,-0.000120384327602,8.04648225312e-05,0.00441210763529,0.473118159026,0.000124736818517,0.157206873535,-0.00862461689664,0.919644193033,0.390752994435,0.0386299265671
-0.126494929194,0.0309510882944,0.119630470872,-2.53128099442,0.0867150574923,2.62449645996,-0.884611606598,0.0805250629783,-0.000184876742424,-0.000403940997785,-7.78608300607e-05,5.83135079069e-05,6.90968008712e-05,6.23366668151e-06,0.000326277775457,0.473119833325,0.000126195133505,0.15720868771,-0.00862386102044,0.919652559915,0.390732982392,0.0386333303817
-0.126489952207,0.0309517532587,0.119630105793,-2.53127813339,0.0867163166404,2.62450432777,-0.884520471096,0.0805250629783,0.00154557602946,0.000192419611267,3.67229076801e-05,-0.000131334527396,0.000128775078338,0.00212682900019,0.00361085007899,0.47312278852,0.000128242249853,0.157210261101,-0.00862377656377,0.919669554919,0.390692563054,0.0386375606081
-0.126493871212,0.0309519357979,0.119631275535,-2.5312795639,0.0867158547044,2.62450742722,-0.884452939034,0.0805250629783,-0.00028702581767,0.000452654261608,0.000332539319061,-0.000221675596549,9.9470045825e-05,2.92035547318e-05,0.000499136862345,0.4731227147,0.000126875363479,0.157209944796,-0.00862454604223,0.91968321137,0.39066036675,0.0386378760176
-0.126491457224,0.0309484302998,0.119631543756,-2.53127884865,0.086717247963,2.62451887131,-0.884306073189,0.0805250629783,-4.8391184464e-06,0.000274188118055,0.000350495043676,8.58826097101e-05,4.10499997088e-05,0.000112745059596,0.00361964851618,0.473126107535,0.000127855786974,0.157213020546,-0.00862408846335,0.919711416191,0.390593336291,0.0386442926418
-0.126491323113,0.0309491697699,0.11962928623,-2.5312769413,0.0867169499397,2.62452578545,-0.884277105331,0.0805250629783,-0.000163854041602,-0.000516195374075,8.11667123344e-05,-2.90995812975e-05,-4.4581705879e-05,-2.99483017443e-05,0.00193325104192,0.473128376545,0.00012668452956,0.157214093426,-0.00862271093915,0.919717357097,0.390579036404,0.0386477413734
-0.126491785049,0.030952738598,0.119630135596,-2.53127908707,0.0867178887129,2.62453055382,-0.884236693382,0.0805250629783,-0.000162653057487,0.00124804466031,-4.69996375614e-05,0.000311752024572,0.00012165599037,-0.000158969487529,0.00338871660642,0.473127719429,0.000126885966213,0.157212085529,-0.00862395046673,0.919725388157,0.390560144733,0.0386472623377
-0.12649384141,0.0309486910701,0.119630776346,-2.53128123283,0.0867181569338,2.62453579903,-0.884200274944,0.0805250629783,-8.19757187855e-05,-0.000442976714112,1.39553267218e-05,0.000420370895881,-1.26918048409e-05,0.00247491919436,0.000553120975383,0.47312859781,0.000126040531616,0.157213877279,-0.00862290740938,0.91973308918,0.390541727066,0.0386503458803
-0.126488432288,0.0309487637132,0.11963275075,-2.53127980232,0.086718685925,2.62454271317,-0.884140133858,0.0805250629783,0.000316814548569,-0.000614268064965,-0.000151553962496,7.53843705752e-05,-1.65215453762e-06,0.000169216553331,-4.48577084171e-05,0.473130645885,0.00012939488693,0.157214912293,-0.00862247647136,0.919743036826,0.390517977132,0.038653697477
-0.126491248608,0.0309497304261,0.119630739093,-2.53127789497,0.0867178216577,2.62454795837,-0.88412207365,0.0805250629783,0.00170941429678,-0.000145425263327,0.000366531749023,0.000372805574443,-1.68732403836e-05,8.47406226967e-06,0.00123393465765,0.473132520212,0.000126969297802,0.157215709599,-0.00862115033067,0.919747302775,0.390507700786,0.0386563075535
-0.126489967108,0.0309491511434,0.119630761445,-2.53127837181,0.0867180600762,2.62455248833,-0.884106755257,0.0805250629783,-0.000401830096962,0.000739003007766,-0.000102331541711,-0.000239382919972,-4.63036813017e-05,0.00022993265884,0.000842343142722,0.473133349665,0.00012748318711,0.157216257597,-0.00862042660004,0.919750035183,0.390501084069,0.0386582985897
-0.126491054893,0.0309492014349,0.119630649686,-2.53128170967,0.0867182910442,2.62455940247,-0.884073317051,0.0805250629783,0.00054520368576,-0.00288990093395,-0.00021858731634,0.000676184543408,6.45104737487e-05,0.000735124747735,0.000474920321722,0.473133992275,0.000126817141332,0.157216072729,-0.00862002789914,0.919757327468,0.390483721545,0.038660271313
-0.12648819387,0.0309497918934,0.119631007314,-2.531280756,0.0867179781199,2.62456178665,-0.884063363075,0.0805250629783,0.000875027384609,-0.00130580749828,0.000321189610986,-0.000619291444309,0.000116582697956,3.69594017684e-05,-0.000333240051987,0.473134044547,0.000128257342456,0.1572159877,-0.00861976703073,0.919758073151,0.390481914498,0.038660840932
-0.126486957073,0.0309507288039,0.119632162154,-2.53127813339,0.0867181196809,2.62456822395,-0.884045660496,0.0805250629783,-0.000104068836663,-0.00303598074242,0.000161831427249,0.000111603410915,2.79034538835e-05,5.32552585355e-05,-4.81639290228e-05,0.473136551855,0.000129057970334,0.157217815021,-0.00861818163427,0.919760470113,0.390475917088,0.0386647438626
-0.126488745213,0.0309480857104,0.119631245732,-2.53127980232,0.0867191180587,2.62457442284,-0.884025633335,0.0805250629783,-0.00069193507079,6.92041066941e-05,-0.000288322422421,-0.000404726888519,-1.3421166841e-05,-5.41855151823e-05,5.52624696866e-05,0.473137492808,0.000127824938743,0.157218429859,-0.00861721372926,0.919765521655,0.390463759167,0.0386675737767
-0.126485228539,0.0309480484575,0.119629211724,-2.5312795639,0.0867184400558,2.62458825111,-0.883976697922,0.0805244073272,0.00126040936448,-0.000198256238946,0.000137401773827,0.000722589087673,-1.17921726996e-05,2.04034549824e-05,-4.00632670789e-05,0.473140546777,0.000128186979698,0.157219929489,-0.0086147391468,0.919774548189,0.390441962415,0.0386735108317
-0.126487061381,0.0309485606849,0.119629547,-2.53128242493,0.0867181420326,2.62459897995,-0.883949518204,0.0805244073272,-0.000535208557267,-0.000307803100441,6.68290595058e-05,3.49792958332e-06,-9.14337651921e-05,0.000105974701,0.000255422375631,0.473141334331,0.000127258724534,0.157219682559,-0.00861337953769,0.919780065393,0.390428690608,0.038676585038
-0.126483663917,0.030950281769,0.119630709291,-2.5312795639,0.0867182165384,2.62460660934,-0.883919835091,0.0805244073272,-0.000219902984099,-3.90739587601e-05,0.000370722817024,7.35930079827e-05,-2.8011503673e-05,0.000120328557387,0.00201777834445,0.473144052734,0.00012928039054,0.157220737315,-0.00861217153825,0.919784892366,0.390416967581,0.0386804005154
-0.126484230161,0.0309487413615,0.11963160336,-2.53128027916,0.0867192223668,2.62461161613,-0.883913457394,0.0805244073272,0.000152235137648,0.000265211623628,-0.000196153167053,5.4181786254e-05,-6.18769336143e-05,-7.68911049818e-05,0.000230258287047,0.473145007742,0.000129393828167,0.157221505362,-0.00861124570694,0.919786361103,0.390413274632,0.0386829555237
-0.126483291388,0.0309469811618,0.119631431997,-2.53128194809,0.0867184624076,2.62461805344,-0.883897721767,0.0805244073272,-0.000215148786083,-8.27517360449e-05,6.66818086756e-05,-9.20054953895e-05,-7.09653031663e-05,0.00558737572283,0.00139040034264,0.473145891416,0.00012949546367,0.157222535441,-0.00860967759778,0.919788915235,0.390407016934,0.0386857295693
-0.126485452056,0.0309514030814,0.119628757238,-2.53128170967,0.0867193937302,2.62462735176,-0.883876681328,0.0805244073272,0.00019360112492,0.00065696897218,5.03925293742e-05,0.000171169711393,2.67864088528e-05,0.000597346108407,7.50129984226e-05,0.47314721102,0.000127114654761,0.157221486288,-0.0086090847887,0.919794111324,0.390394557166,0.0386880582261
-0.126490294933,0.0309503823519,0.119628489017,-2.53128147125,0.0867214798927,2.62463521957,-0.883865773678,0.0805244073272,-0.000654778501485,-0.000261890061665,-0.000501330709085,0.000698296236806,0.000434866291471,-0.000437341281213,-0.000258250365732,0.473149180726,0.000124563242354,0.157222853543,-0.008607556753,0.919797480093,0.390386233903,0.0386922943608
-0.12648704648,0.0309498738497,0.119626656175,-2.53127980232,0.0867214351892,2.62464308739,-0.883859395981,0.0805244073272,-5.91633033764e-05,0.000939130201004,-3.38143981935e-05,7.30046886019e-05,-7.28679588065e-05,0.00119319383521,-0.000196027438506,0.473151753482,0.000125029018219,0.157224519023,-0.00860538958648,0.919798330795,0.390383839796,0.0386967084535
-0.126482322812,0.0309501793236,0.119630932808,-2.53127813339,0.0867233872414,2.6246509552,-0.883855342865,0.0805244073272,0.000658764387481,-0.00117390952073,5.30563484062e-05,0.000206473341677,7.22134518583e-06,-1.73348489625e-05,-0.000295456353342,0.473154192548,0.000129196242016,0.157225817027,-0.00860408096081,0.919797583113,0.390385203123,0.0387010174954
-0.126472607255,0.0309488791972,0.119635485113,-2.53128194809,0.0867225974798,2.62466001511,-0.88384771347,0.0805244073272,-0.000184549498954,-0.000458143418655,2.00384474738e-05,-0.000394122616854,-0.000134062269353,7.83082577982e-05,-0.000193206811673,0.473154475118,0.000135734963961,0.157225895993,-0.00860270912502,0.919796125349,0.390388402785,0.0387036928528
-0.126473084092,0.0309490561485,0.119632169604,-2.53127980232,0.0867237523198,2.62467360497,-0.883841454983,0.0805244073272,-0.000557696213946,-0.00104213575833,-0.00140340719372,0.000130477055791,1.37212537084e-05,0.000605216366239,-0.000138180650538,0.473158378315,0.000133653347745,0.157227998505,-0.00859945327737,0.91979811522,0.390383090719,0.0387107065742
-0.126480579376,0.0309490412474,0.119627781212,-2.53127813339,0.0867236182094,2.6246881485,-0.883839130402,0.0805244073272,9.31407339522e-05,8.10680285213e-05,-0.000156427020556,0.00337779289111,9.28775716602e-06,0.00254421494901,-2.9049204386e-05,0.473162504269,0.000127606331903,0.157230141722,-0.00859525286579,0.919800825646,0.390376037868,0.0387183614092
-0.126483872533,0.0309533327818,0.119625777006,-2.53128361702,0.0867243111134,2.62472605705,-0.883834660053,0.0805257186294,1.28242363644e-05,6.50431611575e-05,0.000430816173321,-0.000664690101985,9.3474809546e-05,0.00658081145957,0.000139588082675,0.473166895134,0.000124462597778,0.157229824087,-0.00858897330125,0.919802566781,0.390370881134,0.038730382457
-0.126475512981,0.0309498682618,0.119628027081,-2.53128290176,0.0867236256599,2.62476539612,-0.883832991123,0.0805257186294,0.000645967200398,0.000525217852555,0.00054827897111,0.000341920444043,0.000121281191241,0.00442571844906,-6.24219610472e-05,0.473176194054,0.0001285232432,0.157235699024,-0.00857894723853,0.919800280382,0.390374591129,0.0387495052467
-0.126465409994,0.03094962053,0.11963506043,-2.53127646446,0.0867238789797,2.62481236458,-0.883822143078,0.0805257186294,2.8996842957e-05,0.000473484047689,0.00246667023748,-0.00024761230452,-2.80250351352e-05,0.000392235087929,-0.000280338310404,0.473189353771,0.000135602216414,0.157243025604,-0.00856741645922,0.919798546771,0.390376565021,0.0387733142467
-0.126465901732,0.0309497173876,0.119634948671,-2.53128099442,0.086723446846,2.62482738495,-0.883816659451,0.0805257186294,0.000178474321729,0.00315157417208,-0.000107765597932,-0.000321353581967,3.85157909477e-05,0.00019220422837,0.000504427123815,0.473190307115,0.000134994376492,0.157242770601,-0.00856484943276,0.919799616649,0.390373657597,0.0387777732952
-0.126464873552,0.0309500936419,0.119632460177,-2.53127884865,0.0867250710726,2.62484407425,-0.883812069893,0.0805257186294,6.86765561113e-05,-0.000289333576802,-2.69154970738e-05,0.000235088038608,8.69998766575e-05,-0.00028634845512,5.99111263e-05,0.473194834306,0.000133971122552,0.157245095513,-0.00856105994639,0.919800876243,0.390369942796,0.0387861284258
-0.126466542482,0.0309512913227,0.11963313818,-2.53127837181,0.0867245048285,2.62485718727,-0.883807301521,0.0753820464015,0.000133538356749,0.00135764246807,0.000277494109469,-0.000146442296682,-3.74521587219e-05,0.000832141784485,0.000576319580432,0.473197639906,0.000133222421895,0.157246040054,-0.00855817620027,0.919801804759,0.390367278505,0.0387915601248
-0.126470372081,0.0309496615082,0.119630001485,-2.53128266335,0.0867244154215,2.62487053871,-0.883805334568,0.0753820464015,-0.000255448743701,-0.000200050446438,-0.000159262694069,-4.01204924856e-05,2.54371443589e-05,0.000605203793384,0.000157410628162,0.473198656392,0.00012959634021,0.157246512843,-0.00855536299142,0.919803463795,0.390362970754,0.0387961918172
-0.126467108727,0.030951583758,0.11962980032,-2.53128099442,0.086723819375,2.62490344048,-0.883800268173,0.0753820464015,0.000245735107455,0.00327944452874,0.000406361010391,-0.000656011747196,7.30271422071e-05,0.00117740198039,0.00052211759612,0.473205909065,0.000129565822816,0.157249351161,-0.00854824335321,0.919803650559,0.39036132879,0.0388098521138
-0.126461580396,0.0309485122561,0.119634129107,-2.53128099442,0.0867237001657,2.62492132187,-0.883801102638,0.0753820464015,-0.000219070658204,-0.000167914520716,0.00235474784859,-0.000222855160246,9.728292207e-05,0.000251147139352,-0.000159365212312,0.473210446147,0.000134553161991,0.157252825421,-0.00854319117677,0.919801142833,0.390366358282,0.0388198084904
-0.126459255815,0.0309494808316,0.119634270668,-2.53128027916,0.08672413975,2.62493348122,-0.883797883987,0.0753820464015,-0.00020605190366,-0.000164392666193,0.00306265568361,-0.000369283283362,9.08098809305e-05,-6.64897088427e-05,0.0002518206893,0.473213207566,0.000135484190783,0.157253872831,-0.00854069038441,0.919801255687,0.390365618307,0.0388251254825
-0.126462206244,0.0309486500919,0.119630850852,-2.53128099442,0.0867239013314,2.62494373322,-0.883796751499,0.0753820464015,-8.74213510542e-05,-0.000331357645337,-0.000278334744507,-5.65836417081e-05,-9.0428366093e-05,0.00291095441207,0.000257724139374,0.473215065657,0.000132389646261,0.157254836721,-0.00853828759195,0.91980244981,0.390362443942,0.038829280323
-0.12646573782,0.0309521742165,0.119628958404,-2.531280756,0.086724050343,2.62495493889,-0.883794009686,0.0753820464015,-0.000383392558433,0.000725013960619,0.000283575500362,1.92040533875e-05,-6.86847488396e-05,0.000284788198769,0.000559441221412,0.473217054722,0.000129460601347,0.15725458497,-0.00853624341918,0.919804166044,0.390358052432,0.0388332236724
-0.126462444663,0.0309526454657,0.119630597532,-2.53128004074,0.0867234766483,2.62497162819,-0.883792817593,0.0753820464015,-5.23715534655e-05,0.000695910712238,0.000428945058957,0.00013509755081,-5.25784380443e-05,0.00044523132965,-2.02230548894e-05,0.473220861993,0.000131423339733,0.157256324785,-0.00853235743558,0.919803188504,0.39035970115,0.0388406577475
-0.12645894289,0.0309519227594,0.11963263154,-2.53127980232,0.0867250934243,2.6250295639,-0.883781731129,0.0753820464015,0.00013828734518,-0.000814918312244,-8.61173029989e-05,0.000128516490804,-2.37734752773e-06,0.000611256517004,0.00273353187367,0.473233400008,0.000132807351856,0.157262615918,-0.00851943053601,0.919803991006,0.390355486078,0.0388668445203
-0.12645983696,0.0309494007379,0.119629919529,-2.53127980232,0.0867250040174,2.62504148483,-0.883780062199,0.0679157525301,-0.00196849182248,0.00429279729724,-0.000234277642448,-0.000217833876377,-0.000130076761707,0.00155654549599,1.36313465191e-05,0.473236366975,0.00013076472779,0.157264999442,-0.00851593797826,0.919804851525,0.390352903127,0.0388731863018
-0.126456677914,0.0309500787407,0.119631037116,-2.5312795639,0.0867261514068,2.62509679794,-0.883773267269,0.0679157525301,-0.000564313028008,-0.000262582412688,-6.41678998363e-05,0.00044802823686,-6.80575685692e-05,0.000183315743925,0.00221461383626,0.473248102389,0.000131622372144,0.157270366389,-0.00850374109108,0.919805035727,0.390350305725,0.0388975724247
-0.12645791471,0.0309504680336,0.119630724192,-2.53128099442,0.0867258682847,2.62511229515,-0.88377404213,0.0679157525301,-0.000123048128444,-0.00042330683209,-0.000184533317224,0.000153668122948,2.74632975561e-06,0.00303701381199,-1.83929751074e-05,0.473250621702,0.000130551512029,0.157271203885,-0.00850041485739,0.919805035236,0.390349780308,0.0389035833387
-0.126453116536,0.0309511963278,0.119632944465,-2.5312833786,0.0867262408137,2.62516307831,-0.8837672472,0.0675677135587,0.00178649206646,-0.00329844583757,0.000223088849452,-2.9580831324e-05,-0.000182399002369,0.000414236797951,-0.000285547372187,0.47326010296,0.000132801817945,0.15727509147,-0.00848968677526,0.91980464967,0.390348822022,0.0389246514577
-0.126448839903,0.030949184671,0.119633480906,-2.531280756,0.0867281407118,2.6251809597,-0.883764326572,0.0675677135587,-7.67317105783e-05,0.0010269547347,0.000163252625498,0.000334155512974,1.71132069227e-05,-0.000125825099531,0.000977601739578,0.473265533767,0.000134690111532,0.157278846998,-0.00848512082931,0.91980433713,0.390348643824,0.038934818184
-0.126445859671,0.0309561323375,0.119633480906,-2.5312769413,0.086732879281,2.62537550926,-0.883751571178,0.0675677135587,8.91258532647e-05,0.008544633165,0.00034467127989,-5.48261959921e-05,-0.000900938059203,0.0174583215266,-0.000242094698478,0.473307466656,0.000132087408389,0.157296718123,-0.0084424426224,0.9198052986,0.390338784678,0.0390201318126
-0.126443222165,0.0309532973915,0.119633026421,-2.53127884865,0.0867328047752,2.62547492981,-0.883750081062,0.0675677135587,0.000101561476185,0.00238726916723,1.79337002919e-05,0.000615464698058,-0.000118945223221,0.00188914441969,0.00170213310048,0.473328114464,0.000130865820195,0.157307377109,-0.00841911271638,0.919804226882,0.390337380662,0.0390644556029
-0.126440554857,0.0309524349868,0.119634754956,-2.53128290176,0.0867335796356,2.62550330162,-0.883750557899,0.0675677135587,0.000856263155583,-0.00153430982027,0.000176474262844,0.000889951828867,-0.000217367109144,0.000912570860237,-0.000579146959353,0.473331535392,0.000131840721722,0.157308272393,-0.00841398441022,0.919803590334,0.39033798626,0.0390744960144
-0.126435756683,0.0309430193156,0.11963377893,-2.53128194809,0.0867333188653,2.62553620338,-0.88374620676,0.0527835227549,0.000155648915097,0.00112919474486,0.000108724423626,-0.00118017336354,0.000229896686506,0.000707092345692,9.32478142204e-05,0.473340299009,0.000133125030656,0.157315964105,-0.00840387780892,0.919802826976,0.390338101281,0.0390934865905
-0.126439809799,0.0309511739761,0.119629248977,-2.53128385544,0.0867335796356,2.62554860115,-0.883743107319,0.0527835227549,-0.000436138594523,0.000484007323394,-0.000136476926855,0.000106155894173,-0.000247299351031,-0.000184357093531,-0.000380720361136,0.473341660754,0.000129047054463,0.15731391284,-0.00840275782651,0.919805164869,0.390332393526,0.0390957105992
-0.126437216997,0.0309492684901,0.119632333517,-2.5312795639,0.0867336317897,2.62555956841,-0.883741378784,0.0527835227549,0.000622414343525,-0.000338644167641,8.43733414513e-06,8.69966897881e-05,-0.00020978723478,-5.25855148226e-06,0.000176182540599,0.47334641889,0.000131447012513,0.15731755869,-0.00839908333227,0.919804185246,0.390334015454,0.039103353626
-0.12642198801,0.0309365112334,0.119637131691,-2.53126382828,0.0867343991995,2.62559890747,-0.883740663528,0.0527835227549,0.000183260039194,-0.000718402559869,5.35788240086e-05,0.00010807729268,-0.000549975025933,0.00281220464967,0.000286321446765,0.473365590514,0.000139851052527,0.157334416553,-0.0083834521937,0.919799686356,0.390341758359,0.0391352280223
-0.126413464546,0.0309177003801,0.119639731944,-2.5312526226,0.0867346674204,2.62566900253,-0.883738577366,0.0527835227549,-0.000459364528069,-0.000671841902658,-0.000131989902002,0.000140047617606,-0.000124099271488,0.00225133495405,0.000276649690932,0.473388305593,0.000143018980558,0.157353741069,-0.00836143972935,0.919796711077,0.390344971121,0.0391777975532
-0.126412540674,0.0309075638652,0.119638353586,-2.53124713898,0.0867341458797,2.62575054169,-0.883737742901,0.0527835227549,-0.000255228980677,-0.000413867091993,-0.000618638063315,-0.000217110704398,6.51161317364e-05,0.00716499285772,-7.43423370295e-05,0.473411495861,0.000140250517236,0.157369842858,-0.00833713564667,0.919795910474,0.390342757344,0.0392238029121
-0.126415684819,0.0309020262212,0.119635313749,-2.53125047684,0.0867345035076,2.62584376335,-0.883735477924,0.0527835227549,0.000274548656307,-8.09258017398e-06,0.000305338879116,-0.000107012565422,-2.38582706515e-05,0.00367930461653,5.67346432945e-06,0.473429728033,0.000135853192312,0.15737960713,-0.00831568802335,0.919796594868,0.390337528641,0.0392643199154
-0.126411139965,0.0309039950371,0.119635872543,-2.53125500679,0.086734354496,2.62587165833,-0.883735120296,0.0527835227549,0.000182506890269,1.84627861017e-05,-1.83166957868e-05,-0.000448336155387,-9.67433297774e-05,0.00146680767648,0.00037758750841,0.47343244108,0.00013761792401,0.157379504375,-0.00831134406535,0.919795543337,0.390339291139,0.0392723502323
-0.126401424408,0.0309086926281,0.119637481868,-2.53125882149,0.0867334902287,2.62590646744,-0.883734226227,0.0527835227549,0.00204386678524,-0.000179043869139,0.000229188997764,0.000251157645835,-9.77714080364e-05,0.000244260911131,-0.000391460460378,0.473437194675,0.000142190965436,0.157379641731,-0.00830533812765,0.919793217237,0.390343754534,0.0392837353218
-0.12639990449,0.0309046376497,0.119638100266,-2.53126072884,0.0867339149117,2.62592625618,-0.88373208046,0.0489439927042,0.000568015035242,-0.00295727537014,4.16234106524e-05,-0.000187302255654,0.000112152381917,0.000229658689932,3.50323098246e-05,0.473441049185,0.000142642193161,0.157382735687,-0.00830049789684,0.919793091014,0.390343221854,0.0392930056353
-0.126398861408,0.0309059210122,0.119637392461,-2.53126120567,0.0867339670658,2.62594676018,-0.883731424809,0.0489439927042,0.000395479088183,0.00088749139104,0.000317337631714,-0.000147694197949,-3.40976730513e-05,2.50048287853e-05,4.01763136324e-05,0.473445056458,0.000142436678683,0.157384115236,-0.00829599018939,0.919792977685,0.390342709274,0.0393017015723
-0.126399233937,0.0309108160436,0.119636721909,-2.53126311302,0.0867344886065,2.62596511841,-0.88373196125,0.0489439927042,0.000185893819435,-0.00185369793326,3.79406374122e-05,-7.35634894227e-05,-9.37255572353e-06,0.00322361593135,7.79703623266e-05,0.47344716481,0.000141667697893,0.157382947801,-0.00829342815371,0.91979311957,0.390341906114,0.0393068982969
-0.126381039619,0.0309175718576,0.119642175734,-2.53126645088,0.0867331027985,2.62598657608,-0.883727967739,0.0489439927042,0.000170514220372,0.000384497921914,-0.000146367921843,0.000245198869379,-7.20722309779e-05,0.000136394941364,8.50336655276e-05,0.473448967972,0.000152850551944,0.157380523877,-0.00829106586234,0.91978897962,0.390351216493,0.0393118132413
-0.126382485032,0.0309095662087,0.119636490941,-2.53125691414,0.0867334380746,2.62600302696,-0.883727908134,0.0489439927042,-0.000948459433857,-0.00111567857675,-0.000537441228516,0.000166617857758,3.36980810971e-05,0.00246726139449,-0.000201514470973,0.473458446241,0.000148559998408,0.157389735446,-0.00828325252757,0.919790025504,0.390347402799,0.0393268549582
-0.126372039318,0.0308970306069,0.119639307261,-2.53125,0.0867345482111,2.62606072426,-0.883726119995,0.0489439927042,0.000210719226743,2.66821225523e-05,0.00114750105422,0.00022078283655,7.19256931916e-05,0.0030927977059,0.000200083261007,0.473476246807,0.000153304356749,0.157404110543,-0.00826595051224,0.919787060226,0.390351309635,0.0393610550069
-0.126370206475,0.0309029407799,0.119638316333,-2.53124952316,0.0867359042168,2.62607979774,-0.883723020554,0.0489439927042,-5.82988541282e-05,0.000114913906145,-0.000138539282489,-1.89357833733e-05,0.000207646779018,0.000186574397958,-0.000366161431884,0.473479497096,0.000153447721556,0.157403448934,-0.00826330595815,0.9197876454,0.390349357968,0.0393672904853
-0.126361653209,0.0309040863067,0.11963827163,-2.53125190735,0.0867350697517,2.62608861923,-0.883723735809,0.0489439927042,0.00108832679689,9.69895045273e-05,9.09606969799e-05,-5.94256880504e-06,8.90753071872e-05,-0.000137912502396,0.000279676198261,0.473480075933,0.000157548522982,0.157402878509,-0.00826188190447,0.919785581421,0.390354016956,0.0393696157586
-0.126359686255,0.0309091750532,0.119638197124,-2.53125548363,0.0867354497313,2.62609648705,-0.883722901344,0.0489439927042,-0.000158787312103,-0.00142836128362,-0.00013748749916,-0.000296767626423,-2.08473520615e-05,-5.87509457546e-05,-0.000270237622317,0.473479249443,0.000157256241531,0.157401079639,-0.00826119101933,0.919785917896,0.390353142712,0.0393705679293
-0.126358345151,0.0309032965451,0.119636684656,-2.53126120567,0.0867354795337,2.62611293793,-0.883719921112,0.0489439927042,3.46238484781e-05,-0.000888771668542,-0.000248766678851,-0.000299300329061,-0.000194174441276,0.000324778986396,0.000483146577608,0.473480746292,0.000157600999534,0.157402180676,-0.0082581732966,0.919786105582,0.390352182873,0.0393763324963
-0.126359254122,0.0309049766511,0.119634404778,-2.53126239777,0.0867341086268,2.62611842155,-0.883721292019,0.0482013039291,0.000365038838936,-0.00115187466145,0.00032020022627,-0.000253742764471,-8.41930668685e-05,0.000231998390518,0.000182099174708,0.473481028996,0.000155958295954,0.157401486103,-0.00825711886883,0.919786243451,0.390351778981,0.0393773370725
-0.126362413168,0.0309027004987,0.119631968439,-2.53124642372,0.0867353230715,2.62613511086,-0.883719921112,0.0482013039291,-5.72406770516e-06,0.00126200006343,0.0036332339514,0.000970286608208,-3.51640155714e-05,0.000413872912759,-0.00028222752735,0.47349277602,0.000152840083842,0.157410334597,-0.00824967995951,0.9197872978,0.390347854978,0.0393931641635
-0.126361593604,0.0308887846768,0.119632773101,-2.53122448921,0.0867371335626,2.62616801262,-0.883717536926,0.0482013039291,0.000790209800471,-0.000992994522676,-0.000125605874928,0.000935476680752,1.794846753e-06,0.00196777656674,-7.91943239165e-05,0.473512904073,0.000152531957184,0.157428573393,-0.00823471884784,0.919786750594,0.390346349057,0.0394239812472
-0.126344442368,0.030873471871,0.119637981057,-2.53122544289,0.0867365151644,2.62625265121,-0.883716464043,0.0482013039291,-0.000437728391262,-0.000743914861232,0.000167948426679,-0.000134544417961,-0.000173113527126,0.000284798297798,0.0012172072893,0.473533047531,0.0001609244078,0.157443988323,-0.0082118269564,0.919781432535,0.390354965669,0.0394674894224
-0.126337915659,0.0308795999736,0.119637273252,-2.53122806549,0.0867361873388,2.62626123428,-0.883713841438,0.0482013039291,6.22270017629e-05,-0.000997380469926,-2.39510482061e-05,-0.000284786132397,-0.000195959568373,0.00117975752801,0.000310422008624,0.473532515571,0.000163624439685,0.157440977585,-0.00821197976196,0.919780842379,0.390356365692,0.0394673640631
-0.126328989863,0.0308796130121,0.119635902345,-2.53124022484,0.0867373421788,2.62627077103,-0.883716762066,0.0482013039291,0.000177635680302,0.000118576055684,-0.000755447603296,-0.000165823861607,0.000112601592264,-0.000269063690212,0.000163129545399,0.473528737772,0.000167140035164,0.157437583824,-0.00821242419314,0.919779114852,0.390360534262,0.0394663013636
-0.126330450177,0.0308816228062,0.119634740055,-2.53124117851,0.0867379456758,2.62628269196,-0.883713066578,0.0482013039291,0.000149314073496,-0.00167394953314,-0.000104167236714,0.000347177294316,6.29090209259e-05,0.00276246666908,0.000150403298903,0.473530303616,0.000165634755271,0.157437199355,-0.00821060958736,0.919780401409,0.390357154285,0.0394701261061
-0.126330390573,0.0308748073876,0.119632966816,-2.53121829033,0.0867385566235,2.62631058693,-0.883711874485,0.0482013039291,-0.00031435067649,-0.000803281611297,0.000474327622214,-8.74504548847e-05,-3.58108190994e-05,0.000224501316552,-0.00025519519113,0.473548594254,0.000163959071718,0.157451954936,-0.00819800057088,0.919780241597,0.390355182257,0.0394959658796
-0.126324146986,0.0308726318181,0.11963558197,-2.53122901917,0.0867392644286,2.62631821632,-0.883710861206,0.0482013039291,-8.58548355609e-06,-0.000317375466693,0.000503123679664,-0.00105937477201,-9.22029284993e-05,-0.000339053949574,-0.000222861111979,0.473545347697,0.000168023632209,0.157449664381,-0.00819820959282,0.919778914995,0.390358358925,0.0394954198397
-0.126311227679,0.0308771841228,0.119638651609,-2.53124785423,0.0867372974753,2.62632203102,-0.883710861206,0.0476267188787,0.00169419043232,0.00076320086373,-0.000247668009251,0.000279520289041,-7.34890563763e-05,0.000156497422722,-6.75551345921e-05,0.4735361502,0.000175654487051,0.157440731815,-0.00820210044085,0.919775886136,0.390366341835,0.0394862466662
-0.126307830215,0.0308821871877,0.119634412229,-2.53124141693,0.0867391750216,2.6263256073,-0.883708536625,0.0476267188787,7.63651478337e-05,0.000782193383202,8.83446482476e-05,0.000488617806695,9.1193971457e-05,7.61361807236e-05,8.28809497762e-05,0.47353918597,0.000175294062255,0.157441194351,-0.0082016680252,0.919776746673,0.390364065986,0.0394887906887
-0.126305550337,0.0308838803321,0.119635291398,-2.53124403954,0.086738884449,2.62632799149,-0.883707940578,0.0476267188787,0.001141439192,-2.18852419493e-05,0.000540793524124,-0.000301152642351,-5.89854380451e-07,0.000315550161758,0.000313333031954,0.473538113744,0.000176782603889,0.157439641627,-0.00820207911354,0.919776259342,0.390365298558,0.0394878717193
-0.126276984811,0.0308872777969,0.119637466967,-2.53125858307,0.0867374017835,2.62632846832,-0.883708536625,0.0476267188787,0.00251906178892,-0.000329432776198,-3.37822712027e-05,0.00079094315879,3.1397859857e-05,5.64907604712e-05,-0.000309491791995,0.473530505267,0.000191437285961,0.15743254921,-0.00820598309763,0.91977024032,0.390380227104,0.0394796761758
-0.126257956028,0.0308901555836,0.119639985263,-2.53125572205,0.0867357477546,2.6263282299,-0.883706629276,0.0476267188787,0.000648412795272,-0.000193513653358,-1.18193474918e-06,0.000423595454777,0.000128780971863,0.000133034118335,0.000363249564543,0.473531050235,0.000200951507336,0.157432027092,-0.00820647990885,0.919766481028,0.390389136992,0.0394790509728
-0.126251161098,0.0298539120704,0.119633764029,-2.53115391731,0.086728990078,2.62630105019,-0.883708059788,0.0476267188787,-4.38043280155e-05,-0.0200182702392,3.78946497221e-05,0.00320220715366,-0.00236494513229,0.000158481911058,-0.00017223895702,0.473749859954,0.000179694858695,0.157942794914,-0.00793663023909,0.919743560413,0.390400916491,0.0399489306981
-0.126258045435,0.0295022055507,0.119628794491,-2.53109669685,0.0867291465402,2.62627983093,-0.883709490299,0.0476267188787,-0.000794308900367,-0.0358614623547,-0.000414170353906,0.00653648702428,-0.000219371533603,-0.00436870101839,5.73988363612e-05,0.47385238902,0.000163535614267,0.158167583651,-0.00782131324089,0.919736787616,0.39039825026,0.0401531373758
-0.126277178526,0.0284472033381,0.119613304734,-2.53083777428,0.0867285579443,2.62596774101,-0.883709728718,0.0476267188787,-2.54607475654e-05,-0.0593672953546,0.000267258292297,0.0140909301117,-0.000211807418964,-0.0290120653808,-0.000531026627868,0.474082994599,0.000131748846827,0.158703462206,-0.00758938360218,0.919721472844,0.390396315616,0.0405651338202
-0.126268386841,0.0270913075656,0.11961761117,-2.5304210186,0.0867249295115,2.62503647804,-0.883707880974,0.0485467091203,0.00300134602003,-0.0914320424199,0.000936796248425,0.0301078259945,-4.75532579003e-05,-0.078555136919,-0.000352347880835,0.474322988788,0.000126776859186,0.159405946381,-0.00738089132236,0.919693056744,0.39042929271,0.0409288516285
-0.126263722777,0.0199570339173,0.119618743658,-2.52771115303,0.0867187678814,2.61616301537,-0.883708178997,0.0485467091203,0.00170537689701,-0.20820479095,-0.0011095860973,0.0851377770305,-0.000411068060203,-0.309934556484,-0.000364826060832,0.474977898533,0.000157960102824,0.162901269017,-0.00710214423624,0.919585324445,0.390646747915,0.0413220115374
-0.126270145178,0.0163365006447,0.119613274932,-2.52626943588,0.086716465652,2.61065006256,-0.883710682392,0.0485467091203,-0.000261425593635,-0.274156183004,-0.000473990599858,0.105213209987,0.000153389992192,-0.425503313541,-5.18200140505e-05,0.475116568805,0.000189685848374,0.164601589122,-0.0071803357213,0.919542181291,0.390769779546,0.0411047282079
-0.126279741526,0.0107778972015,0.119609422982,-2.5241689682,0.086716555059,2.60178399086,-0.883709788322,0.0485467091203,0.000342578015989,-0.342211633921,0.000173176260432,0.133173599839,-0.000388415151974,-0.556086361408,9.50226240093e-06,0.475173653178,0.000251314767583,0.167132578212,-0.00741580959491,0.919482614442,0.390964380312,0.0405410966292
-0.126285523176,0.00282136187889,0.119606293738,-2.52080345154,0.0867150574923,2.58830571175,-0.883711218834,0.0485467091203,-0.000290378899081,-0.418998897076,-0.000107477018901,0.189661636949,0.000471179519081,-0.733305931091,-7.35812136554e-05,0.475226065745,0.00036279002159,0.170826936159,-0.00786089313519,0.91939423959,0.391265068386,0.039548508318
-0.126270577312,-0.0117801027372,0.11961877346,-2.51390194893,0.0867056548595,2.56236076355,-0.883707582951,0.0485467091203,-0.00136237440165,-0.533477544785,-0.000778503424954,0.263223737478,-0.00213426142,-0.97168213129,-0.00564259989187,0.475295851048,0.000628364038535,0.178071481482,-0.0088404624517,0.919210746741,0.391882427585,0.037438108013
-0.126292094588,-0.0222370810807,0.119608670473,-2.50864768028,0.0867033153772,2.54380774498,-0.883700489998,0.0485467091203,-0.00171927316114,-0.613719284534,-0.00126088794786,0.322318971157,-0.00294118118472,-1.07923996449,7.57412053645e-05,0.475403943271,0.000785228118301,0.182973871914,-0.0094025950702,0.91909154749,0.392263751099,0.0362141932492
-0.126288875937,-0.0330546200275,0.119609385729,-2.50274777412,0.0867012366652,2.52434277534,-0.883664608002,0.0485467091203,0.00101269886363,-0.652851581573,0.00117282546125,0.362716913223,8.55039179442e-05,-1.19622421265,0.0047694449313,0.475585326664,0.000984932563097,0.188506366665,-0.00998686649663,0.91895130502,0.392691949937,0.034954164788
-0.126275226474,-0.0447304956615,0.11962403357,-2.49609303474,0.0866973623633,2.50327777863,-0.883474051952,0.0466693006456,4.70498935101e-06,-0.726442754269,0.00320900627412,0.429840385914,-0.00085744576063,-1.28535795212,0.00933220237494,0.475795516114,0.00122017376931,0.194626730707,-0.0105668991196,0.918817004847,0.393100882571,0.0336949261935
-0.126282081008,-0.0824987441301,0.119630582631,-2.47006678581,0.0866816788912,2.43596696854,-0.882509946823,0.0466693006456,-0.00583182135597,-0.851173698902,-0.0033895955421,0.621708035469,0.000465278397314,-1.45573556423,0.0318236984313,0.477850071785,0.00198137581014,0.21665654781,-0.011291535163,0.918367204446,0.39427066746,0.0320128020241
-0.126296252012,-0.0958734825253,0.119624897838,-2.45945119858,0.0866851061583,2.412722826,-0.881911933422,0.0466693006456,-0.000919967249501,-0.825956821442,-0.000176450659637,0.699384391308,-0.00112852454185,-1.4736713171,0.0392229706049,0.478976062561,0.0022581947785,0.225224280639,-0.0111135826592,0.918230054435,0.394571054712,0.0323069323581
-0.126305446029,-0.153020918369,0.119637340307,-2.4050385952,0.0866699963808,2.31317138672,-0.878874719143,0.0466633886099,-0.000665212690365,-0.87017339468,-0.00139432121068,0.935298323631,0.00109461089596,-1.46565175056,0.0458888076246,0.485051504453,0.00370569019591,0.266560681939,-0.00842485343434,0.917497112631,0.395880629459,0.0375046271708
-0.126327931881,-0.181740298867,0.119621194899,-2.37262558937,0.0866754949093,2.26412534714,-0.877167582512,0.0466633886099,-0.000452844629763,-0.845420598984,-0.00120085489471,0.982245206833,0.000819583481643,-1.38714647293,0.0422705672681,0.488516044504,0.00456294352193,0.290251229882,-0.00573032097678,0.917002139619,0.396536542094,0.04281366395
-0.126319721341,-0.196606963873,0.119614586234,-2.35513830185,0.0866816863418,2.23938155174,-0.876602947712,0.0466633886099,0.00428204983473,-0.818202018738,-0.000986487953924,0.985256314278,-0.00256701931357,-1.33654665947,0.0234393849969,0.490067998238,0.00502606647547,0.302334330712,-0.00411527124451,0.916653675878,0.397010419036,0.0459546504693
-0.126378744841,-0.220712408423,0.119602374732,-2.3260474205,0.0866912156343,2.20102667809,-0.875924825668,0.0466633886099,-0.00413611344993,-0.80499368906,0.000238371998421,0.961438655853,0.00438628019765,-1.23247218132,0.0293973982334,0.492684212939,0.00588474561889,0.325257399921,-0.000500271169638,0.915879572072,0.397950689465,0.0529113184925
-0.126424714923,-0.234669789672,0.11958681047,-2.30923700333,0.0866946205497,2.179905653,-0.875297427177,0.0466633886099,-0.00258941855282,-0.77887648344,-0.00236713886261,0.916376769543,0.0052948188968,-1.12709641457,0.0391994975507,0.49375225777,0.00633369975641,0.337185771462,0.00159550721647,0.915485716291,0.398302972751,0.0569042986299
-0.126536816359,-0.247474789619,0.119574584067,-2.29405236244,0.0866981372237,2.16141271591,-0.874616682529,0.0466633886099,-0.00808692257851,-0.743315219879,0.00129922945052,0.884404361248,0.00193256698549,-1.05207300186,0.0396917834878,0.49462754521,0.00677095598481,0.349489773079,0.00392455832832,0.915081354319,0.398563166715,0.0613034635178
-0.126710534096,-0.261393725872,0.119568563998,-2.27843570709,0.0867008417845,2.14246058464,-0.873981714249,0.0466633886099,-0.0109120123088,-0.711018204689,-0.00343289412558,0.815632998943,-0.0030847704038,-0.941109478474,0.0276986137033,0.4951240205,0.0071729453696,0.361209585642,0.00628251298618,0.914658398949,0.39880721177,0.0656761051098
-0.12716551125,-0.28068163991,0.119505286217,-2.25834226608,0.0866774171591,2.11820793152,-0.873470187187,0.0466633886099,-0.0178979579359,-0.677295327187,-0.00248098163866,0.66507267952,-0.000527836440597,-0.796948134899,0.0108916945755,0.495282514512,0.00761234253204,0.377329346312,0.00978458338701,0.914006308173,0.399137922547,0.0720114505735
-0.127473443747,-0.288641154766,0.119479164481,-2.25070261955,0.0866334065795,2.10922813416,-0.87333881855,0.0466633886099,-0.0321164131165,-0.644293665886,-0.00523525243625,0.60114222765,-0.00837771967053,-0.725810587406,0.0096929250285,0.495189466777,0.00773835425243,0.384588556787,0.011538342117,0.913691888832,0.399240967723,0.0751042496485
-0.128522127867,-0.304652363062,0.119398832321,-2.23721790314,0.0860234797001,2.09216213226,-0.873130559921,0.0466601066291,-0.0475002601743,-0.584299743176,-0.00377594935708,0.434740275145,-0.0385553240776,-0.591025114059,0.00380534189753,0.494430017031,0.00765025918281,0.39722256796,0.0148857536693,0.913173233737,0.399298988528,0.0803329133306
-0.129840865731,-0.316971868277,0.119173787534,-2.2284078598,0.0845494121313,2.08004355431,-0.873118698597,0.0466601066291,-0.0657541006804,-0.529024243355,-0.0161971691996,0.365772753954,-0.0867559462786,-0.518129110336,0.000103156526166,0.493414586004,0.00708434468619,0.406262284271,0.017806008358,0.912824855223,0.399243686348,0.0838940304453
-0.141035526991,-0.348199039698,0.114146254957,-2.21211957932,0.0594044215977,2.04557514191,-0.874085366726,0.0466601066291,-0.204108580947,-0.173256039619,-0.116852745414,0.0637986734509,-0.492765039206,-0.305424690247,-0.0573723874986,0.487730698962,-0.0036471660323,0.425529382858,0.032040451234,0.913084009669,0.397671633912,0.0843105689295
-0.145392253995,-0.350653469563,0.111413031816,-2.21118974686,0.0498075075448,2.03995513916,-0.875628530979,0.0466601066291,-0.254928022623,-0.090347006917,-0.162245959044,0.0358748733997,-0.531049966812,-0.283026903868,-0.108826488256,0.486466355021,-0.0084799049077,0.426528828941,0.0355686372176,0.913545010263,0.396921332601,0.0813869871425
-0.150100201368,-0.351451486349,0.108289003372,-2.21071529388,0.0405679605901,2.0353937149,-0.877877414227,0.0466502569616,-0.300256371498,-0.00711638806388,-0.1981343925,0.0212446600199,-0.560269057751,-0.250615805387,-0.163542732596,0.485408758687,-0.0136601662263,0.426645503833,0.0386326346238,0.914082857382,0.396060145496,0.0780795121236
-0.155156850815,-0.350995749235,0.104872658849,-2.21049261093,0.0314751788974,2.03154873848,-0.880952239037,0.0466502569616,-0.327483415604,0.060966078192,-0.232766285539,0.00532677257434,-0.581039309502,-0.234186261892,-0.23804269731,0.484490738694,-0.0191560572227,0.426133461458,0.0413949220215,0.914619261815,0.395241892383,0.0744440228227
-0.182379066944,-0.336482197046,0.0811971202493,-2.20908355713,-0.00750174652785,2.0186753273,-0.907603979111,0.0466502569616,-0.488641440868,0.382576197386,-0.481671661139,0.0581137910485,-0.574820816517,-0.168976604939,-0.565009653568,0.481151560337,-0.0499469961401,0.41879746743,0.0498782519633,0.917225831938,0.391364631287,0.0551602960953
-0.19122980535,-0.329182386398,0.0722814053297,-2.20760273933,-0.0170360226184,2.01586031914,-0.918035507202,0.0466502569616,-0.529237031937,0.435362786055,-0.527463912964,0.0874295756221,-0.558952748775,-0.167215242982,-0.609692633152,0.480329513789,-0.060715327135,0.415678911876,0.0509433958052,0.918195287531,0.389754381892,0.0491294805291
-0.219919413328,-0.301650851965,0.040044657886,-2.19844388962,-0.0386222340167,2.00833940506,-0.953511297703,0.0466502569616,-0.654995501041,0.687436461449,-0.760822832584,0.276513636112,-0.364444375038,-0.151093155146,-0.797650694847,0.477994422428,-0.0932444723889,0.40664853398,0.0499930855714,0.92189894972,0.382680665342,0.0340371261347
-0.232154548168,-0.288610905409,0.0255706496537,-2.19281458855,-0.0445712655783,2.00575852394,-0.968107998371,0.0466423779726,-0.681231677532,0.76493448019,-0.838540017605,0.341285318136,-0.30762180686,-0.139720365405,-0.821235835552,0.47699195356,-0.106518474022,0.403119180559,0.0484225681768,0.923793050722,0.378710659442,0.0289808632686
-0.243345841765,-0.275856465101,0.0116470335051,-2.18680620193,-0.0490691140294,2.00358724594,-0.981683015823,0.0466423779726,-0.719040811062,0.808213114738,-0.909049332142,0.402039021254,-0.266671419144,-0.132032096386,-0.866138994694,0.47583890373,-0.120432128554,0.399461144723,0.0463519932261,0.925867158695,0.374217552842,0.0241395940865
-0.279315263033,-0.232398331165,-0.035609845072,-2.1624956131,-0.0600701086223,1.99879539013,-1.02499485016,0.0466423779726,-0.762339353561,0.974765777588,-1.04926788807,0.586155772209,-0.182059630752,-0.0854528397322,-0.915275335312,0.471377997658,-0.163818065982,0.389394515853,0.0398224149238,0.932632405224,0.358415132483,0.0122296561151
-0.293093979359,-0.214658766985,-0.0547688305378,-2.15130758286,-0.0632062852383,1.99746894836,-1.04134631157,0.0466423779726,-0.769893229008,1.00439798832,-1.08628475666,0.662517309189,-0.173087477684,-0.0583404377103,-0.902706325054,0.469076579488,-0.181023780045,0.38576414857,0.0373109002506,0.935422583917,0.351457367157,0.00837884098453
-0.306327044964,-0.197212323546,-0.0735003873706,-2.13951420784,-0.06605219841,1.99653124809,-1.05683493614,0.0466423779726,-0.784462749958,1.05622339249,-1.10420250893,0.718495130539,-0.153947904706,-0.0584889911115,-0.930460095406,0.466386149313,-0.198836760765,0.382316739733,0.0350892911139,0.938301429236,0.344000118086,0.00480499594402
-0.356713294983,-0.128806695342,-0.147124692798,-2.08885765076,-0.0744454786181,1.9940546751,-1.12047541142,0.0466147959232,-0.746610999107,1.00491988659,-1.10645723343,0.783348381519,-0.10644941777,-0.0326170176268,-0.97269153595,0.452481790161,-0.263445276904,0.371161322079,0.0289726332479,0.94770906077,0.31774822151,-0.00664756144827
-0.374003976583,-0.105488911271,-0.172854945064,-2.07012939453,-0.0768537297845,1.99308383465,-1.143887043,0.0466147959232,-0.706856608391,0.936921596527,-1.04515230656,0.800338625908,-0.105047404766,-0.0377705283463,-0.973564445972,0.445652262446,-0.2861785418,0.367735261838,0.0275410107045,0.950647476987,0.308866849847,-0.0105894278474
-0.382444053888,-0.0945225059986,-0.185199290514,-2.06095433235,-0.078117325902,1.99263465405,-1.15549230576,0.0466147959232,-0.695033192635,0.90258282423,-1.02010846138,0.751960992813,-0.112524069846,-0.0401100888848,-0.959198772907,0.441955294567,-0.297147682317,0.366270294237,0.0271041609502,0.951977239421,0.304710817516,-0.0124906950296
-0.402480393648,-0.0692496597767,-0.21356216073,-2.03982424736,-0.0808977931738,1.99152112007,-1.18403017521,0.0466147959232,-0.648101627827,0.756327807903,-0.908393979073,0.66835641861,-0.0879171937704,-0.0420259796083,-0.917743623257,0.431901680856,-0.323253366274,0.362733944481,0.0261483482931,0.954854719882,0.295411066227,-0.0173502000693
-0.413246870041,-0.0568065084517,-0.228226169944,-2.02911877632,-0.0826052650809,1.99059212208,-1.19920742512,0.0466147959232,-0.62777107954,0.694116353989,-0.824810624123,0.598412513733,-0.104012608528,-0.0697851628065,-0.857190132141,0.426359875882,-0.335535545913,0.361227082424,0.0258018124117,0.956146065536,0.291075047308,-0.0198565949244
-0.4230055511,-0.0463403724134,-0.240513563156,-2.0198533535,-0.0844738483429,1.989397645,-1.21267938614,0.0466147959232,-0.602771699429,0.613548576832,-0.730350911617,0.559171020985,-0.122199431062,-0.0805708765984,-0.819096088409,0.420825191752,-0.346789025741,0.359969259865,0.0255662009903,0.957243883788,0.28727753001,-0.0224084082406
-0.442524373531,-0.0281366556883,-0.263206571341,-2.0027692318,-0.0884192883968,1.9857994318,-1.23973941803,0.0466147959232,-0.498928040266,0.421135365963,-0.55700558424,0.420881301165,-0.103820465505,-0.136997446418,-0.721206009388,0.408963303521,-0.367795679513,0.358116238915,0.0250281911329,0.959091278368,0.280637399827,-0.0275709796036
-0.4578140378,-0.0165746621788,-0.27982378006,-1.99021434784,-0.0922403261065,1.98075568676,-1.2627620697,0.0465773679316,-0.40088057518,0.248413652182,-0.411948889494,0.314371615648,-0.104902304709,-0.16063798964,-0.618012011051,0.398702105757,-0.383085351619,0.357531790333,0.0243917062938,0.960050149253,0.276926851808,-0.031941728544
-0.463698208332,-0.0133692193776,-0.285878837109,-1.98567092419,-0.0937340259552,1.97797501087,-1.27223885059,0.0465773679316,-0.343603461981,0.163994178176,-0.344728052616,0.267032086849,-0.0844323188066,-0.182926461101,-0.585226535797,0.394501705346,-0.388571766469,0.357760248748,0.0240736004036,0.96029258291,0.275926243723,-0.033516036278
-0.46866813302,-0.0113337496296,-0.290662825108,-1.98177814484,-0.0950549393892,1.97491574287,-1.28124368191,0.0465773679316,-0.281898349524,0.0915283635259,-0.267497718334,0.222768619657,-0.0741772353649,-0.198284417391,-0.553686738014,0.390895543201,-0.392951315723,0.358275622655,0.0237490795735,0.960319188024,0.275700456911,-0.0348180424767
-0.473649680614,-0.0102680791169,-0.295094698668,-1.97777915001,-0.0967774018645,1.97064006329,-1.29207932949,0.0465773679316,-0.212980955839,0.019519502297,-0.184884682298,0.181822344661,-0.0926293358207,-0.228825598955,-0.528648197651,0.387126189184,-0.397052872825,0.359253979433,0.0233416999864,0.960034685186,0.276541000321,-0.03624421492
-0.477983295918,-0.0109041649848,-0.298961937428,-1.97285413742,-0.0988285019994,1.96397912502,-1.30716180801,0.0465773679316,-0.0854582414031,-0.0649492442608,-0.0788343027234,0.156708106399,-0.0365345627069,-0.223032578826,-0.478787600994,0.383509180485,-0.40052064019,0.361365386686,0.0229067183888,0.95900411444,0.27994876257,-0.0376175592877
-0.47882014513,-0.0122633213177,-0.299787461758,-1.97055327892,-0.0992451012135,1.96061682701,-1.31389176846,0.0465773679316,-0.0234421845526,-0.112698733807,-0.0368448272347,0.152188152075,-0.0184187423438,-0.217900305986,-0.434205174446,0.382634144296,-0.401204166523,0.362992957637,0.0228876750784,0.958260970023,0.282473823892,-0.0376909295029
-0.478592991829,-0.0147887170315,-0.299855709076,-1.96734154224,-0.0995837748051,1.95629346371,-1.32303237915,0.0465773679316,0.0388224571943,-0.122161887586,0.0191775038838,0.14103166759,-0.0100761409849,-0.180120080709,-0.40231987834,0.382531525077,-0.401185167002,0.365243674651,0.0231962370092,0.957104681106,0.286381897184,-0.0373894724449
-0.477427691221,-0.0171353891492,-0.2990860641,-1.96521902084,-0.0997875705361,1.95352506638,-1.32945895195,0.0465773679316,0.0985742211342,-0.165721133351,0.0749463587999,0.121938407421,-0.0110734254122,-0.174592420459,-0.384730875492,0.383199034832,-0.400442672436,0.367361421627,0.0237460018031,0.955875030366,0.290482275789,-0.0368659852045
-0.470122307539,-0.0253889057785,-0.293660998344,-1.95948195457,-0.10017644614,1.94722533226,-1.34527230263,0.0465727709234,0.214962422848,-0.198642656207,0.159312486649,0.125794097781,-0.00044450169662,-0.111060552299,-0.291824758053,0.388033679722,-0.395682713655,0.373898951831,0.0265181626906,0.951766939046,0.303732672313,-0.0343939565396
-0.466185510159,-0.0286785326898,-0.290709584951,-1.95742690563,-0.100189693272,1.94559550285,-1.34993565083,0.0465727709234,0.255871891975,-0.187237456441,0.19428922236,0.122329004109,0.00032828989788,-0.0823661237955,-0.266889691353,0.390757123591,-0.393107026754,0.376480203026,0.0279433696399,0.9500480391,0.309077304433,-0.033152844061
-0.461265623569,-0.0321610532701,-0.28684258461,-1.95520091057,-0.100195758045,1.94419658184,-1.35482466221,0.0465727709234,0.283091396093,-0.188311710954,0.226906761527,0.119724445045,0.000171967141796,-0.0743241533637,-0.271717578173,0.394259314112,-0.389815529061,0.379275801889,0.0296495619061,0.947960685632,0.315411919058,-0.0317295285262
-0.440380245447,-0.0445372499526,-0.268847942352,-1.94760859013,-0.100193627179,1.94139707088,-1.37190508842,0.0465727709234,0.32900467515,-0.1760404706,0.309537321329,0.106928117573,0.000365585729014,-0.0228880029172,-0.227789446712,0.409575544411,-0.374892316531,0.389343477078,0.0366962372115,0.938880483642,0.341283571505,-0.0261217747952
-0.434745639563,-0.0475195460021,-0.263256758451,-1.94581735134,-0.100187964737,1.94102823734,-1.37579667568,0.0465727709234,0.327236115932,-0.172984838486,0.337248235941,0.101618357003,-0.00027409705217,-0.0254415366799,-0.221570491791,0.413894689322,-0.37044968009,0.391804879238,0.0385576408935,0.936285917627,0.348242549653,-0.0246802568607
-0.428156286478,-0.0507639460266,-0.256380230188,-1.94368731976,-0.100185550749,1.9407043457,-1.37988388538,0.0465727709234,0.335440158844,-0.1559894979,0.346932113171,0.107247851789,6.99504525983e-05,-0.0106950383633,-0.189467787743,0.419035596917,-0.365065782985,0.394593020756,0.0407261046267,0.933199284814,0.356300397089,-0.0230327146509
-0.41772171855,-0.0550427436829,-0.246018633246,-1.94058406353,-0.100183755159,1.94049847126,-1.38548207283,0.0465727709234,0.32844671607,-0.126143097878,0.323454767466,0.0883519425988,-4.322643872e-05,-0.000999866635539,-0.175393760204,0.426633738661,-0.356882504134,0.398347346773,0.043766880132,0.928559706515,0.368008876799,-0.0207556720511
-0.412600159645,-0.0569986887276,-0.240851983428,-1.93924820423,-0.100175499916,1.9404810667,-1.38821983337,0.0465727709234,0.318925321102,-0.120054766536,0.325809687376,0.07548969239,0.000784274248872,0.000361591839464,-0.163294166327,0.430666897225,-0.352351651604,0.400205617191,0.0453010369578,0.925982430468,0.374326245517,-0.0196014314933
-0.407553762197,-0.0587161667645,-0.2355427742,-1.93812167645,-0.100172519684,1.94046854973,-1.39068043232,0.0465727709234,0.30558848381,-0.101369291544,0.329993367195,0.0662386268377,-0.000211912061786,-0.00277676223777,-0.160633176565,0.434411092326,-0.347985999637,0.401724802182,0.0465748470738,0.923554721779,0.380170717229,-0.0186463118352
-0.401803046465,-0.0604880042374,-0.22945573926,-1.93705737591,-0.100167326629,1.94045829773,-1.39364743233,0.0465727709234,0.300622165203,-0.0864237099886,0.303148120642,0.047586735338,-5.81461608817e-05,-0.000481656257762,-0.164525493979,0.43860226407,-0.342914174749,0.403252415235,0.0478657059795,0.920703088284,0.386913685514,-0.0176775863708
-0.388798981905,-0.0637522265315,-0.216464176774,-1.9354634285,-0.100162737072,1.94042289257,-1.40064692497,0.0465727709234,0.238906428218,-0.0447231382132,0.241791129112,0.0201169662178,0.000178958653123,0.000133346620714,-0.143309772015,0.447477550715,-0.331498013417,0.405907023351,0.0501397780855,0.914168586322,0.401904213153,-0.015962505012
-0.384273082018,-0.0644661039114,-0.211756929755,-1.9352312088,-0.100159190595,1.94040727615,-1.40319621563,0.0465727709234,0.215065851808,-0.0313928797841,0.227736055851,0.00526473205537,0.000131705557578,-0.000471478939289,-0.126679822803,0.450519870532,-0.327348028407,0.406446602535,0.050644757698,0.911777090938,0.407252214156,-0.0155973941042
-0.381287068129,-0.0648336485028,-0.208453536034,-1.93520236015,-0.100157000124,1.94038522243,-1.40497362614,0.0465734265745,0.184750691056,-0.0166298188269,0.208978995681,0.000152180451551,0.000663310172968,-0.000138447576319,-0.10698838532,0.452550176489,-0.324488056633,0.406685794546,0.0508883451836,0.91012258622,0.410912594798,-0.0154302784582
-0.371178656816,-0.0644479244947,-0.19867734611,-1.93542850018,-0.100154809654,1.93976223469,-1.41005134583,0.0465734265745,0.100122317672,0.0208363495767,0.0914756506681,-0.00922404974699,0.00223667081445,-0.00740002468228,-0.0626412630081,0.458786911732,-0.315306699798,0.406383757062,0.0507284106412,0.904927574305,0.422241439,-0.0156486576378
-0.369618833065,-0.0640510618687,-0.197072029114,-1.93562030792,-0.100155070424,1.93954467773,-1.41130697727,0.0465734265745,0.066472992301,0.0193100441247,0.069719016552,-0.0121512589976,-2.18192817556e-05,-0.00760422740132,-0.0625505447388,0.459731289279,-0.313809489536,0.406064854605,0.0504651690908,0.903996687415,0.424253295134,-0.0158870103143
