imanlab/tactile_prediction_flat_dataset/train/data_sample_2021-11-24-16-03-19/robot_state.csv
position_panda_joint1,position_panda_joint2,position_panda_joint3,position_panda_joint4,position_panda_joint5,position_panda_joint6,position_panda_joint7,position_panda_finger,velocity_panda_joint1,velocity_panda_joint2,velocity_panda_joint3,velocity_panda_joint4,velocity_panda_joint5,velocity_panda_joint6,velocity_panda_joint7,ee_state_position_x,ee_state_position_y,ee_state_position_z,ee_state_orientation_x,ee_state_orientation_y,ee_state_orientation_z,ee_state_orientation_w
0.150027513504,-0.116069227457,-0.162447184324,-2.37521362305,-0.0121577754617,2.23055100441,-0.755012989044,0.0651544630527,-0.000134689267725,0.000260583474301,-0.000376640993636,6.03190637776e-05,0.000117126146506,-7.37929731258e-05,-0.000224776420509,0.47587942052,-0.00536873617625,0.254047838432,-0.0098975120213,0.930109583621,0.366945939211,-0.0122016020325
0.150026217103,-0.116068981588,-0.162446677685,-2.37521958351,-0.012159595266,2.23055124283,-0.755011796951,0.0651544630527,0.000171826919541,0.000540168199223,6.94895788911e-05,-0.000486939854454,5.47587915207e-05,2.5969780836e-05,0.000248395226663,0.475877159264,-0.00536910340453,0.254045338639,-0.00989788189211,0.930109592731,0.366945810814,-0.012204468598
0.150040119886,-0.116071678698,-0.162442266941,-2.37521910667,-0.0121582904831,2.23055529594,-0.755012392998,0.0651544630527,8.95426273928e-05,-0.000233454877161,-0.000182137911906,-0.000273501878837,-6.99119773344e-05,-0.00016319596034,-0.000267800234724,0.475878564184,-0.0053602675088,0.254047180959,-0.00989685709912,0.930106329639,0.366954224453,-0.0122010091683
0.150040850043,-0.116069763899,-0.162445262074,-2.3752207756,-0.0121590085328,2.23055577278,-0.755011796951,0.0651544630527,-0.000316585152177,-0.000235970408539,9.26358115976e-05,-0.000135717389639,-2.67059531325e-05,-0.000126851140521,-0.000121401186334,0.47587783269,-0.00536139650153,0.254045575386,-0.00989721611438,0.930106745375,0.366953109809,-0.0122025492082
0.150040388107,-0.116066925228,-0.162443965673,-2.3752322197,-0.0121575882658,2.2305586338,-0.755012154579,0.0651551261544,8.80779771251e-05,0.000357693206752,-5.19887107657e-05,-0.00048881850671,-6.16366014583e-05,4.01021061407e-05,0.000333679286996,0.47587364905,-0.00536073974147,0.254039567031,-0.00989960229138,0.930106587094,0.366953274732,-0.012207717494
0.150045290589,-0.116070561111,-0.162447199225,-2.37523317337,-0.0121574839577,2.23055839539,-0.755010783672,0.0651551261544,-0.000227840107982,0.000287773524178,-0.000109770364361,-0.000187428784557,-2.87083566946e-05,0.000118170028145,-7.69041653257e-05,0.475873498944,-0.00536001929229,0.254040990861,-0.00989950536007,0.930106581828,0.366953340849,-0.0122062098218
0.150046601892,-0.11607413739,-0.162446632981,-2.37523245811,-0.0121597647667,2.23055911064,-0.755013167858,0.0651551261544,0.000208209152333,3.22294581565e-05,0.000301095249597,-0.000127702747704,-0.000117582312669,-0.00282482197508,0.000207820907235,0.475874236393,-0.00535919123336,0.254042865027,-0.00989809637542,0.930105539271,0.366956082182,-0.0122043820095
0.150045081973,-0.116072736681,-0.16244572401,-2.37523055077,-0.012158183381,2.23056054115,-0.755010962486,0.0651551261544,-0.000315620069159,0.00357704586349,9.61326513789e-05,-3.73119510186e-05,4.30944855907e-05,-8.15015810076e-05,0.000233051570831,0.475875209671,-0.00535934757238,0.254043153453,-0.0098981420511,0.930106258389,0.366954293871,-0.0122033103152
0.150047272444,-0.116065986454,-0.162447020411,-2.37524414062,-0.0121569558978,2.23056268692,-0.7550111413,0.0651551261544,0.00100425200071,-6.66152045596e-05,0.000233522208873,0.000421061675297,5.87053218624e-05,5.80221967539e-05,-0.000184408112545,0.475869695908,-0.00535867168049,0.254034303754,-0.00990157766551,0.930106048349,0.366954454285,-0.0122117053819
0.150049716234,-0.11606888473,-0.162446603179,-2.3752477169,-0.0121572548524,2.23056316376,-0.755011796951,0.0651551261544,0.000138771458296,-0.000105914768938,-9.41584876273e-05,-0.000462855241494,0.000197919507627,-3.90553250327e-05,-7.13265035301e-05,0.475868605237,-0.00535727235276,0.25403416956,-0.00990169396013,0.930105354926,0.366956206036,-0.0122117865165
0.150052696466,-0.11607299,-0.16244751215,-2.37524652481,-0.0121584190056,2.23056435585,-0.755012571812,0.0651551261544,0.000130208674818,-0.000791131169535,-0.00268904212862,0.000107409192424,6.43096573185e-05,5.86292007938e-05,0.000372848153347,0.4758696787,-0.00535638264479,0.254036698148,-0.00990040966019,0.930104742066,0.366957892047,-0.0122088420654
0.150048732758,-0.116068251431,-0.162449195981,-2.37525415421,-0.0121583547443,2.23056554794,-0.755011379719,0.0651544630527,0.000333485135343,0.000132892891997,-0.000168385275174,6.89328880981e-05,-5.3405547078e-05,0.000119838550745,-0.000137886250741,0.475866471839,-0.00535900344068,0.254031274012,-0.00990230353859,0.930105912059,0.366954701236,-0.0122140763832
0.150051310658,-0.11606413871,-0.162446990609,-2.37525677681,-0.0121589722112,2.23056721687,-0.755010724068,0.0651544630527,0.000119750169688,0.000637776160147,0.000318406004226,0.000223772018217,-2.21345162572e-05,-7.84963049227e-05,9.12906616577e-05,0.475865493932,-0.00535684585943,0.254028369177,-0.00990256759767,0.930105055334,0.366956779499,-0.012216663254
0.150056421757,-0.116063520312,-0.162447422743,-2.37525939941,-0.0121575016528,2.23056483269,-0.755013108253,0.0651544630527,-2.58994241449e-05,-0.000289670337224,3.3779473597e-05,-0.000144169389387,3.39521175192e-05,-6.01123501838e-05,-0.000154122637468,0.475863887749,-0.00535440940708,0.254026754829,-0.00990411710055,0.930103877472,0.366959642625,-0.0122190811766
0.150061383843,-0.116070792079,-0.162446424365,-2.37525820732,-0.0121575752273,2.23056912422,-0.755013406277,0.0651544630527,7.15957503417e-05,0.000172177067725,-0.000437003705883,-0.000307795155095,1.25847018353e-05,-3.63792278222e-05,-6.85956692905e-05,0.475866078413,-0.00535142107595,0.254031341757,-0.00990203658744,0.93010276172,0.366962734582,-0.0122128385399
0.15005916357,-0.116070024669,-0.162446498871,-2.37526154518,-0.0121577093378,2.23056983948,-0.755012989044,0.0651544630527,-0.00038904408575,0.00393224740401,-0.000176667352207,-0.000351307389792,-0.000100501390989,6.47793640383e-05,7.71864288254e-05,0.475864662578,-0.00535260502281,0.2540293028,-0.009902716659,0.930103258209,0.366961397854,-0.0122146404713
0.150056675076,-0.116067610681,-0.162447661161,-2.3752644062,-0.0121571002528,2.23056936264,-0.755012869835,0.0651544630527,-0.000129612482851,-0.000349394977093,0.000177240930498,-0.000151071537402,6.18330668658e-05,-7.45082652429e-05,-0.00010430925613,0.475863196907,-0.00535424721982,0.254026890315,-0.00990392289804,0.930103972495,0.366959468225,-0.0122172429526
0.150053754449,-0.116066962481,-0.162447944283,-2.37526655197,-0.0121572809294,2.23056960106,-0.755011975765,0.0651544630527,4.36331765741e-06,-0.000260355736827,-4.97483051731e-05,0.000158260794706,-0.000160616807989,-0.00096836569719,0.000392842339352,0.475862318468,-0.00535577078539,0.254025679909,-0.00990432041015,0.930104681252,0.366957620794,-0.0122184522401
0.150064066052,-0.116068392992,-0.162448182702,-2.37526655197,-0.0121578928083,2.23057293892,-0.755012750626,0.0651538074017,0.00019599373627,0.000193043044419,-0.000169693274074,0.000266946095508,0.000206221069675,-3.16972800647e-05,-0.000295311794616,0.475863222988,-0.00535103558017,0.254026620685,-0.00990327698627,0.930102655061,0.366962855043,-0.0122163356354
0.150062441826,-0.116068512201,-0.162446245551,-2.3752682209,-0.0121577912942,2.23057174683,-0.755012154579,0.0651538074017,6.3104266701e-06,-0.000422986166086,0.000558675616048,-0.000163673103089,-0.000128754370962,-6.30504218861e-05,-0.000205938355066,0.475862301249,-0.00535087400728,0.254025879323,-0.00990372109295,0.930102697429,0.366962692952,-0.0122176188269
0.150066331029,-0.116065278649,-0.162446334958,-2.37527298927,-0.012157686986,2.23057293892,-0.755013167858,0.0651538074017,-0.000414076173911,0.00355977332219,6.7606997618e-05,7.72652419982e-05,8.57906270539e-05,-3.54293733835e-05,9.1828071163e-05,0.475860415236,-0.0053490322444,0.254022406531,-0.00990478740802,0.930101772355,0.366964901394,-0.0122208460256
0.150063574314,-0.116068474948,-0.162448644638,-2.3752746582,-0.0121589666232,2.23057365417,-0.755012691021,0.0651538074017,-0.0001961656817,0.00120747217443,0.000207713907002,9.46011277847e-05,-6.45971304039e-05,7.23754565115e-05,-0.00015429611085,0.475860121312,-0.0053515095905,0.254023226612,-0.00990430562108,0.930102647063,0.366962730218,-0.0122198597383
0.15006262064,-0.116067402065,-0.16244828701,-2.37527537346,-0.0121570248157,2.2305753231,-0.755011856556,0.0651538074017,-0.000299068866298,7.81546332291e-05,7.36463925932e-06,-5.94721059315e-05,4.52087224403e-05,5.4425378039e-05,7.46792138671e-05,0.475860117698,-0.00535157259142,0.254022556268,-0.00990493532814,0.930103130025,0.366961495546,-0.0122196662966
0.150060594082,-0.116067111492,-0.162447631359,-2.37527680397,-0.0121575444937,2.23057508469,-0.755011379719,0.0651538074017,-0.000287990027573,0.00234831497073,8.06109142104e-07,-0.000931884802412,-3.15729703289e-05,-2.69162064797e-05,0.000159324743436,0.475859460142,-0.00535227989779,0.254021790521,-0.00990506147905,0.930103394473,0.3669607888,-0.0122206593356
0.15006223321,-0.116067051888,-0.162446722388,-2.37527799606,-0.0121572716162,2.2305753231,-0.755011618137,0.0651538074017,2.15297604882e-05,0.000378283933969,0.000362988008419,5.08448283654e-05,-5.45979673916e-05,-5.05327989231e-05,0.000583139189985,0.475858290479,-0.00534810110819,0.254019566768,-0.00990557835841,0.930101676863,0.36696505277,-0.0122229269792
0.150071367621,-0.116065829992,-0.162445470691,-2.37528252602,-0.0121572762728,2.23057484627,-0.755012214184,0.0651538074017,-0.000271543773124,0.000657897384372,0.000285166781396,-0.000897791935131,-7.68950339989e-05,-2.33370647038e-05,0.000145785335917,0.47585707797,-0.00534606220947,0.254018728284,-0.00990622970664,0.93010083897,0.366967120047,-0.0122240929941
0.150070279837,-0.116070717573,-0.162446215749,-2.37528276443,-0.012158010155,2.23057603836,-0.755013465881,0.0651538074017,0.000334742479026,-0.000282751570921,-0.000222065966227,0.000174564716872,-0.000111272282084,4.84708070871e-05,1.11876743176e-05,0.475857616753,-0.00534695378851,0.254021011112,-0.0099053014714,0.930100894283,0.366967096322,-0.0122213484206
0.15006865561,-0.11607080698,-0.162448182702,-2.37528681755,-0.0121585773304,2.23057723045,-0.755011260509,0.0651538074017,-0.000914659874979,0.000313553406158,-0.000144206307596,-0.000425261474447,-6.30379190625e-06,-3.7237723518e-06,-0.000263351656031,0.475856235568,-0.00534865585136,0.254019389346,-0.00990574856001,0.930101860959,0.366964589911,-0.0122226765809
0.150064870715,-0.116071023047,-0.162447467446,-2.37528347969,-0.0121578359976,2.23057794571,-0.755012452602,0.0651538074017,0.00017857713101,0.000307467096718,0.000130635569803,-0.000559456413612,0.000138920906466,0.000108258522232,-9.77683157544e-05,0.475857451762,-0.0053498956214,0.254020261099,-0.00990554453685,0.930102347,0.366963419204,-0.012221004208
0.150068312883,-0.116067714989,-0.162447154522,-2.37528967857,-0.0121575994417,2.23057961464,-0.755014359951,0.0651538074017,0.000339359918144,0.000265384675004,-0.000157628222951,2.00408958335e-05,-9.79478209047e-05,1.85313219845e-05,-0.000179545852006,0.475855377012,-0.00534822995926,0.254016911064,-0.00990650476214,0.930101253719,0.36696605579,-0.0122242617457
0.150077238679,-0.116065599024,-0.162447169423,-2.37529754639,-0.0121575091034,2.23058009148,-0.755012154579,0.0651538074017,0.00123917195015,-0.000826443079859,-0.000402760313591,0.000314351374982,-0.000394871662138,0.00291945412755,-0.000104510349047,0.475852200511,-0.00534390532392,0.254012573044,-0.00990810267496,0.930099950491,0.366969166029,-0.0122287557203
0.150074362755,-0.116068214178,-0.162446931005,-2.37529301643,-0.0121574578807,2.23058080673,-0.755012214184,0.0651538074017,0.000367914064554,-8.22235670057e-05,-0.000145356432768,0.000154584879056,-8.25661190902e-05,-0.00558976875618,-6.67272979626e-05,0.475854371464,-0.0053451845079,0.254015809503,-0.00990684508597,0.930100492726,0.366967949645,-0.0122250344938
0.150070518255,-0.116067029536,-0.162446349859,-2.37529706955,-0.0121562881395,2.23058128357,-0.755011856556,0.0651538074017,-0.00036483121221,-0.000360642094165,0.000185464290553,-6.62146921968e-05,7.85956308391e-06,-3.18835227517e-05,-3.28083406202e-05,0.475852677372,-0.00534667886528,0.254013494585,-0.00990806618663,0.930101244724,0.36696593636,-0.0122272655554
0.150071755052,-0.116065867245,-0.162447422743,-2.3753027916,-0.0121577987447,2.23058104515,-0.755012512207,0.0651538074017,-0.000179377311724,-0.000259557331447,0.000117576055345,0.000136548318551,3.77726573788e-05,-8.35128885228e-05,9.21670362004e-05,0.475850352423,-0.00534663034931,0.2540105873,-0.00990880752315,0.930100891346,0.366966706078,-0.0122304441831
0.15007725358,-0.116067424417,-0.162444889545,-2.37530755997,-0.0121565870941,2.23058485985,-0.755013883114,0.0651538074017,-0.000270834658295,5.35973704245e-05,0.000125864156871,-0.000272347504506,-0.00148293480743,0.000367269560229,-0.000168666840182,0.475849387516,-0.00534259114404,0.254009534175,-0.00990910713768,0.930099271661,0.3669708117,-0.0122301878844
0.15007700026,-0.116068430245,-0.162446305156,-2.3753080368,-0.0121575184166,2.23058915138,-0.755012571812,0.0651538074017,-0.000180462564458,-0.000274051155429,-0.000547959469259,0.000148799314047,3.97599578719e-05,-4.96754109918e-05,5.08725861437e-05,0.475850052607,-0.00534310449818,0.254010160513,-0.00990819938337,0.930099650294,0.366969933838,-0.0122284688959
0.150080442429,-0.116066493094,-0.162445425987,-2.37530708313,-0.0121571449563,2.23059129715,-0.755014359951,0.0650388896465,0.000172110827407,0.000490532780532,0.000169300677953,0.0004877615429,-5.91403586441e-05,4.36742593592e-05,-1.46702286656e-05,0.475850808435,-0.00534160754305,0.254009780236,-0.00990789083492,0.930098761328,0.366972223587,-0.0122276193855
0.150075048208,-0.116066835821,-0.162449374795,-2.37531924248,-0.0121564855799,2.2305958271,-0.7550111413,0.0650388896465,-0.000121526456496,-0.00344670726918,-0.000254830316408,-0.000599992810749,3.23241401929e-05,-5.31141995452e-05,8.46822658787e-05,0.475847030608,-0.00534558460366,0.254005087529,-0.00990966024886,0.930100976004,0.36696646003,-0.0122306977231
0.15007545054,-0.116068854928,-0.162449330091,-2.37531805038,-0.0121565144509,2.23059797287,-0.755013763905,0.0650388896465,0.000368562992662,-0.000344559346559,-8.04784503998e-05,-0.000210637808777,-0.000143261800986,9.04754488147e-05,0.000132453889819,0.475848145614,-0.00534537036988,0.254006723433,-0.00990881269779,0.930100448605,0.366967904234,-0.0122281594063
0.150079101324,-0.116067953408,-0.162449702621,-2.37532258034,-0.0121570182964,2.2305996418,-0.755013525486,0.0650388896465,9.74531867541e-05,0.000111986839329,-3.43305255228e-05,-0.00146417634096,0.000110512715764,0.00013908908295,0.000216376181925,0.475846651847,-0.00534394879009,0.254004564776,-0.00990918902166,0.930099808147,0.366969457755,-0.0122299475537
0.150087699294,-0.11606566608,-0.16244751215,-2.3753221035,-0.0121568329632,2.2305996418,-0.755012154579,0.0650388896465,-0.000152597451233,0.000184211952728,-8.90818398602e-07,4.84156043967e-05,-1.6848962332e-05,-0.000122711877339,0.00014415984333,0.475846713452,-0.00533872615359,0.25400363449,-0.00990931090493,0.930098087605,0.366973781436,-0.0122309613076
0.150084212422,-0.116066135466,-0.162447497249,-2.37532758713,-0.0121565014124,2.23060083389,-0.755011558533,0.0650388896465,0.000220598114538,-0.000191441649804,0.000430820771726,0.000205062591704,9.5010655059e-05,-7.43586570024e-05,9.38570228755e-05,0.475844790177,-0.00534026620747,0.254001594725,-0.0099102090131,0.930098830668,0.366971817386,-0.0122326561318
0.150083199143,-0.116068586707,-0.162450477481,-2.37533092499,-0.0121568460017,2.23060178757,-0.755012631416,0.0650388896465,-0.000146827704157,-1.4743716747e-05,-2.74598078249e-05,-0.000147467377246,-6.7499699071e-05,1.14129024951e-05,-0.000617870420683,0.475843824899,-0.00534210150951,0.254001361762,-0.00991046157333,0.930099310386,0.366970598248,-0.0122325498571
0.150081679225,-0.116067163646,-0.16244854033,-2.3753323555,-0.0121567258611,2.23060321808,-0.755010902882,0.0650388896465,0.000598619575612,0.00227127340622,-0.000193016690901,7.32074477128e-06,1.3424163626e-05,6.84176338837e-05,6.75885312376e-05,0.475843460129,-0.00534191339353,0.254000211981,-0.00991054709259,0.930099558188,0.366969944215,-0.012233259629
0.150084346533,-0.116067282856,-0.162448436022,-2.37533354759,-0.0121569735929,2.23060441017,-0.755012392998,0.0650388896465,-4.59606635559e-05,-4.80399758089e-05,0.00020705726638,-0.00126731325872,-4.491695654e-05,-1.67060206877e-05,-0.000160367155331,0.475843268883,-0.00534061073863,0.253999853074,-0.00991043423878,0.930098746982,0.366972003845,-0.0122332429726
0.150086522102,-0.116067968309,-0.162448570132,-2.37533783913,-0.0121571375057,2.2306034565,-0.7550137043,0.0650388896465,0.000532232283149,0.000509013829287,-0.000467320583994,0.00036067867768,0.000107675397885,6.01750361966e-05,0.000145224359585,0.475841395616,-0.0053395935741,0.253998250879,-0.00991128688961,0.930098067946,0.366973631132,-0.0122353640507
0.150088697672,-0.116066083312,-0.162447229028,-2.37533831596,-0.0121573368087,2.23060584068,-0.755011737347,0.0630531311035,0.000196818728,0.000197550121811,-0.000170581086422,-0.00114492641296,0.000178230562597,-9.1086512839e-05,-0.000232417849475,0.475841389952,-0.00533796600546,0.253997019985,-0.00991114986593,0.930097747448,0.366974432214,-0.0122358116115
0.15009072423,-0.116066008806,-0.162447065115,-2.37534070015,-0.0121565023437,2.23060750961,-0.755011975765,0.0630531311035,0.000374555384042,-0.000180665228982,5.65298832953e-05,-0.000182493778993,-6.19953643763e-05,-3.52367242158e-05,-0.000287852541078,0.47584122994,-0.00533580883556,0.253997151777,-0.00991120528993,0.930097041584,0.366976246963,-0.0122349947387
0.150092273951,-0.11606746912,-0.162447735667,-2.37534236908,-0.0121569735929,2.2306098938,-0.755012691021,0.0630531311035,-0.000280560547253,0.00114012090489,0.00144756597001,-0.000201961694984,-1.5989457097e-05,0.0011348555563,-0.000145653189975,0.475840959752,-0.00533653050639,0.25399638426,-0.00991103749091,0.930097086957,0.366976137751,-0.0122349571067
0.1500903368,-0.116067528725,-0.162448063493,-2.37534856796,-0.0121559100226,2.23061442375,-0.755013287067,0.0630531311035,0.000229239740293,-0.000204630050575,-0.000254741520621,0.000224187926506,8.48470372148e-05,6.13787851762e-05,0.000220087662456,0.475839499767,-0.00533728437072,0.253994329766,-0.00991171781701,0.930097471866,0.366975132191,-0.0122353061107
0.150089949369,-0.116068132222,-0.162446811795,-2.37535095215,-0.012155639939,2.23061847687,-0.755013585091,0.0630531311035,0.000359771103831,-0.000522947171703,0.000119628304674,-0.000239312445046,-4.30762556789e-05,-3.1259485695e-05,-0.000222080387175,0.475839492241,-0.00533682540055,0.253993929323,-0.00991137383084,0.930097303607,0.366975604353,-0.0122342137939
0.150092303753,-0.116067416966,-0.162448346615,-2.37535405159,-0.0121550774202,2.2306201458,-0.755015432835,0.0630531311035,-0.000326070410665,-0.000483134790557,-0.000173733031261,-0.000475445034681,0.000940802681725,-0.000157438931637,-0.00018000487762,0.475839037046,-0.00533567626875,0.253992525783,-0.00991180597127,0.930096616458,0.366977312039,-0.0122348799986
0.150091677904,-0.116065919399,-0.162446916103,-2.37535595894,-0.0121553614736,2.23061966896,-0.755015313625,0.0630531311035,0.000310447183438,-0.000401897588745,0.000373845919967,-0.000165969337104,1.78952104761e-05,-7.74200379965e-05,4.82258474221e-05,0.475837838581,-0.00533656242887,0.253990892249,-0.00991231016607,0.930096802525,0.366976764041,-0.0122367634276
0.150097802281,-0.116068974137,-0.162447929382,-2.37536072731,-0.0121556175873,2.23062348366,-0.755014121532,0.0630531311035,6.91408422426e-05,0.000247863848926,0.000236253312323,0.000303505919874,5.25699688296e-05,0.000151010754053,-0.000165637771715,0.475836769752,-0.00533347882881,0.253990519445,-0.00991222959041,0.930095919564,0.366979028951,-0.0122360168961
0.150092810392,-0.116066172719,-0.162449255586,-2.37536144257,-0.0121559696272,2.23062348366,-0.755014896393,0.0521524660289,0.000135029185913,-0.000325939443428,0.000326148758177,-0.000175457593286,-0.00386738334782,1.89461734408e-05,-0.000884968787432,0.475836203601,-0.0053364774989,0.253988912357,-0.00991265055166,0.930096844887,0.366976619848,-0.0122375920867
0.150090843439,-0.116067513824,-0.162449330091,-2.37536454201,-0.0121551053599,2.23062348366,-0.75501537323,0.0521524660289,-8.72295277077e-05,3.64497609553e-05,-0.00177334528416,-0.000250958604738,0.000390466942918,0.000165261197253,-1.45818366946e-05,0.475835074994,-0.00533734766525,0.253988181593,-0.00991343616013,0.93009723454,0.366975585599,-0.0122383554154
0.150098830462,-0.116066962481,-0.162444770336,-2.37537169456,-0.0121560506523,2.23062896729,-0.755015075207,0.0521524660289,-0.000645560503472,0.000420041527832,-0.00186312757432,0.000386758474633,-7.75407024776e-05,0.000785333744716,4.62764510303e-05,0.475833442327,-0.00533147082664,0.253985332907,-0.00991315275883,0.930094860363,0.366981567469,-0.0122396466472
0.150098159909,-0.116067357361,-0.16244867444,-2.37536621094,-0.0121563216671,2.23062992096,-0.755015194416,0.0521524660289,0.000229837183724,-0.00104678212665,-0.0004388265952,0.000177560548764,-0.000869424024131,-0.00111762888264,-0.000281505228486,0.475835860495,-0.00533369790459,0.253987918804,-0.00991204844548,0.930095702122,0.366979570913,-0.0122364377102
0.150094330311,-0.116066969931,-0.162447705865,-2.37537765503,-0.012154947035,2.23062682152,-0.755015790462,0.0521524660289,0.000370273832232,8.64866378834e-05,-0.00151031231508,-0.000823710230179,0.000144665376865,0.000266206130618,0.00027097974089,0.475830526857,-0.0053347631332,0.253982574375,-0.00991528925988,0.930096138427,0.366978153266,-0.0122431626569
0.150099009275,-0.116068921983,-0.162447735667,-2.37538051605,-0.0121537549421,2.23063874245,-0.755014955997,0.0521524660289,4.90505626658e-05,-0.000457362970337,0.000192109495401,0.0013020480983,-1.79325852514e-05,0.000915373850148,-0.000197465968085,0.4758321948,-0.00533236793149,0.253983232197,-0.00991380524106,0.930095649545,0.366979609424,-0.012237855822
0.150101751089,-0.116063795984,-0.162448868155,-2.37539148331,-0.0121532585472,2.23063659668,-0.755015492439,0.0521524660289,-0.000149172105012,-0.000198520734557,-0.00346665875986,-0.000792180886492,-3.62154742106e-06,-0.000260997796431,-3.10910763801e-05,0.47582691462,-0.00533144836383,0.253975925235,-0.00991708158042,0.930095160221,0.366980477812,-0.012246347066
0.15009881556,-0.116067998111,-0.162447273731,-2.37539148331,-0.0121543165296,2.23063921928,-0.755015790462,0.0521524660289,-8.46294278745e-05,0.000490385689773,-0.000205970849493,-0.000450636202004,-7.62698982726e-05,0.000288410257781,-0.000515989784617,0.475827818503,-0.0053321864101,0.253978125216,-0.00991566195621,0.930095278097,0.366980320908,-0.0122432455159
0.150100246072,-0.116069532931,-0.162447586656,-2.37539029121,-0.0121542718261,2.23063921928,-0.755015015602,0.0521524660289,0.000173410851858,-0.000271403667284,0.00238558952697,0.000168845974258,-0.000135463225888,-1.27401490317e-05,-0.00485158758238,0.475828423504,-0.00533164234617,0.253979355903,-0.00991528773127,0.930095239272,0.366980472814,-0.0122419447087
0.150105968118,-0.116069108248,-0.162446290255,-2.375395298,-0.012153047137,2.23063874245,-0.755016744137,0.0521524660289,-3.99456257583e-05,0.000171993451659,0.000263058784185,-0.000315383251291,5.90716881561e-05,-0.000134515168611,-0.0057733473368,0.475826447591,-0.00532839652568,0.25397704801,-0.0099165681946,0.930093830534,0.366983926188,-0.0122444142972
0.150100111961,-0.116069875658,-0.162446707487,-2.37540173531,-0.0121535239741,2.2306394577,-0.755014657974,0.0521524660289,-0.00346657680348,-0.0004210001498,0.000810263270978,0.000111679633847,-2.56897728832e-05,9.51889305725e-05,0.000528818345629,0.475823905148,-0.005331061786,0.253974624598,-0.00991757859053,0.930095147999,0.36698047774,-0.0122468749089
0.150103092194,-0.116070978343,-0.162449643016,-2.37540483475,-0.012153243646,2.23063969612,-0.755015254021,0.0521524660289,-0.000247987307375,-0.000144556644955,-0.0013708738843,0.000359772093361,-5.87366666878e-05,0.00314362230711,0.000379225617507,0.475822793807,-0.00533091948833,0.253973803662,-0.00991826627893,0.930095034417,0.366980723459,-0.0122475810015
0.150105580688,-0.116070196033,-0.162447631359,-2.37540698051,-0.0121529353783,2.23063969612,-0.755014896393,0.0521524660289,0.00019993094611,-0.000401413388317,0.000216064916458,-0.000111506378744,-2.94699802907e-05,-0.000111516434117,0.000176420173375,0.475821896326,-0.00532874838499,0.253972531832,-0.00991872721283,0.930094288168,0.366982556251,-0.0122489615478
0.150108009577,-0.11606913805,-0.162446916103,-2.37541031837,-0.0121531253681,2.23064088821,-0.755014121532,0.0445200316608,-0.000181026334758,0.000129820095026,0.000433845620137,-0.000237577376538,3.24150641973e-05,0.000114631446195,0.000110233486339,0.475820752704,-0.0053272560502,0.253970702969,-0.00991912105634,0.930093804981,0.366983718037,-0.0122505246077
0.150107458234,-0.116067744792,-0.162445545197,-2.37542009354,-0.0121544068679,2.23064374924,-0.75501537323,0.0445200316608,0.00066746736411,0.000485032971483,0.00221346272156,-0.000210782513022,-1.39245030368e-05,-2.66887218459e-05,-0.000596711004619,0.475817351167,-0.00532693333198,0.253966089408,-0.00992005070627,0.930093203871,0.366985080331,-0.0122545993445
0.150106906891,-0.116069309413,-0.162448421121,-2.37542080879,-0.0121543779969,2.23064494133,-0.755014061928,0.0445200316608,0.000318443169817,-0.000262565707089,0.000604916422162,-0.000236107123783,-3.14645694743e-05,4.8957146646e-05,-0.000451676052762,0.475817427736,-0.005328499758,0.253966588323,-0.00991997552652,0.930094081942,0.366982891573,-0.0122535626755
0.150105506182,-0.116078570485,-0.162446886301,-2.37541890144,-0.0121522890404,2.230645895,-0.755016207695,0.0445200316608,0.000495109648909,-0.000450632098364,0.000226143034524,-0.000448993319878,9.04649095901e-06,0.00563469901681,8.45594549901e-05,0.475819133587,-0.0053281220285,0.253971851524,-0.00991908763588,0.930093977523,0.366983384769,-0.0122474349773
0.150106489658,-0.116077013314,-0.162446632981,-2.37542033195,-0.0121527090669,2.23064613342,-0.75501459837,0.0445200316608,-9.65385843301e-05,0.000912146118935,-0.000150709121954,-0.00049827969633,0.000104143902718,0.000109162167064,-9.56002331804e-05,0.475818496045,-0.00532758742178,0.253970526308,-0.00991930322896,0.930093978769,0.366983329467,-0.0122488227944
0.150104850531,-0.11607413739,-0.162445828319,-2.37542533875,-0.0121529502794,2.230645895,-0.75501537323,0.0445200316608,0.000516019121278,-0.000148915569298,-0.000240593319177,-0.000142996825161,1.61818188644e-05,8.31696233945e-05,-0.000560737447813,0.475816262761,-0.00532800128494,0.253967206446,-0.00992045633788,0.930093969457,0.366983196595,-0.0122525763024
0.150108143687,-0.11607336998,-0.162445306778,-2.37542700768,-0.0121530545875,2.23064637184,-0.755016028881,0.0445200316608,0.000108261738205,0.000218402958126,-0.000202988288947,-0.000506199954543,9.78028328973e-05,-1.95992943191e-05,-7.49056925997e-05,0.475815596278,-0.00532618617297,0.253965975775,-0.00992071582003,0.930093051248,0.366985480789,-0.0122536522122
0.150113940239,-0.116075843573,-0.162445157766,-2.37542772293,-0.0121542364359,2.23064851761,-0.755014896393,0.0445200316608,-0.000329791015247,-0.000411520013586,-0.000264149333816,0.000150219813804,2.79035848507e-05,-6.10428032815e-05,-0.000317307654768,0.475816008603,-0.00532346480963,0.25396700462,-0.00991969584927,0.930092058019,0.366988081175,-0.0122519877744
0.150113418698,-0.116078175604,-0.162446215749,-2.37542319298,-0.01215451397,2.23065137863,-0.75501537323,0.0445200316608,-0.000697238661814,2.28224344028e-05,-0.000107704712718,-0.000259706081124,-4.88136829517e-05,-0.000115897229989,-0.000328072201228,0.47581863697,-0.00532427031139,0.253970270604,-0.00991802271169,0.930092305429,0.366987651113,-0.012247441413
0.150113329291,-0.116080880165,-0.16244828701,-2.37542581558,-0.0121541023254,2.23065042496,-0.755016446114,0.0422676615417,0.000574438890908,0.000450577324955,0.000521576963365,-0.000893941207323,-0.000116419156257,-9.16611752473e-05,-0.000194835520233,0.475817567963,-0.0053251575605,0.253970317833,-0.00991867726179,0.930092529229,0.366987058299,-0.0122476789259
0.150111958385,-0.116076052189,-0.162448555231,-2.37542748451,-0.0121533637866,2.23064899445,-0.755015134811,0.0422676615417,0.00352397351526,-0.000210092839552,-0.000149796484038,0.000194295382244,-8.13601764094e-06,-0.00316889327951,-0.000113645430247,0.475816283838,-0.00532599894814,0.253967289032,-0.00991995519911,0.930093052162,0.366985577232,-0.0122513100104
0.150116801262,-0.116078101099,-0.162446573377,-2.37542653084,-0.0121530517936,2.23064947128,-0.755015075207,0.0422676615417,0.00256708078086,0.000887664384209,-0.000477262743516,0.000413343106629,8.20993955131e-06,4.15603899455e-05,-0.000526668911334,0.475816882133,-0.00532260843676,0.253968643818,-0.00991954429565,0.930091922038,0.366988505892,-0.0122497113479
0.150116741657,-0.116078428924,-0.162447392941,-2.37542629242,-0.0121540725231,2.23065042496,-0.755016386509,0.0422676615417,-0.00042228057282,-0.000129409017973,0.000434012850747,5.53444369871e-05,-8.180209079e-06,-6.88069530952e-06,2.02791379706e-05,0.475817208739,-0.00532313886006,0.253968969496,-0.00991897509473,0.930091737423,0.3669890088,-0.0122491230119
0.150111988187,-0.116080746055,-0.162450239062,-2.37542653084,-0.0121516501531,2.23065161705,-0.755015850067,0.0422676615417,1.8997294319e-05,-0.000218734043301,-0.000141097814776,0.000646073604003,-2.93220309686e-05,8.8425425929e-05,-3.09090464725e-05,0.475817754419,-0.00532659052136,0.253970234992,-0.00991942429352,0.930093536756,0.366984512399,-0.0122468465401
0.150111794472,-0.116077624261,-0.162451297045,-2.37542533875,-0.0121536152437,2.23065209389,-0.755015552044,0.0408282503486,0.000392430170905,0.000259426276898,0.000127720588353,0.000138072879054,-0.000134732705192,-8.76497579156e-05,0.00403253687546,0.475817847083,-0.0053272722597,0.253969103334,-0.00991901175623,0.9300935769,0.366984378547,-0.012248142796
0.150117874146,-0.116080097854,-0.162448883057,-2.37542748451,-0.012152755633,2.23065376282,-0.755016088486,0.0408282503486,6.19624479441e-05,0.000533404119778,-0.000103381193185,0.000197849847609,1.49708762365e-06,8.25490424177e-05,-0.000290488824248,0.475817595769,-0.00532310437437,0.253969500683,-0.00991895810737,0.930092027259,0.366988342105,-0.0122471034252
0.150117263198,-0.116084329784,-0.162448629737,-2.37542414665,-0.0121533693746,2.23065638542,-0.755016505718,0.0408282503486,0.000116834758956,-0.00102427764796,-0.00018472460215,-0.000136714690598,-6.37124685454e-05,0.000172342406586,-0.00456428015605,0.475819848336,-0.00532334675582,0.253973138323,-0.00991713742558,0.930092022663,0.366988561046,-0.0122423653839
0.150117814541,-0.116088420153,-0.162449195981,-2.37542104721,-0.0121540147811,2.23065543175,-0.755016326904,0.0408282503486,6.0555186792e-05,-0.00061993394047,-0.000131649590912,0.000421761331381,0.0001394951978,-2.12863669731e-05,-0.000166189711308,0.475821202326,-0.00532341295323,0.253976308706,-0.00991606835403,0.930092028254,0.366988672466,-0.0122394662015
0.150116369128,-0.116090372205,-0.162450924516,-2.3754222393,-0.0121544832364,2.23065638542,-0.755014836788,0.0408282503486,-2.92958375212e-05,0.000692685774993,-0.00136821030173,-0.000544867361896,-8.23211812531e-05,-9.24842315726e-05,-0.00030488910852,0.475820838609,-0.00532493151684,0.253976350407,-0.00991603324716,0.930092768715,0.366986809475,-0.0122390859051
0.150117993355,-0.116086147726,-0.162449106574,-2.37542486191,-0.0121531197801,2.23065590858,-0.755016744137,0.0408282503486,-1.00499737528e-05,-0.000208499739529,0.000457675982034,0.000167140286067,-3.76394964405e-05,-0.000140240634209,0.00011097555398,0.475819597847,-0.00532315943596,0.253973641901,-0.00991727460139,0.930091958744,0.366988731844,-0.0122419903425
0.150119915605,-0.116086505353,-0.162448972464,-2.37542319298,-0.0121528776363,2.23065757751,-0.755015611649,0.0408282503486,-1.38262907967e-06,0.000694102200214,-7.14577836334e-05,0.000393594615161,4.35510373791e-05,0.000147387268953,-0.000641212158371,0.475820678095,-0.00532217313533,0.253974664666,-0.00991667188182,0.930091847875,0.366989087125,-0.0122402512187
0.150122851133,-0.116086617112,-0.162449017167,-2.37542438507,-0.0121539030224,2.23065781593,-0.755015492439,0.0408282503486,0.000536348263267,0.000674993672874,0.000651056703646,-0.000182932373718,0.000103608821519,-3.32388481183e-05,-0.000127001578221,0.475820275016,-0.00532090321937,0.253974222487,-0.00991645174741,0.930091214408,0.366990680246,-0.0122407990877
0.15012831986,-0.116087898612,-0.162446781993,-2.37542390823,-0.0121536012739,2.23065710068,-0.755015552044,0.0408282503486,0.000353302486474,0.000350423535565,0.000713783316314,0.000203101240913,-4.53326247225e-05,-0.000172914398718,9.43562044995e-05,0.475820452582,-0.00531721875434,0.253974991307,-0.00991628757323,0.930089833952,0.366994199577,-0.012240309679
0.150131255388,-0.116086497903,-0.162449583411,-2.37542414665,-0.012152348645,2.2306599617,-0.755016446114,0.0408282503486,-0.000261946406681,1.01333816929e-05,-0.00022075229208,-0.000346642103978,-3.6138073483e-05,-8.84750916157e-05,-0.000326866662363,0.475820878574,-0.00531698941748,0.253974440323,-0.00991657734351,0.93008979416,0.366994317781,-0.0122395545172
0.150130465627,-0.116088524461,-0.162448719144,-2.37542438507,-0.0121532557532,2.23065900803,-0.75501537323,0.0408282503486,2.82728360617e-05,0.00096201163251,-0.000199266549316,1.31931019496e-05,1.61800217029e-05,-8.43149246066e-05,7.01213139109e-05,0.475820730905,-0.00531704415081,0.253975218676,-0.00991618685746,0.930089877532,0.366994126624,-0.0122392670808
0.150134444237,-0.11608800292,-0.162447631359,-2.37542271614,-0.012151482515,2.23066020012,-0.755014896393,0.0408282503486,0.00131858431268,2.97013011732e-05,-7.31311010895e-05,-4.36507471022e-05,-4.09821332141e-05,-1.48303133756e-05,-0.000288438604912,0.475821654712,-0.00531446462174,0.253975799872,-0.00991625862872,0.930089260351,0.366995731667,-0.0122379825777
0.15013691783,-0.116088181734,-0.162449941039,-2.37542295456,-0.0121532594785,2.23066139221,-0.755014419556,0.0408282503486,-0.000440723379143,-0.000122293015011,-0.000450806488516,4.51607556897e-05,1.55840716616e-05,0.00189386343118,-0.00025302922586,0.475821793309,-0.00531479857959,0.253975925831,-0.00991559294238,0.930089216327,0.366995871103,-0.0122376863156
0.150136217475,-0.116086520255,-0.162450164557,-2.37542533875,-0.012152264826,2.23066043854,-0.755015552044,0.0408282503486,0.000240339548327,-0.000268641888397,-0.000241297966568,0.000269058946287,4.49895269412e-05,1.88393187273e-05,0.000350523361703,0.475820528983,-0.00531487324821,0.25397397204,-0.00991674232029,0.930089155091,0.366995922059,-0.0122398807109
0.150140464306,-0.11608659476,-0.162448465824,-2.37542486191,-0.0121518718079,2.2306599617,-0.755014240742,0.0408282503486,3.94209819206e-05,4.81270435557e-05,0.000376604526537,0.000234037186601,3.88300250052e-05,3.94009366573e-05,-0.00284306542017,0.475820654995,-0.0053120226251,0.253974188721,-0.00991673483645,0.930088353577,0.366997954688,-0.0122398467723
0.150146216154,-0.116088673472,-0.162449061871,-2.37542510033,-0.0121524818242,2.23066115379,-0.755015730858,0.0391432419419,0.000339875288773,-0.0013486861717,-2.69559059234e-05,-2.96981525025e-05,4.40795192844e-05,-0.0001390818652,5.51186894882e-06,0.475821011946,-0.00530960898373,0.253975153574,-0.0099161162691,0.930087082123,0.36700123895,-0.0122384884484
0.150143399835,-0.116088777781,-0.162448748946,-2.37542438507,-0.0121527798474,2.23066139221,-0.755015134811,0.0391432419419,-3.482706461e-06,-0.000245117262239,-0.000518355402164,7.04125268385e-05,-9.82612036751e-05,-1.75706009031e-05,-3.07374430122e-05,0.475821419882,-0.00531103576488,0.253975678865,-0.00991563524007,0.930087643977,0.366999850049,-0.0122378285312
0.150140285492,-0.116089299321,-0.162452712655,-2.37542057037,-0.0121539309621,2.23066282272,-0.755015194416,0.0391432419419,0.000485169672174,-0.000249286706094,0.000255608174484,-0.000155046509462,7.13987610652e-05,-0.000410997745348,6.59955549054e-05,0.475823196413,-0.00531434800338,0.253977497011,-0.00991461815421,0.930088828069,0.366996956755,-0.0122354266408
0.150141850114,-0.116087704897,-0.162451371551,-2.37540912628,-0.0121521083638,2.23066306114,-0.755016326904,0.0391432419419,0.000284750625724,-0.000497753324453,0.000176661531441,-7.60743478168e-06,3.10872637783e-05,0.000129771317006,-0.000482811912661,0.475828189283,-0.00531299782376,0.253982476602,-0.00991300431254,0.930088405194,0.366998262968,-0.0122296987692
0.150138020515,-0.116087250412,-0.162455424666,-2.37538480759,-0.0121539216489,2.2306637764,-0.755015790462,0.0391432419419,2.31181275012e-05,-0.000673648668453,-0.00128020590637,0.00271670217626,2.68431012955e-05,8.01744754426e-05,-7.01586468494e-05,0.475837602983,-0.00531715738508,0.253991964545,-0.00990811764888,0.930089967979,0.366994778663,-0.0122193611826
0.150141879916,-0.116070598364,-0.162455409765,-2.37530112267,-0.0121532408521,2.23066186905,-0.755014657974,0.0391432419419,0.000159804345458,0.000938736833632,0.00117306772154,0.00977375451475,-3.33671559929e-05,4.01014222007e-05,0.000167117585079,0.475869560823,-0.00531647931904,0.254019970802,-0.00989476927527,0.930090241551,0.366995437006,-0.0121895452427
0.150138095021,-0.116042524576,-0.16245727241,-2.37475895882,-0.0121556511149,2.23064780235,-0.755015790462,0.0389022454619,0.000331086252118,0.00174804392736,1.77497440745e-05,0.0217854660004,0.000230548306718,-0.000144534846186,-0.00199357513338,0.476089836104,-0.005326785721,0.254246600963,-0.00979429455491,0.930095987828,0.366991420544,-0.0119508222296
0.150142803788,-0.116031490266,-0.162457495928,-2.37431240082,-0.0121522629634,2.23063635826,-0.755014955997,0.0389022454619,7.83778305049e-05,0.00171587208752,0.000630072900094,0.0238372441381,6.69310466037e-05,-0.000125772916363,0.00115150236525,0.476258328135,-0.00532974761984,0.254424818723,-0.00971790686019,0.930099478132,0.366990688757,-0.0117625301084
0.150140553713,-0.116002507508,-0.162459820509,-2.37373733521,-0.0121534662321,2.23061847687,-0.755015552044,0.0389022454619,0.000350550108124,0.000576796941459,4.26525039074e-05,0.0398528836668,-2.94413302981e-06,-0.000144372519571,0.000738776987419,0.476483088067,-0.0053395877303,0.25465725661,-0.00961574241342,0.930105140359,0.366986759221,-0.0115188374266
0.150139853358,-0.115914233029,-0.162460461259,-2.37109351158,-0.0121527127922,2.23053646088,-0.755014300346,0.0389022454619,0.000964303035289,0.000712733948603,0.000334493059199,0.078258767724,-0.000169338964042,-0.0082377307117,-0.000395095703425,0.477547068268,-0.00537457160195,0.255780187831,-0.0091294722546,0.930128654631,0.366974569023,-0.0103442711615
0.15015783906,-0.115913331509,-0.162455692887,-2.3697655201,-0.0121532594785,2.23033237457,-0.755014002323,0.0389022454619,0.00281389174052,-0.000125197795569,-0.000109303560748,0.0957419723272,-2.99255370919e-05,-0.0179523639381,-0.000290160358418,0.478004747748,-0.00537993742006,0.256304932392,-0.00892941359074,0.930134159592,0.366978965172,-0.00985644655927
0.150161877275,-0.115924820304,-0.162455588579,-2.36778497696,-0.0121540427208,2.22964715958,-0.755016505718,0.0389022454619,0.000261681212578,0.000371378846467,0.000301925872918,0.11824465543,-0.000146585211041,-0.0474880337715,-0.000331253482727,0.478645414745,-0.00540176183221,0.257110092463,-0.00868117311139,0.930144802952,0.366973675208,-0.00925225179573
0.150170594454,-0.115940496325,-0.162455245852,-2.36547684669,-0.0121550057083,2.22847604752,-0.755014955997,0.0389022454619,0.000203426723601,0.00249024038203,9.25244748942e-05,0.152861922979,2.42956884904e-05,-0.0820417776704,0.000422887591412,0.479308012361,-0.00542456985561,0.258019921834,-0.00846051150023,0.930154508305,0.366967260611,-0.00872007741342
0.150179952383,-0.11596891284,-0.162460818887,-2.35968351364,-0.0121550858021,2.22556304932,-0.755014777184,0.0389022454619,-0.000236804364249,-0.00227398844436,-7.43472701288e-05,0.215695649385,-0.000143790646689,-0.123010754585,-0.000122962010209,0.480967228136,-0.00549070207848,0.260306034961,-0.00790434725936,0.93018068399,0.3669427729,-0.00737682363639
0.150180980563,-0.116100914776,-0.16246420145,-2.35577130318,-0.012153335847,2.22312641144,-0.755014896393,0.0390145368874,0.000477065215819,-0.0145388832316,0.000125732156448,0.246475890279,-9.79547185125e-05,-0.158257737756,-0.000342439103406,0.481984925097,-0.00553557310382,0.261868455328,-0.00760376884491,0.930196284117,0.366923786665,-0.00663250923299
0.15020352602,-0.116322077811,-0.162454113364,-2.35124468803,-0.0121545856819,2.21988153458,-0.755015134811,0.0390145368874,0.000345151987858,-0.016449412331,0.000318275648169,0.281287640333,6.50878573651e-05,-0.221085771918,0.000175080262125,0.483066101488,-0.00556964243234,0.263677322504,-0.00732507510052,0.93020495519,0.366919396997,-0.00593636306589
0.15022867918,-0.11673258245,-0.162456080317,-2.34585189819,-0.0121541470289,2.21528983116,-0.755015850067,0.0390145368874,0.00176811928395,-0.0286733862013,-0.000188702411833,0.308857649565,0.000166859070305,-0.288610041142,-0.000263767957222,0.484193287047,-0.00561483208634,0.265846657545,-0.0071126700131,0.930214793107,0.366907332438,-0.00537193610032
0.15028296411,-0.118094973266,-0.162450566888,-2.33580946922,-0.0121567100286,2.20511579514,-0.755015492439,0.0390145368874,0.00223918817937,-0.0558079220355,-0.000433628854807,0.378684312105,-0.000140059870319,-0.405461758375,-0.000297113641864,0.485940189857,-0.00568356717946,0.270051200688,-0.00694941388205,0.930223787989,0.366895793553,-0.00478395888953
0.150325745344,-0.119249716401,-0.162455037236,-2.3286960125,-0.0121550131589,2.19744563103,-0.755014657974,0.0390145368874,-0.000419769319706,-0.0750447586179,-0.00111860677134,0.412559688091,0.00495808990672,-0.456375211477,-0.000405050814152,0.487058731125,-0.00573193675717,0.273094033708,-0.00690052644788,0.930229732839,0.366885364681,-0.00448951495852
0.150331482291,-0.120847605169,-0.162455677986,-2.32103133202,-0.0121568627656,2.18882536888,-0.755014121532,0.0390145368874,0.00119491608348,-0.0984012335539,0.000257043488091,0.437254697084,-0.000193287458387,-0.504254639149,1.04627333712e-05,0.488177872564,-0.00579947777717,0.276524822406,-0.00687300345022,0.930241472547,0.366859936708,-0.00416546508815
0.150359645486,-0.122692793608,-0.162449106574,-2.31304478645,-0.012155989185,2.17906522751,-0.755015552044,0.0390145368874,-0.000143663055496,-0.11452062428,-0.000152726759552,0.465106070042,0.000142077929922,-0.569095551968,6.43718594802e-05,0.489149650487,-0.00585381052977,0.280134167049,-0.00696918957571,0.93024550418,0.366848626368,-0.00410089824806
0.150387763977,-0.129741549492,-0.162449017167,-2.28835439682,-0.0121590606868,2.14875984192,-0.755014121532,0.0390145368874,0.00142613367643,-0.18105776608,-7.70847782405e-06,0.537500023842,0.000109635286208,-0.685592651367,-0.000591782561969,0.491958445467,-0.00606220921884,0.292020245808,-0.00714267472807,0.93027417456,0.366780598503,-0.0033067494412
0.150397017598,-0.133289888501,-0.162451058626,-2.27813744545,-0.012158876285,2.1361951828,-0.755014359951,0.0390145368874,-0.000831759592984,-0.196024388075,-0.000264478003373,0.58563888073,7.21977703506e-05,-0.722017884254,0.000211417514947,0.493030397058,-0.00615270449391,0.29728241206,-0.00715037634798,0.930287127298,0.366752703543,-0.00268086371721
0.150399327278,-0.136545449495,-0.162454292178,-2.26863312721,-0.0121587812901,2.12442398071,-0.755014955997,0.0390145368874,9.71860231402e-07,-0.209368631244,-0.000357216398697,0.607022821903,0.000387503620004,-0.760220527649,-0.000169147271663,0.493945327975,-0.00624460244725,0.302168582386,-0.00717869834302,0.930299839648,0.366723347125,-0.00215893479732
0.150388866663,-0.141369149089,-0.162458896637,-2.25549697876,-0.0121620381251,2.1079313755,-0.755013227463,0.0390145368874,-3.95501483581e-05,-0.252185344696,-0.000190154532902,0.651071667671,-0.000493542873301,-0.793623626232,-2.0837658667e-05,0.495009217791,-0.00637639131536,0.308736913548,-0.0072275554932,0.930318007939,0.366679816526,-0.00144165968161
0.15039049089,-0.153687804937,-0.162475213408,-2.22437953949,-0.0121632385999,2.07021570206,-0.755012214184,0.0390151925385,-0.0021062111482,-0.286683917046,-0.000689492968377,0.715875506401,-0.000111020148324,-0.848083436489,-0.000173250562511,0.497554931286,-0.00673394920365,0.326178352301,-0.00698521345959,0.930359594446,0.366578671826,0.0015194937391
0.150413125753,-0.158886313438,-0.162471681833,-2.21221160889,-0.0121632600203,2.05561566353,-0.755014359951,0.0390151925385,0.00121150817722,-0.310886114836,0.000450129678939,0.700135171413,0.000367119326256,-0.869127392769,3.2567379094e-05,0.498366106852,-0.00686873326571,0.333107981032,-0.00682378830688,0.930366374111,0.36655610552,0.00290981566179
0.150419026613,-0.164917230606,-0.162463754416,-2.1982653141,-0.012161440216,2.03917503357,-0.755012094975,0.0390151925385,-0.000714485300705,-0.308659136295,5.48888019694e-05,0.750749647617,0.000899905222468,-0.862357199192,0.000104224614915,0.499218114031,-0.00704194743312,0.341142255086,-0.00657815362251,0.930375717673,0.366518607648,0.00467565950294
0.150415748358,-0.175025805831,-0.162470087409,-2.17466545105,-0.0121618453413,2.01211023331,-0.755008995533,0.0390151925385,-6.34218740743e-05,-0.348333030939,-0.000203831194085,0.752019286156,8.1882080849e-06,-0.872264266014,0.00016266280727,0.50047820886,-0.00737899102336,0.354823932508,-0.00603659278508,0.930389919723,0.366435064863,0.00796867289846
0.15042334795,-0.180823743343,-0.162470132113,-2.16125869751,-0.01216784399,1.99711298943,-0.755006611347,0.0390151925385,-0.000387635402149,-0.337264955044,-0.00076689227717,0.779957294464,3.44840154867e-05,-0.888465166092,-1.77156452992e-05,0.501079473857,-0.00758036607283,0.362691251818,-0.00565190882082,0.930389688999,0.366390846268,0.0100414135392
0.150417789817,-0.186279535294,-0.162473917007,-2.14854979515,-0.0121635887772,1.98295998573,-0.755005776882,0.0390151925385,-0.00116155971773,-0.351280838251,-0.000581406173296,0.81708419323,7.40729519748e-05,-0.877068638802,0.000299295410514,0.501532325508,-0.0077875707484,0.370154639376,-0.0052856758662,0.930389179072,0.366338090578,0.0120183265333
0.150417432189,-0.192494377494,-0.162477880716,-2.13408684731,-0.0121676865965,1.96724390984,-0.754999339581,0.0390171632171,0.00504676112905,-0.338410139084,0.000414275564253,0.793370604515,0.000306956120767,-0.881329298019,0.000367799540982,0.501975588844,-0.0080342686238,0.378707822852,-0.00479358315333,0.930381802234,0.366275697945,0.0144511733529
0.150423750281,-0.199556022882,-0.162477746606,-2.11806821823,-0.012160807848,1.950086236,-0.754993438721,0.0390171632171,-0.00252512120642,-0.345050692558,-0.0013817967847,0.793321788311,-0.00055737385992,-0.850267529488,-8.13265578472e-05,0.502315141879,-0.00831646539465,0.388315284175,-0.00418902840016,0.930362647085,0.366205892133,0.0173505389552
0.150408804417,-0.209964454174,-0.16249217093,-2.09435892105,-0.012161613442,1.92501044273,-0.754955947399,0.0390171632171,-0.00239348248579,-0.351931482553,-0.000281280401396,0.779421567917,-2.64315312961e-05,-0.819790363312,0.000498433015309,0.502503987922,-0.00878479951001,0.402578836977,-0.00324015585474,0.930329353543,0.366064106143,0.0217684451415
0.15041461587,-0.216270327568,-0.162488982081,-2.08064055443,-0.012163545005,1.91062390804,-0.754793941975,0.0390171632171,0.00133737269789,-0.335512787104,0.00100893573835,0.734419941902,0.000666140927933,-0.797927439213,0.0225466936827,0.502407691306,-0.00906223830977,0.410998485456,-0.0026391295992,0.930317915043,0.365924047037,0.0245194500295
0.150430589914,-0.221422612667,-0.162484705448,-2.06955242157,-0.0121568730101,1.89918339252,-0.754473149776,0.0390171632171,-0.00207800650969,-0.334727078676,0.000258049083641,0.722714841366,-0.000259903259575,-0.741376638412,0.0284682959318,0.502249219639,-0.00928868534866,0.417854879912,-0.00211998398205,0.930333637884,0.365723176515,0.0268586249468
0.150407508016,-0.228158965707,-0.16249024868,-2.05541419983,-0.0121626667678,1.8846077919,-0.753780186176,0.0390171632171,-0.000224038332817,-0.332174032927,-0.000137319264468,0.671343564987,0.00103223964106,-0.724328160286,0.0402272976935,0.501881381862,-0.00962146148259,0.426684985414,-0.0014381687755,0.9304044087,0.365308075821,0.02992619868
0.150404527783,-0.237137809396,-0.16249768436,-2.03749775887,-0.0121582886204,1.86614573002,-0.752283513546,0.0390171632171,-0.000296762067592,-0.336884856224,-0.000634848664049,0.626603066921,-0.000228114789934,-0.658702909946,0.0653681233525,0.501121630876,-0.0100544780612,0.438095668384,-0.000545159388997,0.930581770866,0.364498038227,0.0340360154395
0.150406524539,-0.243857324123,-0.162496522069,-2.02512288094,-0.0121584320441,1.85265398026,-0.750184714794,0.0390171632171,0.00013690587366,-0.308804303408,0.00028993023443,0.567788004875,-0.0020779108163,-0.624083578587,0.136987611651,0.500212955577,-0.0103683444415,0.446153381782,-3.0709519729e-05,0.930886505498,0.363451885426,0.0367836866554
0.150407269597,-0.249072611332,-0.162500783801,-2.01566815376,-0.0121564939618,1.8426169157,-0.747249186039,0.0390171632171,-0.00149530754425,-0.299156874418,-0.00086175854085,0.524320662022,-5.88032562518e-05,-0.556670129299,0.215602099895,0.49942240625,-0.0106374370925,0.452724573204,0.000411790302082,0.931385742384,0.361918902474,0.0391808247748
0.15036585927,-0.254072904587,-0.162511497736,-2.00717496872,-0.012157603167,1.8333876133,-0.743173182011,0.0390171632171,-0.0019410229288,-0.277774244547,-1.2838206203e-05,0.473479241133,0.00509222596884,-0.521277785301,0.267810374498,0.498592337857,-0.0108990787063,0.458405783887,0.000743791717077,0.932069771182,0.35992099639,0.041258507801
0.150340467691,-0.259425073862,-0.162519350648,-1.9982894659,-0.0121574793011,1.8235219717,-0.737098038197,0.0390178188682,-0.00601635221392,-0.253720760345,-0.000294548401143,0.427560955286,0.000179456488695,-0.464253365993,0.345081269741,0.497639747442,-0.0111581205401,0.464095302947,0.00100505481638,0.933044569766,0.357144732363,0.0432950404153
0.150173321366,-0.266807854176,-0.162510886788,-1.98688387871,-0.0121580399573,1.81105160713,-0.725015521049,0.0390178188682,-0.00392873678356,-0.223381206393,-0.00145163922571,0.33138012886,-1.91502749658e-05,-0.377835601568,0.461755990982,0.496203611052,-0.0115877462663,0.472066790967,0.00133678525062,0.935092288985,0.351350656315,0.0464040955005
0.150053411722,-0.270238637924,-0.162509918213,-1.98160040379,-0.0121573125944,1.80506443977,-0.716508567333,0.0390178188682,-0.0103869112208,-0.191813915968,-0.000438076967839,0.289730608463,0.000157524133101,-0.334577947855,0.538680374622,0.495444220198,-0.0118126189928,0.475736172083,0.00137207601055,0.936543291072,0.347281154705,0.0477554251126
0.149823814631,-0.273125141859,-0.162506788969,-1.97747838497,-0.0121574280784,1.80011594296,-0.707138001919,0.0390178188682,-0.0169360861182,-0.176994770765,-0.00254789553583,0.231481134892,-3.76548814529e-05,-0.284220069647,0.633909583092,0.494740667812,-0.012059365968,0.478668357292,0.00130121626746,0.938154359141,0.342760465307,0.0487849194811
0.149410516024,-0.276484698057,-0.162490963936,-1.97346115112,-0.0121565042064,1.79467725754,-0.693350851536,0.0390178188682,-0.0232877656817,-0.151203081012,9.90723638097e-05,0.184227228165,3.02501121041e-07,-0.260013490915,0.734599471092,0.493824457659,-0.0123973583313,0.481722369917,0.00105976410128,0.940515777691,0.336083192662,0.0497698313397
0.148428097367,-0.279880166054,-0.162495329976,-1.96916401386,-0.0121565973386,1.78752052784,-0.669353842735,0.0390178188682,-0.0456545501947,-0.0949437841773,-0.00388037436642,0.109022438526,6.66776315938e-07,-0.215011179447,0.866113364697,0.492520365287,-0.0130535807326,0.484815472909,0.00029272277893,0.944770854506,0.323881152807,0.0500893734603
0.147536620498,-0.28125217557,-0.162478253245,-1.96765017509,-0.0121572790667,1.78400444984,-0.653703451157,0.0390191338956,-0.0555793493986,-0.0696863234043,0.000328877591528,0.0734118297696,1.73848984559e-05,-0.202560827136,0.966349840164,0.491870012681,-0.0135063880701,0.485782528983,-0.000248433320937,0.947277659448,0.316515883566,0.0498263919139
0.146435424685,-0.28204241395,-0.162480503321,-1.96669530869,-0.0121549796313,1.78057038784,-0.635535061359,0.0390191338956,-0.0716711208224,-0.0226861685514,-2.37687108893e-05,0.0373520739377,5.61748265682e-07,-0.18120919168,1.04444992542,0.491216791282,-0.0140372614267,0.486259175582,-0.000956228981982,0.950140706486,0.307930959205,0.049094272137
0.145157709718,-0.282244175673,-0.162505269051,-1.96639120579,-0.0121559621766,1.77760839462,-0.61697524786,0.0390191338956,-0.0777926295996,0.00247999816202,-0.00525016291067,0.00434373645112,-4.58660979348e-05,-0.169289693236,1.12891387939,0.490561126922,-0.0147071119127,0.486200385813,-0.0018213220917,0.953367448195,0.297986913987,0.0478642903451
0.143414750695,-0.281999617815,-0.162566065788,-1.96653735638,-0.0121564334258,1.7741689682,-0.59356456995,0.0390191338956,-0.0909035652876,0.026795739308,-0.00790904276073,-0.00693946238607,-5.27454794792e-05,-0.180389657617,1.20701050758,0.489784499108,-0.015609137132,0.485601919015,-0.00295676147598,0.957311531517,0.285374557051,0.0459048043754
0.140521511436,-0.280018597841,-0.162946045399,-1.96692669392,-0.0121573423967,1.76846730709,-0.554004669189,0.0390191338956,-0.0985921770334,0.0861884728074,-0.0182438641787,-0.0167653802782,3.74365263269e-05,-0.174197971821,1.33965325356,0.488798376509,-0.0170866723016,0.483881217091,-0.00476845548115,0.963174152577,0.26552568735,0.042058562609
0.138971403241,-0.278661847115,-0.163276106119,-1.96728253365,-0.0121570117772,1.7658406496,-0.533621191978,0.0390191338956,-0.101953193545,0.09366620332,-0.0281050931662,-0.0321336947381,1.47309638123e-05,-0.157937049866,1.38144886494,0.488322638625,-0.0180164667313,0.482693163481,-0.0057494508374,0.966340975907,0.254107323813,0.0397684520242
0.137071207166,-0.276746660471,-0.163728579879,-1.96790087223,-0.0121567295864,1.76311254501,-0.508471548557,0.0390191338956,-0.106640361249,0.124829977751,-0.0340930819511,-0.0350285060704,4.29162282671e-05,-0.138242512941,1.41521143913,0.487905285147,-0.0190411104737,0.481251287214,-0.00674588272848,0.969642796169,0.241572179631,0.0372856892953
0.135182484984,-0.274299740791,-0.164468377829,-1.96867465973,-0.0121566988528,1.76076984406,-0.482236623764,0.0390191338956,-0.109088726342,0.137397676706,-0.0468875579536,-0.0468484684825,8.480391989e-05,-0.133040636778,1.48690998554,0.487579210776,-0.0202520902536,0.479437390601,-0.00779171936277,0.973112259048,0.227601366669,0.0344882296546
0.130158901215,-0.267052680254,-0.16707675159,-1.97127997875,-0.0121553000063,1.75576877594,-0.411029160023,0.0390191338956,-0.107042506337,0.168079167604,-0.0756193324924,-0.0696769356728,-7.30995379854e-05,-0.102737508714,1.60484671593,0.486917117068,-0.0237730140709,0.474118975275,-0.01029092065,0.98151837092,0.18918516782,0.0269213014378
0.128006026149,-0.263641238213,-0.168751344085,-1.97268354893,-0.0121558438987,1.75391197205,-0.378362834454,0.0390197895467,-0.104876831174,0.169709175825,-0.0934894010425,-0.0753845721483,-1.52611446538e-05,-0.0887155085802,1.65232515335,0.486646009155,-0.0255502085876,0.47157712622,-0.0113094145338,0.984874976198,0.171295035475,0.02348167199
0.126113191247,-0.260482251644,-0.170484259725,-1.97413265705,-0.0121559128165,1.7525049448,-0.34835973382,0.0390197895467,-0.108182623982,0.17839512229,-0.0965229421854,-0.0848694518209,0.000179565671715,-0.0667871162295,1.68710970879,0.486414825402,-0.0272357107205,0.469181476941,-0.0121657728692,0.987667965673,0.15475638237,0.0203579313082
0.123929806054,-0.257161408663,-0.172477290034,-1.97583246231,-0.0121556436643,1.75128805637,-0.315993726254,0.0390197895467,-0.117764107883,0.172689452767,-0.107884556055,-0.0887294784188,5.98050719418e-05,-0.0684024021029,1.72579598427,0.486180247156,-0.0290754982316,0.466738957367,-0.0129494785025,0.990239571363,0.137694364152,0.0172674286208
0.120316557586,-0.252227246761,-0.176035672426,-1.9785605669,-0.0121573684737,1.7490837574,-0.263762384653,0.0390197895467,-0.124979615211,0.162452280521,-0.124329164624,-0.0917935296893,-0.000112202753371,-0.0729821175337,1.76950991154,0.485601637433,-0.0325401720771,0.462633237372,-0.0141809022136,0.994050178656,0.107339579558,0.011889435907
0.118128716946,-0.249443590641,-0.178249493241,-1.98009026051,-0.0121572604403,1.74794340134,-0.233554020524,0.0390197895467,-0.13277824223,0.16318744421,-0.135961487889,-0.0860169231892,7.96368340161e-07,-0.0661730542779,1.79474174976,0.485271716191,-0.0346067779834,0.460408858152,-0.0147630545854,0.995776755315,0.0901662947947,0.00898580972527
0.113170973957,-0.243807256222,-0.183028519154,-1.98315262794,-0.0121566662565,1.74569165707,-0.168851524591,0.0390197895467,-0.144881308079,0.153717413545,-0.135259345174,-0.0801483988762,-0.000331915158313,-0.0458650588989,1.80721986294,0.484534005208,-0.0391855437153,0.455932899676,-0.0157349357649,0.998458435873,0.0531376540158,0.00309080178667
0.10982888937,-0.240545585752,-0.186144456267,-1.98496901989,-0.0121575556695,1.74451124668,-0.127214804292,0.0390230715275,-0.148980304599,0.139027416706,-0.137939125299,-0.0756156072021,-0.000128859581309,-0.0546891987324,1.80141663551,0.484053033317,-0.0422316586323,0.453332072665,-0.0161785830521,0.999443533918,0.0291678741959,-0.000332828268557
0.107136145234,-0.238277927041,-0.188644781709,-1.9862228632,-0.0121581973508,1.74344491959,-0.0948184132576,0.0390230715275,-0.153317794204,0.11926817894,-0.145110800862,-0.0685374215245,-4.37716698798e-05,-0.0600816011429,1.79853653908,0.483592560865,-0.0448245305207,0.45140564805,-0.01647229282,0.999815807033,0.00938135525755,-0.00300090829121
0.100073933601,-0.233151420951,-0.195797935128,-1.98901700974,-0.0121595719829,1.74127614498,-0.00974390655756,0.0390230715275,-0.144275471568,0.0801266506314,-0.152922809124,-0.0496562197804,-4.53095235571e-05,-0.0440193414688,1.75196957588,0.482502632782,-0.0514362406427,0.447384259862,-0.0169503076758,0.999055148087,-0.0390884702708,-0.0085784230132
0.0978923365474,-0.231913119555,-0.198148280382,-1.98967289925,-0.0121596679091,1.74066972733,0.0162509474903,0.0390230715275,-0.144739627838,0.079431116581,-0.163001641631,-0.0392892546952,-5.1114235248e-05,-0.0348984859884,1.71112167835,0.482143839849,-0.0535983477358,0.446379524784,-0.0170561912177,0.998328740557,-0.05429492418,-0.0100435565268
0.0951132699847,-0.230577707291,-0.201440930367,-1.99045717716,-0.0121595589444,1.74010372162,0.0499059334397,0.0390230715275,-0.136154443026,0.0511828288436,-0.16431003809,-0.0392267554998,-0.00011320268095,-0.0249247197062,1.66847753525,0.481683317464,-0.0565055524255,0.445250045852,-0.0171934304465,0.99703711711,-0.0740613332411,-0.0116744024342
0.0887212604284,-0.228918656707,-0.209288462996,-1.99179506302,-0.0121614411473,1.73906254768,0.125840455294,0.0390230715275,-0.131415933371,0.00954745989293,-0.164532631636,-0.0169434901327,-5.7749071857e-05,-0.0245503652841,1.561850667,0.48053330926,-0.063351253354,0.443558566952,-0.0175232787203,0.992659827143,-0.118796171573,-0.0143830315699
0.0864740386605,-0.228794261813,-0.212009936571,-1.99203586578,-0.012158873491,1.73865127563,0.151950702071,0.0390230715275,-0.134896397591,0.00526825897396,-0.16038222611,-0.0074598887004,0.000188153149793,-0.0268620848656,1.51393818855,0.480095572091,-0.0657467634196,0.443286491301,-0.0176532652734,0.990688416317,-0.134160967218,-0.0150219364191
0.0840526521206,-0.228797897696,-0.214844658971,-1.99212348461,-0.0121601680294,1.73819923401,0.178661629558,0.0390270128846,-0.135222896934,-0.00108188868035,-0.150004208088,-0.00095696025528,-9.87792955129e-05,-0.0192306227982,1.44619941711,0.479636088567,-0.0682867988003,0.443140708331,-0.017795517932,0.98841397017,-0.149930785297,-0.0155532129267
0.0814668163657,-0.228901997209,-0.217843160033,-1.99207246304,-0.0121590234339,1.7377756834,0.206852212548,0.0390270128846,-0.128197416663,-0.00714450422674,-0.139862731099,0.00337719498202,-0.000301859545289,-0.0157092064619,1.38623440266,0.479142857776,-0.071122753193,0.443106568171,-0.0179609699424,0.985601792188,-0.16736449194,-0.0159886625241
0.0782083198428,-0.229374542832,-0.22164440155,-1.99205100536,-0.0121599249542,1.73757374287,0.242895662785,0.0390270128846,-0.11324878037,-0.0261752270162,-0.14370110631,0.000576273479965,5.40535111213e-05,-0.000616501783952,1.30815303326,0.478530426484,-0.0746661273336,0.443243253874,-0.0182139330444,0.981634793658,-0.189204984922,-0.0162128930364
0.0760176926851,-0.229870572686,-0.224533140659,-1.99204111099,-0.012159826234,1.73750984669,0.267629355192,0.0390270128846,-0.107947930694,-0.0228887721896,-0.146555483341,0.00325867556967,-2.33577156905e-05,-0.00371936801821,1.17912077904,0.478135733784,-0.0768866612372,0.443385800244,-0.0184141145887,0.97902295011,-0.202263268061,-0.0162651047194
0.0741392672062,-0.230297535658,-0.227163627744,-1.99202919006,-0.0121597200632,1.73748219013,0.288561701775,0.0390270128846,-0.102858170867,-0.0247579291463,-0.143058478832,-0.000851522956509,6.96879869793e-05,-0.00287245656364,1.13392627239,0.477743920648,-0.0790778133788,0.443522029929,-0.0186271151676,0.976375554229,-0.214657742986,-0.016305237066
0.0721563324332,-0.230816587806,-0.229634448886,-1.99203979969,-0.0121594415978,1.73745012283,0.308174371719,0.0390270128846,-0.115627549589,-0.0312271006405,-0.130353793502,0.000239689819864,0.000100106233731,0.000325229717419,1.05610072613,0.477330237085,-0.0812381139186,0.443693717386,-0.0188470964595,0.973727409007,-0.226349125813,-0.0163031543706
0.0673526525497,-0.232055276632,-0.235068485141,-1.99197435379,-0.0121594965458,1.73743057251,0.35133343935,0.0390302948654,-0.0931882485747,-0.0279789194465,-0.117760971189,0.000487193610752,0.000144516685396,-7.93770959717e-05,0.871588349342,0.476367213844,-0.0862015135154,0.444159603838,-0.0193631460011,0.967353252051,-0.252171345766,-0.0161977279582
0.0656926184893,-0.232578754425,-0.237434074283,-1.99194538593,-0.0121591445059,1.73743057251,0.36730992794,0.0390302948654,-0.0839335247874,-0.0305835679173,-0.128942474723,0.000867480121087,-2.92085605906e-05,3.07552836603e-05,0.810943543911,0.475973757416,-0.0881541452033,0.444354396103,-0.0196093652296,0.964789660908,-0.261793596047,-0.0161398810821
0.0642191320658,-0.233029842377,-0.239808768034,-1.99191915989,-0.0121582150459,1.73742997646,0.380979329348,0.0390302948654,-0.0852729901671,-0.0193155612797,-0.127390980721,0.000309685448883,0.000102347679785,-0.000262493878836,0.723936498165,0.475595783374,-0.0900201569999,0.44451271772,-0.0198641100606,0.96246606319,-0.270194804873,-0.0161015977738
0.0597605854273,-0.233934625983,-0.245738357306,-1.99189198017,-0.0121583426371,1.73744547367,0.411903440952,0.0390302948654,-0.0977516546845,-0.0124244326726,-0.121851965785,0.000485036609462,5.29219178134e-05,0.000327211833792,0.532211065292,0.474567092044,-0.0950404976316,0.444783624775,-0.020498271977,0.956695795262,-0.28992047932,-0.0160963205332
0.0581548288465,-0.234134033322,-0.247770726681,-1.99187767506,-0.0121579132974,1.73746871948,0.420095324516,0.0390302948654,-0.0969775691628,-0.00976868253201,-0.132482811809,-0.000461003830424,-0.0037903340999,-0.000620885519311,0.493987768888,0.474212301416,-0.0967958691987,0.444827315276,-0.0207191197067,0.954968880644,-0.295542714566,-0.0161139268231
0.0563910342753,-0.23430596292,-0.250283569098,-1.9918782711,-0.0121587701142,1.73755216599,0.42853552103,0.0390302948654,-0.0940374732018,-0.0128628583625,-0.144124537706,0.000409493339248,0.000561299093533,0.00725736701861,0.448102027178,0.473803122669,-0.0988605166362,0.444841481951,-0.0209926452447,0.953075995024,-0.301570851178,-0.0161393297546
0.0510781593621,-0.23444776237,-0.258743017912,-1.99187648296,-0.0121915247291,1.73858165741,0.447202026844,0.0390302948654,-0.119008153677,0.00086638785433,-0.186196088791,-0.000178758986294,3.37663295795e-05,0.0301813594997,0.272769987583,0.472637133105,-0.105542536926,0.444742294673,-0.0219405834464,0.948079460387,-0.316873739456,-0.0159681095225
0.0492493696511,-0.234429419041,-0.261599123478,-1.99188423157,-0.0122254854068,1.73919403553,0.450855672359,0.0390322655439,-0.125801339746,0.00138286012225,-0.194923400879,-0.000875239085872,-0.00514185475186,0.0495901927352,0.222673609853,0.472256703924,-0.107987253298,0.444690006037,-0.0222959487016,0.946670926859,-0.32104258628,-0.0157703644581
0.0470475144684,-0.234391272068,-0.265244930983,-1.99189448357,-0.0124831655994,1.74005436897,0.454239249229,0.0390322655439,-0.135703712702,0.00435868138447,-0.232255965471,8.66640839376e-05,-0.013116360642,0.052276302129,0.181037425995,0.471834302524,-0.110728307962,0.444627613792,-0.0226060402555,0.945285386845,-0.325091396789,-0.0154947663015
0.0441863760352,-0.234352305532,-0.270052403212,-1.99188494682,-0.0128803150728,1.74111092091,0.457396924496,0.0390322655439,-0.146915495396,0.00354369962588,-0.245323911309,-0.000138005329063,-0.0193298477679,0.0584669932723,0.141342028975,0.471175606688,-0.114734411928,0.444543337751,-0.0230424325635,0.943451450746,-0.330364261521,-0.015095058257
0.0395959541202,-0.234294340014,-0.277665406466,-1.99191224575,-0.0136401541531,1.74347639084,0.460243731737,0.0390322655439,-0.170760184526,0.000700048462022,-0.29479649663,7.87322351243e-05,-0.0275003630668,0.11109855026,0.0626332387328,0.470280737387,-0.120653379297,0.44445312727,-0.0236653144252,0.941076456805,-0.337067594364,-0.014159514752
0.0365434028208,-0.234260752797,-0.282912522554,-1.99189412594,-0.014223176986,1.74552667141,0.460973203182,0.0390322655439,-0.189453974366,-0.000352407310857,-0.313992202282,0.00108965486288,-0.0429036617279,0.131444618106,0.0236467123032,0.469703919255,-0.124849992903,0.444439378738,-0.0241079436449,0.939581261106,-0.341218704112,-0.0132535460274
0.0331486910582,-0.234211593866,-0.28827559948,-1.99188697338,-0.0150635112077,1.74807810783,0.461082607508,0.0390322655439,-0.204709425569,0.0018240029458,-0.318083524704,-9.17989455047e-05,-0.0550776645541,0.151670381427,9.19944432098e-05,0.469125497092,-0.129339230357,0.444445993209,-0.0244600707695,0.938106174279,-0.345271455225,-0.0120885322186
0.0288745053113,-0.234129026532,-0.294944286346,-1.99187636375,-0.0163434706628,1.75148248672,0.461080819368,0.0390322655439,-0.218191444874,0.00247874576598,-0.344839036465,-0.00060199003201,-0.0613745450974,0.185598596931,-4.7318644647e-05,0.468380334697,-0.135003928387,0.444458916944,-0.0247772081178,0.936270871741,-0.350246046483,-0.0105190919448
0.0175822637975,-0.23392996192,-0.313730150461,-1.9917498827,-0.0194973181933,1.7625875473,0.460951179266,0.0390348918736,-0.251719117165,0.00454249978065,-0.422609508038,0.00429153582081,-0.045231513679,0.263775378466,-0.00671043805778,0.466390359355,-0.150623022128,0.444674341258,-0.0258691165171,0.931080340744,-0.363857011916,-0.00531624438921
0.0129389716312,-0.233801499009,-0.321764439344,-1.99165129662,-0.0200857650489,1.76757574081,0.4607026577,0.0390348918736,-0.267067968845,0.0048731113784,-0.459821939468,0.00519690848887,-0.0291529595852,0.279862046242,-0.0220074877143,0.465518532577,-0.157092430824,0.444790297805,-0.0266604281583,0.928824380586,-0.369547652497,-0.00300396704585
0.00866247247905,-0.233730733395,-0.32921487093,-1.9915138483,-0.0204497091472,1.77213943005,0.460262686014,0.0390348918736,-0.276057988405,0.00257904967293,-0.472877085209,0.00866040401161,-0.017102451995,0.294431805611,-0.0316728129983,0.4646364869,-0.163045551385,0.444936054866,-0.0274630474659,0.92673168209,-0.374717830531,-0.000847112276898
-0.00557870930061,-0.233387023211,-0.354045510292,-1.99106025696,-0.0215247776359,1.78789794445,0.457728892565,0.0390348918736,-0.28564453125,0.00245943502523,-0.514446616173,0.0071360594593,-0.0349872037768,0.329111307859,-0.0474265776575,0.461281773117,-0.182897832163,0.44540235256,-0.0299956178611,0.919710182258,-0.391394780905,0.00660066078248
-0.0101485177875,-0.233360469341,-0.36250436306,-1.99093782902,-0.0220190491527,1.79315197468,0.456940919161,0.0390348918736,-0.282162994146,0.0037774106022,-0.539302229881,0.00959377270192,-0.0313493125141,0.328813284636,-0.0535692423582,0.459950498896,-0.18953899809,0.445569421954,-0.0307365922918,0.917284729855,-0.396939449922,0.00911367350692
-0.0148226683959,-0.233340084553,-0.371819496155,-1.99079501629,-0.0224422793835,1.79857623577,0.455895960331,0.0390348918736,-0.27164503932,2.76551727438e-05,-0.550682127476,0.0112233711407,-0.0232013445348,0.309416115284,-0.0799096748233,0.458381604482,-0.196632062305,0.445724909546,-0.0315653527085,0.914672481912,-0.402791317673,0.0117061278699
-0.0205073691905,-0.233389765024,-0.383086770773,-1.99061238766,-0.0227956958115,1.80489814281,0.453741401434,0.0390348918736,-0.279312580824,-0.00012563506607,-0.526527702808,0.0103102102876,-0.0123481964692,0.277474552393,-0.116066001356,0.456289960591,-0.205167889152,0.445924599403,-0.0325946581145,0.911622291089,-0.40946793611,0.0147782146956
-0.0282348953187,-0.233461946249,-0.397414535284,-1.99029529095,-0.0229193773121,1.81199228764,0.45006608963,0.0390362069011,-0.277010291815,-0.00544748734683,-0.49292320013,0.0121533898637,-0.00337643781677,0.226879581809,-0.12672957778,0.453148727199,-0.216093579989,0.446125766299,-0.033955117798,0.907742164114,-0.417752017443,0.0182883861066
-0.032623834908,-0.233542472124,-0.405065834522,-1.99005436897,-0.022942405194,1.81538546085,0.448059439659,0.0390362069011,-0.26686128974,-0.0082483664155,-0.456903338432,0.0112995998934,0.00061663123779,0.201245322824,-0.121022187173,0.451122491957,-0.222349385852,0.446252023652,-0.0347108017318,0.905458861579,-0.422532825949,0.020135066566
-0.0369093045592,-0.233703494072,-0.412148803473,-1.98984599113,-0.0229624919593,1.81840610504,0.446115881205,0.0390362069011,-0.269724965096,-0.0113775637001,-0.435447603464,0.00772924209014,-0.000698081043083,0.185614913702,-0.122875638306,0.44932148553,-0.227532175022,0.446368714779,-0.035319247068,0.903544620906,-0.426487966976,0.0216259686618
-0.0422429293394,-0.234066322446,-0.420919239521,-1.9897159338,-0.0229611285031,1.82183218002,0.443581968546,0.0390362069011,-0.238737180829,-0.0252748094499,-0.392425596714,0.00618692906573,-0.00398099515587,0.150006949902,-0.114125862718,0.446746892133,-0.234326170435,0.446499265162,-0.036141261817,0.901008382481,-0.431656359194,0.0234625475358
-0.047076806426,-0.234729841352,-0.428417533636,-1.98971235752,-0.022970283404,1.82455849648,0.441495835781,0.0390362069011,-0.213491752744,-0.0355754680932,-0.314865916967,-0.00209088833071,0.000895697448868,0.11541787535,-0.093144774437,0.444302132321,-0.240199827137,0.446692716044,-0.0368853420553,0.898738927302,-0.436211437252,0.0250478298304
-0.0524545125663,-0.235928744078,-0.436084628105,-1.98974001408,-0.0230039097369,1.8266658783,0.439277052879,0.0390362069011,-0.166682913899,-0.0467937774956,-0.242616176605,-0.000160881871125,7.4028110248e-05,0.0325746424496,-0.0745748877525,0.4415212725,-0.246112150822,0.447021063755,-0.0376873716503,0.896398546913,-0.440846552702,0.0265259072689
-0.0547491163015,-0.236834049225,-0.439287930727,-1.98974490166,-0.023033933714,1.82697725296,0.43822568655,0.0390362069011,-0.144387930632,-0.0711737945676,-0.191255941987,-0.000825043010991,-0.00328690954484,0.0141547974199,-0.0641233474016,0.440030589423,-0.248799769151,0.44730727501,-0.0381348921865,0.895330836187,-0.442937352104,0.0271095104436
-0.05683689937,-0.238127410412,-0.441831171513,-1.98976659775,-0.0230834726244,1.82706511021,0.437356710434,0.0390388332307,-0.106526717544,-0.0804508030415,-0.117024630308,-0.0021128829103,-0.00042376408237,0.000847129151225,-0.0367398485541,0.438748170958,-0.250877908643,0.447755473124,-0.0385646383047,0.894485820339,-0.444566468796,0.027722560887
-0.0585306063294,-0.242331087589,-0.443449854851,-1.98986184597,-0.0231870729476,1.82687735558,0.435486227274,0.0390388332307,0.039391990751,-0.116765469313,0.0443576164544,-0.000107355030195,0.000244408322033,-0.0154768712819,-0.0473842024803,0.437392204636,-0.252164683585,0.449711863352,-0.0395234322285,0.894229368723,-0.44486862794,0.0297260486383
-0.0570774301887,-0.245127916336,-0.441619634628,-1.98985278606,-0.0232114158571,1.82649075985,0.434526115656,0.0390388332307,0.0921525508165,-0.126327633858,0.12848341465,0.000960742065217,-0.00168227986433,-0.0253024268895,-0.0311262216419,0.437795233391,-0.250789187851,0.450828420909,-0.0398184233597,0.895036277917,-0.443152008688,0.0306732985582
-0.055034480989,-0.247303336859,-0.438943147659,-1.98985803127,-0.0232203360647,1.82607650757,0.434076756239,0.0390388332307,0.147107586265,-0.141131788492,0.175810873508,-0.002575898543,-0.00185776466969,-0.0292840246111,-0.0224975142628,0.438622363669,-0.248621856959,0.451912835504,-0.040009948246,0.896152996679,-0.440813223189,0.0315073407767
-0.0514846853912,-0.250214993954,-0.434560567141,-1.98988389969,-0.0232668966055,1.82538807392,0.433693736792,0.0390388332307,0.205949172378,-0.143151268363,0.259634047747,0.00313467835076,-0.0096289543435,-0.0410732366145,-0.0177974160761,0.44006971773,-0.244980809656,0.453386112931,-0.0401863300523,0.897947033205,-0.437054501017,0.0325506874392
-0.0442033186555,-0.254501104355,-0.424889624119,-1.98988246918,-0.0233073681593,1.82448792458,0.433319717646,0.0390388332307,0.286056220531,-0.146756350994,0.391087472439,-0.000835192855448,0.000397389288992,-0.0340901426971,-0.00990082789212,0.443405381775,-0.237224447216,0.455765681743,-0.0401698406187,0.901640084298,-0.429256113952,0.0342159407914
-0.0395304597914,-0.256729274988,-0.418525308371,-1.98983931541,-0.0233263336122,1.82386410236,0.433160454035,0.0390388332307,0.33217382431,-0.146522060037,0.448474287987,0.00421272870153,-0.000544780574273,-0.0485269092023,-0.00616765441373,0.445568753874,-0.232147554977,0.457081514191,-0.0400404550596,0.903996677644,-0.424214922348,0.0350495093097
-0.0326667949557,-0.259486049414,-0.409145891666,-1.98971176147,-0.0233647245914,1.82289540768,0.433060914278,0.0390394888818,0.386213719845,-0.138265371323,0.533988058567,0.00232812785544,-0.00295115029439,-0.0474658831954,-0.00277163810097,0.4488868089,-0.224213658549,0.458896586513,-0.0397150982731,0.907583053198,-0.416428448727,0.0360979125034
-0.0244020503014,-0.262352466583,-0.397883832455,-1.9896569252,-0.0234165284783,1.82199668884,0.433052897453,0.0390394888818,0.439913600683,-0.142276287079,0.600949883461,0.00158904923592,-0.00250026630238,-0.0440150052309,-0.000566274451558,0.452598653371,-0.215083587953,0.460743848095,-0.0392475027847,0.911584179567,-0.407542924578,0.0371844240763
-0.00981226935983,-0.265948385,-0.377767235041,-1.98944199085,-0.0234348569065,1.82114624977,0.433051794767,0.0390394888818,0.514147937298,-0.101135626435,0.720218122005,0.012722867541,-0.00498734088615,-0.0150617491454,0.000545114977285,0.458877009927,-0.199341248409,0.463367575992,-0.0381745252276,0.918231366265,-0.392284247108,0.0388192321348
-0.00117238122039,-0.267416447401,-0.365680843592,-1.9891371727,-0.0234212111682,1.82078301907,0.433054536581,0.0390394888818,0.561838626862,-0.0844990611076,0.789216697216,0.0233949683607,0.00313007319346,-0.0248638615012,0.000599453866016,0.462614647561,-0.189572285592,0.464769922303,-0.0373897885438,0.922195796111,-0.382859549809,0.0396923437191
0.00875701103359,-0.268626451492,-0.351747125387,-1.98859214783,-0.0234518367797,1.82036304474,0.43305978179,0.0390394888818,0.597204387188,-0.0588111057878,0.857238769531,0.0391777567565,-0.000105805440398,-0.029100254178,-0.000246638868703,0.466756141808,-0.178258017351,0.466242150965,-0.0363729073749,0.926643642183,-0.37196960365,0.040585535048
0.0206637140363,-0.269446998835,-0.334897488356,-1.98775935173,-0.0234590340406,1.8199955225,0.433077692986,0.0390394888818,0.647944033146,-0.0265811122954,0.921003341675,0.0486733652651,-0.00304223992862,-0.0167487617582,0.00249303528108,0.471528990331,-0.164512122646,0.467798068198,-0.0350460991976,0.931829654059,-0.358802887874,0.0415421964395
0.0404059402645,-0.269568234682,-0.306649148464,-1.98608219624,-0.0234216712415,1.81992077827,0.433202058077,0.0390394888818,0.703710198402,0.0081100454554,1.01446306705,0.060298576951,-0.00589590612799,-0.00515706092119,0.00679572345689,0.478629791835,-0.142347242155,0.46985427403,-0.0327716540223,0.939691942307,-0.337728217949,0.0429502356683
0.0543200336397,-0.269160062075,-0.286584496498,-1.98489618301,-0.0234205629677,1.81995272636,0.433501213789,0.0390394888818,0.719891250134,0.0350441262126,1.03715467453,0.0602262951434,0.00561219081283,-0.00182589387987,0.0245186854154,0.483595489343,-0.124665178304,0.471173359569,-0.030899024842,0.945517410759,-0.321116312907,0.0438906537759
0.0669407099485,-0.268287301064,-0.268323153257,-1.98390698433,-0.0234203785658,1.81995224953,0.433961093426,0.0390394888818,0.750560700893,0.0581583604217,1.09546041489,0.0535317957401,-0.00769363855943,0.00185030081775,0.0296928808093,0.48738689756,-0.10938461695,0.471959258824,-0.0292208277307,0.950247904675,-0.306924149493,0.0444142886417
0.0789640769362,-0.267224133015,-0.250644564629,-1.98311007023,-0.0234030969441,1.81997895241,0.434450060129,0.0390401482582,0.750250995159,0.0741350874305,1.10906457901,0.0447120890021,0.00302408798598,0.00683489255607,0.0307840202004,0.490599551035,-0.0945580973138,0.472492139841,-0.0275729914035,0.954594942354,-0.293230048628,0.0447701289847
0.0950593575835,-0.265592396259,-0.226645663381,-1.98222136497,-0.0233605895191,1.81999957561,0.435191839933,0.0390401482582,0.773238956928,0.0879445075989,1.16181862354,0.0392021909356,-0.000294162164209,0.00440401118249,0.03804577142,0.494074049038,-0.0753498873544,0.472938605208,-0.0254326657352,0.959884391854,-0.275578152294,0.0450756637149
0.117308430374,-0.262504994869,-0.192722812295,-1.98128283024,-0.0233065020293,1.82007622719,0.436648398638,0.0390401482582,0.76966547966,0.119554914534,1.1932861805,0.0266352631152,-0.00186550605576,-0.000840634631459,0.067190438509,0.498024099614,-0.0458372851228,0.472921720699,-0.0220255345911,0.967275221007,-0.248719261143,0.0450805000058
0.128787755966,-0.260650008917,-0.174847990274,-1.98095846176,-0.0233138240874,1.8201059103,0.437915146351,0.0390401482582,0.763373076916,0.124721549451,1.18594956398,0.0201466530561,0.00478703528643,0.00532096065581,0.0951039791107,0.499445642336,-0.0298262493539,0.472611956773,-0.0201251955934,0.970890990221,-0.234415569941,0.0448887722496
0.142376422882,-0.258216500282,-0.153504937887,-1.98072433472,-0.0232326425612,1.82018363476,0.439834743738,0.0390401482582,0.757969617844,0.141525477171,1.20220530033,0.0118413083255,0.00930385757238,0.000847571587656,0.1126222983,0.500369983086,-0.0139226534454,0.472093137384,-0.0182510749149,0.974223478069,-0.220384134813,0.044568440189
0.156389266253,-0.255350768566,-0.131097048521,-1.98060178757,-0.0231872145087,1.82022798061,0.442240506411,0.0390401482582,0.721047401428,0.155023679137,1.16266989708,0.00243685021996,0.0109582291916,0.00851348973811,0.143118008971,0.500847205169,0.00579077970394,0.471145929562,-0.0158516874078,0.978031898538,-0.203148785362,0.0439647603281
0.189518794417,-0.247615128756,-0.0763474404812,-1.98068618774,-0.0229646433145,1.82026708126,0.450225710869,0.0390421152115,0.642215371132,0.168237909675,1.09859788418,-0.00470510683954,0.0051536289975,-0.00175611011218,0.207120120525,0.499181320873,0.0500716137276,0.468123876273,-0.0103595899672,0.985298511376,-0.165245650368,0.0421117217275
0.203192293644,-0.243880778551,-0.0526030994952,-1.98075556755,-0.0229160152376,1.82029354572,0.45530629158,0.0390421152115,0.586211442947,0.175050362945,1.04907715321,0.000960105215199,0.00442539248616,0.00449419952929,0.254961282015,0.497220311989,0.0701083108398,0.466368063491,-0.00778016196314,0.987983412868,-0.148791592126,0.0411011774561
0.210730567575,-0.241632193327,-0.0392997637391,-1.98081183434,-0.0228456128389,1.82034087181,0.458771169186,0.0390421152115,0.559695899487,0.168733254075,0.998536288738,-0.00173363578506,0.00914226192981,0.00201646657661,0.2829862535,0.495879425377,0.0807544936861,0.465307515014,-0.00641262093017,0.989254879487,-0.140333744987,0.0404981656463
0.228662788868,-0.236524671316,-0.00728351762518,-1.98148107529,-0.0228053815663,1.82061243057,0.46895891428,0.0390421152115,0.479105114937,0.137862578034,0.871916055679,-0.0329198054969,-0.00288094300777,0.0124805821106,0.317688971758,0.491659712009,0.106083351084,0.462561896997,-0.00311175918595,0.991887139566,-0.120929358071,0.0390680095872
0.236556753516,-0.234202265739,0.00672881631181,-1.98207855225,-0.0227077379823,1.82088816166,0.47456201911,0.0390421152115,0.453787207603,0.127434030175,0.77246683836,-0.0398480594158,-0.0010299423011,0.0200015194714,0.328169584274,0.489389395716,0.11712374504,0.461139806993,-0.00169552913222,0.992857325086,-0.112967699152,0.0383373949286
0.242952302098,-0.232463151217,0.0178022310138,-1.9827286005,-0.0227178763598,1.82111763954,0.47956097126,0.0390421152115,0.406213730574,0.112984448671,0.704942762852,-0.0477355346084,0.000525903014932,0.0155052002519,0.326324820518,0.487363809208,0.125856692253,0.45996066226,-0.000539011095838,0.993556439271,-0.106864705247,0.0377524293414
0.249480843544,-0.230866849422,0.0292806718498,-1.98356986046,-0.0226739682257,1.82135879993,0.485036373138,0.0390421152115,0.361857116222,0.0834152922034,0.638110756874,-0.0537814460695,-0.00490652723238,0.0132658462971,0.314410626888,0.48479082626,0.13578456751,0.458611511926,0.000759111082865,0.994287454356,-0.100073127374,0.0371113289578
0.25575825572,-0.229541197419,0.0401912592351,-1.98462975025,-0.0226760562509,1.82172048092,0.490968704224,0.0390421152115,0.30447524786,0.0576782636344,0.510763943195,-0.0549525357783,-0.00157060602214,0.0231517851353,0.3129594028,0.482542493517,0.143686383115,0.457497067062,0.00178253128753,0.99480254919,-0.0949851697891,0.0366405230169
0.263436675072,-0.228097230196,0.0535218976438,-1.98623132706,-0.0226842220873,1.82248282433,0.501241743565,0.0390421152115,0.195292428136,0.0251107178628,0.346749216318,-0.0455369241536,-0.000245072849793,0.0288803894073,0.342055439949,0.479515750198,0.153582650394,0.456053726915,0.00300036372237,0.995281955696,-0.089985247825,0.0361591116723
0.266277581453,-0.227789878845,0.0586690455675,-1.98688971996,-0.0226804539561,1.82296693325,0.50701135397,0.0390447415411,0.133638083935,0.0096029844135,0.257241934538,-0.0329046472907,-3.79487828468e-05,0.0332987718284,0.335960298777,0.478264031164,0.157481139801,0.455594067426,0.003384307819,0.995376463458,-0.0889206525907,0.0361574293405
0.267969936132,-0.227707415819,0.0622997842729,-1.98736393452,-0.0226919408888,1.82369339466,0.512547492981,0.0390447415411,0.0658335164189,-0.000288562063361,0.163555875421,-0.0231369938701,-0.000358432647772,0.0558014325798,0.318878948689,0.477472481985,0.160096199534,0.455369939376,0.00353989408731,0.995355645742,-0.0890497415541,0.0363971271774
0.268424034119,-0.227764055133,0.0645069405437,-1.98767733574,-0.0227108690888,1.82513535023,0.518164932728,0.0390447415411,-0.00965775735676,-0.0035107571166,0.0685534477234,-0.0103044882417,-0.00420639431104,0.0898661464453,0.279842853546,0.477260541454,0.161475926854,0.455376114736,0.00338723121817,0.995199421956,-0.0905235371443,0.0370422208515
0.267850071192,-0.227901250124,0.0647438690066,-1.9876922369,-0.022845974192,1.82688271999,0.522991716862,0.0390447415411,-0.0624591596425,-0.0106730842963,-0.0255432277918,0.00403324887156,-0.0223323479295,0.0946963056922,0.244159325957,0.47765247809,0.161417272355,0.455615555303,0.00300432610443,0.994932755357,-0.093062036434,0.0379373617356
0.263809978962,-0.228582501411,0.0621885433793,-1.98761940002,-0.0235300138593,1.83084237576,0.530055522919,0.0390447415411,-0.19664786756,-0.0219855681062,-0.139012485743,-0.00014158495469,-0.0239233728498,0.170182824135,0.227846011519,0.479480587823,0.158373373939,0.456423190214,0.00206735207873,0.994204365579,-0.0997174202995,0.040122827746
0.260111123323,-0.228870883584,0.059430796653,-1.98760545254,-0.0240557640791,1.83381259441,0.533651292324,0.0390447415411,-0.256325900555,-0.0192277785391,-0.204467833042,0.00214600469917,-0.0479027740657,0.195875257254,0.215145558119,0.481095014874,0.155342214194,0.45690412016,0.00139390715224,0.993642814874,-0.104599527994,0.0416047102369
0.255641013384,-0.229273200035,0.0558725446463,-1.98755228519,-0.0250035803765,1.83693766594,0.537086963654,0.0390447415411,-0.313678383827,-0.0339530035853,-0.26171875,0.00569553533569,-0.0701221674681,0.20356374979,0.218284040689,0.48297993815,0.151460182504,0.457487172028,0.000803283134328,0.992974785682,-0.11012396319,0.0432798124597
0.227185413241,-0.230200275779,0.0287603884935,-1.98633635044,-0.0309210214764,1.85347354412,0.550598680973,0.0390493385494,-0.504068791866,0.00121067021973,-0.518847167492,0.0347519516945,-0.109669186175,0.255558997393,0.179972425103,0.494720192019,0.123258750293,0.460535666762,-0.00225285843033,0.988204603077,-0.144005563765,0.052047904738
0.217792078853,-0.230156749487,0.0188493710011,-1.9857198,-0.0329402312636,1.85823869705,0.553694784641,0.0390493385494,-0.550063490868,0.00571865681559,-0.589033782482,0.0307583957911,-0.103359013796,0.288762390614,0.169252872467,0.49798163617,0.114129791084,0.461312889535,-0.00296784676285,0.986578334415,-0.153960302175,0.0543194900511
0.208268329501,-0.230102434754,0.00862316321582,-1.98522889614,-0.0343220606446,1.86313545704,0.556401908398,0.0390493385494,-0.578436076641,0.00280514080077,-0.626167833805,0.0304318629205,-0.0740427523851,0.281075626612,0.149160161614,0.501320429238,0.104132927842,0.462084544629,-0.00398845896256,0.984702569131,-0.164733630414,0.0566372072974
0.196430176497,-0.229926347733,-0.0045731686987,-1.98466980457,-0.0359146557748,1.86870622635,0.559028565884,0.0390493385494,-0.622805595398,0.01217188593,-0.713881909847,0.0245611760765,-0.0818055197597,0.274742364883,0.122255139053,0.505131158078,0.0913318954224,0.46289210701,-0.0051443312063,0.98223774211,-0.177989813311,0.0591792183538
0.177811846137,-0.229439899325,-0.0261512566358,-1.98375415802,-0.0382088348269,1.8763166666,0.562358677387,0.0390493385494,-0.649915635586,0.0225809048861,-0.768129885197,0.0331711582839,-0.0728903561831,0.24145437777,0.107463099062,0.510318420917,0.0705153106607,0.463906255026,-0.00672840759768,0.978016908041,-0.198817430031,0.0625242779083
0.165810644627,-0.228973969817,-0.040476385504,-1.98315942287,-0.0395223461092,1.88052368164,0.564106106758,0.0390493385494,-0.682673633099,0.0289365481585,-0.814288914204,0.0302593261003,-0.0564277470112,0.224488779902,0.0905452296138,0.51311033038,0.0567433006138,0.464375524357,-0.00761765797915,0.975074659242,-0.21223115297,0.0642597665395
0.155517265201,-0.228404924273,-0.0529292374849,-1.98264825344,-0.0403647534549,1.88384819031,0.565470159054,0.0390493385494,-0.68453514576,0.0397533327341,-0.822254002094,0.0341454744339,-0.0441201403737,0.210060745478,0.0842798873782,0.515178599158,0.0448117304185,0.464638060501,-0.00839567197466,0.972405496575,-0.223757575124,0.0654951157858
0.141701504588,-0.227492615581,-0.0699373930693,-1.98184812069,-0.0414039567113,1.88755023479,0.567011058331,0.0390513092279,-0.707621753216,0.0470981448889,-0.892242729664,0.041517149657,-0.0660057663918,0.161334961653,0.0739730894566,0.51741742674,0.0285457232932,0.464853311852,-0.00930246625642,0.96862622047,-0.239203517561,0.0667711466093
0.127034544945,-0.22636128962,-0.0885348543525,-1.98093938828,-0.0427482426167,1.89087235928,0.56845253706,0.0390513092279,-0.695982158184,0.0589435659349,-0.879610896111,0.0434753522277,-0.0637789741158,0.162718191743,0.0661885738373,0.519015894678,0.0125222186142,0.464918900704,-0.00994190144859,0.964746304888,-0.254122961923,0.0677292087352
0.114291191101,-0.225056782365,-0.104902349412,-1.98013210297,-0.0438341572881,1.89347958565,0.569436311722,0.0390513092279,-0.707088291645,0.0765661150217,-0.926333069801,0.0474496893585,-0.0690087229013,0.131970450282,0.0426312051713,0.52021440627,-0.0055887655033,0.464730851923,-0.0105291007631,0.960161785299,-0.27071825352,0.0684843850211
0.0791948437691,-0.220658734441,-0.151244908571,-1.97833490372,-0.0468782410026,1.90016949177,0.56991314888,0.0390513092279,-0.694536268711,0.111234113574,-0.928579449654,0.0218986961991,-0.0449668467045,0.13177742064,0.000693493813742,0.520422272032,-0.0492544845811,0.463356456235,-0.0113838331363,0.948410079858,-0.309149803131,0.0693911210465
0.0662033334374,-0.21841172874,-0.169083058834,-1.97782325745,-0.0478923730552,1.90246593952,0.569915294647,0.0390513092279,-0.673637032509,0.126148298383,-0.940363585949,0.0256090741605,-0.0630540475249,0.118662588298,0.000187838246347,0.519612988316,-0.0649109079919,0.462412631888,-0.0115377714977,0.943870051756,-0.322767773307,0.0692616014111
0.042433232069,-0.214041724801,-0.202856346965,-1.9771989584,-0.0501063279808,1.90574753284,0.56990814209,0.0390539355576,-0.649170637131,0.133212476969,-0.937906146049,0.0110285980627,-0.0585682429373,0.0801949128509,-7.69872713136e-05,0.516405683809,-0.0957132738916,0.460093044175,-0.0114636838859,0.934419636665,-0.349373005268,0.0683156602939
0.0245270580053,-0.209964364767,-0.229958117008,-1.9771270752,-0.0516680069268,1.90814447403,0.569884121418,0.0390539355576,-0.604560732841,0.141172006726,-0.922915279865,-0.00190726376604,-0.0471794046462,0.0785541161895,0.00063708453672,0.512758919157,-0.118821143409,0.457706360076,-0.0112929448136,0.926817727526,-0.369314923941,0.0669914619859
0.0157305598259,-0.20777361095,-0.24372728169,-1.9771515131,-0.0520708300173,1.90935611725,0.569847345352,0.0390539355576,-0.568589806557,0.151315778494,-0.910022854805,-0.000623211613856,-0.0102058909833,0.089559353888,0.000523062539287,0.510164074053,-0.132250571554,0.45614929359,-0.0113535597879,0.922142470329,-0.380999033222,0.0660613159299
0.00572404079139,-0.204867854714,-0.260150074959,-1.97714340687,-0.0521390996873,1.91101694107,0.569669604301,0.0390539355576,-0.526316225529,0.165606513619,-0.897426247597,0.00143054011278,-0.00678378483281,0.0906851887703,-0.016279835254,0.507403368106,-0.145245049165,0.454483044118,-0.0115571575817,0.917443519418,-0.392334345518,0.0650967110865
-0.00443009100854,-0.201726302505,-0.277754455805,-1.97717881203,-0.0521532148123,1.91286802292,0.569225013256,0.0390539355576,-0.494330465794,0.152378097177,-0.860682308674,-0.00148451607674,0.000585005094763,0.0884630084038,-0.0262164343148,0.503966990553,-0.159622925256,0.452548189352,-0.0117934580877,0.912099464736,-0.404769481401,0.0640089632874
-0.0178369935602,-0.197159320116,-0.302334755659,-1.97728121281,-0.0521297939122,1.91578388214,0.56832754612,0.0390539355576,-0.428121626377,0.156439557672,-0.811454892159,-0.00807757861912,0.000572073506191,0.112774677575,-0.0367224402726,0.49870463428,-0.179164136208,0.449736612466,-0.0120915208467,0.904567007183,-0.421543021893,0.0625604108939
-0.0303943846375,-0.192507088184,-0.326823771,-1.97768235207,-0.0518477745354,1.91955959797,0.566565990448,0.0390539355576,-0.356435894966,0.137521371245,-0.71179240942,-0.0154831362888,0.0178545955569,0.12937232852,-0.0766756683588,0.493004987738,-0.198029318851,0.446802555271,-0.0124580303413,0.89708764071,-0.43739329763,0.0613650163325
-0.0376116782427,-0.189686447382,-0.341007471085,-1.97810709476,-0.0512580238283,1.92245721817,0.564608156681,0.0390539355576,-0.320543915033,0.121499225497,-0.630994737148,-0.0268431026489,0.0330714546144,0.149006098509,-0.103311233222,0.489528465925,-0.208798887897,0.445013350903,-0.0128134319528,0.892809657669,-0.446118232906,0.0608707900304
-0.0508903749287,-0.185430005193,-0.366142004728,-1.97979819775,-0.0484400689602,1.9295873642,0.558109223843,0.0390565618873,-0.216209352016,0.0584639385343,-0.400744438171,-0.0447797589004,0.0901367366314,0.16325764358,-0.137335002422,0.482917916406,-0.22771482623,0.441950895117,-0.0143073718755,0.885429404127,-0.460551288647,0.0608488259137
-0.0539581663907,-0.184648528695,-0.372008562088,-1.98050618172,-0.046800494194,1.93216133118,0.556009471416,0.0390565618873,-0.172279849648,0.0348809622228,-0.335286527872,-0.0409356355667,0.107297226787,0.156383186579,-0.123347111046,0.481434114935,-0.231964924995,0.441286749847,-0.015157747064,0.883720540753,-0.463746368358,0.0612172693165
-0.0565529540181,-0.184329867363,-0.377198278904,-1.9811578989,-0.0448132865131,1.93504750729,0.554116308689,0.0390565618873,-0.112657681108,0.00504433875903,-0.241963848472,-0.0331275984645,0.106698870659,0.164167448878,-0.0953374952078,0.480224650162,-0.23562227541,0.440941523341,-0.0162571321715,0.882163965788,-0.466561284976,0.0619920168413
-0.0585696659982,-0.184422075748,-0.382594287395,-1.98159563541,-0.041821308434,1.9406119585,0.551014304161,0.0390565618873,-0.0165576357394,-0.0100164934993,-0.0957563817501,0.00963162165135,0.0897831693292,0.176138564944,-0.0993811115623,0.479640856166,-0.23920089049,0.441212917329,-0.0179883970359,0.88078242057,-0.468780533365,0.0643704621336
-0.0584402233362,-0.184835970402,-0.383341133595,-1.98140013218,-0.0400242246687,1.94399237633,0.549260795116,0.0390565618873,0.0179797746241,-0.031949300319,0.00415594922379,0.0159755013883,0.109304517508,0.199824020267,-0.0903711020947,0.480241231294,-0.239543008478,0.441888987115,-0.0190225917683,0.880780697359,-0.468477498613,0.0662747095499
-0.057573504746,-0.185503169894,-0.382777273655,-1.98100972176,-0.0383486039937,1.94723391533,0.548134982586,0.0390565618873,0.093541353941,-0.0382152944803,0.0591445602477,0.037170086056,0.0925677791238,0.198204174638,-0.0582842864096,0.481380626374,-0.238847823405,0.442892456021,-0.0200849758949,0.881133437425,-0.467450595767,0.0684864905207
-0.051707662642,-0.187078952789,-0.378037184477,-1.97838306427,-0.0354332253337,1.95447146893,0.545824825764,0.0390591882169,0.222332403064,-0.0446764864028,0.183981880546,0.105127684772,0.0906506106257,0.183787792921,-0.0657156333327,0.485628639578,-0.234211825822,0.446006964217,-0.0219265208767,0.883438944067,-0.46214995523,0.0739748493885
-0.0439527630806,-0.188278675079,-0.370689749718,-1.97447156906,-0.0328044518828,1.95966470242,0.543759584427,0.0390591882169,0.320217162371,-0.0365335568786,0.322218567133,0.1741348207,0.100424699485,0.162893652916,-0.0713942423463,0.490783864335,-0.227224512769,0.449536814504,-0.0235803249585,0.886735102748,-0.454851019279,0.0790909335065
-0.0373101346195,-0.188817098737,-0.363962471485,-1.97058939934,-0.0312263388187,1.96264398098,0.542448401451,0.0390591882169,0.382857978344,-0.0257398728281,0.376903414726,0.234744295478,0.0628428980708,0.142197281122,-0.0581950098276,0.495034370452,-0.220977229,0.452436010784,-0.0245829265544,0.8895925695,-0.448513803187,0.0828016185682
-0.0232419259846,-0.189368858933,-0.349487185478,-1.9613506794,-0.0288623776287,1.96638894081,0.541221916676,0.0390591882169,0.46253952384,-0.00864556245506,0.497042685747,0.325745493174,0.0830165818334,0.101419061422,-0.0340752564371,0.503768238161,-0.206964903917,0.458714054797,-0.026298329717,0.895518722023,-0.435069217808,0.0898297932291
-0.0138813359663,-0.189492568374,-0.339203625917,-1.95489895344,-0.0271137058735,1.96824407578,0.540519535542,0.0390591882169,0.512054264545,-0.00170186255127,0.574731051922,0.349936574697,0.104025043547,0.0971052795649,-0.040043823421,0.508989355625,-0.197832192119,0.462544803897,-0.0274389862204,0.899152399391,-0.426572128033,0.0938524584996
0.00260008126497,-0.189517229795,-0.320451468229,-1.94359099865,-0.0245918929577,1.97116887569,0.539615690708,0.0390591882169,0.587126076221,0.00100238469895,0.675934374332,0.423594504595,0.0622620135546,0.092486448586,-0.0213825069368,0.518202783157,-0.180278531187,0.469506978412,-0.0294037429744,0.905763459654,-0.410516592151,0.101015356758
0.0129573140293,-0.189443275332,-0.308543086052,-1.93620407581,-0.0235593933612,1.97264230251,0.539396107197,0.0390591882169,0.63584959507,-0.00112003437243,0.733333826065,0.434485554695,0.0747807100415,0.0790107101202,-0.0138430902734,0.52363474086,-0.169029693125,0.473940587033,-0.0304897068219,0.909751868199,-0.400383101269,0.105429066124
0.0231757499278,-0.18941321969,-0.296612203121,-1.92902231216,-0.0223754160106,1.97404301167,0.539290785789,0.0390598475933,0.64656239748,0.00440045027062,0.758187711239,0.458166003227,0.0632267296314,0.0908161178231,-0.00720013771206,0.528728824899,-0.157619980713,0.478283305222,-0.0317329984237,0.913571733728,-0.39031755622,0.109690059395
0.0582935549319,-0.189192965627,-0.254465430975,-1.90461456776,-0.0189395397902,1.97963011265,0.539210855961,0.0390598475933,0.722672402859,0.00178011716343,0.88403326273,0.497055530548,0.0437632091343,0.110608078539,-3.32758972945e-05,0.544331611641,-0.116650573194,0.49314231354,-0.0364214610547,0.925908906207,-0.354823145069,0.124365228209
0.0692230984569,-0.189109072089,-0.240933597088,-1.89713096619,-0.0183669924736,1.98123264313,0.539212048054,0.0390598475933,0.726780891418,0.00445646932349,0.912571668625,0.490225404501,0.0387378707528,0.101301938295,0.000268249510555,0.548464032456,-0.103368106515,0.49768602917,-0.0378422260935,0.92954449314,-0.343410944188,0.128778586315
0.0838069990277,-0.189105391502,-0.222565218806,-1.88697075844,-0.0175960417837,1.98334050179,0.539213359356,0.0390598475933,0.724671661854,0.00920023489743,0.928060889244,0.516654789448,0.0457755215466,0.102007932961,0.00078197097173,0.553453265793,-0.0852274248074,0.503899004067,-0.0399382488992,0.934185020425,-0.327947519124,0.13473569785
0.10594727844,-0.189093217254,-0.193861410022,-1.87177884579,-0.0160781200975,1.98589086533,0.53921854496,0.0390598475933,0.725055515766,0.00134722457733,0.953606784344,0.488666534424,0.0520772635937,0.0682822242379,0.000111001187179,0.559485541675,-0.0575962353713,0.512813705651,-0.0434175938366,0.940643714811,-0.304756738668,0.14292531006
0.119226917624,-0.189212009311,-0.176322922111,-1.86290740967,-0.0150696802884,1.98722648621,0.53922355175,0.0390611588955,0.746102154255,-0.0121853137389,0.990338981152,0.498295366764,0.0588410533965,0.0803910493851,0.000218603236135,0.56253922696,-0.0390337527011,0.518535043639,-0.0459243507666,0.944598240896,-0.289337041114,0.148017545008
0.133650824428,-0.189276471734,-0.15672186017,-1.85320103168,-0.0138737373054,1.98877716064,0.539249479771,0.0390611588955,0.718065798283,-0.0134727722034,0.980528533459,0.466579556465,0.0572163499892,0.0669361948967,0.001990001183,0.565135107836,-0.0184107528279,0.524727343756,-0.0488723533869,0.94862880707,-0.272322863488,0.153476829461
0.150883331895,-0.189469188452,-0.133101850748,-1.842415452,-0.0124458726496,1.99005615711,0.539337277412,0.0390611588955,0.7012155056,-0.00847408734262,0.974846303463,0.420535087585,0.0471383631229,0.0413702689111,0.00038158337702,0.566864601101,0.00539667025113,0.531259170289,-0.0522814681684,0.952940397044,-0.252804364934,0.158937725316
0.166203603148,-0.189886659384,-0.111775167286,-1.83316516876,-0.0117919547483,1.99092531204,0.539576947689,0.0390611588955,0.687604427338,-0.0254930574447,0.977132260799,0.394988924265,0.0174767691642,0.0399981513619,0.00934312213212,0.567369352722,0.0258109253843,0.536716556975,-0.0550604143804,0.956326364693,-0.236013989736,0.163418576976
0.177737265825,-0.190475016832,-0.0953026041389,-1.82699084282,-0.0114617906511,1.99148237705,0.539868354797,0.0390611588955,0.663935244083,-0.0405218526721,0.962894797325,0.343854248524,0.0233979318291,0.0291194692254,0.0179002583027,0.567036400793,0.0421857241759,0.540709654538,-0.0572161317782,0.958869664245,-0.222559432008,0.166621067605
