imanlab/tactile_prediction_flat_dataset/train/data_sample_2021-11-24-15-39-52/robot_state.csv
position_panda_joint1,position_panda_joint2,position_panda_joint3,position_panda_joint4,position_panda_joint5,position_panda_joint6,position_panda_joint7,position_panda_finger,velocity_panda_joint1,velocity_panda_joint2,velocity_panda_joint3,velocity_panda_joint4,velocity_panda_joint5,velocity_panda_joint6,velocity_panda_joint7,ee_state_position_x,ee_state_position_y,ee_state_position_z,ee_state_orientation_x,ee_state_orientation_y,ee_state_orientation_z,ee_state_orientation_w
0.400367587805,-0.08222348243,-0.385446310043,-2.43758130074,-0.0732646882534,2.35810947418,-0.686353325844,0.0743839144707,0.000233365033637,0.000186937162653,0.000124247089843,0.00028628288419,0.000101178615296,-0.00134853436612,0.000103534846858,0.474411453775,0.00436916165982,0.22020236788,0.0093911201402,0.929633675366,0.368337025191,-0.00456859332979
0.400365591049,-0.0822346806526,-0.38544601202,-2.43757820129,-0.0732645317912,2.35811281204,-0.686352729797,0.0743839144707,-0.000349403475411,0.000341479608323,-0.000455942819826,-0.000371630885638,0.000144279649248,3.31291880684e-06,0.000236776075326,0.474414699896,0.0043688971066,0.220208864467,0.00939200280828,0.929634183989,0.36833582615,-0.0045599453279
0.400362968445,-0.0822254493833,-0.385447174311,-2.43758201599,-0.0732649415731,2.35811376572,-0.686350643635,0.0743845701218,8.37778570713e-05,-0.000139607669553,-0.000103001832031,0.00035598850809,-3.52660867975e-06,3.13830314553e-05,0.000190383245354,0.47441230823,0.00436670810373,0.220203295426,0.00939166675506,0.929635141788,0.36833334305,-0.00456594248863
0.400365173817,-0.0822287499905,-0.385445356369,-2.43758010864,-0.073264464736,2.35811376572,-0.686349093914,0.0743845701218,-5.01911054016e-05,0.000537648564205,0.000305736350128,0.000347911467543,-6.76946146996e-05,-4.66730161861e-05,0.000116843744763,0.474413465194,0.00436877616491,0.22020556267,0.00939189308636,0.929634779097,0.368334285163,-0.00456332067121
0.400365382433,-0.0822342708707,-0.385443508625,-2.4375770092,-0.0732641667128,2.35811567307,-0.686349153519,0.0743845701218,-0.000171743216924,0.000796606182121,0.00014132205979,0.000182705261977,-3.4893204429e-05,3.84378945455e-05,3.91742651118e-05,0.474415797139,0.00437001686095,0.220209467035,0.00939264713655,0.9296344743,0.368335099108,-0.00455816007477
0.400363445282,-0.0822253748775,-0.385446608067,-2.43757915497,-0.073264375329,2.35811591148,-0.686348199844,0.0743845701218,-0.000118006282719,-0.00310230045579,0.000183471434866,-0.000303504086332,1.63317745319e-05,0.00015373720089,-2.31703124882e-05,0.474414005692,0.00436726514598,0.220204647721,0.00939234075981,0.929635495977,0.368332461686,-0.0045635410745
0.400362342596,-0.0822214484215,-0.385448634624,-2.43757963181,-0.0732642486691,2.35811710358,-0.686348319054,0.0743858888745,0.000200426060474,0.0003347703896,-2.83610697807e-05,0.000164658282301,-0.000130783140776,-0.000116400391562,3.02163552988e-05,0.474413656953,0.00436566290485,0.220202800961,0.00939235034573,0.929636045896,0.368331053411,-0.00456516188677
0.400364428759,-0.0822276547551,-0.385447531939,-2.43757820129,-0.0732645615935,2.35811972618,-0.686346054077,0.0743858888745,-0.000459549541119,0.0016326890327,-1.86994475371e-05,0.000320165854646,7.76269152993e-05,0.00023647287162,-6.65580810164e-05,0.474415488119,0.0043674441202,0.220206364191,0.00939309235303,0.929635866902,0.368331548338,-0.00456015006948
0.400365561247,-0.0822327360511,-0.385445564985,-2.43757820129,-0.0732642784715,2.3581199646,-0.686344981194,0.0743858888745,7.45626760335e-09,-0.00209194235504,0.000155599118443,-7.56612207624e-05,5.10488680447e-05,-6.98088115314e-05,0.000391156878322,0.474416059867,0.00436914802101,0.220208642358,0.0093930654023,0.929635551981,0.36833237735,-0.00455744392113
0.400364816189,-0.0822305455804,-0.385443240404,-2.43757915497,-0.0732645317912,2.35811901093,-0.686344444752,0.0743858888745,-7.72196508478e-05,0.0035038490314,-6.57212076476e-05,0.0034943849314,0.000106179977593,0.000157381073222,-0.000486492703203,0.474415192397,0.00436972218702,0.220206958061,0.0093928868956,0.929635277714,0.368333046889,-0.00455964465919
0.400363445282,-0.0822280719876,-0.385446041822,-2.43758249283,-0.0732649564743,2.35811948776,-0.686343371868,0.0743858888745,-0.000106666586362,0.00224699219689,0.000260049011558,-0.0033919820562,-7.29069070076e-05,-3.74899500457e-05,5.09548299306e-05,0.474413606074,0.00436759648587,0.220204832278,0.00939247399656,0.929636198079,0.368330706373,-0.00456191639809
0.400365591049,-0.0822286754847,-0.385446369648,-2.4375808239,-0.073264978826,2.35811948776,-0.68634390831,0.0743858888745,-2.53547386819e-05,0.000807892298326,-3.81278405257e-05,0.000334930460667,0.00015195402375,-0.000291141419439,0.000846329436172,0.474414400086,0.00436855304885,0.220205718052,0.0093927788541,0.929635761643,0.368331811434,-0.00456100320056
0.40036842227,-0.0822294205427,-0.38544395566,-2.4375770092,-0.0732645764947,2.35812234879,-0.686343431473,0.0743858888745,1.54759218276e-05,-0.000515640247613,0.000229759098147,-0.000227764496231,2.33279752138e-05,2.45216488111e-05,0.000176866000402,0.474416581584,0.0043710343773,0.220207771567,0.0093937859551,0.929635013916,0.36833371422,-0.00455766818892
0.40036457777,-0.0822269394994,-0.385445207357,-2.43757915497,-0.0732646808028,2.35812211037,-0.686343789101,0.0743858888745,-0.000405377562856,0.0002819004294,0.000169245613506,-3.24029570038e-05,3.3597843867e-05,-4.59572438558e-05,-0.000118724892673,0.474415519404,0.00436859715441,0.220205896699,0.00939344101826,0.92963579992,0.368331712755,-0.00455980652056
0.400363773108,-0.0822295770049,-0.385448098183,-2.43757939339,-0.073264554143,2.35812306404,-0.686342716217,0.0743845701218,-0.000486035627546,0.000219063018449,-0.000341565901181,-1.57878112077e-05,1.33875619213e-05,-1.87823872011e-07,-0.000232051825151,0.474415903226,0.00436701821089,0.220206994417,0.00939334648151,0.929636701377,0.368329460512,-0.00455814640557
0.400368154049,-0.0822328478098,-0.385443240404,-2.4375770092,-0.0732643008232,2.35812401772,-0.686341524124,0.0743845701218,-0.000111655870569,-0.000245137431193,0.000332307739882,-7.94672087068e-05,7.60837720009e-05,-0.000100278353784,-7.51212355681e-05,0.474417462227,0.004371521042,0.220209575867,0.00939401295746,0.929635285936,0.368333056599,-0.00455486149424
0.40036663413,-0.0822331309319,-0.385444074869,-2.43757891655,-0.0732646659017,2.35812449455,-0.686340093613,0.0743845701218,0.000533927930519,-0.00132360158022,-1.27984249048e-05,-0.000443893368356,3.16644727718e-05,0.00290878117085,-0.000170913830516,0.474416777364,0.00437041057241,0.22020893647,0.00939383131953,0.929635918959,0.368331456513,-0.0045554298013
0.400366157293,-0.0822297111154,-0.385443836451,-2.43758177757,-0.0732647776604,2.35812401772,-0.686339735985,0.0743845701218,-0.00344209745526,0.00353644881397,0.000137115857797,-0.000322264560964,-7.31026229914e-05,-0.00138138514012,5.74142632104e-06,0.474415078375,0.00437014322684,0.220206208378,0.00939334080341,0.929635977969,0.368331279443,-0.00455871496322
0.400366067886,-0.0822299569845,-0.385444968939,-2.43757820129,-0.0732648223639,2.35812544823,-0.686339378357,0.0743839144707,-0.000881039362866,0.00036391444155,0.000216464410187,0.000305878464133,-7.20309544704e-05,-5.14340399604e-06,-0.000218412955292,0.474416970833,0.00436958467888,0.220207912238,0.00939415325927,0.929636290469,0.368330500507,-0.00455624942245
0.400364220142,-0.0822278857231,-0.385445505381,-2.43757843971,-0.07326515764,2.35812568665,-0.686339020729,0.0743839144707,-0.000381442456273,0.000217944354517,0.00014111874043,-0.000500954629388,-0.00029943001573,0.000113013651571,-5.38572603546e-05,0.474416714877,0.00436834251231,0.220206918079,0.00939425690962,0.929636739941,0.368329350064,-0.00455732971642
0.400364786386,-0.0822288021445,-0.385443985462,-2.43758153915,-0.0732647180557,2.35812711716,-0.68633967638,0.0743839144707,-0.000431309075793,0.000586077163462,0.000463629286969,0.000207986609894,-9.17151101021e-06,8.90834708116e-05,-4.97810178786e-05,0.47441577082,0.00436943965579,0.22020617724,0.00939383542211,0.929636271387,0.368330540286,-0.00455758208485
0.40036663413,-0.0822288170457,-0.38544473052,-2.43758153915,-0.07326451689,2.35812687874,-0.686337172985,0.0743839144707,0.0001454915473,-0.000988860847428,-0.000489105586894,-0.000120863347547,7.65843578847e-05,0.000155745045049,0.000355473486707,0.47441571146,0.00436998550638,0.220206151501,0.00939370933014,0.929636556412,0.368329823286,-0.00455764968618
0.400365769863,-0.0822302997112,-0.385444521904,-2.43757796288,-0.0732646584511,2.35812759399,-0.686337769032,0.0743839144707,-0.000502792478073,-4.63199066871e-05,0.000108681080746,0.000157780144946,-0.00395455071703,0.000114850496175,-0.000278353138128,0.474417579007,0.00436971549455,0.220208355471,0.00939448526126,0.92963658219,0.368329772226,-0.00455491789184
0.400366812944,-0.0822313353419,-0.385443687439,-2.43757867813,-0.0732645913959,2.35812878609,-0.686336517334,0.0743839144707,-0.000134335205075,-0.0010384095367,0.000225405412493,-0.000448889069958,-6.66812911732e-06,-1.83402371476e-05,-1.17527879411e-05,0.474417631074,0.0043706736175,0.220208628512,0.00939454729833,0.929636473073,0.368330055617,-0.00455414385554
0.400366723537,-0.0822289139032,-0.385441660881,-2.4375770092,-0.0732645243406,2.35812878609,-0.68633633852,0.0743839144707,0.000798708002549,-0.000447078986326,0.000162505093613,-0.000100214092527,-1.17562140076e-05,0.0013006136287,0.000177218069439,0.474418102584,0.00437146202925,0.220208290767,0.00939493544532,0.929636162832,0.368330823659,-0.00455455494906
0.400366395712,-0.0822262242436,-0.38544395566,-2.43757963181,-0.0732648074627,2.35812854767,-0.686334133148,0.0743839144707,-0.000377923483029,-0.000196862485609,-9.37127624638e-05,2.64312293439e-05,4.81018287246e-05,-0.000560264801607,2.18607019633e-05,0.474416637384,0.00437010818243,0.220205965619,0.00939446695773,0.92963698188,0.36832873476,-0.00455727402194
0.400365412235,-0.082226023078,-0.385443300009,-2.43758106232,-0.0732645988464,2.35812878609,-0.68633544445,0.0743839144707,-0.0024919770658,-0.000136518850923,-0.000104346654553,0.000150367952301,6.05610002822e-05,0.00228924769908,0.00023960263934,0.474416050049,0.00436996873484,0.220205312419,0.00939420644862,0.929636816367,0.368329151234,-0.00455791357583
0.40036842227,-0.0822327360511,-0.385438680649,-2.43757534027,-0.0732638463378,2.35813093185,-0.686333835125,0.0743852332234,-0.000106871229946,-0.00215597893111,-8.60820273374e-06,-0.000223363706027,0.00495550874621,-8.8677261374e-05,-0.000351186288754,0.474419679372,0.00437390812593,0.22021089189,0.00939542404817,0.929635879888,0.368331572587,-0.00455073097064
0.400367677212,-0.0822317227721,-0.385437786579,-2.4375770092,-0.0732642486691,2.35812997818,-0.686333358288,0.0743852332234,0.000259290507529,-0.000542449415661,3.52569913957e-05,-0.000314652686939,-9.17389261303e-05,-7.69246798882e-06,-0.00126539857592,0.474418646173,0.00437388203126,0.220209683894,0.00939516886404,0.929635870397,0.368331581036,-0.0045525123942
0.400365144014,-0.0822294875979,-0.385440587997,-2.43758130074,-0.0732650607824,2.35813164711,-0.68633300066,0.0743852332234,0.000198596026166,-8.00279212854e-06,5.34738028364e-05,-0.000204354553716,0.000145435886225,-0.000210101774428,-3.41581835528e-05,0.474417094586,0.0043712584193,0.220207360876,0.00939490721811,0.929636769099,0.368329293833,-0.00455458528625
0.400365233421,-0.0822285935283,-0.385438323021,-2.43758153915,-0.073264747858,2.35813140869,-0.686334490776,0.0743852332234,0.000337020406732,-0.000786759948824,-8.11356658232e-05,7.66983430367e-05,0.000111800662125,4.66725759907e-05,-8.99355727597e-05,0.474416681413,0.0043723406095,0.220206544708,0.00939475867915,0.929636093141,0.368330991293,-0.00455558735323
0.400365263224,-0.082229219377,-0.385438114405,-2.43757677078,-0.0732649192214,2.35813164711,-0.686334192753,0.0743852332234,-0.000472643238027,0.000356521137292,-0.00196035346016,-0.000175337641849,-5.96044037593e-06,-0.000111435823783,0.000274010963039,0.474418869539,0.00437243939282,0.220208827242,0.00939569643677,0.929636121715,0.368330927881,-0.00455294870072
0.400366514921,-0.0822304338217,-0.385434269905,-2.43757796288,-0.0732646137476,2.35813212395,-0.686334550381,0.0743852332234,0.00013450163533,-0.000970412453171,0.00167775829323,0.000185152530321,7.26940925233e-06,7.55727814976e-05,0.000252108642599,0.474418572116,0.00437491461342,0.220208962135,0.00939561092069,0.929635154172,0.368333376212,-0.00455261204164
0.400368511677,-0.0822300091386,-0.385423839092,-2.43757867813,-0.0732653811574,2.35813379288,-0.686332345009,0.0743852332234,-0.00012568134116,0.00160283106379,3.15778997901e-05,-0.000559919339139,-0.000122712226585,-8.16871179268e-05,-5.84679437452e-05,0.474418335275,0.00438105988136,0.22020847638,0.00939644748732,0.929632916108,0.368339001956,-0.00455273389966
0.400366693735,-0.0822292715311,-0.385418832302,-2.43757939339,-0.0732651874423,2.35813355446,-0.686332643032,0.0743852332234,-8.06641310191e-06,-0.00049055647105,-0.000110077759018,0.000247010873863,-6.67305794195e-05,2.14564329326e-06,0.000156352747581,0.474418134274,0.00438209533252,0.220208212583,0.00939645491889,0.929632539928,0.368339946081,-0.00455314698157
0.400366306305,-0.0822306871414,-0.385414242744,-2.4375770092,-0.0732655450702,2.35813450813,-0.686332881451,0.0743852332234,4.82404902868e-06,-8.78347127582e-05,0.000569141819142,-0.000282037770376,-3.77730393666e-05,-0.000382370810257,3.82179387088e-05,0.47441952538,0.00438407373832,0.220209977533,0.00939732144029,0.929631699286,0.368342073538,-0.00455088758875
0.400365710258,-0.0822289288044,-0.385410785675,-2.43758058548,-0.0732654109597,2.35813379288,-0.686333537102,0.0742663741112,0.000412912544562,-1.82050953299e-05,1.1933650967e-05,0.00319527951069,-7.2057620855e-05,-5.61839442526e-05,0.000132953413413,0.474417632863,0.00438534000879,0.220207707102,0.0093967038486,0.92963103599,0.368343727958,-0.00455375010877
0.400367647409,-0.0822289064527,-0.385403752327,-2.43758058548,-0.0732652470469,2.35813379288,-0.68633210659,0.0742663741112,-0.0005243649357,-0.000324900349369,-0.000151661297423,-0.000334598269546,7.0066722401e-05,-0.000108137923235,1.28820856844e-05,0.474417615655,0.00438953858414,0.220207801471,0.00939696165688,0.929629671607,0.368347165582,-0.00455368770977
0.400367856026,-0.0822305679321,-0.385379225016,-2.43757891655,-0.0732660144567,2.35813498497,-0.68633377552,0.0742663741112,-0.00017579451378,0.000273522018688,0.00261630862951,-0.00066994165536,-2.33350947383e-05,-7.47273734305e-05,-0.000126201455714,0.474418758457,0.00440103785542,0.220209694479,0.00939873431125,0.929624732385,0.368359613149,-0.00455146311841
0.40036675334,-0.0822299569845,-0.385363399982,-2.43757820129,-0.0732657313347,2.35813617706,-0.68633043766,0.0742663741112,0.000533553014975,0.00063857017085,0.000101142373751,4.45649930043e-05,7.99694025773e-05,-1.3879161088e-05,-0.000212855564314,0.474419256902,0.00440787701552,0.220210062724,0.00939964485879,0.929622680809,0.3683647764,-0.00455073547371
0.400366574526,-0.0822276473045,-0.385345935822,-2.43757867813,-0.0732653290033,2.35813641548,-0.68633133173,0.0742663741112,0.000251189892879,-0.00140790629666,0.000710877764504,-0.000408200896345,-0.000230034595006,-9.12220930331e-05,-0.000448792736279,0.474418813872,0.00441656998457,0.220209156339,0.00940032362911,0.929619064663,0.368373872108,-0.00455176476655
0.400367796421,-0.0822283551097,-0.385321885347,-2.43758106232,-0.0732674300671,2.35813641548,-0.686328232288,0.0742663741112,3.48755820596e-05,0.000598815793637,0.00299234688282,0.000299049861496,4.86427816213e-05,-8.24389062473e-05,9.52663140197e-06,0.474417873717,0.00442744042997,0.220208810527,0.00940156889271,0.929615005188,0.368384073014,-0.0045526986073
0.400367259979,-0.0822264626622,-0.385288625956,-2.43757891655,-0.0732662379742,2.35813784599,-0.68633055687,0.0742663741112,-0.000274673802778,0.000154207853484,0.00147633580491,0.000104301681858,0.000143413737533,5.36967891094e-05,-0.000333463220159,0.474418716803,0.00444363016822,0.220209403909,0.00940310544663,0.92960837112,0.368400782866,-0.00455201274483
0.400368213654,-0.0822325944901,-0.385266542435,-2.43757843971,-0.0732660517097,2.35813736916,-0.686329424381,0.0742663741112,0.000221607653657,-0.000270923599601,0.00152702326886,-9.47977241594e-05,4.15714021074e-05,-0.000322686712025,-0.000439283438027,0.474419605547,0.00445364713778,0.220212663761,0.00940406261658,0.92960475485,0.368409927599,-0.00454843906678
0.4003675282,-0.0822303965688,-0.385236412287,-2.43757605553,-0.0732664465904,2.35813951492,-0.686328589916,0.0742663741112,0.000307687325403,0.00181494525168,0.00448504462838,0.000149533181684,5.188128398e-06,-5.98738151893e-05,0.00396408839151,0.474420861858,0.00446720023263,0.220213327183,0.00940627264399,0.929599449794,0.368423271463,-0.00454727462789
0.400367170572,-0.0822283178568,-0.385219424963,-2.43757843971,-0.0732659325004,2.35813856125,-0.686329483986,0.0742663741112,-6.52966700727e-05,0.00021224966622,0.0029881412629,-0.000816531712189,-3.61194506695e-05,9.50894973357e-05,0.000307647744194,0.474418627997,0.00447551609815,0.220210580337,0.00940614558849,0.929596031787,0.368431855127,-0.00455081562425
0.400367766619,-0.082228012383,-0.38517165184,-2.43758058548,-0.073267288506,2.3581392765,-0.686330080032,0.0722307041287,-0.000238926673774,-0.000642717350274,0.00484421104193,-9.47203225223e-05,-5.07260265294e-05,-3.41243378443e-07,0.000249901902862,0.47441845687,0.00449725118351,0.22021097462,0.00940852005988,0.92958703856,0.368454484431,-0.00455083276095
0.400369912386,-0.0822315067053,-0.385165631771,-2.43757748604,-0.0732670724392,2.3581392765,-0.686328589916,0.0722307041287,0.000135746944579,-0.00239308550954,6.65589541313e-05,2.23143488256e-05,2.09991649172e-05,8.21655521577e-06,-5.6592762121e-05,0.474420236488,0.00450118920644,0.220214250385,0.00940925235092,0.929585904638,0.368457371859,-0.0045471611897
0.400368452072,-0.0822313353419,-0.385157436132,-2.43757581711,-0.0732666999102,2.35813951492,-0.686329185963,0.0722307041287,-5.90403324168e-05,0.00080287194578,-0.000399856537115,0.000204290117836,-3.06810875372e-06,-9.56845615292e-05,-0.00289543159306,0.474420992416,0.00450432269153,0.220215011351,0.00940981077937,0.929584619169,0.368460611638,-0.00454627555715
0.40036842227,-0.082223534584,-0.385132849216,-2.43758177757,-0.0732683315873,2.35814094543,-0.686328411102,0.0722307041287,-0.000127366452944,0.000228900971706,-2.14290830627e-05,-0.000281727639958,-4.81015158584e-05,2.33975933952e-05,0.00011962212011,0.47441813223,0.00451528363074,0.220209917024,0.00941086290114,0.929579832359,0.368472590467,-0.00455199844335
0.400368332863,-0.0822251588106,-0.385124176741,-2.4375834465,-0.0732669457793,2.35813903809,-0.686327815056,0.0722307041287,0.000145211801282,0.000308889808366,0.000491124461405,0.000113597896416,-4.25462094427e-05,5.86520263823e-06,-0.000266024260782,0.474416906941,0.00451944948022,0.220209580462,0.00940998916512,0.929578659513,0.368475559367,-0.00455298976319
0.400367230177,-0.0822262763977,-0.385113954544,-2.43757796288,-0.0732668191195,2.35813999176,-0.686326444149,0.0722307041287,-0.00024469094933,-0.000639842357486,7.95802479843e-05,-0.00040610859287,-2.0199433493e-05,0.000137222144986,-0.000278506980976,0.474419607274,0.004523717833,0.220212586879,0.00941148982965,0.929577299671,0.368478996655,-0.00454934109469
0.400367736816,-0.0822254121304,-0.385067731142,-2.43758177757,-0.0732658207417,2.35814332962,-0.68632620573,0.0650047436357,0.000147632905282,1.77026959136e-05,6.45190375508e-05,0.00070978543954,7.16776958143e-06,2.78274433185e-06,-5.58744359296e-05,0.474418540468,0.00454555072867,0.220211596457,0.00941300427739,0.929568845291,0.368500282378,-0.00454959187521
0.400368541479,-0.0822243392467,-0.385056138039,-2.43758106232,-0.073268160224,2.35814189911,-0.686324775219,0.0650047436357,-0.000324194988934,-0.000105301733129,-7.01336030033e-05,-0.000570735952351,-2.91282776743e-05,-4.02289470003e-06,-0.000171927807969,0.47441842724,0.00455102451509,0.22021147499,0.00941421526241,0.929566517985,0.368506109022,-0.00455065813896
0.400367736816,-0.0822275206447,-0.385042250156,-2.43758273125,-0.0732681751251,2.35814356804,-0.686325013638,0.0650047436357,-8.96006952189e-07,0.000529375160113,0.00117634504568,0.000218524073716,-6.02388936386e-05,6.9309178798e-05,-0.000362430495443,0.474418388847,0.00455726673855,0.220212528175,0.0094147422783,0.929564063176,0.368512308522,-0.00454898138559
0.400370210409,-0.0822299495339,-0.385027736425,-2.43757724762,-0.0732694640756,2.35814404488,-0.686324298382,0.0650047436357,-0.000246384151978,0.000167318328749,0.00156765978318,-7.10390377208e-05,-0.000144378762343,0.000294909783406,-0.000128180952743,0.474421086211,0.00456537881799,0.220216045912,0.00941686269652,0.929560790544,0.368520556811,-0.00454513712137
0.400370061398,-0.082226857543,-0.385010242462,-2.43758130074,-0.0732683539391,2.35814380646,-0.686324357986,0.0650047436357,2.42840505962e-05,-0.000481818366097,0.00157420849428,-0.000202509516384,7.1555004979e-05,-0.000223758077482,-0.000492381630465,0.474418953608,0.0045731805501,0.220213328655,0.00941649166323,0.92955785339,0.368527935205,-0.00454835609105
0.400369971991,-0.0822275355458,-0.384998381138,-2.43758296967,-0.0732674747705,2.35814332962,-0.686324775219,0.0650047436357,-0.000149923653225,-0.00011424296099,-0.00039766318514,0.000729624705855,-2.52671952694e-06,-4.25371799793e-05,-0.000345304579241,0.474418178804,0.00457875724254,0.220213064461,0.0094163356045,0.929555719144,0.368533316218,-0.00454886270296
0.400367110968,-0.0822280198336,-0.384994894266,-2.43757915497,-0.0732671096921,2.35814404488,-0.68632465601,0.0650047436357,-0.000287895614747,7.64572687331e-05,6.11185314483e-05,-0.000259265711065,-5.13129707542e-05,-8.76397753018e-05,0.000108053201984,0.474420049094,0.00457906415303,0.220214977489,0.0094171343495,0.929555707616,0.36853335466,-0.00454644986858
0.400365054607,-0.0822264254093,-0.384989827871,-2.43758130074,-0.0732683390379,2.35814404488,-0.686324477196,0.0650047436357,0.000359717872925,0.000113153117127,0.00114110799041,0.000476386805531,-6.48138229735e-05,7.44398057577e-05,0.000206384022022,0.474418964259,0.00458026981042,0.220213462853,0.00941740057747,0.929554999228,0.368535110983,-0.00454836600839
0.40037086606,-0.0822290629148,-0.384968280792,-2.43757939339,-0.0732676610351,2.35814595222,-0.686322569847,0.0650047436357,4.26735568908e-05,-9.59881508606e-05,0.000225208495976,-1.68149108504e-05,-0.000142632241477,-0.000153172732098,0.000169446895598,0.474420431618,0.00459323052389,0.220215898488,0.00941872084634,0.929550430932,0.368546640976,-0.00454501496739
0.400369077921,-0.0822294577956,-0.384962320328,-2.43758130074,-0.0732681527734,2.35814452171,-0.686324238777,0.0650047436357,-0.000249629054451,0.000483379611978,-0.000390182161937,-2.76442569884e-05,-0.000114849644888,5.08256198373e-06,-0.000162563359481,0.47441933738,0.00459510835118,0.220215242643,0.00941857734579,0.929549278582,0.368549533672,-0.00454642753729
0.400369316339,-0.0822264626622,-0.384959101677,-2.43758130074,-0.073269084096,2.35814523697,-0.686325192451,0.057370338589,1.43693014252e-05,0.000555807258934,0.00161611218937,0.000354932388291,2.23041752179e-05,2.09407917282e-05,0.000226210628171,0.474419354517,0.00459674737407,0.220214093161,0.00941931237551,0.929548343504,0.36855185849,-0.00454762926386
0.40036791563,-0.0822282657027,-0.384955108166,-2.43757963181,-0.0732685849071,2.35814571381,-0.6863245368,0.057370338589,-0.00028551754076,-3.59553596354e-05,-7.84194053267e-05,0.000181257884833,-2.76655209746e-05,-4.2207633669e-05,6.85756094754e-05,0.474420166812,0.0045980709225,0.220215698165,0.00941947755766,0.929547994461,0.36855275848,-0.00454569427885
0.400368273258,-0.0822287127376,-0.384945839643,-2.43758010864,-0.073269739747,2.35814547539,-0.686324417591,0.057370338589,5.31361401954e-05,-0.000608370639384,0.00181497016456,-0.000471095903777,-0.000147750775795,0.000122738667415,0.000217134453123,0.474419983738,0.00460220898664,0.220215742642,0.00942018369664,0.92954615509,0.368557377343,-0.00454587579727
0.400368601084,-0.0822283774614,-0.384937703609,-2.43758130074,-0.0732677727938,2.35814619064,-0.686324775219,0.057370338589,-5.24558636243e-05,-0.00232724286616,0.00548686878756,-0.000730090483557,-4.9009329814e-05,-5.77679857088e-05,-4.86676835862e-05,0.474419174574,0.00460647161339,0.220214850303,0.00941956875753,0.929544727041,0.368560986405,-0.00454655234091
0.4003675282,-0.0822277590632,-0.384910494089,-2.43758249283,-0.0732691213489,2.35814738274,-0.686322689056,0.057370338589,-0.000125207690871,-0.000255220365943,0.000192470077309,-0.000515374355018,-3.67000320693e-05,-1.35422451422e-05,0.000154244407895,0.474419231308,0.0046183264517,0.220215022242,0.00942139046853,0.929540167069,0.368572443588,-0.00454628619584
0.400368392467,-0.0822302848101,-0.384902060032,-2.43758058548,-0.0732687115669,2.35814833641,-0.686322391033,0.057370338589,0.000166655532666,-0.000369372224668,-0.000193057901924,-0.000381853431463,-0.000111481676868,-1.04318023659e-05,0.000144542253111,0.474420515231,0.00462280637228,0.220217131483,0.00942207383613,0.929538590336,0.368576435992,-0.00454357965882
0.400368928909,-0.0822316333652,-0.384891420603,-2.43758296967,-0.0732689574361,2.35814666748,-0.686323583126,0.057370338589,3.78448639822e-05,-9.66019651969e-05,0.000982621219009,0.000113460046123,-5.71839336772e-05,1.79385060619e-05,0.000191384242498,0.474419243799,0.00462802251105,0.220216743759,0.00942192597452,0.929536269867,0.368582277006,-0.00454478525232
0.400367707014,-0.0822283551097,-0.384872853756,-2.43757915497,-0.0732696652412,2.35814714432,-0.686321914196,0.057370338589,4.65323573735e-05,0.00281391222961,0.00127132586204,0.000290158903226,0.000186729448615,0.00021531067614,-0.000104888626083,0.4744207272,0.00463599712916,0.22021732683,0.00942372685211,0.929533225707,0.368589915902,-0.00454414560203
0.400370329618,-0.0822279602289,-0.384859383106,-2.43757915497,-0.0732686892152,2.35814738274,-0.686322331429,0.057370338589,-7.20973766875e-05,0.000283082015812,-9.96246744762e-05,-0.000234202598222,-3.5322525946e-05,2.78106072074e-05,-2.3619062631e-05,0.47442063427,0.00464341549585,0.2202172567,0.00942405358756,0.92953040024,0.368597031313,-0.00454427487515
0.400369346142,-0.0822262614965,-0.384849399328,-2.43758177757,-0.0732704997063,2.35814857483,-0.686321616173,0.0557056888938,-0.000492633669637,0.0015383673599,-0.00027634575963,-0.000100727906101,0.000154537527123,6.23912055744e-05,-5.14402454428e-05,0.474419585702,0.00464737783128,0.220215676031,0.00942482916381,0.929528604588,0.368601519365,-0.00454592718023
0.400365740061,-0.0822261571884,-0.384839892387,-2.43758130074,-0.0732696205378,2.35814762115,-0.686322927475,0.0557056888938,0.000383131031413,0.00133756664582,0.000116799230454,0.000317232101224,-5.61328597541e-05,-0.000255436229054,-0.000461196992546,0.474419574872,0.00465013849263,0.220215884721,0.00942487607811,0.929527401143,0.36860455104,-0.00454608309465
0.400369793177,-0.0822301805019,-0.384817004204,-2.43758130074,-0.073269315064,2.35814785957,-0.686320066452,0.0557056888938,-0.000188032485312,0.000650518864859,0.000346538989106,0.000596637255512,8.3338112745e-05,-0.000157862188644,0.000384682323784,0.474420000481,0.0046628970056,0.220218009609,0.0094257714036,0.929523027288,0.368615586316,-0.0045437631889
0.400370270014,-0.0822318792343,-0.384808123112,-2.43757963181,-0.0732700303197,2.35814833641,-0.686320900917,0.0557056888938,8.74812249094e-05,-0.000141506490763,0.000353676005034,0.000233465412748,-3.89140332118e-05,-3.28130590788e-05,0.000169626175193,0.474421036661,0.00466759677483,0.220219793211,0.00942684006741,0.929520923626,0.368620888146,-0.00454177655964
0.400369524956,-0.0822302624583,-0.384795248508,-2.43757772446,-0.0732704550028,2.35814881325,-0.686320900917,0.0557056888938,-0.000174826331204,0.000455910514574,0.00144273042679,-0.000300057115965,0.000187823781744,-0.000115280956379,-0.000505494652316,0.474421755925,0.00467276558968,0.220219941668,0.00942786735147,0.929518795422,0.368626230459,-0.00454160501282
0.400368660688,-0.0822271481156,-0.384788602591,-2.43758225441,-0.0732700005174,2.35814785957,-0.68631953001,0.0557056888938,-9.79566102615e-05,0.000949787383433,-0.00049791764468,-0.0001030716885,4.20038168158e-06,-2.60051092482e-05,-0.00010970691801,0.474419251506,0.00467535516359,0.220216705103,0.00942709613168,0.929517998245,0.368628210544,-0.00454564323431
0.4003675282,-0.0822311118245,-0.384759277105,-2.43757963181,-0.0732705965638,2.35814905167,-0.686320304871,0.0557056888938,-4.61970703327e-05,0.00124197418336,-0.000104959501186,0.000275648722891,3.78171935154e-05,8.79400613485e-05,0.000370251684217,0.474421040515,0.00468855829106,0.220220075462,0.00942915997182,0.929512624101,0.368641756338,-0.00454177798101
0.400369822979,-0.0822200030088,-0.384739100933,-2.43758749962,-0.0732692405581,2.35814857483,-0.686319112778,0.0557056888938,0.000122320576338,0.000404298742069,0.00112886284478,0.000720954441931,5.54664111405e-05,0.000116338160296,-0.00114163768012,0.474416325747,0.00469868639469,0.220212183381,0.00942825501642,0.929508784418,0.368651347736,-0.00455095529714
0.40036791563,-0.0822332650423,-0.384724885225,-2.43757891655,-0.0732704550028,2.35814976692,-0.686318933964,0.0504996366799,0.000219579873374,0.00044518354116,0.000365829968359,0.000123703634017,-0.000111641027615,-5.95527817495e-05,-6.85379709466e-05,0.474421646372,0.00470519389662,0.220221714612,0.00943085869585,0.929506315836,0.368657640146,-0.00454001888652
0.400369673967,-0.082227639854,-0.384717285633,-2.43758296967,-0.0732706040144,2.35814929008,-0.686317384243,0.0504996366799,-0.000124466751004,0.00109833863098,0.000181065275683,0.000131271764985,-1.52027760123e-05,8.18725384306e-05,0.000158785478561,0.474419227843,0.00470894155155,0.220217807171,0.00943048021294,0.929504999307,0.368660911528,-0.00454470035673
0.4003688097,-0.0822277516127,-0.384706258774,-2.43758058548,-0.0732698664069,2.3581495285,-0.686317265034,0.0504996366799,-0.000265021109954,-0.000705044483766,0.00057114061201,-0.000233593746088,2.62359608314e-05,-6.13564334344e-05,-0.000173967404407,0.474420314087,0.00471371475248,0.220219031082,0.00943116477152,0.929503270005,0.36866527163,-0.00454327634576
0.400369256735,-0.0822339430451,-0.384708076715,-2.43757939339,-0.0732701942325,2.3581507206,-0.68631529808,0.0504996366799,0.000493666040711,-0.00419204449281,0.00054319575429,0.000134381029056,5.0477199693e-05,-4.47716847702e-05,5.16559048265e-05,0.474421737228,0.00471333835962,0.220222321255,0.00943152197199,0.929503873105,0.368663793459,-0.00453909165726
0.400366723537,-0.0822358801961,-0.384704947472,-2.43757915497,-0.0732710883021,2.35815000534,-0.686314165592,0.0495474711061,4.90314159833e-05,-0.000172805855982,0.000204299256438,-0.000536910141818,-9.7089978226e-06,9.43610793911e-05,-0.000127409235574,0.474421899776,0.00471357894164,0.220223256006,0.00943186479251,0.929503863482,0.368663816968,-0.00453844045568
0.400368213654,-0.0822293162346,-0.384705722332,-2.4375834465,-0.073270522058,2.35814929008,-0.686315715313,0.0495474711061,-0.00016475013399,-0.000397868076107,0.00293527892791,-0.0003201867803,-8.14977684058e-05,-0.000136496848427,4.58934482594e-05,0.474418993866,0.00471358135874,0.220218360014,0.00943081500907,0.929503471837,0.36866476029,-0.00454420246317
0.400369167328,-0.0822237506509,-0.38469183445,-2.43759202957,-0.0732711851597,2.35814762115,-0.686312735081,0.0495474711061,0.000379434000934,0.000286074646283,-0.00037729460746,0.000709598476533,-1.51492549776e-05,9.78663665592e-05,-3.22092200804e-05,0.474414504058,0.00472031513531,0.220212564363,0.0094299798518,0.929501102818,0.368670663582,-0.00455157543093
0.400367736816,-0.0822373181581,-0.384690344334,-2.43755865097,-0.0732712745667,2.35815167427,-0.686312556267,0.0495474711061,-0.00142712378874,-0.00106951454654,-1.48925400936e-05,0.00397433433682,0.000876232224982,-0.00870017241687,6.1315649873e-06,0.474431296005,0.00472080090579,0.220232780372,0.00943641815063,0.929501429623,0.368669974183,-0.00452726860772
0.40036803484,-0.0822310075164,-0.384692102671,-2.43759298325,-0.0732715427876,2.35815286636,-0.686313688755,0.0495474711061,0.000229324272368,0.00113156088628,9.90925909718e-05,-0.000878835329786,-0.000129243257106,0.00140817882493,-0.000302716856822,0.47441599834,0.00472003338306,0.220215806262,0.00943062916431,0.929501151571,0.368670593509,-0.00454594630417
0.400367766619,-0.0822347775102,-0.384688735008,-2.4375743866,-0.0732716396451,2.35815811157,-0.686310827732,0.0495474711061,4.47924430773e-05,-0.000247566116741,0.000212283688597,0.00104642857332,-0.000151303494931,0.000983246020041,-0.000298200029647,0.474425608399,0.00472161261534,0.220225705631,0.00943484622974,0.929501253438,0.368670390031,-0.00453285040385
0.400369971991,-0.0822374671698,-0.384681433439,-2.43757748604,-0.0732718706131,2.35816645622,-0.686314225197,0.0495474711061,-0.000106365558167,0.00059461715864,-0.000148931707372,-0.000183900148841,-1.35601630973e-05,-0.00115487910807,0.000118266907521,0.474426349393,0.00472630410786,0.220226433793,0.00943592757411,0.929498821519,0.368676541404,-0.00452896988229
0.400369465351,-0.0822342634201,-0.38467463851,-2.43757224083,-0.0732717737556,2.35816526413,-0.686312735081,0.0394676364958,0.000316270306939,0.000281155516859,4.14988717239e-05,-0.000682344892994,3.69302615582e-05,0.000151352607645,-0.000128247978864,0.474428027518,0.00472903761742,0.2202272069,0.00943697193026,0.929497983323,0.368678632037,-0.00452863370332
0.400368183851,-0.0822350606322,-0.38467502594,-2.43757891655,-0.0732714161277,2.35816550255,-0.686312913895,0.0394676364958,-3.63163599104e-05,7.25533027435e-05,7.1848538937e-05,-0.000367368251318,-0.000144249526784,0.000301020219922,8.62038650666e-05,0.474425268449,0.00472835848916,0.220224793625,0.00943568228302,0.929498255129,0.368677948104,-0.00453121159268
0.400369316339,-0.0822358131409,-0.38467246294,-2.43758058548,-0.0732712596655,2.35816597939,-0.68631207943,0.0394676364958,0.000705260899849,-4.70253726235e-05,0.000214772546315,0.00035227209446,0.000200817492441,0.00038124943967,7.35051362426e-05,0.474424717115,0.00473015046658,0.220224508791,0.00943551502181,0.929497738563,0.368679253061,-0.00453134739857
0.400367736816,-0.0822384506464,-0.384672552347,-2.43757367134,-0.0732717067003,2.35816669464,-0.68631196022,0.0394676364958,0.000543999194633,0.000207935489016,-0.000581742089707,0.00018434143567,0.000140696982271,0.00014386352268,0.000172601852682,0.474428159507,0.00472940842332,0.22022860465,0.00943695513003,0.929498073119,0.368678432116,-0.00452651332416
0.4003688097,-0.0822342857718,-0.384664297104,-2.43758153915,-0.0732713416219,2.35816669464,-0.686309993267,0.0394676364958,9.11844472284e-05,-0.000339737773174,0.000292335753329,0.00134897069074,9.09831142053e-05,-0.000142630611663,-0.000105990009615,0.474424294709,0.00473364409376,0.220223625621,0.00943585761224,0.929496688461,0.368681881623,-0.00453217149255
0.400368064642,-0.0822385698557,-0.384663254023,-2.4375770092,-0.0732727870345,2.35816788673,-0.686311244965,0.0394676364958,4.55876943306e-05,0.000296589161735,-0.000200819747988,0.000223997543799,-4.90680176881e-05,3.45264925272e-05,0.000297340360703,0.47442733837,0.00473396369242,0.220227825333,0.00943748655991,0.92949626732,0.368682964388,-0.00452706754875
0.400367438793,-0.0822334587574,-0.384650617838,-2.43757510185,-0.0732712447643,2.35816860199,-0.686311483383,0.0394676364958,-0.00024221863714,-0.000535569095518,-0.000320913270116,-0.000292425218504,6.34692114545e-05,-5.69566036575e-05,9.15310956771e-05,0.474427411176,0.00473931428013,0.220226310299,0.00943784537307,0.929494208499,0.368688126972,-0.00452859304487
0.400369316339,-0.0822359547019,-0.384643614292,-2.43757772446,-0.073271907866,2.35816860199,-0.686310350895,0.0394676364958,-0.000159369112225,-0.000415522576077,0.00043364459998,-3.43866631738e-05,4.2354928155e-05,-3.40300102835e-05,-0.00032320007449,0.474426519316,0.00474351987313,0.2202264194,0.00943788660689,0.929492682217,0.368691973807,-0.00452859095547
0.400368928909,-0.0822356566787,-0.384640336037,-2.43758177757,-0.073270894587,2.3581674099,-0.686310768127,0.0392673537135,-9.34460040298e-05,-0.000543654605281,0.000501009228174,0.000153479297296,-7.42701959098e-05,-5.09370875079e-05,-0.000182901858352,0.474424366587,0.00474485965267,0.2202244843,0.00943675576306,0.92949219161,0.368693208217,-0.00453114495799
0.400368601084,-0.0822334438562,-0.384626239538,-2.43758153915,-0.0732727572322,2.35816788673,-0.686309874058,0.0392673537135,-0.000187647150597,-0.000962788122706,0.0013894039439,-0.000522507936694,-0.000109711952973,-0.000237093117903,0.00573024246842,0.47442443539,0.00475106784812,0.220223927452,0.00943817016014,0.929489551289,0.368699818212,-0.00453196685938
0.400367438793,-0.0822346955538,-0.384621888399,-2.43757915497,-0.0732721239328,2.35816812515,-0.686310589314,0.0392673537135,-0.000365425017662,-0.00136020302307,-0.000195122134755,0.000979922595434,-3.27582674799e-05,0.00298950704746,-2.94549336104e-05,0.474425057347,0.0047525457708,0.220224745833,0.00943827887177,0.929489005849,0.368701203529,-0.00453090469959
0.40036791563,-0.0822397321463,-0.38461664319,-2.43756866455,-0.0732713863254,2.3581700325,-0.686309456825,0.0392673537135,0.00021842008573,-0.00101172667928,0.000108173851913,0.000117865805805,-9.47366061155e-05,0.00272050616331,-0.000239198023337,0.47443113063,0.0047555663467,0.22023237017,0.00944065089722,0.929488298018,0.368703041706,-0.00452157924183
0.400367885828,-0.0822437554598,-0.384609907866,-2.43756937981,-0.0732720643282,2.35816979408,-0.686309874058,0.0386855453253,-0.000169240083778,-0.000281231041299,0.000993094756268,-0.000660685531329,0.000119818556414,-6.5858461312e-05,-0.000126407423522,0.474431182646,0.00475879376142,0.220233918234,0.00944096041841,0.929486906547,0.368706560301,-0.00452005519495
0.400369495153,-0.0822459831834,-0.384596467018,-2.43757176399,-0.0732726454735,2.35816931725,-0.686310112476,0.0386855453253,6.52464441373e-05,0.000513636914548,-0.000289196410449,0.000206339755096,3.04771947413e-05,-4.28377243225e-05,0.000219362176722,0.474430255465,0.00476584725671,0.220234062518,0.0094412220716,0.929484004778,0.368713866125,-0.00452026524828
0.400368332863,-0.0822412222624,-0.384586423635,-2.43756818771,-0.0732720419765,2.35817027092,-0.686311423779,0.0386855453253,-3.22564337694e-05,0.000604643952101,-6.99970987625e-05,-0.000218256755034,-5.30774050276e-05,7.06820137566e-05,-0.00220259628259,0.474431512357,0.00476980176109,0.220233692612,0.00944227902517,0.92948221895,0.368718339149,-0.00452040736624
0.400367617607,-0.0822415947914,-0.384577155113,-2.43757414818,-0.0732723623514,2.35816931725,-0.686309695244,0.0386855453253,-9.50239336817e-05,-0.000296501122648,-0.000241783869569,-0.000611187366303,-2.77003528026e-06,-8.37850384414e-05,0.000287294184091,0.474428749757,0.00477376910214,0.220231430916,0.00944159007515,0.929480875715,0.368721705669,-0.00452343992928
0.400367885828,-0.082241460681,-0.384564608335,-2.43757867813,-0.0732730031013,2.35816907883,-0.68631029129,0.0386855453253,0.00295590795577,-0.00047716870904,0.00168827385642,0.000129569380078,-1.14728263725e-05,1.37923898365e-05,0.000196955195861,0.474426595675,0.0047786302231,0.220229537935,0.00944143894147,0.929478597425,0.368727420522,-0.00452605776164
0.400368958712,-0.0822400003672,-0.384524524212,-2.43757557869,-0.0732728615403,2.35817098618,-0.686310887337,0.0386855453253,0.00281949248165,0.000833077821881,0.000451287807664,-3.73474795197e-05,-0.000124812766444,-0.000234722087043,5.33468264621e-05,0.474428263707,0.00479876164403,0.220231063298,0.00944405652533,0.929470636267,0.36874744801,-0.00452386832711
0.4003675282,-0.0822413861752,-0.384511053562,-2.43757128716,-0.0732735693455,2.35817241669,-0.686308085918,0.0386855453253,-0.000398192321882,-0.000994851114228,0.00194164318964,0.000382145663025,0.000100930978078,-5.39039774594e-06,-0.000326587993186,0.474430578994,0.00480433404798,0.220233782935,0.00944583795835,0.929468880517,0.368751869424,-0.00452048398821
0.400368154049,-0.0822505429387,-0.384499460459,-2.43755626678,-0.0732727795839,2.35817551613,-0.686309635639,0.0386855453253,0.000368405744666,-0.00125372048933,0.00102641701233,0.000577995029744,2.72540164588e-05,-0.000116256422189,3.67000211554e-05,0.474438706469,0.00481045964882,0.220244491425,0.00944908844122,0.929466604261,0.368757685442,-0.00450726119663
0.400366723537,-0.0823659896851,-0.384471833706,-2.43753266335,-0.0732737928629,2.35819673538,-0.686307489872,0.0367877781391,3.32440031343e-05,-0.0043701720424,-0.00024852345814,-4.68864855065e-05,6.90059387125e-05,0.00273940805346,-0.000371395493858,0.474465555976,0.0048278187165,0.220307237909,0.00945670060583,0.929462655229,0.368768399668,-0.00442836745846
0.400365501642,-0.0824161171913,-0.384467333555,-2.43753623962,-0.0732734054327,2.35820651054,-0.686307907104,0.0367877781391,0.000606796587817,-0.000959209166467,-0.000290001567919,7.7093623986e-05,2.09641129914e-05,0.00161094812211,-0.000262697256403,0.474471340187,0.00483175075684,0.220328667495,0.00945704852655,0.929462180496,0.368769923666,-0.00440026630975
0.400362759829,-0.0824223160744,-0.384465277195,-2.43754410744,-0.0732727572322,2.35821604729,-0.686307787895,0.0367877781391,4.0443144826e-05,0.000473336986033,-0.000230055637076,-0.000690010958351,2.9063441616e-05,-0.000174819972017,-0.000124067111756,0.47447065959,0.00483194094029,0.220328976407,0.00945690613147,0.929462365458,0.36876950925,-0.00439623188384
0.400364011526,-0.0824145898223,-0.38446059823,-2.43754959106,-0.0732734501362,2.35823297501,-0.686307370663,0.0367877781391,0.000433706794865,-0.00022085593082,0.000488950638101,-0.000148631093907,-8.5071696958e-06,-0.000263810099568,-0.000363742263289,0.474471170552,0.00483462111077,0.220324854243,0.00945903588359,0.929461161917,0.368772507095,-0.00439463577238
0.400368481874,-0.0824057385325,-0.384432017803,-2.43754076958,-0.0732749029994,2.35856342316,-0.686306297779,0.0367877781391,-9.36758369789e-05,-0.0003242015664,0.000970364315435,0.000429303036071,0.000192849736777,0.00107873266097,-0.000154845358338,0.474546259041,0.00485504609351,0.220353963377,0.00951260459416,0.929454674579,0.368789318651,-0.00423749811069
0.400366932154,-0.0824157297611,-0.38443005085,-2.43754148483,-0.0732757598162,2.35859394073,-0.686306416988,0.0367877781391,-0.000465225894004,0.000242404290475,0.00370525778271,-0.000847859715577,3.58186334779e-05,0.00294376560487,-0.000164218028658,0.474553665241,0.00485610543922,0.22036075156,0.00951736752891,0.92945445154,0.36878997692,-0.00421839256565
0.400361955166,-0.0824256390333,-0.384430199862,-2.43754458427,-0.0732754468918,2.35861253738,-0.686307489872,0.0367877781391,6.37705234112e-05,-7.94257430243e-05,-0.000458303577034,0.000461211602669,2.76377759292e-05,0.000278522289591,0.000419011659687,0.474557434528,0.00485447032065,0.220365435021,0.00951940899455,0.929455228262,0.368788107928,-0.00420602470405
0.400363922119,-0.0824315845966,-0.38442248106,-2.43754506111,-0.0732746645808,2.35872554779,-0.686305224895,0.0327184163034,0.000153224027599,0.000943629129324,-0.000481487746583,-0.000338161975378,-3.66444942301e-06,0.000973662303295,-0.000180148563231,0.474582517708,0.00486124025848,0.22037784844,0.0095364984754,0.929453827668,0.36879183897,-0.0041492919643
0.400366485119,-0.0824342668056,-0.384418398142,-2.43754291534,-0.0732753947377,2.3587448597,-0.686304748058,0.0327184163034,-0.000275298632914,0.000121082179248,-7.15792339179e-06,0.000691017135978,0.000143006516737,0.00307374470867,0.000111243112769,0.474586122907,0.00486450461165,0.220379781964,0.00953900902899,0.929452591852,0.368794977774,-0.00414135951627
0.40036663413,-0.0824354887009,-0.384412646294,-2.43753576279,-0.0732754394412,2.35876178741,-0.686305046082,0.0327184163034,0.000105164195702,0.000639017031062,0.00103421416134,0.000145528712892,8.92276730156e-05,0.00514234509319,-0.000346369022736,0.474595133688,0.00486792023415,0.220386592315,0.00954453860588,0.929451348044,0.368798147275,-0.00412548821441
0.400362998247,-0.0824309885502,-0.384409368038,-2.43753957748,-0.0732763856649,2.35878705978,-0.686303675175,0.0327184163034,0.000543077243492,0.000738172268029,0.000981327495538,-0.000451435771538,3.03560009343e-05,0.00024452371872,-0.000251938676229,0.474598277446,0.00486772120493,0.220385451528,0.00954795549123,0.929451592197,0.368797529016,-0.00411783741737
0.400364220142,-0.0824330076575,-0.384402632713,-2.43754148483,-0.073275886476,2.35880804062,-0.686304211617,0.0327184163034,-7.23444318282e-05,8.80963925738e-05,0.000259052932961,-3.62829860023e-06,0.000110126362415,5.06711367052e-05,-2.86453359877e-05,0.474602226515,0.00487193000136,0.220387479544,0.00955090758355,0.929450057749,0.368801433546,-0.00410762860203
0.400363594294,-0.0824331268668,-0.384397178888,-2.43754243851,-0.0732752084732,2.35881829262,-0.686302244663,0.0327184163034,-0.000406271487009,-0.000950534245931,0.000974331807811,-0.000141361975693,4.46365738753e-05,-8.5309970018e-05,0.000110362641863,0.474604057293,0.00487441257092,0.22038811207,0.00955230634825,0.929449601234,0.368802599136,-0.00410301882769
0.400365233421,-0.0824256911874,-0.384394645691,-2.43754720688,-0.0732744708657,2.35882472992,-0.686303079128,0.0327184163034,-3.13940035994e-05,0.000411543034716,0.000640491140075,-0.000774523476139,4.50522929896e-05,-0.000179398353794,0.00048583233729,0.47460210375,0.00487652556623,0.220382899241,0.00955219700406,0.929448568765,0.368805164953,-0.00410652420764
0.400362730026,-0.0824168175459,-0.384391844273,-2.43755173683,-0.0732763260603,2.35882472992,-0.686303555965,0.0327184163034,0.000108746149635,-0.000106852778117,-1.68051519722e-05,-1.50492223838e-05,-2.82554111664e-07,-7.18913797755e-05,0.000515571096912,0.474599615887,0.00487601969818,0.220377540335,0.00955241338854,0.92944821646,0.368805977626,-0.00411276914345
0.400364905596,-0.0824067220092,-0.384391725063,-2.4375576973,-0.0732760205865,2.3588244915,-0.686301648617,0.0328891500831,-0.00030817402876,-4.30407380918e-05,5.5602282373e-05,-0.000287960225251,-4.23938436143e-05,-0.000130321452161,-0.000156772934133,0.474596043038,0.00487652215265,0.220370794382,0.00955136784643,0.929448128897,0.368806139681,-0.00412044651994
0.400364637375,-0.0824098959565,-0.384390205145,-2.43756461143,-0.0732750594616,2.35882401466,-0.686302602291,0.0328891500831,-0.000146050326293,0.00147375860251,-0.000144168079714,-0.000354490650352,-1.5367360902e-05,3.70551133528e-05,0.000278438063106,0.474593260547,0.0048773576844,0.220369288453,0.00954978254512,0.929447810215,0.368806964152,-0.00412221020361
0.400363028049,-0.0824068784714,-0.384388148785,-2.43756771088,-0.0732752606273,2.35882163048,-0.686301648617,0.0328891500831,-0.000540891021956,0.000907342706341,0.000475080421893,5.32856793143e-05,6.60951991449e-05,-9.86521117738e-05,-4.18062591052e-05,0.474591087915,0.00487737436122,0.220366495923,0.0095490631387,0.929447845092,0.368806848963,-0.00412631669386
0.400364488363,-0.0824011266232,-0.384385764599,-2.43757009506,-0.0732761025429,2.35882282257,-0.68630027771,0.0328891500831,0.000297546735965,0.00099845638033,0.000251006946201,-0.000220324305701,-6.96637216606e-05,3.36712000717e-05,-1.923559239e-06,0.474589712288,0.00487887804061,0.220363119987,0.00954927939464,0.929447234678,0.368808342658,-0.00412980426469
0.400369495153,-0.0823925435543,-0.384379178286,-2.43757581711,-0.0732760950923,2.35882091522,-0.686299800873,0.0328891500831,4.13051202486e-05,0.00103794469032,0.000504147610627,0.000497070432175,-7.31942200218e-05,-4.63482210762e-05,0.000143256344018,0.47458588893,0.00488393557997,0.220356901357,0.00954837167445,0.92944511351,0.368813624222,-0.00413761335269
0.400367975235,-0.0823922231793,-0.384377986193,-2.43757462502,-0.0732742846012,2.3588206768,-0.686299562454,0.0328891500831,0.000597020320129,5.19186542078e-05,-0.000232153717661,-0.000500579364598,-3.03335000353e-05,-0.000181427589268,0.00507916742936,0.474586315388,0.0048839095915,0.220357250337,0.00954799246815,0.92944546989,0.368812741358,-0.00413712916765
0.400366395712,-0.0823855772614,-0.384376317263,-2.43757748604,-0.0732761397958,2.3588206768,-0.686300158501,0.0328891500831,0.00012073545804,0.000298513128655,-0.00227012252435,-0.000327280286001,-6.0035403294e-05,3.05828179989e-05,0.000143955869135,0.474584401648,0.00488348841279,0.220353170452,0.00954825146652,0.92944504748,0.36881374456,-0.00414199430299
0.40036714077,-0.0823830291629,-0.384375810623,-2.43757724762,-0.0732752382755,2.3588206768,-0.686299920082,0.0328891500831,2.56862476817e-05,2.79305386357e-05,0.000572135904804,0.000264308444457,0.000107343723357,6.43056846457e-05,0.000118912168546,0.474584230777,0.00488404692451,0.220352156997,0.00954804467172,0.929444974105,0.368813922976,-0.00414304934861
0.40036663413,-0.0823808312416,-0.384375661612,-2.43757820129,-0.0732740983367,2.35881996155,-0.686299800873,0.0328891500831,0.000261040200712,-0.00420811073855,2.9142238418e-05,-1.43641209434e-05,0.000103230653622,-0.000226870470215,-1.10390137706e-05,0.474583427567,0.00488387686786,0.22035073267,0.00954741717764,0.929445200397,0.368813349164,-0.00414480956777
0.400367558002,-0.0823776498437,-0.384371161461,-2.43757772446,-0.0732751190662,2.35882043839,-0.686299562454,0.0328891500831,0.00018334518245,-0.000752176274545,0.00089020957239,2.76729206234e-05,9.23823899939e-05,-0.000202579511097,-3.64368061128e-05,0.474583405026,0.0048861774735,0.220349645171,0.00954814779756,0.929444099637,0.368816090527,-0.00414603133441
0.400366127491,-0.0823782533407,-0.384370267391,-2.43757390976,-0.073275052011,2.35882139206,-0.686297893524,0.0328891500831,-6.52706221445e-05,-0.000814517843537,-0.000347728288034,0.000493371568155,5.9230583247e-06,-0.00016499319463,-6.65184634272e-05,0.474585337161,0.00488594207044,0.22035159459,0.00954897479874,0.92944454646,0.368814971775,-0.00414347857064
0.400364249945,-0.082376524806,-0.384370416403,-2.4375770092,-0.0732753947377,2.35882091522,-0.68629938364,0.0328891500831,-0.00024545477936,0.000297108286759,0.000225977841183,-0.00124140910339,3.41844897775e-05,-0.000258634943748,8.26871619211e-05,0.474583719939,0.00488488308148,0.22034950238,0.00954847687992,0.929444569172,0.368814898271,-0.00414607333733
0.400372296572,-0.0823857709765,-0.384308665991,-2.4376039505,-0.0732755511999,2.35881614685,-0.686298787594,0.0342438519001,-5.07145750817e-06,-0.000273195124464,0.000654867500998,0.000230476012803,2.43197155214e-05,5.22114605701e-05,-1.37680754051e-05,0.474571826798,0.00491783628509,0.220342846628,0.00954563814135,0.929431637071,0.368847449003,-0.00415594183328
0.40036034584,-0.082392141223,-0.384229242802,-2.43758893013,-0.0732754096389,2.35881948471,-0.68629771471,0.0342438519001,0.000324143125908,-0.000176063040271,0.0052034589462,-0.00147404696327,9.74264912657e-05,0.000185979020898,0.000145947517012,0.474579690922,0.00494932019111,0.22035336639,0.00955208139809,0.929419573289,0.368877816771,-0.0041437308871
0.400368869305,-0.0823841542006,-0.384152650833,-2.4375936985,-0.0732753798366,2.35882019997,-0.686298668385,0.0342438519001,-0.000308225746267,0.000666206819005,0.00513235107064,-0.000494912907016,-6.67404383421e-05,-0.0021669997368,-3.60385311069e-05,0.474576803951,0.00498862651491,0.220349074926,0.00955475422706,0.929403658685,0.368917782501,-0.00414913646173
0.400361508131,-0.0823743641376,-0.384051084518,-2.43760275841,-0.0732745751739,2.35881733894,-0.686300098896,0.0342438519001,-0.000350447982782,0.00133476173505,0.0100257415324,-0.000442627235316,-5.70186639379e-05,5.83209402976e-05,-0.000105926563265,0.474571122302,0.00503194636824,0.220342261301,0.00955693406496,0.929386054406,0.368961961805,-0.0041590038269
0.400359660387,-0.0823969915509,-0.383567065001,-2.43761110306,-0.0732748508453,2.35881519318,-0.68629860878,0.0342438519001,-0.000487766053993,-0.00238327565603,0.0146161010489,-0.000786234741099,2.44473521889e-05,-0.000970766821411,-9.51619222178e-05,0.474568657533,0.0052568336505,0.220355713648,0.00957588934153,0.929297496777,0.36918456477,-0.00414989715722
0.400356829166,-0.0823980718851,-0.383249729872,-2.43761253357,-0.0732758119702,2.35881519318,-0.686298906803,0.0342438519001,3.73216389562e-05,-0.00016732540098,0.0231591034681,-2.52603103945e-06,-4.76603818242e-05,0.000139284966281,-0.000154559791554,0.474567631046,0.0054028331791,0.220360297067,0.00958965183388,0.929239343581,0.369330572597,-0.00414834275599
0.400366216898,-0.0823950469494,-0.382909983397,-2.4376039505,-0.0732763409615,2.35881590843,-0.686298429966,0.0342438519001,9.82341807685e-05,0.000139089403092,0.0170220173895,-0.000102531601442,-0.000154201625264,5.57516032131e-05,3.36387965945e-05,0.474570521505,0.00556486374265,0.220367635848,0.0096061799569,0.929175040222,0.369491943572,-0.00414357989226
0.40037471056,-0.0823927894235,-0.382488071918,-2.43759679794,-0.0732779428363,2.35881614685,-0.686298489571,0.0342438519001,0.00127994199283,0.00119216612075,0.0183383543044,0.00127202714793,-0.00022628926672,-2.06034383154e-05,-4.36732116214e-05,0.474572548503,0.00576456585078,0.220375887249,0.00962627931453,0.92909546253,0.36969152645,-0.00413898638438
0.400385707617,-0.08254019171,-0.381584346294,-2.43759059906,-0.0732783451676,2.35880327225,-0.686298489571,0.0344487316906,0.000241425965214,-0.00717647606507,0.0196051746607,-0.00132826797199,-4.4537067879e-05,-0.00320927263238,7.77118839324e-05,0.47458552609,0.00619567760089,0.22045546686,0.00966305474814,0.928927148855,0.370114125672,-0.00406339212796
0.400392353535,-0.0826576501131,-0.381349623203,-2.43759679794,-0.0732785239816,2.35878992081,-0.686298191547,0.0344487316906,0.00060553039657,-0.0107585098594,0.0161238554865,-0.000896178884432,-7.39406677894e-05,-0.00304116331972,0.00058278918732,0.474590778866,0.00630354361461,0.220502323248,0.00966848044113,0.928886377073,0.37021680493,-0.00401696485498
0.400395810604,-0.0828458070755,-0.381054520607,-2.4375731945,-0.0732781887054,2.35875844955,-0.686298131943,0.0344487316906,0.000291956384899,-0.0144366081804,0.0228362716734,0.00537163717672,-6.12648073002e-05,-0.0104193985462,0.000106990009954,0.474625383307,0.00650636659955,0.220639240271,0.00968348495716,0.928811551071,0.370405501607,-0.00388545737601
0.400419712067,-0.0832241028547,-0.380583941936,-2.43731594086,-0.0732790380716,2.35838365555,-0.686299264431,0.0344487316906,0.00154582061805,-0.0187439825386,0.0111457202584,0.0108635565266,6.15941814885e-07,-0.0243975929916,-1.70057683135e-05,0.474680749906,0.00669782103396,0.22084857902,0.00968434373508,0.928741002829,0.370583350076,-0.00378727901797
0.400453269482,-0.0836480930448,-0.380222827196,-2.43676972389,-0.073283188045,2.35747361183,-0.686299026012,0.0344487316906,0.00378366489895,-0.0184895060956,0.0177097395062,0.0372547917068,-0.000103740632767,-0.0607682131231,-0.0002429754677,0.474761143868,0.00688135077652,0.221188294236,0.0096555760561,0.92867467637,0.370750642192,-0.00375184183811
0.400699526072,-0.0854590311646,-0.379375010729,-2.43284916878,-0.073286280036,2.35125541687,-0.686299026012,0.0344487316906,0.00891338009387,-0.0547440722585,0.0161352865398,0.129454791546,0.000113746151328,-0.207122460008,0.000155485933647,0.475278430542,0.00734469695083,0.223089836097,0.00942499093116,0.928518478647,0.371145302984,-0.00397090851288
0.400834143162,-0.0868136435747,-0.379025310278,-2.43003106117,-0.073288410902,2.34663701057,-0.686297953129,0.0344644933939,0.00683213258162,-0.082911349833,0.0213862899691,0.166464462876,5.59858999623e-05,-0.285705566406,-0.000458739377791,0.475617607609,0.00753560469727,0.22446685194,0.00922500059046,0.928462700227,0.371287606859,-0.00417448530713
0.400932431221,-0.087896451354,-0.378798514605,-2.42780542374,-0.0732909664512,2.34289646149,-0.686298906803,0.0344644933939,0.00969472993165,-0.0978716164827,0.0186580624431,0.200829744339,-0.000169603838003,-0.33709692955,0.000347027671523,0.475862669574,0.00765773775275,0.225553436134,0.00905100398477,0.928428951602,0.371373979715,-0.00437356011038
0.401232481003,-0.092111594975,-0.37811639905,-2.42001247406,-0.0733064860106,2.32924866676,-0.686297237873,0.0344644933939,0.0108016049489,-0.157995462418,0.0218516495079,0.268262147903,0.000222049362492,-0.486282378435,6.38946512481e-05,0.476613509873,0.00801404080623,0.229511122224,0.00835161066088,0.928341407309,0.371599570065,-0.00512262492139
0.401422232389,-0.0954060479999,-0.377711683512,-2.41417551041,-0.0733153820038,2.31923270226,-0.686298370361,0.0344644933939,0.0074638267979,-0.19701680541,0.0178194958717,0.345685124397,-0.00117229030002,-0.578148663044,2.03813597182e-05,0.477241413408,0.00822930788686,0.232751281201,0.00782390348435,0.9282999455,0.371708762703,-0.00553110591764
0.401587367058,-0.0990062057972,-0.377331078053,-2.40796208382,-0.0733237266541,2.30885386467,-0.686297178268,0.0344644933939,0.0140405129641,-0.233692213893,0.0227538850158,0.384188115597,-0.000609541195445,-0.642820000648,-2.02688606805e-05,0.477872705727,0.00839748581464,0.235902687654,0.00735587527015,0.928276174178,0.371774279874,-0.00575500310688
0.401746153831,-0.103351488709,-0.376906633377,-2.40098881721,-0.0733320042491,2.29734396935,-0.686295688152,0.0344769693911,0.00860511697829,-0.275363743305,0.0278975386173,0.42999574542,0.000130130996695,-0.7106590271,0.000390289787902,0.478642732106,0.00859047402456,0.239809659927,0.00681627204069,0.928253966015,0.371839254261,-0.00580359265603
0.401907235384,-0.108660340309,-0.376406252384,-2.39308166504,-0.073344938457,2.28379392624,-0.686294317245,0.0344769693911,0.0121680339798,-0.308175265789,0.0263053197414,0.461620539427,-0.0031346315518,-0.795032024384,-0.000174029468326,0.479387077758,0.00880170544269,0.244389546624,0.00612642903036,0.928229177562,0.371911526463,-0.00590567160016
0.402275621891,-0.118742235005,-0.375612735748,-2.37724351883,-0.0736980736256,2.2585644722,-0.686290204525,0.0344769693911,0.017252702266,-0.379571139812,0.0250036418438,0.56869995594,-0.0307683832943,-0.903115272522,0.000147255108459,0.481086100893,0.00908816207201,0.253549533843,0.00514055942729,0.928167303219,0.372086882538,-0.00551211489447
0.402911424637,-0.132864534855,-0.374787896872,-2.35566186905,-0.0747022479773,2.22531318665,-0.686278283596,0.0344769693911,0.0177763924003,-0.426823318005,0.02596292831,0.678439795971,-0.0157409254462,-0.985829234123,0.00274003506638,0.483315568587,0.00930015540998,0.266435862514,0.00413744917121,0.928049448249,0.372409107703,-0.00430805102635
0.403177857399,-0.140314981341,-0.374328315258,-2.34399032593,-0.0748909935355,2.20815134048,-0.686266362667,0.0344769693911,0.0134827699512,-0.441422283649,0.028935007751,0.683344483376,-0.0111388582736,-1.02418792248,0.000410572945839,0.48450873407,0.00938885507947,0.273454938231,0.00358546789206,0.928041234533,0.372445451479,-0.00331613972268
0.403532624245,-0.150145351887,-0.373776197433,-2.32853984833,-0.0749952197075,2.18634700775,-0.686238765717,0.0344769693911,0.0165113676339,-0.471232950687,0.022162552923,0.754770576954,-0.000538557535037,-1.05303394794,0.000210271493415,0.486093091567,0.0094662023551,0.282873280491,0.00292525862787,0.92805795364,0.372421039955,-0.00156404307367
0.404402911663,-0.17082926631,-0.372893691063,-2.29442095757,-0.0752036124468,2.1417093277,-0.685753703117,0.0344769693911,0.02686377801,-0.49974039197,0.021100025624,0.842590689659,-0.00214965641499,-1.07163202763,0.0068815513514,0.489704731617,0.0093652496431,0.304773554642,0.00189418949955,0.928214662706,0.372021359377,0.00374964468642
0.404811114073,-0.180446729064,-0.372517585754,-2.27817511559,-0.0752445310354,2.12162089348,-0.685569941998,0.0344769693911,0.0176530163735,-0.517512738705,0.0179334320128,0.884961426258,0.00140967720654,-1.03747832775,0.0113076642156,0.491067415196,0.00923937655082,0.313774875659,0.00159198248215,0.928278431359,0.371828642545,0.00633085562304
0.405142128468,-0.190702751279,-0.372170984745,-2.26046323776,-0.0753059461713,2.10098838806,-0.685292243958,0.034511115402,0.0183443855494,-0.511750161648,0.0229710228741,0.868536055088,-0.00240429583937,-1.02619290352,0.0100825633854,0.492803473445,0.00894146520953,0.325337505044,0.0013874172882,0.928393858669,0.371457578836,0.0101086630537
0.405557751656,-0.206618174911,-0.371537148952,-2.2327105999,-0.0753540918231,2.07022404671,-0.68462061882,0.034511115402,0.0125854853541,-0.512209415436,0.0170122180134,0.905081450939,0.00153547083028,-0.961348712444,0.0297303069383,0.495101223399,0.00839434944608,0.342252618461,0.00128495414714,0.928582410377,0.370767854946,0.0162558744544
0.405711174011,-0.215770632029,-0.371243983507,-2.21649646759,-0.0753720849752,2.0534620285,-0.684120357037,0.034511115402,0.00701408693567,-0.496717125177,0.0130624650046,0.875576555729,-0.00710028177127,-0.911886155605,0.0268650464714,0.496428022915,0.0079242188401,0.3525643703,0.00137112117601,0.928723955724,0.370204435587,0.0204599522989
0.405778497458,-0.224187016487,-0.370961278677,-2.20184803009,-0.0753796175122,2.03812503815,-0.683662712574,0.034511115402,0.00344707723707,-0.504885196686,0.0210841242224,0.872067153454,-0.000572764198296,-0.874484360218,0.0313850268722,0.497376056449,0.00741751275017,0.361966265374,0.00140390222708,0.928851479597,0.369655575479,0.0242427950159
0.405775517225,-0.232505083084,-0.370709955692,-2.18720293045,-0.0754037871957,2.02363872528,-0.683182060719,0.034511115402,0.00118672673125,-0.465943843126,0.0119519112632,0.838893830776,0.00180383422412,-0.840553343296,0.0313421785831,0.498310764272,0.00682078105595,0.371434082811,0.00155776052785,0.928980385986,0.36903603149,0.0283799750324
0.405714303255,-0.255613029003,-0.370412290096,-2.14848828316,-0.0754287093878,1.98528325558,-0.681118309498,0.034511115402,-0.00598879996687,-0.443002045155,0.00201899465173,0.72605162859,0.000680074095726,-0.698778688908,0.0394611731172,0.49974870733,0.00476473276969,0.397073500506,0.00180996582115,0.929457220971,0.366765954617,0.0398589089966
0.405592262745,-0.262507706881,-0.370413154364,-2.13751602173,-0.0754363536835,1.97466123104,-0.680564343929,0.034511115402,-0.0081188948825,-0.424125611782,0.00379772204906,0.640971302986,0.000310941337375,-0.649886488914,0.0201054755598,0.499923779448,0.00401045690024,0.404543420291,0.00188923123775,0.929589100156,0.366028141314,0.0434043215246
0.405425965786,-0.269015938044,-0.370413690805,-2.12802958488,-0.0754534751177,1.96486020088,-0.680269420147,0.034511115402,-0.011700338684,-0.409934997559,0.000786896329373,0.587503492832,-0.0028328045737,-0.588996708393,0.0157756656408,0.499818415947,0.0033276835741,0.410732265435,0.00186121330648,0.929666143656,0.365485939654,0.0462322920006
0.404165565968,-0.287040233612,-0.370424896479,-2.10431075096,-0.0769481360912,1.93974518776,-0.67935103178,0.0345262214541,-0.0436804480851,-0.327404230833,0.000956231495366,0.371192872524,-0.0962097197771,-0.441378712654,0.0222665071487,0.498832077733,0.000569010493796,0.428549301756,0.00231953018388,0.929924412726,0.363691917908,0.0544370731103
0.403446495533,-0.291846483946,-0.370410442352,-2.09925675392,-0.0786835923791,1.93347728252,-0.678947389126,0.0345262214541,-0.0510168336332,-0.301055252552,0.00188342842739,0.3080932796,-0.135235622525,-0.390863865614,0.0246490836143,0.498237155196,-0.000620879077873,0.432829958396,0.00296417721062,0.930022720481,0.363186651613,0.0560750284547
0.402384459972,-0.297190278769,-0.370416253805,-2.09417247772,-0.0818273127079,1.92614078522,-0.678371310234,0.0345262214541,-0.0576904676855,-0.258702337742,-0.00284516694956,0.223168998957,-0.21078851819,-0.37701022625,0.0308226160705,0.497431071055,-0.0021281548786,0.436738084384,0.00399334139817,0.930151120696,0.362687329646,0.0571038220373
0.400900661945,-0.302121788263,-0.370464652777,-2.09048676491,-0.0872762128711,1.91925406456,-0.677747249603,0.0345262214541,-0.0898748636246,-0.231692403555,-0.00230751140043,0.145966723561,-0.328221470118,-0.320660352707,0.0259271971881,0.4963979331,-0.00428250823805,0.440038558676,0.00598473129735,0.930289423741,0.362283240294,0.0572418077498
0.397822231054,-0.307446718216,-0.370595633984,-2.08773469925,-0.099213398993,1.91042900085,-0.677015185356,0.0345262214541,-0.110999710858,-0.133542791009,-0.014843611978,0.0466180704534,-0.455798715353,-0.273011654615,0.0205485634506,0.494755005693,-0.00842757817149,0.442802839982,0.0105404290692,0.930500080371,0.361944025885,0.0552722497796
0.395796447992,-0.309298276901,-0.370948195457,-2.08741736412,-0.107671968639,1.9059690237,-0.676660001278,0.0345262214541,-0.129372313619,-0.0892978087068,-0.0248837787658,0.000300465268083,-0.537469208241,-0.261886566877,0.0224523376673,0.49378930796,-0.0112534842395,0.443265493487,0.013773883146,0.930651307658,0.361787734218,0.0529911195437
0.393655866385,-0.31022143364,-0.371405571699,-2.08759188652,-0.117141723633,1.90184855461,-0.676358759403,0.0345262214541,-0.137600705028,-0.0252194385976,-0.0326284281909,-0.0160983987153,-0.632865846157,-0.258255332708,0.0190194603056,0.492883944428,-0.0143084397943,0.443106325547,0.0174443667711,0.930788522124,0.361699408712,0.0500195818941
0.390745341778,-0.310143142939,-0.372406542301,-2.08817458153,-0.131023257971,1.8967205286,-0.675944447517,0.0345262214541,-0.157439008355,0.0204328522086,-0.0626642480493,-0.0427849106491,-0.741769313812,-0.260655403137,0.0208512153476,0.49180692277,-0.0187630131448,0.442177868266,0.0228714765193,0.930981258681,0.361534174496,0.0452087591268
0.386194318533,-0.307976573706,-0.374735951424,-2.0899040699,-0.154468849301,1.88959550858,-0.675294101238,0.0345262214541,-0.1624455899,0.115105517209,-0.0848733186722,-0.0704947561026,-0.85822480917,-0.237263739109,0.0188567694277,0.490350404434,-0.0260281848575,0.439666068618,0.0317049230827,0.931236937789,0.361169358097,0.0367322474949
0.383004873991,-0.30548375845,-0.376652121544,-2.09141516685,-0.170851141214,1.88562560081,-0.675072968006,0.0345262214541,-0.180178627372,0.149083524942,-0.120086796582,-0.0943752080202,-0.959731400013,-0.215216621757,0.00749232433736,0.489443845088,-0.0316704373607,0.437292524615,0.038502144412,0.931339410007,0.360862974358,0.0300400011068
0.379533112049,-0.302315086126,-0.378915458918,-2.09316086769,-0.188869252801,1.88196408749,-0.674935519695,0.0345321297646,-0.194650962949,0.196382299066,-0.132082238793,-0.101902738214,-1.02776193619,-0.184829860926,0.00616580992937,0.48870720621,-0.0369106322004,0.435024003844,0.044805423506,0.931349607709,0.360567614261,0.0239035034071
0.376410245895,-0.298936963081,-0.381063729525,-2.09471869469,-0.204785197973,1.87934851646,-0.67488771677,0.0345321297646,-0.219616919756,0.240871623158,-0.157170653343,-0.113537602127,-1.08864665031,-0.166703850031,0.00312429759651,0.488027672159,-0.0429185103966,0.43229239139,0.0519942749521,0.931279165073,0.360179897617,0.0169160607359
0.363960057497,-0.283662080765,-0.390731185675,-2.10057425499,-0.264759272337,1.87144958973,-0.674874186516,0.0345321297646,-0.263562560081,0.339888364077,-0.220300927758,-0.112001985312,-1.28113555908,-0.151667103171,0.000237014479353,0.485927964506,-0.0639420958215,0.422685194528,0.0756980814925,0.930630010699,0.357977638789,-0.00704226215613
0.359759986401,-0.277965307236,-0.394606262445,-2.10239911079,-0.285701572895,1.86939418316,-0.674874603748,0.0345321297646,-0.271571785212,0.364552497864,-0.263575583696,-0.114332467318,-1.34064149857,-0.120542652905,0.000227150478167,0.485243619172,-0.0714379987214,0.419512969029,0.0839247127256,0.930174717175,0.357069200603,-0.0152716661842
0.355371952057,-0.272080510855,-0.399010151625,-2.10429859161,-0.307126611471,1.86763596535,-0.674876213074,0.0345321297646,-0.281863391399,0.364640891552,-0.283598780632,-0.118621014059,-1.32443380356,-0.104622632265,-0.000132111366838,0.484487676881,-0.0793456247897,0.416334312214,0.0922528252308,0.929647109088,0.355930381101,-0.0236480928253
0.349213600159,-0.264030307531,-0.405519604683,-2.10677289963,-0.336147040129,1.86570465565,-0.674883544445,0.0345321297646,-0.293357163668,0.385775268078,-0.318941920996,-0.114996939898,-1.36248230934,-0.0803585350513,-0.00176229584031,0.483373774782,-0.0903967169639,0.412212295902,0.103419846356,0.928820865466,0.354087361999,-0.0349037965234
0.340185850859,-0.252405405045,-0.415837466717,-2.11009192467,-0.377122014761,1.86374688148,-0.674914300442,0.0345321297646,-0.310928821564,0.396627515554,-0.373675912619,-0.103988498449,-1.40421259403,-0.0534000433981,-0.00352093088441,0.481566149474,-0.106631034799,0.406677507161,0.118919970386,0.927426930263,0.350944386643,-0.0507480722155
0.335146188736,-0.246119365096,-0.422100245953,-2.11162757874,-0.399681448936,1.8629860878,-0.6749817729,0.0345321297646,-0.324086338282,0.391284048557,-0.409674495459,-0.0868617147207,-1.4180521965,-0.0554977208376,-0.00629207585007,0.480460167568,-0.115857695897,0.403961467853,0.127346118166,0.926545823295,0.348973286662,-0.0592743486097
0.329322338104,-0.239196300507,-0.429646581411,-2.1130092144,-0.425263673067,1.86207783222,-0.675162434578,0.0345321297646,-0.328414142132,0.389940589666,-0.439556449652,-0.0635440424085,-1.43758690357,-0.0418976023793,-0.0201469920576,0.479047726531,-0.126578477651,0.401236717666,0.136787318107,0.9254579906,0.346523289233,-0.0688356516752
0.32310256362,-0.2320548594,-0.438000589609,-2.1140229702,-0.451344072819,1.86148405075,-0.675530195236,0.0345321297646,-0.355868250132,0.394523948431,-0.483963638544,-0.0496489852667,-1.44083929062,-0.0222296249121,-0.0249294843525,0.477481890742,-0.137926657217,0.398734529721,0.14630520614,0.924281704862,0.343714256835,-0.0784769140919
0.30530154705,-0.214812144637,-0.462050139904,-2.11467456818,-0.518264532089,1.86128640175,-0.677569627762,0.0345406681299,-0.388809531927,0.322270840406,-0.542986273766,0.00970222987235,-1.35713922977,-0.00129237677902,-0.053123652935,0.472571216665,-0.169020190856,0.39422479133,0.170246783653,0.9210463593,0.335028853819,-0.102202267426
0.300973385572,-0.211307480931,-0.468283116817,-2.11454463005,-0.533293247223,1.86129367352,-0.678149878979,0.0345406681299,-0.390957355499,0.310686767101,-0.571958482265,0.0079134106636,-1.33597064018,0.000136549162562,-0.0565770193934,0.470988506617,-0.17719167729,0.393503481131,0.175875205821,0.920298693759,0.332378710422,-0.10790096748
0.291760772467,-0.204422175884,-0.482374161482,-2.11402916908,-0.564542770386,1.86144447327,-0.679686367512,0.0345406681299,-0.378674685955,0.26476046443,-0.58337110281,0.034685343504,-1.30188000202,0.0131575204432,-0.0805533528328,0.467650819761,-0.192669891117,0.392519208129,0.185914676419,0.918931673554,0.327126366037,-0.118273635088
0.285590171814,-0.200526148081,-0.491988092661,-2.11327695847,-0.584621071815,1.86170125008,-0.681186676025,0.0345406681299,-0.397736877203,0.222076639533,-0.620873808861,0.0520902499557,-1.20383417606,0.0163496937603,-0.1021810323,0.465144415187,-0.203395941733,0.392321658143,0.192543298523,0.917985627248,0.323433141978,-0.124981873537
0.272330850363,-0.193790003657,-0.513926625252,-2.11041378975,-0.624520421028,1.86273550987,-0.68516844511,0.0345406681299,-0.389498651028,0.167082890868,-0.665055096149,0.108879253268,-1.1174775362,0.040368873626,-0.149507835507,0.459150454467,-0.226424484418,0.393005001156,0.205298728666,0.916412211596,0.314709128374,-0.137837783809
0.265956103802,-0.191321209073,-0.524680256844,-2.10848069191,-0.641705751419,1.86359286308,-0.687935650349,0.0345406681299,-0.391559481621,0.13585960865,-0.668724358082,0.12705090642,-1.03666126728,0.074391938746,-0.184375941753,0.456064974162,-0.237221582452,0.393805626306,0.210597866146,0.915829884195,0.310494121072,-0.143169698086
0.259287655354,-0.189362227917,-0.536177158356,-2.10610222816,-0.658486485481,1.8651330471,-0.691013395786,0.0345406681299,-0.390504956245,0.0983621031046,-0.680566012859,0.156940951943,-0.935297787189,0.0996068418026,-0.179071739316,0.452746107885,-0.248398976591,0.394997909201,0.215734835284,0.915419668505,0.305901018152,-0.1479522833
0.251751989126,-0.187841802835,-0.549271523952,-2.10272073746,-0.675335586071,1.86703956127,-0.694565713406,0.0345406681299,-0.385325670242,0.0564973466098,-0.693276047707,0.19313621521,-0.827596843243,0.115235008299,-0.197642937303,0.44884805398,-0.260743029218,0.396777828452,0.220802716928,0.915331479012,0.300299627081,-0.152428925679
0.242504715919,-0.187172085047,-0.566147685051,-2.09750103951,-0.693503379822,1.87018227577,-0.699647665024,0.0345406681299,-0.38351982832,0.00690266350284,-0.705455541611,0.234654545784,-0.693768799305,0.154441013932,-0.228416576982,0.443798200533,-0.275876484476,0.399694561052,0.226192723453,0.91572827107,0.292922405378,-0.156445036763
0.23362635076,-0.187387034297,-0.582903206348,-2.0914580822,-0.708160936832,1.87458980083,-0.70485574007,0.0345478914678,-0.354495167732,-0.0172463916242,-0.703245818615,0.27311232686,-0.55391895771,0.212092548609,-0.213686823845,0.438852683965,-0.290227878689,0.403080417827,0.230637760877,0.91664253459,0.285331723818,-0.158614293501
0.227316871285,-0.18799816072,-0.595499992371,-2.08633065224,-0.71746045351,1.87876772881,-0.708912312984,0.0345478914678,-0.348950177431,-0.0568875819445,-0.699969530106,0.295045346022,-0.477616518736,0.254569530487,-0.229860022664,0.435657731986,-0.29945739453,0.405616269957,0.23332107119,0.917436129398,0.280253332477,-0.159154941896
0.221813559532,-0.189092606306,-0.60650831461,-2.08161282539,-0.724643290043,1.88315176964,-0.712589085102,0.0345478914678,-0.341034710407,-0.0726763606071,-0.681191444397,0.291522502899,-0.415729612112,0.293340414762,-0.236814558506,0.432095503623,-0.309516641213,0.408716116531,0.236118697552,0.918493225511,0.27454711041,-0.158877434532
0.215544402599,-0.190822780132,-0.619090437889,-2.07590103149,-0.731465995312,1.88905906677,-0.717012524605,0.0345478914678,-0.329262197018,-0.106623239815,-0.647897601128,0.312892019749,-0.321840763092,0.32671380043,-0.222070157528,0.428513608833,-0.319495121555,0.412113963106,0.238697943694,0.919769824307,0.268707068345,-0.157617489744
0.206380859017,-0.194733396173,-0.63773214817,-2.06683659554,-0.738991618156,1.89976739883,-0.723193645477,0.0345478914678,-0.288787305355,-0.167649954557,-0.590597093105,0.287317603827,-0.202255859971,0.390059292316,-0.19784899056,0.423129039669,-0.334328950879,0.417961252859,0.242369993486,0.922216115841,0.259314605583,-0.153395426768
0.200975447893,-0.198402523994,-0.648354709148,-2.06160712242,-0.742166876793,1.9072445631,-0.726905286312,0.0345478914678,-0.28128516674,-0.208937883377,-0.527716159821,0.263312011957,-0.129703521729,0.386282801628,-0.190620020032,0.420235959057,-0.342002214459,0.42149202373,0.244243887585,0.923707181907,0.254280492989,-0.149837899208
0.19665786624,-0.201844096184,-0.656500577927,-2.0576198101,-0.743854105473,1.91330397129,-0.729877054691,0.0345478914678,-0.259536504745,-0.22355286777,-0.487174898386,0.237817630172,-0.073076851666,0.380224943161,-0.177818879485,0.417737605387,-0.34819234616,0.424499971718,0.245585383662,0.925050848297,0.250046974397,-0.146441994235
0.184657633305,-0.215326488018,-0.676400601864,-2.04784274101,-0.744316995144,1.93123579025,-0.738106429577,0.0345478914678,-0.211571484804,-0.292022526264,-0.312289774418,0.158182471991,0.0267949122936,0.3318592906,-0.135675668716,0.410958193375,-0.363472877486,0.433448559902,0.248368425203,0.929172714992,0.23878946766,-0.133905865798
0.181407988071,-0.220268830657,-0.681272864342,-2.04533934593,-0.743076086044,1.93677294254,-0.740302860737,0.0345478914678,-0.177949801087,-0.290392637253,-0.270315974951,0.134225875139,0.112354971468,0.32336473465,-0.122641853988,0.409218388455,-0.367201539875,0.436205130168,0.248912814361,0.930466610077,0.235718285189,-0.129271760607
0.178160578012,-0.226813569665,-0.686237812042,-2.04297590256,-0.73930644989,1.94323599339,-0.742722988129,0.034552488476,-0.136337667704,-0.325901836157,-0.204465314746,0.0893873497844,0.237836569548,0.286414533854,-0.118191562593,0.407502974217,-0.370630401007,0.439263235622,0.248742092753,0.932224012084,0.232330141233,-0.12291650722
0.176116734743,-0.232378363609,-0.689249157906,-2.04169535637,-0.734653949738,1.94778323174,-0.744859576225,0.034552488476,-0.0968667790294,-0.327614992857,-0.155285537243,0.0606600083411,0.314044177532,0.252100259066,-0.132357493043,0.406446378136,-0.372424302317,0.441417257104,0.247887916421,0.933680760851,0.230157691313,-0.117555325371
0.174302771688,-0.240375682712,-0.692509174347,-2.04075336456,-0.724457085133,1.95360422134,-0.747737109661,0.034552488476,-0.0408340916038,-0.311724305153,-0.0974016711116,0.0166316702962,0.488256514072,0.206370800734,-0.0818910226226,0.405560703091,-0.373465450523,0.443816854228,0.24520697194,0.936041704583,0.227530663516,-0.109221174869
0.173920273781,-0.24603381753,-0.693922698498,-2.04064488411,-0.714157581329,1.95731878281,-0.749040424824,0.034552488476,-0.0107029955834,-0.293029665947,-0.0582920722663,-0.0054352642037,0.581689476967,0.195424944162,-0.0675665736198,0.405550965042,-0.372941620592,0.445047639986,0.242154164782,0.93801597122,0.225771001707,-0.102541955756
0.174006327987,-0.249426424503,-0.694332778454,-2.04075503349,-0.706384181976,1.95949614048,-0.749788880348,0.034552488476,0.0167899858207,-0.26789072156,-0.00973193719983,-0.0196034312248,0.727602422237,0.167566671968,-0.0718892216682,0.406068649674,-0.371492526168,0.445838990817,0.238397507227,0.940011745849,0.224417575062,-0.0958190894582
0.174813792109,-0.255667746067,-0.694315850735,-2.04133296013,-0.686191797256,1.96354234219,-0.751607298851,0.034552488476,0.0643747672439,-0.204249978065,0.00896180979908,-0.0250864792615,0.851241409779,0.139560490847,-0.0795738622546,0.407161276106,-0.368969261415,0.446135267918,0.233187528001,0.942326505887,0.223258187663,-0.0883182564198
0.178226858377,-0.261341810226,-0.693526506424,-2.04254341125,-0.657644867897,1.96754944324,-0.753845334053,0.034552488476,0.147401377559,-0.172043740749,0.0417777150869,-0.0590156540275,1.00138688087,0.127755254507,-0.0580881945789,0.410066472869,-0.363166436996,0.445678012942,0.22347130113,0.945903545549,0.222442352685,-0.0764621442869
0.181240737438,-0.264062434435,-0.692703723907,-2.0439350605,-0.638698577881,1.96999382973,-0.754694402218,0.034552488476,0.188674673438,-0.120678186417,0.0498444922268,-0.0903649553657,1.11146306992,0.127220332623,-0.0488829910755,0.412364808175,-0.358733528428,0.444822356043,0.216820431948,0.948050898388,0.222258066479,-0.0692079903609
0.184954032302,-0.265853017569,-0.691567361355,-2.04582858086,-0.618220448494,1.9722918272,-0.755533516407,0.034552488476,0.217722818255,-0.0842958465219,0.0794919878244,-0.118440367281,1.19478559494,0.123513400555,-0.0441697016358,0.415086349015,-0.353526156723,0.443375394198,0.209415250495,0.95015295535,0.222470020906,-0.0621426084724
0.19227296114,-0.267761975527,-0.688452124596,-2.05033588409,-0.58115452528,1.97604548931,-0.756723225117,0.0345537997782,0.279647380114,-0.034023348242,0.132677212358,-0.174898549914,1.3158390522,0.129524812102,-0.0298910923302,0.420620975215,-0.342706744757,0.439880317791,0.195143126269,0.953609153186,0.223704700608,-0.0500494739821
0.197603240609,-0.268037825823,-0.685841739178,-2.05373382568,-0.557259738445,1.97851383686,-0.757281243801,0.0345537997782,0.312556475401,-0.00926387496293,0.146766990423,-0.201368361712,1.34461283684,0.131694614887,-0.0304466933012,0.424230850869,-0.335692951584,0.437453944624,0.186618337999,0.955340831152,0.224962990314,-0.0434642949503
0.202045693994,-0.268011450768,-0.683695852757,-2.05670428276,-0.538712203503,1.98037147522,-0.757642805576,0.0345537997782,0.340620338917,0.00444686459377,0.163694813848,-0.228817746043,1.38499712944,0.128583520651,-0.0220684446394,0.427238659951,-0.329666115363,0.435285149281,0.179485754626,0.956640098463,0.226177286559,-0.0383199769497
0.209741085768,-0.267713516951,-0.679812729359,-2.06217503548,-0.508796453476,1.98292779922,-0.758148908615,0.0345537997782,0.382151484489,0.0222492013127,0.194015815854,-0.279600560665,1.41702413559,0.0994043052197,-0.0172293931246,0.432102461449,-0.319332877046,0.43146365917,0.167654729353,0.958499372449,0.228547354855,-0.0306096556772
0.217800572515,-0.266905635595,-0.675559401512,-2.0680603981,-0.479787558317,1.98465883732,-0.758524656296,0.0345537997782,0.428750365973,0.0549314729869,0.236486986279,-0.305611431599,1.48111367226,0.0835351198912,-0.0182286035269,0.43678395298,-0.308624729997,0.427379802257,0.155803610969,0.960035577926,0.231261172152,-0.0239831997718
0.239409774542,-0.26355728507,-0.662528514862,-2.08378648758,-0.409043878317,1.98767077923,-0.758803009987,0.0345537997782,0.478056311607,0.0924996286631,0.314638316631,-0.347225666046,1.49971139431,0.0590075775981,1.92308089026e-05,0.448264655158,-0.279808436345,0.416877739114,0.126210064669,0.962621022763,0.239442444921,-0.00995496726409
0.246962979436,-0.262006938457,-0.657425880432,-2.08914542198,-0.386492401361,1.98854064941,-0.758804917336,0.0345537997782,0.522440731525,0.11340495944,0.359517246485,-0.368355810642,1.50586366653,0.0509099252522,2.19305638893e-05,0.45199152305,-0.269719540321,0.413406005528,0.116677079114,0.963046720523,0.242674236742,-0.00605704662729
0.284476727247,-0.251782208681,-0.628827989101,-2.11145734787,-0.288122236729,1.98972499371,-0.758790969849,0.0345537997782,0.582815647125,0.18760086596,0.47949141264,-0.281790614128,1.37934994698,0.00175863597542,0.000135702968691,0.468315736048,-0.220099641012,0.398484950951,0.0750362645977,0.962431791734,0.260849349867,0.00722645286482
0.294602096081,-0.248372271657,-0.620404303074,-2.11602377892,-0.265325754881,1.98974168301,-0.75877904892,0.0345537997782,0.614145219326,0.206703260541,0.518660187721,-0.251020520926,1.30075037479,0.00214947061613,0.00192963483278,0.472236031268,-0.207009261152,0.395185355203,0.0655916153137,0.961603736868,0.266316220152,0.00957412223901
0.305019110441,-0.244841754436,-0.611222147942,-2.12006306648,-0.243651345372,1.98973655701,-0.75875210762,0.0345537997782,0.60379755497,0.218386426568,0.54680532217,-0.214255034924,1.27700603008,0.000547613948584,0.00362490606494,0.475891299818,-0.194394184787,0.392375313842,0.0572746857527,0.960530169186,0.271970825051,0.0115444562014
0.313627570868,-0.241644531488,-0.603399097919,-2.12282967567,-0.227090269327,1.98975837231,-0.758662700653,0.0345537997782,0.622193515301,0.240432485938,0.584344804287,-0.170403569937,1.10776698589,-0.00248157628812,0.0153822991997,0.479868788522,-0.18033541365,0.389516126855,0.0488618565099,0.959058659055,0.278642533057,0.0133171292778
0.335530459881,-0.233251184225,-0.581778347492,-2.12784814835,-0.190684050322,1.9897633791,-0.757815957069,0.0345537997782,0.621209621429,0.242044150829,0.654636144638,-0.10420833528,0.968212127686,0.00267851841636,0.0352417975664,0.486680720237,-0.155015276289,0.38534976515,0.0363585096752,0.955652137966,0.291826868346,0.0156246144602
0.346797853708,-0.228756800294,-0.56992995739,-2.1292860508,-0.174011781812,1.98975598812,-0.756900370121,0.0345583967865,0.638707339764,0.245394155383,0.680583059788,-0.0588355362415,0.878533363342,0.00674667349085,0.0625945031643,0.49029328093,-0.140794542286,0.383500932478,0.0303698612148,0.953468784685,0.299493842357,0.0166849105543
0.356951743364,-0.224904298782,-0.558705687523,-2.12995219231,-0.160876855254,1.98976504803,-0.755893230438,0.0345583967865,0.619770884514,0.229167982936,0.714356482029,-0.022085364908,0.771049022675,-0.00255063804798,0.0712219923735,0.493400177802,-0.128027231134,0.382247578649,0.025915785275,0.95125343135,0.306819821136,0.0175179469654
0.368792146444,-0.220663830638,-0.544942200184,-2.13007044792,-0.147371098399,1.98978710175,-0.754261612892,0.0345583967865,0.630527317524,0.215467005968,0.740207970142,0.00540991639718,0.666646659374,0.00204976228997,0.107559911907,0.496831687978,-0.11309323846,0.381226676796,0.0216344075307,0.948434519314,0.315696324637,0.0184321806779
0.383112132549,-0.215687841177,-0.527521908283,-2.12973451614,-0.133296057582,1.9901047945,-0.751123070717,0.0345583967865,0.617366969585,0.208171486855,0.770358264446,0.0196572877467,0.564450323582,0.0263983793557,0.165882229805,0.500630866519,-0.0949509892691,0.380311165446,0.0175480665064,0.944813349352,0.32656426922,0.0193798349958
0.394683718681,-0.212096124887,-0.51265078783,-2.12922334671,-0.123462542892,1.99062287807,-0.747253954411,0.0345583967865,0.597389101982,0.16485221684,0.79646229744,0.0315012633801,0.477427810431,0.0313573516905,0.238421991467,0.503384026655,-0.0800851580811,0.379894213332,0.014982845439,0.941772984501,0.335307149422,0.0202058219425
0.423691689968,-0.204836681485,-0.472724109888,-2.12626576424,-0.103658899665,1.99156999588,-0.731700122356,0.0345583967865,0.570015013218,0.129797875881,0.810000896454,0.0894167050719,0.349427849054,0.00646431697533,0.371672362089,0.508819295821,-0.0420867132362,0.380326791361,0.0107473403083,0.934018821632,0.356347126466,0.0225845225484
0.432890743017,-0.203104287386,-0.459238857031,-2.12463140488,-0.0985543504357,1.9916574955,-0.725539088249,0.0345583967865,0.563386380672,0.0964156240225,0.855567991734,0.114493653178,0.305248022079,0.00706855626777,0.394741475582,0.510251814367,-0.0282364750772,0.381122451554,0.00987879904847,0.931130043314,0.363781605794,0.0237106460915
0.442794770002,-0.201479837298,-0.444086074829,-2.12240362167,-0.0935545563698,1.99171710014,-0.718008100986,0.0345636494458,0.546768963337,0.0875026583672,0.818838655949,0.131748229265,0.264399141073,-0.000567218463402,0.447216898203,0.511287865592,-0.0162399797291,0.382087661496,0.00939501713914,0.928643172996,0.370021376391,0.0248550115331
0.467906981707,-0.198396071792,-0.403825044632,-2.11485600471,-0.082845300436,1.99181568623,-0.692998588085,0.0345636494458,0.489230036736,0.0365386679769,0.825182974339,0.18407791853,0.17667427659,-0.000646089378279,0.595890820026,0.513137685121,0.0188150111193,0.386142945222,0.00888673794348,0.921905407825,0.38621689903,0.0291196067727
0.47519788146,-0.197940632701,-0.391497790813,-2.11201667786,-0.0803503170609,1.99182343483,-0.683882594109,0.0345636494458,0.481923133135,0.0265039876103,0.814929008484,0.198311582208,0.155238881707,-0.00182944419794,0.614199697971,0.513374767098,0.0299406068911,0.387947547412,0.00903868235348,0.919958015592,0.390692843638,0.0308974656037
0.483695596457,-0.197470679879,-0.376780450344,-2.10842514038,-0.0775047838688,1.9918295145,-0.67234480381,0.0345636494458,0.450387507677,0.0209120512009,0.812722921371,0.201604560018,0.140966966748,-0.00031635677442,0.65984672308,0.513416473524,0.041610687339,0.389962439631,0.0092059305251,0.918021382611,0.395057778105,0.0328837885907
0.504945278168,-0.197275072336,-0.335810720921,-2.09658932686,-0.0721623748541,1.99181604385,-0.632816314697,0.0345636494458,0.370211243629,-0.00306558632292,0.757264852524,0.242981761694,0.0665139853954,0.00160832621623,0.823761224747,0.512631894651,0.0744848224981,0.397237826337,0.0105413407459,0.91390595208,0.403823320555,0.0398938133534
0.510911047459,-0.197381049395,-0.322972565889,-2.09245061874,-0.0715306401253,1.99183595181,-0.618326067924,0.0345636494458,0.33095023036,-0.0055531617254,0.744161427021,0.250431269407,0.00816151313484,-0.00118288991507,0.878586947918,0.512134556984,0.0843041710297,0.399792163295,0.0113052769857,0.9130660746,0.405452443155,0.0423184374339
0.515960216522,-0.197536543012,-0.311402738094,-2.08844304085,-0.0714968442917,1.99182987213,-0.604258060455,0.0345636494458,0.30425786972,-0.0125773204491,0.711624324322,0.246845215559,-0.00017992281937,0.00133880798239,0.883871376514,0.511627711509,0.0929178314613,0.40225202544,0.0121827372848,0.912527613331,0.406390081782,0.0446322409256
0.520904123783,-0.197751685977,-0.299748629332,-2.08432555199,-0.0715076327324,1.99184203148,-0.58917093277,0.0345636494458,0.269502848387,-0.00888152513653,0.658516824245,0.236967340112,-0.000334157986799,-0.00168060325086,0.897498965263,0.510995179914,0.101529098533,0.404794790347,0.0130092954716,0.9121864208,0.406855646356,0.0470656419046
0.532659828663,-0.198854222894,-0.270620882511,-2.0739607811,-0.0727966725826,1.99184298515,-0.54460555315,0.0345662757754,0.204058676958,-0.033910613507,0.522615730762,0.189549475908,-0.0841902047396,0.000240168752498,0.899461686611,0.508829251546,0.122569735209,0.411443727711,0.0151555659697,0.912705938837,0.404813425304,0.0535188602761
0.535849809647,-0.199432402849,-0.262733608484,-2.07107067108,-0.0745679363608,1.99181878567,-0.530452787876,0.0345662757754,0.192413896322,-0.0378218777478,0.462914645672,0.166526883841,-0.139664530754,-0.00514464406297,0.855920135975,0.508142159334,0.128045472855,0.413423257075,0.0162430045683,0.91314240973,0.403531370845,0.055403400434
0.539192914963,-0.200178191066,-0.255188763142,-2.06836509705,-0.0779027938843,1.99169135094,-0.515289485455,0.0345662757754,0.180483609438,-0.0419279821217,0.381130725145,0.136556953192,-0.228762105107,-0.0136206522584,0.822132050991,0.507417679044,0.133160280101,0.415378639037,0.0179335420424,0.913696842477,0.4019534244,0.0571831479627
0.545714139938,-0.202477678657,-0.241855159402,-2.06316661835,-0.0941934660077,1.99020850658,-0.478405028582,0.0345662757754,0.0823576301336,-0.0471516959369,0.194520324469,0.0799965336919,-0.46017485857,-0.0468660145998,0.688483893871,0.506248570901,0.140789683604,0.419466556284,0.0252720512384,0.915747732979,0.396407864495,0.0602346878247
0.546810388565,-0.203310862184,-0.239191114902,-2.06202411652,-0.102709010243,1.9892693758,-0.467270076275,0.0345662757754,0.0475299321115,-0.0487519614398,0.125346794724,0.0575525313616,-0.532575488091,-0.0542280897498,0.635969281197,0.506190849381,0.14133762687,0.420499252023,0.0290346526947,0.916528100346,0.394272581945,0.0606824606085
0.547313868999,-0.204133227468,-0.237732768059,-2.06129598618,-0.111710496247,1.98838233948,-0.457641661167,0.0345662757754,0.0093620819971,-0.0504634864628,0.0493274219334,0.0364080443978,-0.592678725719,-0.0534504465759,0.5623716712,0.506376919692,0.140750902752,0.421395778839,0.0335068299086,0.917416479118,0.39180546148,0.0609325547503
0.547118365765,-0.205066487193,-0.237492412329,-2.06065893173,-0.125340208411,1.98697566986,-0.446408122778,0.0345662757754,-0.0370439477265,-0.0300757978112,-0.0185494441539,0.02384371683,-0.649046003819,-0.0776394754648,0.472066342831,0.506905840467,0.138677958985,0.42209260311,0.0389713440652,0.918412104263,0.388979595242,0.0607891047186
0.544763684273,-0.205941364169,-0.239298954606,-2.06017613411,-0.145310074091,1.98418998718,-0.434424877167,0.034568246454,-0.127395227551,-0.019876183942,-0.0971368774772,0.0111700659618,-0.708617031574,-0.0986607223749,0.362888723612,0.508126729475,0.133235131682,0.422674117281,0.0477987098467,0.919941887911,0.38452992015,0.0596569056798
0.542386949062,-0.206153303385,-0.241338655353,-2.06005430222,-0.156843051314,1.9826079607,-0.428921431303,0.034568246454,-0.166314825416,-0.0111823752522,-0.158295765519,0.00289309793152,-0.730479001999,-0.0913503915071,0.315059989691,0.509083709892,0.129063966178,0.422782709172,0.0529196693935,0.920907722557,0.381681292971,0.058718526916
0.539125561714,-0.206245020032,-0.244753479958,-2.06003189087,-0.170271798968,1.9810076952,-0.423807710409,0.034568246454,-0.202425539494,-0.00168083643075,-0.217617839575,-0.000304187880829,-0.761777877808,-0.0945516303182,0.251504153013,0.51040039284,0.123431601215,0.42278990634,0.0588717450866,0.922036109156,0.378252844361,0.0575179663908
0.534817039967,-0.206193476915,-0.249498203397,-2.05999612808,-0.184733703732,1.97930669785,-0.419970303774,0.034568246454,-0.254565447569,0.00714394822717,-0.283298254013,0.00431517558172,-0.754429996014,-0.0801709070802,0.154834419489,0.512104733628,0.116000219789,0.422718835162,0.0656166396441,0.92330913269,0.374253086093,0.055940408704
0.528626799583,-0.205979987979,-0.256628572941,-2.05994582176,-0.200871169567,1.97754538059,-0.418117284775,0.034568246454,-0.305043965578,0.0150230461732,-0.361773371696,0.00516747124493,-0.716999411583,-0.0702550858259,0.0274946726859,0.513927137071,0.107808132258,0.422584395011,0.0717836464722,0.924550946651,0.370280092576,0.0542706907109
0.520407438278,-0.205343842506,-0.266720831394,-2.05971884727,-0.2181442976,1.9757720232,-0.418038606644,0.034568246454,-0.353030920029,0.0285282619298,-0.454228997231,0.0163706522435,-0.668956935406,-0.0602400638163,0.000225044088438,0.516722963356,0.0946007928922,0.422237432412,0.079972197086,0.926550667132,0.363933511417,0.0515820499938
0.514883041382,-0.204918399453,-0.273791015148,-2.05941319466,-0.227691739798,1.97486841679,-0.418073862791,0.034568246454,-0.36463201046,0.0287833828479,-0.46918079257,0.023859789595,-0.640985071659,-0.0633576959372,-0.00225504441187,0.518334443684,0.0865095444492,0.422078274264,0.0840677201103,0.927982317652,0.359543059398,0.0501021424973
0.506258130074,-0.204185277224,-0.285168766975,-2.05858707428,-0.239787012339,1.9735429287,-0.418484807014,0.0345695614815,-0.429660439491,0.0362279191613,-0.579527974129,0.0514037758112,-0.546552062035,-0.0709424167871,-0.0366199538112,0.520504810889,0.0747332314708,0.421909843655,0.0889145845169,0.930291968041,0.352620533008,0.0480604852624
0.493011832237,-0.202323183417,-0.30412748456,-2.0565264225,-0.254598259926,1.97190225124,-0.421003758907,0.0345695614815,-0.464638411999,0.0682061985135,-0.690006017685,0.0811112076044,-0.438209474087,-0.043944645673,-0.116591207683,0.523817751492,0.0548527641652,0.421545898384,0.0951823391347,0.934297037559,0.34063725964,0.044672418279
0.483892649412,-0.201084077358,-0.317927241325,-2.0547451973,-0.262005954981,1.97121143341,-0.423777610064,0.0345695614815,-0.492933541536,0.0688486397266,-0.757151782513,0.102485522628,-0.344093650579,-0.0294214561582,-0.179499804974,0.525621706859,0.0423178584021,0.421436018395,0.0978982461598,0.936927794735,0.332783949482,0.0428612121337
0.476484000683,-0.199931889772,-0.329625278711,-2.05297017097,-0.266696691513,1.97077202797,-0.42687150836,0.0345695614815,-0.495840728283,0.0863173604012,-0.785685241222,0.128273576498,-0.285123467445,-0.0272381789982,-0.237165510654,0.527101908893,0.0307622935585,0.421375891249,0.0997388059283,0.939349648369,0.325527200535,0.0413092011598
0.45895409584,-0.196752026677,-0.35812664032,-2.04771518707,-0.273974627256,1.97039949894,-0.437551617622,0.0345721878111,-0.531482338905,0.100222162902,-0.885001599789,0.186197400093,-0.146534979343,-0.00728853465989,-0.382083117962,0.5298116582,0.00520199993561,0.421438072207,0.102181259281,0.944464361922,0.30995768018,0.0383705029439
0.450001239777,-0.195173561573,-0.373371601105,-2.04447793961,-0.275893360376,1.97039175034,-0.444521039724,0.0345721878111,-0.506059706211,0.085142634809,-0.902829170227,0.192467719316,-0.0567541606724,0.000701875833329,-0.43955090642,0.530886013705,-0.00876743796245,0.421698941202,0.102655143933,0.947162984078,0.301602987198,0.0371462086775
0.439747363329,-0.193375334144,-0.391462057829,-2.04054093361,-0.276256144047,1.97037994862,-0.453612715006,0.0345721878111,-0.522164821625,0.0979449599981,-0.917767882347,0.205045327544,0.000106841544039,-0.000824043469038,-0.474902778864,0.531609892697,-0.0232314537307,0.421975214292,0.102362410025,0.949959497371,0.29291854569,0.0360224325718
0.416186571121,-0.189836591482,-0.43280801177,-2.03104662895,-0.275365382433,1.97037982941,-0.475704044104,0.0345721878111,-0.503777682781,0.0460738614202,-0.860212266445,0.198336660862,0.0723432898521,-0.000749048369471,-0.474687457085,0.531782812782,-0.0580316167424,0.423046020968,0.101080232649,0.956331739774,0.272140242205,0.0339422794123
0.407938539982,-0.189156338573,-0.446114420891,-2.02806377411,-0.27399545908,1.97039079666,-0.483089059591,0.0345721878111,-0.513453364372,0.0358735993505,-0.816528439522,0.176298737526,0.10410951823,0.00293648382649,-0.448904275894,0.531204823126,-0.0701567726772,0.423544389288,0.100126760467,0.958557607392,0.264607813812,0.0335357974362
0.398290753365,-0.18874014914,-0.461037278175,-2.02477264404,-0.271715193987,1.97036790848,-0.491429686546,0.0345721878111,-0.498333334923,0.00776633992791,-0.745509266853,0.167518898845,0.148486286402,0.000686043989845,-0.426251977682,0.530271561097,-0.0823689374807,0.42413270521,0.0988452098723,0.960822180992,0.25678594763,0.0333367333613
0.376604557037,-0.189543306828,-0.491948634386,-2.01754570007,-0.2609167099,1.9700820446,-0.509606480598,0.0345721878111,-0.427852213383,-0.0477981455624,-0.576961755753,0.132573693991,0.296109318733,-0.0193648915738,-0.3404314816,0.527000616495,-0.109083739416,0.426130653626,0.093398866066,0.96610697447,0.2381523025,0.0346041356715
0.368653804064,-0.190761640668,-0.502279996872,-2.01514077187,-0.254517316818,1.96960890293,-0.515914916992,0.0345721878111,-0.375685572624,-0.0705784857273,-0.458338230848,0.105100870132,0.346633851528,-0.0280004404485,-0.289441943169,0.52538783847,-0.11793647244,0.427090481934,0.0902702730998,0.968051992174,0.231190222031,0.035744918152
0.363410741091,-0.191972106695,-0.508657753468,-2.01361656189,-0.249189317226,1.96906721592,-0.52006238699,0.0345721878111,-0.324200391769,-0.0930253341794,-0.393728464842,0.0870610773563,0.372313439846,-0.0443438254297,-0.257714480162,0.524210400929,-0.123358458137,0.427842669557,0.0876883848977,0.969333776785,0.22660420988,0.0367873360731
0.352076083422,-0.198513418436,-0.522854149342,-2.01054573059,-0.230626404285,1.96561777592,-0.52889251709,0.0345748141408,-0.130426630378,-0.154342532158,-0.174960687757,0.0436979681253,0.401849776506,-0.0956927016377,-0.107820056379,0.520671184707,-0.134189257504,0.430653811775,0.0783272472967,0.972574841582,0.215131639927,0.0410048417764
0.350619345903,-0.201105073094,-0.525054872036,-2.0100107193,-0.224217459559,1.96387803555,-0.530371725559,0.0345748141408,-0.0568003244698,-0.168590992689,-0.101734124124,0.02701353468,0.397130340338,-0.118120439351,-0.0717975795269,0.519826326485,-0.135163751933,0.431608844029,0.0750213804733,0.973258596613,0.212919747421,0.0424814952959
0.350195795298,-0.204022943974,-0.525990068913,-2.00963282585,-0.217914283276,1.96190798283,-0.530959427357,0.0345748141408,0.000809043238405,-0.186423063278,-0.0160955879837,0.0186061523855,0.383914977312,-0.121405154467,-0.00818611681461,0.519168377625,-0.134940129169,0.432686001109,0.0717285453663,0.973766805866,0.21140293115,0.0440684010253
0.350967943668,-0.208023682237,-0.525238335133,-2.00923037529,-0.210093721747,1.95952188969,-0.530943572521,0.0345748141408,0.0731941610575,-0.185173839331,0.0849852859974,0.0227596964687,0.364810854197,-0.112563088536,0.00460347766057,0.518726284712,-0.132983372738,0.434290470802,0.0677096553486,0.97409613344,0.210713270435,0.0463901147632
0.354695528746,-0.213209763169,-0.520902812481,-2.00844144821,-0.20029835403,1.95631802082,-0.530512213707,0.0345748141408,0.175904974341,-0.173282027245,0.213346019387,0.0339676290751,0.31721830368,-0.117545038462,0.0427281111479,0.518917926409,-0.127334557019,0.436728637684,0.0628611282823,0.973846731545,0.212614673919,0.0496590589895
0.358896642923,-0.216279432178,-0.515666663647,-2.00758600235,-0.194212287664,1.9540489912,-0.52916431427,0.0345748141408,0.236966505647,-0.141651391983,0.303050041199,0.050005838275,0.290167272091,-0.109836377203,0.0916301459074,0.519511351768,-0.121847146075,0.438413898715,0.060129337022,0.9733369354,0.215229806864,0.0517281639699
0.36311841011,-0.218392714858,-0.510221481323,-2.00670790672,-0.189988508821,1.95236217976,-0.527167201042,0.0345748141408,0.283280074596,-0.12390422821,0.371013343334,0.0613213218749,0.252769351006,-0.0988619476557,0.164412721992,0.520333910082,-0.1158678457,0.439979273222,0.0581252130651,0.972677493197,0.218295787469,0.0535434655306
0.368738859892,-0.220404207706,-0.502861618996,-2.00548434258,-0.185948431492,1.95076465607,-0.523348271847,0.0345748141408,0.343607246876,-0.0951971411705,0.448339104652,0.0707565844059,0.208480030298,-0.0785631239414,0.266277909279,0.521488660683,-0.108515517253,0.441724734855,0.0564693682302,0.971843936399,0.221916262005,0.0555314873555
