imanlab/tactile_prediction_flat_dataset/train/data_sample_2021-11-24-16-38-40/robot_state.csv
position_panda_joint1,position_panda_joint2,position_panda_joint3,position_panda_joint4,position_panda_joint5,position_panda_joint6,position_panda_joint7,position_panda_finger,velocity_panda_joint1,velocity_panda_joint2,velocity_panda_joint3,velocity_panda_joint4,velocity_panda_joint5,velocity_panda_joint6,velocity_panda_joint7,ee_state_position_x,ee_state_position_y,ee_state_position_z,ee_state_orientation_x,ee_state_orientation_y,ee_state_orientation_z,ee_state_orientation_w
-0.278486132622,0.133734062314,0.243295013905,-2.52475690842,-0.0185933709145,2.67970013618,-0.745507240295,0.0712036788464,8.75164405443e-05,0.000274337886367,0.000458429392893,0.000229033568758,5.51583179913e-05,-9.6617732197e-05,0.000101269011793,0.468720756556,-0.0109271383795,0.118287778752,-0.00608279776863,0.934985454835,0.354262332007,0.0162295602252
-0.278484433889,0.133735612035,0.243295520544,-2.52475595474,-0.018593031913,2.67969965935,-0.745506882668,0.0712036788464,0.000629112590104,0.00117286341265,-2.01159182325e-05,1.63758159033e-05,1.37853048727e-05,-0.000112674650154,-0.000477619207231,0.468720854283,-0.0109260207922,0.118287369116,-0.00608328477895,0.93498519104,0.35426303651,0.0162291968583
-0.278480172157,0.133734688163,0.243296310306,-2.52475619316,-0.0185932870954,2.67969965935,-0.745506227016,0.0712036788464,0.000326334877172,0.000470441824291,-8.53045639815e-05,0.000122047924378,3.56036653102e-05,0.00068257789826,0.000184990029084,0.468720983043,-0.0109236867014,0.118287718125,-0.00608308898132,0.93498436763,0.354265201401,0.0162294509232
-0.278479427099,0.133734673262,0.243297830224,-2.52475547791,-0.0185938328505,2.67969822884,-0.745506882668,0.0712036788464,-0.000135381662403,-0.000693524139933,-2.35388943111e-05,-0.000387760432204,-2.36088217207e-05,-2.25642506848e-05,-0.000330799695803,0.468721082199,-0.0109226128734,0.118287862225,-0.00608319025803,0.934983770819,0.354266789263,0.0162291346871
-0.278484880924,0.133735060692,0.243295371532,-2.52475905418,-0.0185925886035,2.67969918251,-0.745508491993,0.0712036788464,-0.00308667425998,0.000362223247066,-0.000312061252771,7.1019596362e-05,-2.04172301892e-05,2.66052006737e-06,-0.000238924461883,0.468719255857,-0.0109262304496,0.118286500375,-0.00608388127891,0.934985085341,0.354263368936,0.0162278061817
-0.278484642506,0.133733153343,0.243296802044,-2.52475857735,-0.018595052883,2.67969989777,-0.745507478714,0.0712036788464,0.000139348820085,0.00017008408031,-0.000322848558426,0.000382566766348,6.2426464865e-05,-0.000170036029886,0.000653181283269,0.468720159599,-0.0109256202219,0.118287608972,-0.00608269368109,0.934984674383,0.354264418964,0.0162290064094
-0.278482198715,0.133736044168,0.243297174573,-2.5247592926,-0.0185940936208,2.67969846725,-0.745506703854,0.0712030231953,0.00308954389766,0.000477125839097,-0.000320518389344,-0.000145620724652,4.84255651827e-05,6.30485737929e-05,5.42574016436e-05,0.468718837147,-0.0109240442577,0.11828593262,-0.0060841805162,0.934984385934,0.354265251104,0.0162269021176
-0.278482973576,0.133732706308,0.243297442794,-2.52476024628,-0.0185925345868,2.67969918251,-0.745508134365,0.0712030231953,-0.000728511833586,-8.38016276248e-05,6.77669304423e-05,0.000396417221054,1.65786659636e-05,-3.92847177864e-05,8.89602051757e-06,0.468719185534,-0.0109244189716,0.118287188835,-0.00608356698626,0.934984440525,0.354265054692,0.0162282746656
-0.278480857611,0.133734554052,0.243295565248,-2.52475690842,-0.0185928996652,2.67969870567,-0.745508015156,0.0712030231953,-0.00358725269325,-0.00240219174884,3.3453648939e-05,8.0497811723e-05,-6.29414062132e-05,-5.00374771946e-05,0.000203638453968,0.468720413339,-0.0109243470975,0.118287430762,-0.00608338338632,0.934984368146,0.354265227347,0.016228744496
-0.278481900692,0.133735582232,0.24329675734,-2.52475833893,-0.0185928605497,2.67969918251,-0.745507717133,0.0712030231953,0.00028422329342,0.000268183008302,-0.000424240541179,0.000369827495888,3.16436926369e-05,-0.00578740565106,-0.000197780114831,0.468719576124,-0.0109241477262,0.118286532927,-0.00608395544829,0.934984410269,0.354265143012,0.016227944173
-0.278482496738,0.13373452425,0.243296191096,-2.52475547791,-0.0185930244625,2.67969965935,-0.745507717133,0.0712030231953,0.000299015955534,-0.00273827766068,0.000197964182007,0.000251180055784,-2.03636573133e-05,-0.00522266374901,-0.000936925935093,0.46872135893,-0.0109248614136,0.118288038131,-0.00608291870686,0.934984574402,0.354264639211,0.0162298743208
-0.278485029936,0.133733600378,0.243294298649,-2.52475571632,-0.018591934815,2.67969918251,-0.74550640583,0.0712030231953,0.000160092866281,-0.000518523214851,0.00032108114101,-0.000174884247826,-3.05035864585e-05,-8.05192321423e-05,0.000464880198706,0.468721260552,-0.0109270035701,0.118288300804,-0.00608288497773,0.934985753904,0.354261523996,0.0162299355876
-0.278482288122,0.133733958006,0.243294656277,-2.52475905418,-0.0185941252857,2.6797003746,-0.745506644249,0.0712030231953,-0.000278618099401,-0.000173657870619,0.00020056705398,0.000561828259379,-4.66169112769e-05,0.000136590344482,0.000755636196118,0.468719569256,-0.0109256049856,0.118287163363,-0.00608288162766,0.934984713495,0.354264335632,0.0162285016953
-0.278481274843,0.133734062314,0.243296176195,-2.52475762367,-0.0185934174806,2.679697752,-0.745507717133,0.0712030231953,-0.00053002871573,-0.000565943832044,-0.000147593353176,2.48078886216e-05,-1.0602857401e-05,9.11212700885e-05,-0.000403907179134,0.468719945391,-0.0109242526694,0.118287326641,-0.00608347978173,0.934984308783,0.354265409541,0.0162281512178
-0.278481900692,0.133733347058,0.243296891451,-2.52475881577,-0.0185940526426,2.67969965935,-0.745507538319,0.0712030231953,5.12637161592e-05,-0.000471086037578,-4.89489757456e-05,4.49674043921e-05,8.55682374095e-05,-0.000705603684764,0.000354708463419,0.468719896492,-0.0109242247907,0.118287428203,-0.00608304589174,0.934984217057,0.354265631653,0.0162287498506
-0.278483331203,0.133733928204,0.243297159672,-2.52475762367,-0.0185920167714,2.67969942093,-0.745505809784,0.0712030231953,-0.00016394724662,-0.000327754532918,-0.000368738779798,6.67039967084e-06,-5.9434078139e-06,-5.5228058045e-05,0.000727857521269,0.468720331018,-0.0109247253588,0.118287559734,-0.00608348650662,0.934985047397,0.354263415293,0.0162291283289
-0.27848392725,0.133735790849,0.243294969201,-2.52475667,-0.0185929108411,2.67969846725,-0.745507776737,0.0712030231953,-0.00378574547358,-0.000269307871349,-0.000106895189674,0.000571871874854,-3.72436079488e-05,-2.01695165742e-05,-2.83528370346e-05,0.4687206907,-0.0109264026506,0.11828758062,-0.00608334054832,0.934985358637,0.354262601335,0.0162290197565
-0.27848136425,0.133734285831,0.243297070265,-2.52475738525,-0.0185924973339,2.67969942093,-0.745507180691,0.0712030231953,0.000128659914481,-0.000167264501215,-0.00012289560982,4.95220519952e-05,-6.89036096446e-05,-2.75621150649e-05,-0.00057736603776,0.468720400007,-0.0109238425776,0.118287478338,-0.00608344353399,0.934984399308,0.354265130031,0.0162290509306
-0.278481602669,0.133734598756,0.243297159672,-2.52475810051,-0.0185937620699,2.67969894409,-0.745506167412,0.0712030231953,-0.000205423639272,-4.12099689129e-05,-0.000485889526317,0.000112924448331,-3.27413326886e-05,-1.36932030728e-05,0.000159706687555,0.468719861131,-0.0109238907175,0.118287045215,-0.00608350665738,0.934984414764,0.354265123741,0.0162282741058
-0.27848136425,0.133735492826,0.243298560381,-2.5247592926,-0.0185919124633,2.67969942093,-0.745506048203,0.0712030231953,-0.000159826187883,0.000116793780762,-0.000367942877347,-0.000292635930236,0.000124306578073,-0.00141736480873,-6.04193737672e-05,0.4687191934,-0.0109229691406,0.118286294782,-0.00608440125793,0.934984440816,0.354265061909,0.0162277875615
-0.278484076262,0.133734494448,0.24329842627,-2.52475786209,-0.0185924656689,2.67969799042,-0.745506286621,0.0712030231953,0.000498797860928,0.000511709367856,-0.000483776762849,0.000157636415679,-6.25505265361e-07,6.34782418274e-06,-0.000435499241576,0.468719796468,-0.0109244095206,0.118287106355,-0.00608394151943,0.934984812121,0.354264073585,0.0162281425453
-0.27848392725,0.133738175035,0.243294507265,-2.52475690842,-0.0185928419232,2.67969870567,-0.745506703854,0.0712036788464,0.000150005507749,0.000669422210194,-0.00011199900473,-9.31216418394e-05,6.89234948368e-05,-0.00444308388978,-0.000141258919029,0.468719466564,-0.0109262005699,0.118285458307,-0.00608459633604,0.934985375834,0.354262627451,0.0162269880266
-0.278482794762,0.133737161756,0.24329790473,-2.52475476265,-0.0185933914036,2.67969846725,-0.745507121086,0.0712036788464,-0.000332963914843,-0.000461192219518,9.50820249273e-05,0.000552162993699,-4.17543815274e-05,-0.000472070038086,0.000576365098823,0.468720954461,-0.0109240228599,0.118287004362,-0.00608381984869,0.934984395217,0.354265153812,0.0162286264856
-0.278479725122,0.133738711476,0.243299975991,-2.52475667,-0.0185924693942,2.67969894409,-0.745506584644,0.0712036788464,0.000223975031986,9.58359487413e-06,-2.12340437429e-05,9.66645166045e-05,3.20091457979e-05,2.92256790999e-05,-0.000768219935708,0.468719824902,-0.010921401287,0.118285719248,-0.00608491874209,0.934983737816,0.354266922118,0.016227487891
-0.278479069471,0.133737653494,0.243298262358,-2.52475714684,-0.0185932163149,2.67969965935,-0.745506048203,0.0712036788464,-0.000113162583148,-0.00170028267894,-0.000240699519054,0.00024410453625,-2.01779603231e-05,-4.74550688523e-05,0.00065180985257,0.46871979573,-0.0109217852428,0.118285963715,-0.00608442576431,0.934983810134,0.354266726213,0.0162277827993
-0.278483331203,0.133739963174,0.243297383189,-2.52475738525,-0.0185918305069,2.67969942093,-0.745505928993,0.0712036788464,0.000173462802195,0.000641907157842,-0.000196906417841,4.44393044745e-05,-1.0865835975e-05,-0.000510987068992,3.3524207538e-05,0.468719212592,-0.0109242629076,0.118284907959,-0.00608529609692,0.934985057268,0.354263462849,0.0162268429638
-0.278485059738,0.133738711476,0.243295446038,-2.52475762367,-0.0185926631093,2.67969870567,-0.745507180691,0.0712036788464,0.00182278011926,0.000782830000389,8.77431593835e-05,9.66235093074e-05,-0.000143867742736,2.4865492378e-05,-0.000370616384316,0.468719137458,-0.0109261037987,0.118285295499,-0.00608478083264,0.934985348594,0.354262705987,0.0162267738464
-0.278482884169,0.133737787604,0.243296176195,-2.52475762367,-0.0185930151492,2.67969965935,-0.745507419109,0.0712036788464,0.000297240418149,5.72420321987e-06,0.000137764000101,-0.000316728197504,-6.57307755318e-05,4.39639807155e-05,-0.000348119734554,0.468719294383,-0.0109245934887,0.118285663254,-0.00608447808853,0.934984773587,0.354264204917,0.0162272944817
-0.278482139111,0.133737012744,0.243297204375,-2.52475690842,-0.0185948014259,2.67969942093,-0.745506584644,0.0712036788464,-0.000343786174199,0.000198792375159,-0.00014927473967,6.7409418989e-05,-0.000136994451168,-2.23313691095e-05,0.000632314477116,0.468720076581,-0.0109240366551,0.118286407272,-0.00608367958835,0.934984278987,0.354265491797,0.0162279973363
-0.278484731913,0.133737161756,0.243298277259,-2.52475690842,-0.018593640998,2.67969894409,-0.745506107807,0.0712036788464,4.90448946948e-05,-0.000185319586308,2.21018653974e-05,-0.00031202021637,4.70482482342e-05,0.000218144137762,-5.59647487535e-05,0.468719934732,-0.0109246902104,0.118286312509,-0.00608411026313,0.934984816541,0.354264072149,0.016227856013
-0.278482466936,0.133737921715,0.243297055364,-2.52475595474,-0.0185935124755,2.67969942093,-0.745505750179,0.0712036788464,0.000249141448876,-0.000124119673274,-0.000265539390966,0.00273601571098,-1.5711539163e-05,7.89092882769e-06,0.000425857520895,0.46872037583,-0.0109242147273,0.118286322999,-0.00608403626586,0.934984715209,0.354264326521,0.016228168989
-0.278480738401,0.133740887046,0.243297189474,-2.52475643158,-0.018593756482,2.67969989777,-0.745504915714,0.0712036788464,-0.000320216728142,0.00261186575517,-1.73814041773e-05,3.21923944284e-05,3.66855128959e-05,2.10805683309e-06,0.00028434061096,0.46871964185,-0.0109231568062,0.118284859406,-0.0060849028502,0.934984515246,0.354264894786,0.0162269595271
-0.278480678797,0.133742272854,0.243298619986,-2.52475619316,-0.0185935869813,2.67969942093,-0.745507657528,0.0712036788464,-0.000502869079355,-0.000271827651886,5.49883261556e-05,0.000387264008168,-9.287262219e-05,-3.71695387003e-06,-0.000207934601349,0.468719231198,-0.0109221827967,0.118284094667,-0.00608565006116,0.934983821113,0.354266749657,0.0162261792369
-0.27848187089,0.133742049336,0.243298232555,-2.52475762367,-0.0185924917459,2.67969846725,-0.745505750179,0.0712036788464,-0.000238182503381,-0.000580389576498,-8.92743773875e-05,3.87360414607e-05,-4.50677689514e-05,-0.00552239408717,3.65174346371e-05,0.468718483746,-0.0109230361512,0.118283802979,-0.00608606828199,0.934984596804,0.354264729669,0.0162254279127
-0.278482377529,0.133740186691,0.243297964334,-2.52475738525,-0.0185938123614,2.67969965935,-0.745507359505,0.0712030231953,0.000573244178668,0.000520390167367,4.34469402535e-05,-0.00217058393173,-3.51222442987e-05,-0.000114684073196,-8.90508090379e-05,0.468719238593,-0.010923555624,0.118284837157,-0.00608492628678,0.934984225731,0.354265669127,0.016226727039
-0.278484404087,0.133739978075,0.243296384811,-2.52475428581,-0.0185924004763,2.67969918251,-0.745507359505,0.0712030231953,0.000164470286109,-0.000437504611909,-0.000153344793944,0.000228842633078,-0.000141973185237,-9.53839189606e-05,-0.000314969918691,0.468720728741,-0.0109253594992,0.118285934992,-0.00608453840172,0.934985075361,0.354263371522,0.0162280784223
-0.278483092785,0.133741557598,0.243295252323,-2.52475619316,-0.0185927823186,2.67969965935,-0.745505988598,0.0712030231953,0.000115475420898,0.000360413454473,-3.70409579773e-05,-0.00397282792255,4.31727348769e-05,-3.97843687097e-05,-0.000443228898803,0.468719284641,-0.0109248426583,0.118284256253,-0.00608531644037,0.934984961857,0.354263736405,0.0162263606099
-0.278481811285,0.13374298811,0.243297785521,-2.52475643158,-0.0185930095613,2.67969942093,-0.74550807476,0.0712030231953,-0.000435295485659,1.0806348655e-05,-0.000630229245871,-0.000607180409133,-6.1350830947e-05,-8.75021651154e-05,0.000719033589121,0.46871910454,-0.0109232251363,0.11828387136,-0.00608578191204,0.934984173027,0.354265827222,0.0162259913925
-0.278482586145,0.133744180202,0.243296176195,-2.52475500107,-0.018594333902,2.67969989777,-0.745506286621,0.0712030231953,-0.000513841980137,-0.000375616364181,-0.000574158213567,-4.11147011619e-05,2.64961254288e-05,-0.000153440181748,-0.000493284198456,0.468719661787,-0.0109243814372,0.118283843987,-0.00608539663227,0.934984708361,0.354264410308,0.0162262242465
-0.27848315239,0.133741781116,0.243296474218,-2.52475571632,-0.0185946691781,2.67969965935,-0.745506644249,0.0712030231953,0.000215771084186,0.000537914223969,0.000178218106157,-0.00024397202651,-2.28763201449e-05,0.00389690767042,-0.000212717844988,0.468719735108,-0.0109246247742,0.118284667214,-0.00608480261508,0.934984626649,0.354264612882,0.0162267326728
-0.278482079506,0.133741423488,0.243297368288,-2.52475714684,-0.0185924898833,2.67969965935,-0.745506644249,0.0712030231953,0.00147139211185,0.00010442254279,0.000441596959718,-0.000242220630753,2.05795531656e-05,3.02174630633e-05,0.000515475403517,0.468719099085,-0.0109236185976,0.118284349712,-0.00608550390265,0.934984617893,0.354264638143,0.0162264226757
-0.278482317924,0.133743688464,0.243297815323,-2.52475857735,-0.0185923986137,2.67969965935,-0.745508432388,0.0712030231953,0.000292295386316,1.00722736533e-05,0.000289133604383,0.000133543799166,-3.25277287629e-05,1.22815924897e-06,0.000257536041318,0.468717898139,-0.0109233314964,0.118282834458,-0.00608648965319,0.934984297823,0.354265536315,0.0162248862412
-0.278484225273,0.133740901947,0.243297234178,-2.52475762367,-0.018594995141,2.67969918251,-0.745506107807,0.0712030231953,8.5448329628e-05,-0.000955385854468,7.95855448814e-05,0.00018178926257,-0.000116001596325,-5.29139797436e-05,0.00037591002183,0.468718830166,-0.0109247505628,0.118284373554,-0.00608497286577,0.934984727337,0.354264378275,0.0162259891058
-0.278482466936,0.133742496371,0.243296727538,-2.52475667,-0.0185929294676,2.67969965935,-0.745505571365,0.0712030231953,0.000226408534218,0.000183290074347,0.000169567065313,-3.65563573723e-05,0.00010641413246,0.000479984330013,-0.000169752864167,0.468719107592,-0.0109240749156,0.118284017616,-0.00608560385983,0.934984927672,0.354263831287,0.0162261511099
-0.278480947018,0.133742913604,0.24329815805,-2.52475714684,-0.0185930989683,2.67969870567,-0.745506167412,0.0712030231953,-0.000287627597572,-0.000890648574568,0.000151253800141,-7.16608192306e-05,3.04224213323e-05,-0.000148311431985,-0.000137351293233,0.468718611803,-0.0109226162754,0.118283596688,-0.00608605883145,0.934984282181,0.354265563376,0.0162253583867
-0.278479069471,0.133743241429,0.24329842627,-2.52475667,-0.0185927003622,2.67969989777,-0.745506942272,0.0712030231953,-0.00032510139863,-0.000384094368201,-0.000345934124198,-1.75281948032e-05,-5.39320062671e-05,7.64564392739e-05,-0.000599137798417,0.468718983624,-0.0109220089194,0.118283738393,-0.00608591223682,0.934983922558,0.354266485356,0.0162260059815
-0.278485417366,0.133744284511,0.243297025561,-2.52475690842,-0.0185923296958,2.67969965935,-0.745507717133,0.0712030231953,0.00050177553203,-0.000475526438095,-4.85060372739e-05,-8.77098937053e-05,5.61272790947e-05,-0.000476960354717,-0.000350717746187,0.468718588826,-0.0109251871196,0.118283128901,-0.0060862898459,0.934985123718,0.354263336514,0.0162253994956
-0.278486192226,0.133743360639,0.243293777108,-2.52475547791,-0.0185925457627,2.67969942093,-0.745507478714,0.0712030231953,0.000420360593125,4.94906526001e-05,0.000142072749441,0.000482176721562,-1.42385931667e-06,5.34026949026e-05,-0.000353646202711,0.468719397764,-0.0109272492289,0.118283969181,-0.00608552969384,0.934985833388,0.35426144072,0.0162261824511
-0.278483629227,0.133742913604,0.24329559505,-2.52475667,-0.0185935646296,2.67969918251,-0.74550652504,0.0712030231953,0.00045602247701,0.000194038570044,-0.000430298503488,0.000139909796417,9.03901600395e-05,0.000113169568067,0.000574747566134,0.468718884059,-0.0109251610784,0.118283765578,-0.0060855950472,0.934985070448,0.354263476364,0.0162256763398
-0.278479248285,0.133743479848,0.243299096823,-2.52475810051,-0.0185935478657,2.67969918251,-0.745507121086,0.0712030231953,-1.2599854017e-05,-0.000305818102788,-0.0011414445471,-5.20018329553e-05,2.63453948719e-05,-1.3325549844e-05,0.00239910255186,0.468718141347,-0.0109213073491,0.11828306915,-0.00608629220826,0.934983581547,0.354267429044,0.0162249095552
-0.278476446867,0.133742645383,0.243300005794,-2.52475976944,-0.0185937341303,2.67969989777,-0.745506644249,0.0712030231953,-0.00032879554783,0.00024913487141,-0.00297787762247,-0.000152598964632,-4.17997071054e-05,6.80890443618e-05,0.00019961957878,0.468717653708,-0.0109195538391,0.118282951603,-0.00608627651912,0.934982975933,0.354269031946,0.0162248156915
-0.278485566378,0.1337428689,0.243296071887,-2.52475404739,-0.0185943264514,2.67970180511,-0.745506048203,0.0712036788464,-0.0002988713386,-0.000182256146218,-0.000247806950938,0.00256566982716,-3.66021959053e-05,-1.84264790732e-05,6.72612877679e-05,0.46872080386,-0.0109259486959,0.118284945528,-0.00608443552095,0.934985279265,0.354262835141,0.016228078329
-0.278487890959,0.133745148778,0.24329648912,-2.52475595474,-0.0185938533396,2.6797015667,-0.745506942272,0.0712036788464,-0.00288268690929,-0.00209432584234,-0.000393858470488,-0.000148675098899,0.000122002944408,9.95109658106e-05,0.000845179834869,0.468719278619,-0.0109266299247,0.118283235966,-0.00608563325884,0.934985553706,0.354262174495,0.0162262391402
-0.278487086296,0.133748188615,0.243295997381,-2.52475667,-0.0185946635902,2.6797015667,-0.745505213737,0.0712036788464,-0.000610969495028,-0.000239147600951,0.000344181520632,0.000235755374888,1.72172876773e-05,-4.29789579357e-05,0.00592316221446,0.468718280766,-0.0109263087972,0.118281601379,-0.00608649782883,0.934985701141,0.354261845582,0.0162246003624
-0.278484493494,0.133747711778,0.243297830224,-2.52475667,-0.0185938868672,2.67970132828,-0.74550485611,0.0712036788464,1.66663921846e-05,0.00037286352017,0.000110113636765,-0.000238731110585,-3.81295758416e-05,0.0048693404533,0.000552982557565,0.468718390472,-0.01092420357,0.118281824668,-0.00608670267162,0.934985100302,0.354263418586,0.0162248020622
-0.27848020196,0.133745715022,0.243296027184,-2.52475762367,-0.0185942687094,2.67970108986,-0.745506644249,0.0712036788464,0.000241984584136,-0.000712257053237,-0.00026415620232,-0.000456015521195,6.67553322273e-05,-0.00551454210654,-0.000359102821676,0.468718098586,-0.0109233541275,0.118282259181,-0.00608624745681,0.934984386241,0.354265313729,0.0162247419582
-0.278476953506,0.133745282888,0.24330073595,-2.52475619316,-0.018592454493,2.67970061302,-0.745506465435,0.0712036788464,0.000466993253212,0.000184632721357,-0.000270590768196,0.000358400866389,-9.80186014203e-05,9.4696006272e-05,0.000418505514972,0.468718998795,-0.0109195558338,0.118283001683,-0.00608658900881,0.934983201735,0.35426838675,0.0162257740375
-0.278479903936,0.13374620676,0.243301108479,-2.52475452423,-0.0185923576355,2.67970108986,-0.745506882668,0.0712036788464,-0.000516158645041,0.000255483406363,-0.000233916041907,0.000448264967417,-1.41006321428e-05,3.98868760385e-05,0.000418917188654,0.468719870273,-0.0109205629398,0.118283279765,-0.00608642940589,0.934983573349,0.354267374612,0.0162265188793
-0.278485774994,0.133748337626,0.243294939399,-2.52475738525,-0.0185944885015,2.67970085144,-0.745505213737,0.0712036788464,-5.3911258874e-05,0.000214027546463,-7.23989724065e-05,0.00134423736017,-5.67550159758e-05,-2.94750170724e-05,1.07225412194e-06,0.468717720127,-0.0109261761313,0.118281202849,-0.00608679831023,0.934985687952,0.354261909553,0.0162238508482
-0.278486430645,0.133747473359,0.243297711015,-2.52475690842,-0.0185928270221,2.67970180511,-0.745505988598,0.0712036788464,7.57919115131e-05,-0.000470239145216,-0.000305525609292,-4.11120599892e-05,8.71486990945e-05,0.000338830373948,-9.17930301512e-05,0.468718396803,-0.0109251602974,0.118281893551,-0.00608678311458,0.934985425276,0.354262545904,0.0162250992997
-0.278481304646,0.133746936917,0.243297755718,-2.52475690842,-0.0185925718397,2.6797003746,-0.745506167412,0.0712036788464,0.000280707521597,6.01671963523e-05,6.68099673931e-05,-0.000142135380884,-7.94062434579e-05,-7.01784083503e-05,-0.000545549439266,0.468718254649,-0.0109227529215,0.118282003922,-0.00608698774426,0.934984519169,0.35426495402,0.0162246582088
-0.278480052948,0.133746489882,0.24329867959,-2.52475595474,-0.0185942016542,2.67970108986,-0.745506346226,0.0655018463731,-2.86181384581e-05,-0.000420404481702,0.000405592902098,-0.000328988011461,7.15905116522e-05,2.95128029393e-05,-0.000227785334573,0.468719024922,-0.0109218024456,0.118282617366,-0.0060862517716,0.934983842043,0.354266714849,0.016225507498
-0.278482556343,0.133747369051,0.243297070265,-2.52475690842,-0.0185944866389,2.67970180511,-0.745506048203,0.0655018463731,0.000160193056217,0.000173028194695,0.000688038999215,0.00015139397874,3.11819858325e-05,0.00435951864347,-0.000536652514711,0.46871844803,-0.0109236969996,0.118281930028,-0.00608638853435,0.934984583212,0.354264780913,0.0162249721329
-0.278481006622,0.133748069406,0.243297845125,-2.52475857735,-0.0185935851187,2.67970228195,-0.745506107807,0.0655018463731,0.000392581307096,-0.000357015349437,0.00279553653672,0.000777135370299,-5.42442503502e-05,0.0001436733437,0.000285104732029,0.468717576152,-0.0109224835177,0.118281092254,-0.00608708596585,0.934984308289,0.354265528007,0.0162242407669
-0.278481304646,0.133747234941,0.243297144771,-2.52475595474,-0.018593551591,2.67970108986,-0.745506107807,0.0655018463731,-0.000239425193286,-0.00054768944392,0.000141762313433,-3.91120629502e-05,0.000121025565022,0.00216755713336,-7.28923760107e-06,0.468718828997,-0.0109230881632,0.118282255425,-0.00608651085831,0.934984482514,0.354265033781,0.0162252078359
-0.278483182192,0.133748233318,0.243298277259,-2.52475547791,-0.0185946002603,2.67970132828,-0.745505452156,0.0655018463731,-0.000373756891349,0.000167999969563,-5.96325553488e-05,0.000300882849842,-3.51589915226e-05,-4.81663228129e-05,0.000309449911583,0.468718921161,-0.0109233878352,0.118282007147,-0.00608650725481,0.934984573893,0.354264797672,0.0162250986958
-0.278478771448,0.133748903871,0.243298381567,-2.52475571632,-0.0185949634761,2.67970108986,-0.745506644249,0.0655018463731,8.39604981593e-05,-0.000320588937029,-0.000121888457215,1.88954854821e-05,3.25075816363e-05,-0.00053050648421,0.000408425927162,0.468718657882,-0.0109212275177,0.118281599657,-0.00608675344041,0.934983512865,0.354267617732,0.0162245744023
-0.27847763896,0.133748605847,0.243299201131,-2.52475643158,-0.0185940414667,2.67970204353,-0.745505154133,0.0655018463731,-0.00038434175076,-0.000188452308066,0.00025476681185,-0.000103845864942,2.25533458433e-05,-0.00396290188655,0.000380976533052,0.468718584438,-0.0109202783294,0.118281590002,-0.00608689412391,0.934983570652,0.354267447745,0.0162249032057
-0.278482764959,0.133748829365,0.243298590183,-2.52475643158,-0.0185939986259,2.67970132828,-0.745506584644,0.0655018463731,-0.000318250298733,-0.000109061373223,0.00454329140484,6.82464160491e-05,-4.83850853925e-05,-0.000115725422802,-0.000221617345233,0.468718315989,-0.0109229628093,0.118281412072,-0.0060870130585,0.934984343907,0.354265424167,0.0162244829035
-0.278481602669,0.133746400476,0.24329739809,-2.52475380898,-0.0185938999057,2.67970228195,-0.745505988598,0.0615999288857,0.000469227758003,-0.000506518583279,-5.09172969032e-05,0.00151513400488,1.19810010801e-05,4.81755923829e-05,0.000723391538486,0.468720369523,-0.0109232322192,0.118283491564,-0.00608556069396,0.934984442352,0.354265071049,0.016227064756
-0.278484523296,0.133749037981,0.243299022317,-2.52475762367,-0.0185941681266,2.67970132828,-0.745506048203,0.0615999288857,-0.00042442677659,-0.000227412689128,-0.000365488580428,-3.26654881064e-05,-2.79162741208e-05,-0.00130675721448,-2.47068001045e-05,0.468717645771,-0.010923528979,0.118280911835,-0.00608728777254,0.934984652128,0.354264634675,0.0162238563948
-0.278483480215,0.133746907115,0.243298739195,-2.52475810051,-0.0185926780105,2.67970252037,-0.745506107807,0.0615999288857,0.000230454010307,0.000455677654827,-0.00031219603261,-6.96562347002e-05,-6.72401365591e-05,-0.000100996927358,0.000152662076289,0.468718104176,-0.0109232706334,0.11828182129,-0.00608683020217,0.934984719468,0.354264405556,0.0162251502589
-0.278482437134,0.133748203516,0.243297144771,-2.52475476265,-0.0185951385647,2.6797015667,-0.745504617691,0.0615999288857,9.85747101367e-05,0.000640753947664,0.00011130385974,0.000297621096252,-3.42593666574e-05,-0.000111967943667,0.00038455214235,0.468719308657,-0.0109236995303,0.118282404562,-0.00608607977129,0.934984675944,0.354264514755,0.0162255555777
-0.278480410576,0.133750393987,0.243299752474,-2.52476620674,-0.0185945983976,2.67969274521,-0.745506167412,0.0615999288857,0.00010761658632,0.000170517334482,4.72293322673e-06,-0.00135055638384,-6.95417911629e-05,-1.90151586139e-05,0.000659324403387,0.468711130326,-0.010920851643,0.118276536344,-0.00609095321274,0.934983769651,0.354267289644,0.0162153616115
-0.278481185436,0.133758321404,0.243297442794,-2.52478551865,-0.0185944959521,2.67969489098,-0.745505690575,0.0615999288857,5.24458373548e-05,0.00109355337918,0.000148763676407,-0.00140874553472,-4.59990187665e-05,-0.000857579929288,-0.000126076774905,0.468699928153,-0.0109213088828,0.118266424712,-0.00609655629547,0.934984505352,0.354265761773,0.0162042116441
-0.278482526541,0.13375633955,0.243298053741,-2.52476143837,-0.0185933355242,2.67969608307,-0.745506048203,0.0615999288857,-0.000226898599067,-0.000303731532767,0.000376128678909,0.000990092405118,4.25130820076e-05,0.000267320720013,0.000532708596438,0.468713035274,-0.0109224719007,0.118275774385,-0.00609132737205,0.9349846783,0.354264820758,0.0162167670663
-0.278483688831,0.133755579591,0.243297621608,-2.52475976944,-0.0185938291252,2.67969799042,-0.745505750179,0.0615999288857,0.000411949702539,0.000134881425765,7.11927204975e-05,-0.000963728583883,4.18203599111e-05,-7.37669106456e-05,-0.000328567432007,0.468714446656,-0.0109233469772,0.118276867782,-0.00609027974911,0.934984920016,0.354264113651,0.0162186713328
-0.278482019901,0.133755534887,0.243298441172,-2.52476072311,-0.0185936912894,2.67969846725,-0.745506584644,0.0615999288857,1.22874362205e-05,0.000166191864992,-0.000109008775325,0.000509852252435,7.27228034521e-05,1.27825214804e-05,0.00149396259803,0.468714100002,-0.0109221357093,0.118276615792,-0.00609044944931,0.934984353548,0.354265613155,0.0162185099893
-0.278479188681,0.133758693933,0.243298918009,-2.52476358414,-0.0185936465859,2.67969799042,-0.74550640583,0.0615999288857,-0.000450224702945,8.90377777978e-05,7.98105065769e-06,-0.000647317618132,-2.79048235825e-05,2.28416829486e-05,-0.000269131589448,0.468711906076,-0.0109202965858,0.118274156014,-0.00609210260577,0.934983837021,0.354267075788,0.0162157175031
-0.278477042913,0.133760511875,0.243300810456,-2.52477288246,-0.0185940228403,2.67969441414,-0.745505452156,0.0602301247418,-0.000402212550398,-0.000414153764723,-0.000193786763703,-2.84297607323e-06,7.4756120739e-05,-0.000717899587471,0.000229260826018,0.468706010291,-0.0109179528581,0.118269810353,-0.00609518486796,0.934983281838,0.354268791785,0.016209079499
-0.278479725122,0.133761361241,0.243298903108,-2.52477884293,-0.0185969620943,2.67970323563,-0.745506048203,0.0602301247418,-0.000146691541886,0.000306939415168,-0.00013347127242,0.000823241716716,-0.000459961855086,0.00117290730122,0.000200298949494,0.468704599649,-0.010920031679,0.118268157127,-0.00609417668061,0.934983516833,0.354268156532,0.0162097876123
-0.278485566378,0.133753299713,0.243297189474,-2.52472281456,-0.0185957439244,2.679708004,-0.745508015156,0.0602301247418,0.000237499145442,-0.000521689595189,-6.4304258558e-05,0.000168531754753,0.000184257281944,0.000627949717455,0.000318127771607,0.468736151284,-0.0109258006733,0.1182916139,-0.00608006534236,0.934984490561,0.354264395692,0.0162410851665
-0.278481692076,0.133748054504,0.243299394846,-2.52473402023,-0.0185971930623,2.67970919609,-0.745506703854,0.0602301247418,0.000255516468314,-6.67097119731e-05,0.000300138752209,-0.000378629309125,6.20212886133e-05,-2.89560684905e-05,-0.000271528784651,0.468731785396,-0.01092290369,0.118290263044,-0.00608032337988,0.93498340773,0.354267366247,0.016238529373
-0.278474122286,0.133750140667,0.243303507566,-2.52474093437,-0.0185981281102,2.67970991135,-0.745506882668,0.0602301247418,4.98434674228e-05,-0.000430199928815,-0.000371185131371,0.00036860347609,6.45978288958e-05,-3.72619365407e-06,8.56874103192e-05,0.468728096324,-0.0109170208753,0.118287056352,-0.00608227136603,0.934981192987,0.354273344472,0.0162348950859
-0.278477340937,0.133751317859,0.243299782276,-2.52473497391,-0.0185967814177,2.67971014977,-0.74550640583,0.0602301247418,-0.00010679832485,-0.000290736526949,-0.00118026952259,-0.000107345797005,-5.13187951583e-05,-2.83875233436e-05,0.000131611945108,0.468730880434,-0.0109204505873,0.118288548163,-0.00608145541782,0.934982706583,0.354269255559,0.0162372578421
-0.278482794762,0.133753314614,0.243299469352,-2.52473950386,-0.0185973923653,2.67971014977,-0.745505273342,0.0602301247418,-0.000593098055106,0.000351291178958,4.14742135035e-05,0.000403953250498,0.000121253287944,-0.000125377730001,0.00149811361916,0.468728061964,-0.0109229168969,0.118286070137,-0.00608274858198,0.934983857973,0.354266329054,0.0162343242281
-0.27847853303,0.133749991655,0.243301868439,-2.52473521233,-0.0185970254242,2.67970991135,-0.745507419109,0.0602301247418,5.21881920577e-05,0.000391915207729,-0.000188206788152,0.000318532460369,0.000108081869257,0.000217689273995,-2.49318673013e-05,0.46873087689,-0.0109200115552,0.118289072539,-0.00608118714133,0.934982264512,0.354270416577,0.0162374824052
-0.27847674489,0.133750587702,0.243301823735,-2.52473664284,-0.0185960251838,2.67971038818,-0.74550807476,0.0602301247418,0.000555479666218,-6.34676252957e-05,-0.00207667122595,-0.000112690926471,0.000131912762299,7.86824748502e-05,-0.000653673312627,0.468730265445,-0.0109191464082,0.118288356975,-0.00608179598114,0.934982060726,0.354270964596,0.0162370320119
-0.278478443623,0.133752420545,0.243300095201,-2.52473855019,-0.0185970384628,2.6797106266,-0.745506823063,0.0602301247418,-0.000243940201472,-4.05395621783e-05,7.89094337961e-05,-0.000391966110328,-2.98001396004e-06,7.92731734691e-05,0.000652943446767,0.468728607592,-0.0109206021678,0.118286589055,-0.00608252186652,0.934982852233,0.354268952909,0.0162350745949
-0.278477013111,0.133754119277,0.243302330375,-2.5247399807,-0.0185964535922,2.67970967293,-0.745508134365,0.0584656596184,-0.000217104883632,0.000293029966997,0.0036345962435,0.000494781008456,5.90318668401e-05,-3.14889002766e-05,-0.000336952594807,0.468727663185,-0.0109187162113,0.118285541107,-0.00608357139811,0.934981977024,0.354271306191,0.016233733263
-0.278476119041,0.133752852678,0.24330252409,-2.52474045753,-0.0185967665166,2.67970848083,-0.745506703854,0.0584656596184,0.000370115216356,0.000122657744214,0.00273093092255,-6.41627557343e-05,7.69273101469e-05,2.67122482001e-06,-0.000662442587782,0.468727433354,-0.0109182599766,0.118285842193,-0.00608347243692,0.934981986286,0.354271296724,0.0162334434873
-0.278478890657,0.133751824498,0.243300482631,-2.52473688126,-0.0185975972563,2.67971014977,-0.745506703854,0.0584656596184,-0.000186322853551,8.1320751633e-05,-0.000513484759722,0.00226007774472,8.58133425936e-05,3.70812558685e-05,-0.000274828111287,0.468729786176,-0.0109207598361,0.11828766924,-0.00608183153466,0.934982686242,0.354269353914,0.0162361422531
-0.278481036425,0.133753523231,0.243299767375,-2.52473926544,-0.0185964945704,2.67971038818,-0.74550652504,0.0584656596184,-0.000246984942351,-3.9444599679e-05,0.000513825332746,-0.000393584341509,-2.07257180591e-05,-5.18648375873e-05,-0.000725285091903,0.468728218854,-0.0109219257139,0.118286085366,-0.00608293441019,0.934983411515,0.354267494145,0.0162345427306
-0.278475701809,0.133752539754,0.243300318718,-2.52473855019,-0.0185975600034,2.67971134186,-0.745506644249,0.0584656596184,0.000162143813213,0.000201692819246,0.00378009374253,0.000148138948134,-2.11648530239e-05,0.00028580284561,0.00175056606531,0.468729066153,-0.010919260141,0.118286876397,-0.00608217139737,0.93498217079,0.354270732067,0.0162356269608
-0.278474479914,0.133730620146,0.24330163002,-2.52471494675,-0.0185972303152,2.67971634865,-0.745507001877,0.0584656596184,-0.000228000761126,-0.00153556466103,-0.00104711006861,0.00152948591858,-0.000155669142259,-1.28382794173e-06,0.000363751372788,0.468746909046,-0.0109200804392,0.118305475026,-0.0060702504499,0.93498148405,0.354271737915,0.016257673373
-0.278480857611,0.133695319295,0.243301078677,-2.52468681335,-0.0185971520841,2.67972373962,-0.745506823063,0.0584656596184,0.00248062331229,-0.0018988243537,0.000150301115355,0.00482706353068,0.000166922269273,0.000472897751024,0.00091813178733,0.468770251935,-0.0109263275446,0.118331906654,-0.00605277785382,0.934982413599,0.354268181124,0.0162882064674
-0.278485149145,0.133667498827,0.243299394846,-2.52466344833,-0.018597021699,2.67972588539,-0.745507180691,0.0584656596184,0.000154137916979,-0.00212738197297,0.00118323764764,0.000885066576302,-4.41483462055e-06,-5.20345420227e-05,6.71089655953e-05,0.468788451616,-0.0109315315232,0.118352787523,-0.0060394031338,0.934983169412,0.354265362614,0.0163110718367
-0.278483569622,0.133666008711,0.243299841881,-2.52463817596,-0.0185975227505,2.67972707748,-0.745507001877,0.0584656596184,-5.5237680499e-05,-0.000326688721543,0.000879018567502,-0.00140846741851,0.000156851368956,0.000192417544895,-0.000415652670199,0.46880209932,-0.010931444332,0.118362326243,-0.0060337518317,0.934982690257,0.354266135928,0.0163238285779
-0.278483837843,0.133673638105,0.243300363421,-2.52457523346,-0.0185963176191,2.67972421646,-0.745507955551,0.0584656596184,-7.71493796492e-06,-0.000169273524079,0.000154799738084,0.00274975621141,0.000121081102407,0.00542838731781,0.000490864447784,0.468832430014,-0.0109327340252,0.118380384647,-0.00602459841812,0.934982580301,0.354265442173,0.0163485447233
-0.278487682343,0.133673027158,0.243297874928,-2.52455806732,-0.0185973029584,2.67972588539,-0.745506167412,0.0584656596184,0.00291850417852,-0.000247895019129,-2.93151933874e-05,0.00139925524127,0.000108586864371,7.27206715965e-05,0.000869207200594,0.468841696711,-0.0109363486074,0.118386718549,-0.00602038271825,0.934983812194,0.354261858346,0.0163573021669
-0.278485447168,0.133670255542,0.243297830224,-2.52455592155,-0.01859658584,2.67972350121,-0.745506882668,0.0573388189077,0.000286262365989,-0.000319868006045,0.000445788900834,-0.000187328856555,1.86233519344e-05,-8.26198447612e-05,0.000681390753016,0.468842887629,-0.0109357028239,0.118388420322,-0.00601975673047,0.93498337712,0.354262967757,0.0163583739728
-0.278482139111,0.133672609925,0.243299722672,-2.52454996109,-0.0185975003988,2.67972350121,-0.745505928993,0.0573388189077,0.000180420902325,0.00019023619825,0.00150458957069,0.000312787888106,8.0462283222e-05,0.00012332717597,0.000308523885906,0.468845549281,-0.0109330989867,0.118389518897,-0.00601924514004,0.934982503587,0.354265200763,0.0163601310458
-0.278485268354,0.133674845099,0.243299037218,-2.52454566956,-0.0185963138938,2.67972397804,-0.745506584644,0.0573388189077,-0.000210200814763,-0.000213411942241,-0.00077928812243,-2.68390358542e-05,4.25242506026e-05,0.000893485615961,0.000410980224842,0.468847361781,-0.0109348829067,0.118390024018,-0.00601916950336,0.934983250248,0.354263167572,0.0163615140299
-0.278488099575,0.133675143123,0.243298277259,-2.52454590797,-0.0185974817723,2.67972373962,-0.745507061481,0.0573388189077,-0.000343449908542,-0.000721022079233,-0.00047072552843,-3.93554146285e-05,3.2970943721e-05,-3.69484223484e-05,-0.000862715998664,0.468847366221,-0.0109370256268,0.11839014236,-0.00601876833498,0.934983761912,0.354261823419,0.0163615262955
-0.278487890959,0.133673980832,0.243298396468,-2.52454352379,-0.018596470356,2.67972373962,-0.745506167412,0.0573388189077,0.000341826002114,-0.000475787906907,0.00395335676149,7.32611670173e-06,-3.80747696909e-05,-0.0001396304433,0.000301917170873,0.468848556264,-0.0109365454046,0.11839112626,-0.006018447335,0.934983867126,0.354261496596,0.016362708256
-0.27847802639,0.133675694466,0.243300959468,-2.52454400063,-0.0185983628035,2.67972397804,-0.745507478714,0.0573388189077,-0.000365720276022,1.55054985953e-05,0.000283461413346,0.000567306822632,-4.88142977702e-05,1.46272068378e-05,0.000125998514704,0.468848163006,-0.0109305805905,0.118390245539,-0.00601883041743,0.934981154518,0.354268689878,0.016361828558
-0.278483301401,0.133678793907,0.243299871683,-2.52454209328,-0.0185980647802,2.67972302437,-0.745507061481,0.0556991249323,-0.000358127843356,0.000738269882277,-0.00033960811561,-0.000291291013127,-1.89355887414e-05,-5.85220877838e-05,0.000239282075199,0.468848224384,-0.0109334522487,0.118389392776,-0.00601952084276,0.93498242182,0.354265370783,0.0163610209382
-0.278487771749,0.133682861924,0.243296474218,-2.52454829216,-0.0185979194939,2.67972373962,-0.7455072999,0.0556991249323,0.000810586032458,-0.000142130389577,0.000405193160987,3.81051540899e-05,-0.000151866071974,4.35407346231e-05,-0.000708148640115,0.468844225144,-0.0109367939511,0.118385415074,-0.00602159251222,0.934983833203,0.354261806966,0.0163567687435
-0.278481602669,0.133682385087,0.243299216032,-2.5245475769,-0.0185976736248,2.67972302437,-0.745505511761,0.0556991249323,0.00352022610605,0.00039518479025,-0.000242140711634,-0.000204374606255,-4.26115148002e-05,-3.65527666872e-05,-0.000126416838611,0.468844656972,-0.0109325926395,0.118385855381,-0.00602173093939,0.934982609916,0.354265019958,0.0163570544373
-0.278480410576,0.133690059185,0.24329932034,-2.52454805374,-0.0185970533639,2.67972397804,-0.745508015156,0.0556991249323,0.000143811121234,0.000328711088514,0.000141559619806,0.000180316215847,0.00015822435671,4.78228830616e-05,-0.000698080344591,0.468843048857,-0.0109315098898,0.11838229916,-0.00602406697674,0.934982084487,0.354266496015,0.0163542591701
-0.278480947018,0.133694455028,0.243298411369,-2.52454805374,-0.0185970012099,2.67972278595,-0.745507180691,0.0556991249323,-0.000526729912963,0.000499008165207,9.38194830269e-07,-0.000471605511848,0.000140960881254,-5.00911555719e-05,0.000244774913881,0.468841860772,-0.0109319404427,0.118380178492,-0.00602556109927,0.934982531248,0.35426539974,0.0163519144801
-0.278484255075,0.13368755579,0.243297472596,-2.52453756332,-0.0185972023755,2.67972588539,-0.745506763458,0.0556991249323,-0.000304007990053,0.000525896728504,0.000528482720256,0.00022582442034,8.68712886586e-05,0.0001665034506,-0.000987875973806,0.46884932124,-0.0109347038372,0.118387214622,-0.00602075416955,0.934983239685,0.354263196667,0.016360904596
-0.27848598361,0.133684068918,0.243297725916,-2.52453827858,-0.0185977462679,2.67972540855,-0.745506823063,0.0556991249323,0.000795559317339,0.000656506628729,-0.000162512704264,0.000178612172022,-1.82589218412e-07,-2.75346046692e-05,-0.000339135323884,0.46884955359,-0.0109355805902,0.118388508548,-0.00601982516281,0.934983385344,0.354262790251,0.0163617225511
-0.278484582901,0.133683562279,0.243298485875,-2.52453732491,-0.0185967814177,2.67972421646,-0.74550640583,0.0556991249323,0.000212803497561,0.000175628068973,6.53182996757e-06,-6.56408519717e-05,-8.32741861814e-05,-7.0365153988e-06,-0.000262276240392,0.468849922549,-0.0109345825775,0.118388969302,-0.00601997912477,0.934983225772,0.354263200018,0.016361912316
-0.278481215239,0.133683681488,0.243298485875,-2.5245308876,-0.0185973607004,2.67972302437,-0.74550640583,0.0556991249323,2.34394392464e-05,0.000508530298248,0.000444477132987,-0.000636194774415,-1.03417569335e-05,-0.000177889989573,0.000162403535796,0.468853421507,-0.0109334832459,0.11839149206,-0.00601858808253,0.934982648419,0.354264622023,0.0163646271453
-0.278484016657,0.133684501052,0.243298605084,-2.52453184128,-0.018597016111,2.67972564697,-0.745506048203,0.055656440556,0.000161770891282,-0.000254381244304,0.000115675211418,-0.000124200116261,-1.06234620034e-05,7.94298739493e-06,0.000429080741014,0.468852879804,-0.0109343836838,0.118390576582,-0.00601888979698,0.934983119328,0.354263370381,0.0163647068049
-0.27848470211,0.133689925075,0.243295907974,-2.52453613281,-0.0185960475355,2.67972421646,-0.745506703854,0.055656440556,-0.000199882430024,0.000132785178721,0.000269148527877,-0.000121789809782,0.000155745248776,-5.99029335717e-05,-0.000676963129081,0.468849176237,-0.0109355542779,0.118386454084,-0.0060216434581,0.934983804207,0.354261739125,0.0163598764963
-0.278485119343,0.133690416813,0.243298098445,-2.52454042435,-0.0185977965593,2.67972493172,-0.745506167412,0.055656440556,2.33485625358e-05,0.000185544951819,-0.00143743830267,0.000115644172183,7.7011398389e-05,-2.68120984401e-05,0.000448798353318,0.468847048359,-0.0109345500631,0.118384846619,-0.00602225334489,0.934983326587,0.354263077143,0.016357974445
-0.278487861156,0.133693471551,0.243296727538,-2.5245449543,-0.0185976121575,2.67972493172,-0.745505809784,0.055656440556,0.000507359567564,0.000104063110484,2.48796113738e-05,-0.0005495804362,-3.62349164789e-05,-2.00974209292e-05,0.000252690166235,0.468844022271,-0.0109361889018,0.118381871314,-0.00602398326132,0.934984178019,0.354260954732,0.0163546359759
-0.278483867645,0.133690655231,0.243297338486,-2.52453804016,-0.0185974072665,2.67972373962,-0.745507001877,0.055656440556,0.00384244206361,4.69358274131e-05,-0.000516462314408,0.00120824715123,-4.02621008107e-05,9.18391015148e-05,0.000303847016767,0.468847364572,-0.0109341775671,0.118385031009,-0.00602247346023,0.934983035823,0.354263850839,0.016357756894
-0.278486192226,0.133685097098,0.24329687655,-2.52451848984,-0.0185963660479,2.6797246933,-0.745506882668,0.055656440556,0.000124985206639,-0.000541190267541,0.000167294754647,0.000123944482766,8.36604231154e-05,6.64353137836e-05,-0.00082179432502,0.468859391747,-0.0109366064232,0.118394810159,-0.00601665621382,0.93498373863,0.35426152139,0.0163701708694
-0.278482943773,0.133669838309,0.243299752474,-2.52451777458,-0.0185975600034,2.67972588539,-0.745507836342,0.055656440556,-0.000399574724725,0.000221387905185,0.000109144595626,-0.000411704386352,2.11960268643e-05,-0.000131597873406,-0.00058563001221,0.468863256638,-0.0109346202312,0.118402138619,-0.00601167481651,0.934982188324,0.354265374023,0.0163771712249
-0.278480261564,0.133663117886,0.243299618363,-2.52451229095,-0.018596669659,2.6797273159,-0.745506227016,0.055656440556,-0.000221825088374,-0.000933130504563,-0.000152886059368,0.000205087955692,-1.47234850374e-05,0.000117701973068,-0.000931580434553,0.468867812977,-0.0109339845616,0.118407218305,-0.00600854946495,0.934982093901,0.354265401808,0.0163831066847
-0.278482615948,0.13366651535,0.243300631642,-2.52450823784,-0.0185972936451,2.67972803116,-0.745506465435,0.055656440556,-7.37418231438e-05,-6.47304332233e-05,-0.000464687182102,-0.000393825088395,-8.32594669191e-05,0.000178649206646,0.000304190762108,0.468869353625,-0.0109345290016,0.118407161841,-0.00600854987388,0.934982204788,0.35426507072,0.0163839376182
-0.278481841087,0.133665949106,0.243299230933,-2.52450823784,-0.0185978375375,2.67972660065,-0.745507061481,0.055656440556,-0.000285762827843,-0.000239874963881,0.000143422468682,3.5640776332e-05,4.627924136e-05,-0.000149366969708,-0.00297988206148,0.46886914274,-0.0109348891396,0.118407262553,-0.0060084470518,0.934982126151,0.354265304621,0.0163834053136
-0.278485178947,0.133665204048,0.24329739809,-2.52451229095,-0.0185965336859,2.67972803116,-0.7455072999,0.055656440556,-0.00041150994366,0.000117974464956,-0.000292029173579,0.000222161295824,0.00012325681746,0.00242293300107,0.000446301273769,0.468867442201,-0.0109372621147,0.118406303577,-0.00600888252607,0.934983199131,0.354262504982,0.0163825493542
-0.278487473726,0.1336658746,0.243296384811,-2.52450680733,-0.0185961518437,2.67972779274,-0.7455072999,0.055656440556,-0.00160215375945,0.000158163165906,0.000441014795797,-0.00056242570281,0.00023260783928,-4.34044632129e-05,-0.00100935646333,0.468870041077,-0.0109389550917,0.118407858868,-0.00600806095021,0.934983836019,0.354260738772,0.0163846952096
-0.278484165668,0.133665069938,0.243298411369,-2.52450919151,-0.0185975898057,2.67972779274,-0.745506584644,0.05558026582,-0.000342371495208,-0.000203007701202,-2.3113694624e-05,0.000733483000658,1.79186463356e-05,-4.34411304013e-05,-7.22939439584e-05,0.468869048985,-0.0109364086572,0.118407430268,-0.00600813446171,0.934982796565,0.354263519217,0.0163838666109
-0.278487324715,0.133665502071,0.243295013905,-2.52450871468,-0.018596386537,2.67972826958,-0.745507657528,0.05558026582,-3.04405784846e-05,-0.000688341737259,-0.00101849506609,-0.000546979834326,9.39859091886e-06,0.000238332300796,-0.000432802306022,0.468869315692,-0.0109391147461,0.118407313204,-0.00600825591525,0.934983884586,0.354260637077,0.016384051066
-0.27848482132,0.13366560638,0.243297412992,-2.52451062202,-0.0185960009694,2.67972779274,-0.745506882668,0.05558026582,0.000380080484319,0.000343157647876,0.000456300011138,-6.05592467764e-05,-0.000102128920844,0.00128123862669,0.00051451154286,0.468868174103,-0.0109371024677,0.118406676714,-0.00600884380183,0.934983289502,0.354262242257,0.0163830871548
-0.278493642807,0.133663550019,0.243292853236,-2.52451300621,-0.0185962673277,2.67972946167,-0.74550640583,0.05558026582,5.64277725061e-05,0.000105118750071,0.000344709202182,-0.000677424657624,-6.48960922263e-05,-5.44041577086e-05,0.000222209695494,0.468867546259,-0.0109435478598,0.118406869002,-0.00600797531385,0.934985683322,0.354255923526,0.0163834229524
-0.278490275145,0.133660435677,0.24329186976,-2.52450823784,-0.0185962505639,2.67972755432,-0.745506823063,0.05558026582,5.45853290532e-05,-0.000560005486477,-0.00175423489418,0.00067003746517,-3.70100497094e-05,0.000176113040652,0.000309318245854,0.468870257503,-0.0109427684619,0.11840973847,-0.00600644065869,0.934985163099,0.35425720622,0.0163859385404
-0.278491824865,0.133655369282,0.243292510509,-2.52449011803,-0.0185976382345,2.67972540855,-0.74550640583,0.05558026582,-7.93572908151e-05,0.000212392318645,0.00343724270351,0.00240364484489,-0.000127507271827,0.000119005082524,9.40401514526e-05,0.468880192918,-0.0109440410073,0.118418117232,-0.00600153516495,0.934985112894,0.354256991873,0.0163952321304
-0.278486311436,0.133667498827,0.243295192719,-2.52443695068,-0.018597042188,2.67970442772,-0.745506823063,0.0551035255194,0.000460099545307,-0.000767874298617,-0.000242587717366,0.00425107544288,-1.52300881382e-05,-0.000552549725398,0.000219205656322,0.468898642913,-0.0109407889847,0.118427840924,-0.00599942267675,0.934983679295,0.354260398663,0.0164041459351
-0.278486043215,0.133674710989,0.243294030428,-2.52423167229,-0.018598170951,2.67962670326,-0.745507597923,0.0551035255194,-0.000554099620786,0.00067744939588,-0.00124555651564,0.0103325434029,-6.82006066199e-06,-0.00547473458573,-0.000622112827841,0.468988417515,-0.0109466437671,0.118489577678,-0.005975495539,0.934983437406,0.354258817723,0.0164607102205
-0.278478354216,0.133613213897,0.243296563625,-2.52400445938,-0.0185968149453,2.67925977707,-0.745507478714,0.0551035255194,-8.14025697764e-05,-0.00543368794024,0.00016666870215,0.0170554220676,-6.82673198753e-05,-0.0349272750318,0.000468318117782,0.469039124196,-0.0109498348067,0.118561841189,-0.00598202165302,0.934982348693,0.35426346888,0.016420029008
-0.278482735157,0.133608415723,0.243293717504,-2.52365398407,-0.0185974538326,2.67836380005,-0.7455047369,0.0551035255194,9.49463574216e-05,0.000899250037037,3.84366940125e-05,0.0297716911882,-7.55054570618e-05,-0.0769294053316,-0.000339543097652,0.469026959759,-0.0109582287238,0.11860148479,-0.00607958849573,0.934986689585,0.354261954329,0.0161677550528
-0.278484672308,0.133547246456,0.243292674422,-2.5230782032,-0.0185991190374,2.67647242546,-0.745501935482,0.0551035255194,-9.88972460618e-05,-0.00869090016931,-0.00301280990243,0.0377064682543,-5.61799570278e-05,-0.142746195197,0.000528890697751,0.468927067574,-0.0109681075016,0.118651952703,-0.00630249414404,0.934992872442,0.354268064909,0.0155802734645
-0.278488397598,0.13324777782,0.243286445737,-2.52206611633,-0.0185991823673,2.67283678055,-0.74549895525,0.0551035255194,-0.000705663231201,-0.0225529354066,-0.000742556585465,0.0639007240534,2.27135969908e-05,-0.226298436522,0.000494085717946,0.46872285081,-0.0109969613587,0.118799951502,-0.00669544249459,0.935003582899,0.354279252636,0.0144803954927
-0.27849432826,0.13226018846,0.243272438645,-2.51976394653,-0.0186028089374,2.66396713257,-0.745446503162,0.0551035255194,0.000212617131183,-0.0514623001218,7.38488415664e-06,0.0997001081705,-0.000384613696951,-0.402936965227,0.0090765459463,0.468187417346,-0.0110754290999,0.119226773584,-0.00760939446575,0.935030089294,0.354289502912,0.0118227341489
-0.278488457203,0.131239697337,0.243271976709,-2.51790094376,-0.0186023004353,2.65648555756,-0.744824171066,0.0551035255194,0.000144621633808,-0.0780258923769,4.00083445129e-05,0.132128596306,0.000108750231448,-0.526597082615,0.0530867651105,0.467729462108,-0.0111394895325,0.119652188234,-0.00834380271906,0.935145256319,0.354035627448,0.00961793756507
-0.278492748737,0.129787385464,0.243256628513,-2.51538038254,-0.0186031702906,2.64651608467,-0.744016349316,0.0551035255194,0.000582577486057,-0.101515650749,-0.00364252482541,0.160479769111,-8.80618099472e-05,-0.652319908142,0.0387344285846,0.467113608826,-0.0112516215043,0.120329511728,-0.00934246692303,0.935299015156,0.353674407873,0.00654854656067
-0.27848598361,0.127108559012,0.243224307895,-2.51178503036,-0.0186089091003,2.63171982765,-0.743230342865,0.0551035255194,0.00354044372216,-0.149943113327,-0.00133453996386,0.194505900145,-0.000672672002111,-0.764006912708,0.0414666049182,0.466310088365,-0.0114243508214,0.121430763747,-0.0105449991513,0.935419710058,0.353372374893,0.00259487516764
-0.278482019901,0.123783633113,0.24314533174,-2.50746250153,-0.0186108071357,2.61508440971,-0.742447078228,0.0551035255194,-0.00174277683254,-0.18586692214,-0.00401842268184,0.236383259296,-0.00058354891371,-0.892925143242,0.0366144068539,0.465550560617,-0.011674758579,0.122987675212,-0.0118102276576,0.935537990495,0.353023979058,-0.00180464926422
-0.278481006622,0.117811709642,0.242991343141,-2.50091004372,-0.0186181105673,2.58973050117,-0.741100370884,0.0551035255194,0.00028787800693,-0.275206208229,-0.00609734095633,0.264138579369,0.000436805945355,-1.0499509573,0.0634875819087,0.464469571841,-0.0121443186678,0.12594748462,-0.013526993479,0.935731598746,0.352352790573,-0.00842058286903
-0.278492361307,0.112499400973,0.242800265551,-2.49566292763,-0.0186161473393,2.56984496117,-0.739878416061,0.0551035255194,-0.000101322635601,-0.316855370998,-0.0138750327751,0.321531742811,0.00161489320453,-1.15725898743,0.0636936873198,0.463830610674,-0.0125488071306,0.128404535002,-0.0145509563797,0.935893792466,0.351746709334,-0.0128581122842
-0.278470695019,0.106734715402,0.242519825697,-2.48972678185,-0.0186242703348,2.54942464828,-0.738965749741,0.0551035255194,0.00449292175472,-0.366703718901,-0.018016917631,0.369533479214,0.000182433999726,-1.25551652908,0.039441626519,0.463428755032,-0.0130392676315,0.131436823136,-0.0154597593093,0.936008803695,0.351211125843,-0.017299133459
-0.27848559618,0.0987769290805,0.242179766297,-2.48202586174,-0.0186227653176,2.5240676403,-0.738177597523,0.0559926517308,-0.00103265594225,-0.415206670761,-0.0194934494793,0.407443642616,-0.00244158669375,-1.28840374947,0.0376577042043,0.463180226171,-0.0137425755573,0.13597684851,-0.0163269176311,0.936097554805,0.350635198186,-0.0225778016574
-0.278476625681,0.0889049097896,0.241631880403,-2.47246861458,-0.0186264999211,2.49501132965,-0.737265050411,0.0559926517308,-0.000633434974588,-0.474631756544,-0.0264584552497,0.451062113047,0.000176977686351,-1.362647295,0.0453013330698,0.463307499449,-0.0145789317675,0.141360253842,-0.0168773902206,0.936216964456,0.349940840788,-0.027465556596
-0.278504759073,0.0793286785483,0.241149395704,-2.46300697327,-0.01863097772,2.46864175797,-0.736470460892,0.0559926517308,-0.00139083259273,-0.524329543114,-0.026988947764,0.533707499504,0.000644471321721,-1.39544439316,0.0373594872653,0.463864300521,-0.0154603034337,0.147434067821,-0.0170742660481,0.936347177543,0.349224934987,-0.0316919077396
-0.278514742851,0.0681918635964,0.240557476878,-2.45157432556,-0.0186324063689,2.43948245049,-0.735717713833,0.0559926517308,0.000364823965356,-0.564994692802,-0.0279417857528,0.580285072327,-0.00076048693154,-1.43012619019,0.0345793105662,0.464814199955,-0.0163805359551,0.15414760323,-0.0169583698084,0.936482679708,0.34852041527,-0.0353004833587
-0.278548836708,0.0522646456957,0.239730939269,-2.4353017807,-0.0186332780868,2.40137887001,-0.734907031059,0.0559926517308,-0.000524895673152,-0.620773732662,-0.0339212678373,0.653668701649,0.00434863427654,-1.42844176292,0.0345588177443,0.466739896033,-0.017726713034,0.164629563492,-0.0161551564599,0.93670533769,0.347555430355,-0.0390812458794
-0.278560191393,0.0409074313939,0.239125087857,-2.42305254936,-0.0186363998801,2.37565159798,-0.734309792519,0.0559926517308,-0.000755730667152,-0.630828142166,-0.0304472688586,0.686962902546,0.000209335310501,-1.43648099899,0.0353783853352,0.468545162496,-0.018670282785,0.17256508373,-0.0152002517008,0.936913476973,0.346838804965,-0.0408035791515
-0.278620153666,0.0290768966079,0.238542869687,-2.41014361382,-0.0186363980174,2.35017800331,-0.73377853632,0.0559926517308,-0.0045805494301,-0.672879636288,-0.038371860981,0.743193805218,-0.000273983372608,-1.38852536678,0.0214076731354,0.470606944714,-0.0196240231256,0.181085522664,-0.0139442765694,0.937149184934,0.346122569857,-0.0419061886771
-0.278742074966,0.00843577459455,0.237436145544,-2.38701462746,-0.0186354443431,2.30889058113,-0.733217954636,0.0560983754694,-0.00101255543996,-0.710704445839,-0.0403337925673,0.779224812984,0.00470327539369,-1.3365534544,0.0177913811058,0.474716553402,-0.0212699767242,0.196651738298,-0.0110839836622,0.937602494754,0.344976643554,-0.0420692551124
-0.278776407242,-0.00494965678081,0.236612170935,-2.37139034271,-0.0186411906034,2.28391098976,-0.732925593853,0.0560983754694,-0.000851744494867,-0.697664797306,-0.0416688881814,0.813125252724,-0.0010170575697,-1.29331886768,0.0152277080342,0.477725420069,-0.0223183724425,0.207283798781,-0.00879273805869,0.937945701078,0.344232280719,-0.0410449288516
-0.278818666935,-0.0169681031257,0.235830694437,-2.35732388496,-0.0186375174671,2.26246237755,-0.732736885548,0.0560983754694,0.000758648209739,-0.715563297272,-0.0486475750804,0.857708096504,-4.66901437903e-05,-1.24448680878,0.0113233588636,0.480422903532,-0.0232404189079,0.217026525778,-0.00656290643165,0.938268934694,0.343564580309,-0.0396448393973
-0.278861790895,-0.0285418219864,0.23503562808,-2.34381222725,-0.0186401624233,2.2432820797,-0.732568979263,0.0560983754694,-0.00143638032023,-0.716992378235,-0.0454862639308,0.789166808128,-0.00634050648659,-1.17457103729,0.0107606202364,0.483117648437,-0.0241128477377,0.226597117616,-0.00415681507385,0.9386049906,0.342910908556,-0.0376231443367
-0.278995901346,-0.0436416566372,0.234009444714,-2.32627272606,-0.0186350010335,2.21987080574,-0.732313811779,0.0560983754694,-0.0103250974789,-0.713160097599,-0.050409771502,0.846169710159,0.0026755684521,-1.06451821327,0.0136668430641,0.486628647325,-0.025222326948,0.239302983363,-0.000751181093715,0.939072609039,0.342005420819,-0.0342689728086
-0.279326349497,-0.064982354641,0.232616826892,-2.30192661285,-0.0186354704201,2.18992209435,-0.731826782227,0.0560983754694,-0.0166294407099,-0.703507661819,-0.0441360585392,0.779812633991,5.59634063393e-05,-0.920917749405,0.0217619817704,0.491470034049,-0.0267116378136,0.257562818,0.00454387499764,0.939762646985,0.34062687203,-0.0282640101399
-0.279541790485,-0.0740923434496,0.232077971101,-2.29174399376,-0.0186357293278,2.17833709717,-0.731491744518,0.0560983754694,-0.0218311175704,-0.686283946037,-0.0400572232902,0.741950452328,0.000405187602155,-0.8617811203,0.0312925800681,0.494047914637,-0.0274973988337,0.267797179549,0.00771000411637,0.940168792972,0.339750738162,-0.0243440375133
-0.279806941748,-0.0837716385722,0.231529995799,-2.28135418892,-0.0186333172023,2.16666007042,-0.73100155592,0.0560983754694,-0.0135382767767,-0.677619457245,-0.0348817184567,0.738388895988,-5.86805908824e-05,-0.768623888493,0.0447753630579,0.496037738236,-0.028082450893,0.276113460871,0.0103894522981,0.940502444244,0.338984735658,-0.0208940261963
-0.280184626579,-0.10046684742,0.230625942349,-2.26382350922,-0.0186334773898,2.14824056625,-0.729926764965,0.0560983754694,-0.0143237728626,-0.654145777225,-0.039604794234,0.650067090988,0.000104479440779,-0.685203135014,0.0471848100424,0.498752420452,-0.0288572646061,0.288120694988,0.0143770872578,0.940973211902,0.33781652218,-0.0155791808176
-0.280619233847,-0.118990272284,0.229647710919,-2.24611282349,-0.0186287797987,2.13023614883,-0.728342831135,0.056100346148,-0.0167034156621,-0.615020275116,-0.0293459109962,0.551263868809,0.00032088989974,-0.546323955059,0.072972625494,0.501797580768,-0.029774814358,0.30365928631,0.0197725481073,0.941586077912,0.336091444036,-0.0082003143703
-0.280841678381,-0.129729598761,0.229046747088,-2.23687028885,-0.0186300389469,2.12071895599,-0.726977467537,0.056100346148,-0.0125314686447,-0.578645646572,-0.0351902358234,0.482663750648,0.00016005418729,-0.506485581398,0.0783485770226,0.503176646647,-0.0302575863408,0.312342356104,0.0228669716447,0.941977773105,0.334872099653,-0.0039564055218
-0.281008124352,-0.138361170888,0.228585347533,-2.23011088371,-0.0186284538358,2.11351776123,-0.725833058357,0.056100346148,-0.0135417170823,-0.558642148972,-0.0242761578411,0.423418581486,0.00280058174394,-0.449510753155,0.068946480751,0.504043088267,-0.0306020807546,0.319077897178,0.0253029015221,0.942275491789,0.333880590716,-0.00064154504738
-0.281248509884,-0.1490136832,0.22811858356,-2.22244238853,-0.0186300035566,2.10488843918,-0.72429049015,0.056100346148,-0.0105722630396,-0.513931274414,-0.0240959301591,0.341173052788,-0.00182671460789,-0.415210336447,0.0927458927035,0.504817904296,-0.03096332483,0.327123277051,0.0282269388141,0.942632744101,0.332620073048,0.00326134438473
-0.281951993704,-0.170127242804,0.227487057447,-2.21062040329,-0.0186286251992,2.08807253838,-0.718120574951,0.056100346148,-0.0204430054873,-0.358231395483,-0.00621830439195,0.160588860512,-0.000140477350214,-0.29938942194,0.158383697271,0.504953317504,-0.0315520217788,0.341544754525,0.0334051582904,0.94381127263,0.328651303728,0.00962794383717
-0.28224503994,-0.176065385342,0.227403745055,-2.20829844475,-0.0186283029616,2.08291983604,-0.714974403381,0.056100346148,-0.0167983360589,-0.302892416716,-0.00415564933792,0.101352520287,1.18008410936e-05,-0.272801995277,0.18847425282,0.504508377407,-0.0316968619058,0.345082845074,0.0345817841655,0.944379838919,0.326855484143,0.0107848143923
-0.28253954649,-0.180392459035,0.227337256074,-2.20703244209,-0.0186276789755,2.07875704765,-0.711794793606,0.0561036318541,-0.022045655176,-0.243598923087,-0.00445454614237,0.0560266040266,0.00422359304503,-0.247290208936,0.206905469298,0.503944353963,-0.0318396569396,0.347415606342,0.035274816459,0.944961428808,0.325079731667,0.0112584695462
-0.283396244049,-0.186363011599,0.227249622345,-2.20659446716,-0.0186365041882,2.07088494301,-0.703814268112,0.0561036318541,-0.0389755107462,-0.10713442415,-0.000887240050361,-0.0142266852781,-0.00264510256238,-0.232311427593,0.264455288649,0.502270533661,-0.0322471972609,0.349794289206,0.0355758181403,0.946458273905,0.32069211333,0.0103761773876
-0.284125208855,-0.187547549605,0.227236375213,-2.20693349838,-0.0187928043306,2.06677508354,-0.699316203594,0.0561036318541,-0.0453730896115,-0.0364736802876,0.0011144366581,-0.025873189792,-0.034412831068,-0.245278388262,0.255634129047,0.501237799188,-0.0326153132207,0.349814902631,0.0351415144769,0.947336791927,0.318182362801,0.0088351747466
-0.285284698009,-0.187587797642,0.22706836462,-2.20769238472,-0.020293219015,2.06181359291,-0.69422274828,0.0561036318541,-0.0663416013122,0.0291251577437,-0.0122816311195,-0.0502154603601,-0.0952529460192,-0.223407909274,0.232195556164,0.499877440365,-0.0334776118187,0.349010890517,0.0346953300809,0.948304787202,0.315401498766,0.00601322753226
-0.289443850517,-0.182995021343,0.225602224469,-2.21149230003,-0.028874874115,2.05411958694,-0.684652864933,0.0561036318541,-0.119457028806,0.162504509091,-0.0515656284988,-0.106265462935,-0.274051934481,-0.117393061519,0.187084466219,0.496813957072,-0.0375464034639,0.344353876827,0.034705753903,0.950104282866,0.30998552323,-0.00251741999854
-0.291945278645,-0.179613173008,0.224161341786,-2.21371412277,-0.0344908758998,2.05221366882,-0.681227982044,0.0561036318541,-0.142531812191,0.20149409771,-0.0949045419693,-0.123187541962,-0.308798581362,-0.0817905291915,0.177274554968,0.495528089867,-0.0403424011824,0.34157250963,0.035191158761,0.950804317219,0.307713842206,-0.00670251493857
-0.29443949461,-0.176145792007,0.222481146455,-2.21571397781,-0.0398176759481,2.05099081993,-0.678605020046,0.0561036318541,-0.167252734303,0.237376362085,-0.112972393632,-0.127259895205,-0.342404276133,-0.0627473294735,0.147476688027,0.494427629629,-0.0432019429685,0.338928200012,0.0356728421858,0.951411534409,0.305669990021,-0.0104593218812
-0.304086923599,-0.162913918495,0.214038267732,-2.2214782238,-0.0594041533768,2.05006027222,-0.673123598099,0.0561069138348,-0.24932487309,0.316999107599,-0.23671515286,-0.109047651291,-0.469826251268,-0.00259346771054,0.0770103037357,0.491307501555,-0.0549963935401,0.330121339125,0.0379751226152,0.953247991047,0.298977422903,-0.0221056081283
-0.308703184128,-0.157315000892,0.209875166416,-2.2231297493,-0.0673851966858,2.05010175705,-0.671980023384,0.0561069138348,-0.284543007612,0.338249653578,-0.259644240141,-0.0910418480635,-0.473687857389,0.0134907290339,0.0625253394246,0.490163279344,-0.0604605079752,0.326816538878,0.0389508954601,0.95398230152,0.296143773374,-0.0264473309018
-0.314163953066,-0.150860786438,0.204690381885,-2.22451114655,-0.0759018734097,2.05057382584,-0.671331107616,0.0561069138348,-0.318460255861,0.375710874796,-0.324893563986,-0.0587629042566,-0.476842850447,0.0436518862844,0.017476959154,0.488993428092,-0.0668952406189,0.323281519121,0.0399059486318,0.954832114382,0.292825943545,-0.0309211106806
-0.321022927761,-0.143312573433,0.197678864002,-2.22544550896,-0.0855430066586,2.05182218552,-0.671287059784,0.0561069138348,-0.35684683919,0.375451207161,-0.369931817055,-0.0363757684827,-0.492937266827,0.0740629211068,-0.000203599673114,0.487781722721,-0.0750493791208,0.319520376967,0.0410275117499,0.955917295312,0.288581312754,-0.0354921600093
-0.332874655724,-0.131554082036,0.184771344066,-2.22579669952,-0.100495874882,2.05528569221,-0.671376764774,0.0561069138348,-0.419713586569,0.391083568335,-0.468074142933,0.00160542922094,-0.478756517172,0.169774338603,-0.00660320837051,0.486030995385,-0.0892544814616,0.314283499791,0.0430127777616,0.957960069139,0.280612661949,-0.0414601076922
-0.339770197868,-0.125206306577,0.17705412209,-2.22570729256,-0.107965707779,2.05849790573,-0.671781301498,0.0561069138348,-0.443797767162,0.399959892035,-0.513063490391,0.00968595035374,-0.447139292955,0.236759498715,-0.0440343245864,0.485187239239,-0.0974353881559,0.311666497043,0.0440569574651,0.959198470916,0.275810751707,-0.0438828762245
-0.347615033388,-0.118483833969,0.167885795236,-2.22545075417,-0.115293130279,2.06310200691,-0.673026382923,0.0561069138348,-0.472085833549,0.399401605129,-0.566669762135,0.0216351822019,-0.426422774792,0.292107224464,-0.102328687906,0.484308003237,-0.10676204173,0.309040447,0.0450860769735,0.960629372578,0.270301576693,-0.0457767575531
-0.35751786828,-0.110575675964,0.155761078,-2.22465348244,-0.122902065516,2.06947159767,-0.675775229931,0.056108225137,-0.512387573719,0.398301184177,-0.631520748138,0.0629286244512,-0.352397084236,0.34129139781,-0.16423304379,0.483310865931,-0.1173637094,0.306478019298,0.0459733084767,0.962269368802,0.264009567348,-0.0471493882557
-0.372252136469,-0.0993887633085,0.13743929565,-2.22214508057,-0.131967067719,2.07996177673,-0.682203352451,0.056108225137,-0.556349158287,0.403374552727,-0.694562971592,0.122418507934,-0.293744891882,0.399352401495,-0.295234113932,0.481660472692,-0.136734837777,0.302749969335,0.0473330344716,0.965135516643,0.252931389609,-0.047945074871
-0.382907301188,-0.091723151505,0.123871825635,-2.21944928169,-0.137079313397,2.08802628517,-0.688804209232,0.056108225137,-0.56672924757,0.405516505241,-0.731499552727,0.163831621408,-0.253219783306,0.439459979534,-0.394561290741,0.480650537946,-0.148769240011,0.30101225809,0.0480696643833,0.966779440266,0.246508570527,-0.0475430919817
-0.392565965652,-0.0849081575871,0.111361347139,-2.21634340286,-0.14048011601,2.09594392776,-0.696444511414,0.056108225137,-0.574322044849,0.406963020563,-0.74766844511,0.200413987041,-0.169701769948,0.480083078146,-0.49078977108,0.479753584799,-0.16030498422,0.299702262689,0.0486701751138,0.968253725092,0.240747439093,-0.0464392954632
-0.402933359146,-0.077656917274,0.0976051837206,-2.21247768402,-0.143096908927,2.10478711128,-0.705915927887,0.056108225137,-0.574034333229,0.394795149565,-0.771341145039,0.222001448274,-0.132800802588,0.488837391138,-0.547731399536,0.478709171174,-0.172800961161,0.2985527109,0.0492249597807,0.969776430173,0.234750214439,-0.0447539420667
-0.420945644379,-0.0653970688581,0.0735480487347,-2.20416998863,-0.145486921072,2.12031173706,-0.723921537399,0.056108225137,-0.579526543617,0.387669920921,-0.768295288086,0.309631407261,-0.0357152782381,0.503484666348,-0.607679128647,0.476723406561,-0.194589908997,0.297373037655,0.0502564217816,0.97235235853,0.224375956455,-0.0407506170482
-0.430796176195,-0.0589669346809,0.0605601146817,-2.19873166084,-0.145756572485,2.1287112236,-0.734622359276,0.056108225137,-0.585659384727,0.366458714008,-0.7598695755,0.325970560312,-0.00324620329775,0.49403321743,-0.652150452137,0.475641373208,-0.205764066271,0.297232636029,0.0509110089736,0.973602719704,0.219195544053,-0.0381985145398
-0.439979493618,-0.0531909428537,0.0484737083316,-2.19330096245,-0.145766913891,2.13648891449,-0.74502915144,0.056108225137,-0.56145966053,0.35103186965,-0.738483071327,0.343554705381,0.00723743066192,0.482816547155,-0.658175766468,0.474338213677,-0.217593322874,0.297361896743,0.0518184360943,0.974849021544,0.213859959884,-0.0353291965331
-0.449888855219,-0.0469104908407,0.0356498733163,-2.18714165688,-0.145752996206,2.14484238625,-0.756839811802,0.056108225137,-0.553686439991,0.338104248047,-0.704576253891,0.336859971285,0.00366914877668,0.446831822395,-0.659588456154,0.472849615734,-0.229584420191,0.297608121015,0.0529695282538,0.975982736602,0.208807512036,-0.0324245207288
-0.47590482235,-0.0326731577516,0.00438476214185,-2.1700835228,-0.143735066056,2.16396784782,-0.788371324539,0.0561101958156,-0.488635540009,0.241794288158,-0.552497506142,0.326029777527,0.1031723544,0.31646117568,-0.582411110401,0.467935409421,-0.25988511781,0.299579190455,0.0563957310053,0.97862966728,0.19619382906,-0.024728060524
-0.482355117798,-0.0296099130064,-0.0029278267175,-2.16567468643,-0.142245948315,2.16811966896,-0.796412110329,0.0561101958156,-0.436085611582,0.188067287207,-0.49701794982,0.293085098267,0.117659918964,0.276847332716,-0.557080626488,0.466322436323,-0.268073993458,0.300451306643,0.0572317309204,0.979338617507,0.192664163664,-0.0223812638259
-0.490229040384,-0.0263183787465,-0.0117977354676,-2.16053795815,-0.139731705189,2.17303466797,-0.806560814381,0.0561101958156,-0.386838853359,0.150765910745,-0.42927262187,0.239516839385,0.158249482512,0.237582236528,-0.513034105301,0.464500272572,-0.276189376394,0.301420204651,0.0579361015375,0.98005113327,0.189071699301,-0.0198765322246
-0.49732029438,-0.0237856581807,-0.0193342715502,-2.15630030632,-0.135705947876,2.17745471001,-0.816284060478,0.0561101958156,-0.327714830637,0.101516313851,-0.334221482277,0.187462508678,0.23987108469,0.197853237391,-0.461109220982,0.462840576101,-0.28312214041,0.302335278497,0.0581360333656,0.980706274109,0.185848441522,-0.0171977332151
-0.505654752254,-0.0218935851008,-0.0273113958538,-2.15184378624,-0.126762002707,2.1820397377,-0.828899145126,0.0561101958156,-0.218353420496,0.0244338065386,-0.202070534229,0.104560375214,0.360162049532,0.102898389101,-0.380808085203,0.460865881369,-0.290756114201,0.303706823188,0.0571573479278,0.981610488444,0.181683030375,-0.0128515650423
-0.508708894253,-0.0217626448721,-0.030082564801,-2.15043926239,-0.119846239686,2.18333387375,-0.835073709488,0.0561101958156,-0.145106136799,-0.000552812067326,-0.126523897052,0.0633997544646,0.452098965645,0.0505048595369,-0.345638781786,0.460236252358,-0.293008893042,0.304327899976,0.0556481654744,0.982037565332,0.179995090483,-0.0103570774761
-0.51058024168,-0.0218849610537,-0.0313894078135,-2.14970088005,-0.11153575778,2.18390393257,-0.840492188931,0.0561180748045,-0.0733287185431,-0.0143933743238,-0.0348452627659,0.0278117787093,0.515080451965,0.0131900645792,-0.296776384115,0.460116493754,-0.29371564206,0.304679862695,0.0535400064799,0.982376424104,0.178903251302,-0.00797843600365
-0.511025488377,-0.0222544912249,-0.0312681794167,-2.14962363243,-0.101502738893,2.1839838028,-0.845480382442,0.0561180748045,0.0202682539821,-0.0352949053049,0.0333070084453,-0.00861699692905,0.590070724487,-0.00682270387188,-0.259372770786,0.460678946311,-0.292752127309,0.304823351732,0.0503300365857,0.982649231214,0.178441665414,-0.00509387396788
-0.509838223457,-0.02288694866,-0.0293207205832,-2.14996242523,-0.089102640748,2.1837310791,-0.850225508213,0.0561180748045,0.0899860262871,-0.0307245310396,0.148108035326,-0.0210148878396,0.642672896385,-0.0258307568729,-0.224225208163,0.462205583998,-0.289830528202,0.304857161761,0.0463913944363,0.982758592457,0.17896948256,-0.00181974814241
-0.505361139774,-0.0232675299048,-0.0225527603179,-2.15087032318,-0.0694243311882,2.18274474144,-0.855352163315,0.0561180748045,0.213324978948,-0.00199456443079,0.317768633366,-0.0428365170956,0.729103386402,-0.0386478155851,-0.130976915359,0.466160694408,-0.282140675093,0.304374746725,0.0396656684566,0.982546371012,0.181715975123,0.0029270527459
-0.501376509666,-0.0232925508171,-0.0166013743728,-2.15172219276,-0.0573889575899,2.18211603165,-0.857106864452,0.0561180748045,0.278940141201,-2.3049894935e-06,0.413616865873,-0.0605158247054,0.757141649723,-0.0346145741642,-0.0878903344274,0.46928280735,-0.275924065112,0.303845893119,0.0353700179547,0.982231267823,0.184224126418,0.00567179709945
-0.495970278978,-0.0232178531587,-0.00895950011909,-2.15291929245,-0.0443778894842,2.18156671524,-0.857972383499,0.0561180748045,0.353061020374,0.0100266812369,0.494344443083,-0.0815424919128,0.766527533531,-0.0299202445894,-0.0181940626353,0.473139328438,-0.268041122941,0.303119977448,0.030617359468,0.981738461602,0.18756099922,0.00854643658074
-0.482093364,-0.0223263166845,0.00999557878822,-2.15584993362,-0.0199922751635,2.1811709404,-0.857983350754,0.0561180748045,0.502239406109,0.0536945313215,0.675517082214,-0.0969333723187,0.740824460983,-0.00470705563203,0.00379905407317,0.48204613501,-0.249041942366,0.301141433622,0.0213373222083,0.9800546377,0.197115148376,0.0135367566308
-0.473357081413,-0.0213792324066,0.0213610380888,-2.15734672546,-0.00843257922679,2.18115592003,-0.857877254486,0.0561180748045,0.586754202843,0.0667578876019,0.744527161121,-0.0930151492357,0.70448577404,0.000749295577407,0.0146113438532,0.487413710269,-0.236973227641,0.299826487646,0.0164383370471,0.978654214531,0.204248310752,0.0157587025681
-0.462039321661,-0.0199214667082,0.0355019085109,-2.15897655487,0.00373735837638,2.18118023872,-0.857395470142,0.0561180748045,0.679057061672,0.0972772240639,0.827440261841,-0.0859828516841,0.648030221462,-0.00419561518356,0.0450953543186,0.493064399563,-0.223568059723,0.29835331823,0.0116461286345,0.97688816928,0.21270812929,0.0175819179321
-0.44781845808,-0.0174371916801,0.0529947318137,-2.16041851044,0.0160499252379,2.18118929863,-0.856005847454,0.0561187341809,0.743930459023,0.146514475346,0.912102103233,-0.0594562739134,0.571458160877,0.000376646028599,0.0953659117222,0.499970080349,-0.206138249847,0.296345403343,0.00615018255307,0.974346903121,0.224154316471,0.019108368215
-0.423393785954,-0.012184470892,0.082166261971,-2.16163396835,0.031058313325,2.18124103546,-0.851633489132,0.0561187341809,0.867944061756,0.201078236103,1.03061056137,-0.0283552613109,0.433189153671,0.00573436636478,0.21085575223,0.510377402499,-0.177039402584,0.292976081432,-0.00131108733786,0.969574156345,0.243969286876,0.0200804171266
-0.409211397171,-0.00867934618145,0.0988608151674,-2.16190743446,0.0376375801861,2.1813158989,-0.847654223442,0.0561187341809,0.927530050278,0.245604261756,1.07904481888,-0.00469169951975,0.396125495434,0.00159287056886,0.294585168362,0.51598643793,-0.159240207916,0.290856877655,-0.00522874036668,0.966485444019,0.255887115006,0.0200082693225
-0.393163383007,-0.00443877372891,0.117499001324,-2.16188621521,0.0440063364804,2.18153476715,-0.84197050333,0.0561187341809,0.955225408077,0.258879750967,1.09358382225,0.00478401407599,0.346652895212,0.0200610887259,0.372746825218,0.521330671983,-0.140394413567,0.2886308326,-0.00902843957767,0.963145874935,0.268107513247,0.0196690596464
-0.374543011189,0.000673910428304,0.138887688518,-2.16182470322,0.0501313954592,2.1820704937,-0.833959817886,0.0561187341809,1.00478422642,0.279112517834,1.14846587181,0.00139454484452,0.303812205791,0.034336656332,0.463800489902,0.52639512467,-0.119752111488,0.28613582076,-0.0128317665717,0.959419633832,0.281050292238,0.0189748493884
-0.353279024363,0.00688899261877,0.163113713264,-2.161703825,0.0558359399438,2.18267011642,-0.823242545128,0.0561187341809,1.04671239853,0.301132500172,1.17566168308,0.00412147166207,0.238182812929,0.0213679522276,0.555631518364,0.531344045023,-0.0949088372306,0.282976694307,-0.0171341046101,0.95485439908,0.296057031716,0.017599223826
-0.3239608109,0.0154683152214,0.195833995938,-2.16152095795,0.0619245097041,2.18328905106,-0.805800259113,0.0561226718128,1.05009734631,0.309172689915,1.16260170937,0.00204369612038,0.188647538424,0.0212772041559,0.669735848904,0.536110307314,-0.0608918939232,0.278650217717,-0.0225413643742,0.948540902141,0.315493678265,0.0150260613948
-0.306168198586,0.0206723567098,0.215431317687,-2.16154074669,0.0647964179516,2.18364596367,-0.793884456158,0.0561226718128,1.05841064453,0.297977149487,1.15873217583,-0.0084999864921,0.152391642332,0.0209803730249,0.733357846737,0.537856973165,-0.0403523535836,0.275996396673,-0.025567883137,0.944697269856,0.326682102662,0.0131207913956
-0.288318961859,0.0256780982018,0.23485378921,-2.16167497635,0.0670986846089,2.18388271332,-0.780935049057,0.0561226718128,1.02257752419,0.289138168097,1.11812770367,-0.00773491570726,0.100654833019,0.00270035467111,0.786657452583,0.538742291249,-0.0198883014477,0.273411315077,-0.0283690133184,0.940858147662,0.337431690296,0.0109999605724
-0.268769562244,0.0308622829616,0.255851477385,-2.16193151474,0.0686948001385,2.18389225006,-0.765453159809,0.0561226718128,1.02643477917,0.266853958368,1.08405041695,-0.0176770761609,0.0803575441241,0.00678070774302,0.828138649464,0.538726197736,0.00228394730178,0.270694725118,-0.0310500400685,0.936694053881,0.348668625739,0.00838650982702
-0.238162010908,0.0379381030798,0.288106232882,-2.16274094582,0.070389777422,2.18386340141,-0.738734960556,0.0561226718128,0.945226848125,0.187973871827,0.989610791206,-0.035329118371,0.027599465102,-0.00185843976215,0.899678766727,0.536778222484,0.0364876534372,0.26686615116,-0.0346220763277,0.930378657608,0.364937200222,0.00420771641566
-0.222500875592,0.0408301502466,0.304301708937,-2.16352295876,0.0705748125911,2.18382763863,-0.723314881325,0.0561226718128,0.898473322392,0.148004218936,0.925073266029,-0.0520912259817,0.00153859599959,-0.00584033783525,0.905900835991,0.534858985365,0.0536457993849,0.265145027549,-0.0359800979756,0.927350007427,0.37245587129,0.00200496869453
-0.208568662405,0.0428164377809,0.318574368954,-2.16455793381,0.0705665647984,2.18374252319,-0.708917558193,0.0561226718128,0.842070996761,0.109535336494,0.848628818989,-0.0721586868167,-0.000875140656717,-0.00432231836021,0.897605419159,0.532597593355,0.0687295449646,0.263774395841,-0.0369673370685,0.924739694977,0.378800621063,4.11074054944e-05
-0.192413032055,0.0443265661597,0.334629386663,-2.16624069214,0.0705579817295,2.18360447884,-0.690941929817,0.0561226718128,0.764532506466,0.0450148172677,0.76563590765,-0.0977691337466,-0.000164853074239,-0.0182758457959,0.883583247662,0.529345566622,0.0858215123368,0.262385119094,-0.0378905151738,0.922000070518,0.385324939474,-0.00220670042022
-0.178811430931,0.0444933399558,0.348020583391,-2.16831016541,0.0703607425094,2.18324947357,-0.674354672432,0.0561226718128,0.683990240097,-0.00836012884974,0.646622061729,-0.114908739924,-0.0242237858474,-0.0215172581375,0.858137607574,0.525973729213,0.0999607065523,0.261472208592,-0.038336492688,0.919945956196,0.390144372875,-0.00413751170798
-0.153035387397,0.041789919138,0.371857494116,-2.17350149155,0.0669331476092,2.18199014664,-0.637477338314,0.0561351515353,0.458586215973,-0.122181683779,0.389818221331,-0.114641092718,-0.140127882361,-0.0278129670769,0.760134577751,0.518420584046,0.125082111135,0.260605300046,-0.0371279308074,0.917062206409,0.396934975139,-0.00781354736016
-0.145990997553,0.0395241342485,0.377628713846,-2.17551541328,0.0640819147229,2.18150782585,-0.625222027302,0.0561351515353,0.372217088938,-0.142302036285,0.300421506166,-0.116403028369,-0.189780712128,-0.0246043261141,0.700140178204,0.516024985145,0.131470379254,0.260839578342,-0.0355289134383,0.916641577483,0.398031966469,-0.00874460341495
-0.139865681529,0.0365137420595,0.382393687963,-2.17780852318,0.0595055297017,2.18106770515,-0.611883461475,0.0561351515353,0.239223614335,-0.164122372866,0.175757840276,-0.111937008798,-0.273567527533,-0.025341603905,0.641304254532,0.514153632017,0.135797539322,0.261231125179,-0.0333692829443,0.916652127504,0.398178595899,-0.00944317462123
-0.136290743947,0.0328139513731,0.384524583817,-2.17994236946,0.0534430406988,2.18047904968,-0.599981665611,0.0561351515353,0.113142237067,-0.204138353467,0.0423235632479,-0.0917406007648,-0.354974806309,-0.0337598696351,0.556752562523,0.512744771455,0.137912524367,0.262110149234,-0.029838444943,0.917312260329,0.396924556093,-0.0099388482762
-0.135596260428,0.0271721873432,0.384115427732,-2.18210864067,0.0423601344228,2.17968273163,-0.586313426495,0.0561351515353,-0.0557523332536,-0.207084804773,-0.0725492909551,-0.0645197555423,-0.47232362628,-0.018064700067,0.470718681812,0.512428219905,0.13673254567,0.263526342261,-0.0250133626351,0.918555151334,0.394375199323,-0.00994824044752
-0.13696937263,0.0240770224482,0.382076919079,-2.18289232254,0.0346729643643,2.17948412895,-0.57934820652,0.0561351515353,-0.117911592126,-0.198577418923,-0.195109710097,-0.0339219495654,-0.524474203587,-0.00599024118856,0.432418376207,0.512959122757,0.13380905974,0.264736000475,-0.0207909565386,0.91987961505,0.391529811874,-0.00967657157711
-0.139984875917,0.0201145894825,0.376979589462,-2.18340802193,0.0236073248088,2.17935156822,-0.571854948997,0.0562054142356,-0.193684369326,-0.200615227222,-0.332006394863,-0.0131161957979,-0.610860645771,-0.00135703280102,0.328530609608,0.514446067872,0.127866955197,0.266468679061,-0.0150230468489,0.921861505908,0.387122983443,-0.00902592714795
-0.144785061479,0.01616833359,0.369072407484,-2.18336606026,0.0108954021707,2.1793782711,-0.566147327423,0.0562054142356,-0.297109186649,-0.189429596066,-0.447633326054,0.0132457343861,-0.645538628101,0.00459188828245,0.23391610384,0.516654381872,0.119670504775,0.268372226011,-0.00887193765373,0.924054537128,0.382070729821,-0.00815219190177
-0.15537700057,0.0108345169574,0.354404449463,-2.1827890873,-0.00832571554929,2.17963051796,-0.561062574387,0.0562054142356,-0.436871379614,-0.169232264161,-0.587585389614,0.0338201001287,-0.710603117943,0.0109856110066,0.106131881475,0.520389850816,0.105004601303,0.271101181281,-0.000177429512716,0.927541637879,0.373656444516,-0.00688038330576
-0.162783935666,0.00828142557293,0.344578295946,-2.18213009834,-0.019750058651,2.17989325523,-0.559843301773,0.0562054142356,-0.518678486347,-0.146045744419,-0.679571092129,0.0578758306801,-0.744260549545,0.0228708833456,0.0359585955739,0.523376764065,0.0922975346188,0.273034636712,0.00629446886684,0.930210468061,0.366922050556,-0.00608878246085
-0.173959881067,0.00561384297907,0.330115675926,-2.18056225777,-0.0346393287182,2.18054795265,-0.559628665447,0.0562054142356,-0.598556339741,-0.118455067277,-0.768733143806,0.0965968742967,-0.734131515026,0.0416461005807,-0.000208304263651,0.52577572209,0.0816853454083,0.274513512762,0.0110996012194,0.932356436297,0.361328823163,-0.00545488633007
-0.186137974262,0.00381343509071,0.314921289682,-2.17823052406,-0.0482515133917,2.18156599998,-0.559669733047,0.0562054142356,-0.670299768448,-0.0656811892986,-0.818869829178,0.149285897613,-0.689479351044,0.0664131715894,-0.00199497211725,0.529884684301,0.0624145798026,0.277045027161,0.0186971787964,0.936404218126,0.350399266754,-0.00423194111894
-0.22375588119,0.00320572499186,0.269351392984,-2.16832542419,-0.0779990181327,2.18691468239,-0.562403082848,0.0562054142356,-0.865650236607,0.0307387858629,-1.02004349232,0.250146687031,-0.488686621189,0.157020062208,-0.129879921675,0.538391700318,0.0146329781747,0.282488408034,0.0325010850233,0.946736588147,0.320364145345,-0.000571141028477
-0.237577065825,0.00403520138934,0.252907127142,-2.16407251358,-0.0852396860719,2.18973398209,-0.564640879631,0.0562054142356,-0.878282427788,0.0765879750252,-1.03887021542,0.284833341837,-0.418611615896,0.200016021729,-0.149792566895,0.54090914776,-0.00358159899204,0.284414772767,0.0363393005527,0.950606739141,0.308260850295,0.00123717428663
-0.250172913074,0.0053864675574,0.238111823797,-2.15995001793,-0.0908135920763,2.19274425507,-0.567013859749,0.056214608252,-0.925324320793,0.105606518686,-1.07900249958,0.296845138073,-0.375122010708,0.235761284828,-0.18907725811,0.54272765984,-0.0191183061604,0.285904091779,0.0392299568782,0.953820442921,0.297790734002,0.00287255681622
-0.271675288677,0.00800260342658,0.21316742897,-2.15249013901,-0.0979472026229,2.19883036613,-0.572301208973,0.056214608252,-0.952117919922,0.132470831275,-1.09240865707,0.356550902128,-0.240976795554,0.29556876421,-0.262464284897,0.545073951667,-0.0441500627531,0.288462526466,0.0433488597265,0.958768981149,0.280794486584,0.00611335775106
-0.295763194561,0.0122016426176,0.185533970594,-2.14283800125,-0.101881965995,2.20663022995,-0.579482734203,0.056214608252,-0.965738356113,0.196728348732,-1.09405636787,0.408109039068,-0.0941467881203,0.328231006861,-0.297714352608,0.546973395657,-0.0731339987002,0.291435999722,0.0469773827576,0.964286580021,0.260444387746,0.0106413196755
-0.311397492886,0.015477865003,0.167929366231,-2.13616728783,-0.102802872658,2.21212363243,-0.584372937679,0.056214608252,-0.970074236393,0.21307168901,-1.08988165855,0.419432848692,-0.0316708087921,0.34799143672,-0.302507698536,0.547570725284,-0.0894418569772,0.2930689903,0.0486905162576,0.967265277278,0.248689943391,0.0134323768694
-0.332815825939,0.0203450527042,0.14424264431,-2.12703275681,-0.102889113128,2.22025823593,-0.591392576694,0.056214608252,-0.966519057751,0.216576486826,-1.05739939213,0.428960114717,0.000308232818497,0.37635627389,-0.321392655373,0.547635368299,-0.117089132375,0.295685132678,0.0514428205398,0.97199155879,0.228580881165,0.018352828536
-0.349977642298,0.0243792384863,0.125587105751,-2.11934089661,-0.10257704556,2.22699165344,-0.597141683102,0.056214608252,-0.954734861851,0.22717499733,-1.014534235,0.422701388597,0.036433711648,0.364140927792,-0.317082732916,0.546870948671,-0.139560071062,0.297946139263,0.0538932476642,0.975469680965,0.212243928369,0.0225151935272
-0.368787765503,0.0289525408298,0.105659805238,-2.11111950874,-0.100860528648,2.23396968842,-0.603520095348,0.056214608252,-0.919230937958,0.225528180599,-0.967598557472,0.400019913912,0.1346745193,0.341435730457,-0.307067811489,0.545564044926,-0.157056762447,0.29957033919,0.0555185338156,0.978046290162,0.199213564254,0.0256340050809
-0.388599872589,0.0337792672217,0.0851280540228,-2.10287427902,-0.0968620628119,2.24086761475,-0.61026674509,0.0562218315899,-0.870546460152,0.202617228031,-0.902227878571,0.373924970627,0.214126184583,0.293402791023,-0.310423851013,0.542598774725,-0.181702922743,0.301639430019,0.0571225710738,0.981541333538,0.180037758131,0.0300004628829
-0.414612352848,0.0397837981582,0.0591803900898,-2.09235191345,-0.0882286131382,2.24906754494,-0.619342088699,0.0562218315899,-0.797560036182,0.170935019851,-0.777463793755,0.293036192656,0.343417495489,0.242649376392,-0.280208349228,0.537583623515,-0.210343272653,0.304055453319,0.0580510925769,0.985331566705,0.156526647853,0.0353720583804
-0.426808178425,0.042277302593,0.0473904013634,-2.08809280396,-0.082089446485,2.25274777412,-0.62359213829,0.0562218315899,-0.737346947193,0.138875231147,-0.704065084457,0.240184992552,0.420329719782,0.222057148814,-0.250566840172,0.534623190021,-0.223252691074,0.305027065336,0.0577895400443,0.986999910905,0.145064800682,0.0380492869196
-0.438836872578,0.0445785522461,0.0359265878797,-2.08459997177,-0.0741596445441,2.25607132912,-0.627600491047,0.0562218315899,-0.672247111797,0.125692948699,-0.635852515697,0.171840116382,0.503870368004,0.175487458706,-0.233910113573,0.531231276348,-0.235571523434,0.305696078612,0.0567631907225,0.988624763729,0.133199295135,0.0407058250701
-0.450903654099,0.046206112951,0.0249962508678,-2.08209037781,-0.0639259368181,2.2589430809,-0.631678700447,0.0562218315899,-0.596024751663,0.0563798509538,-0.529439032078,0.0923230648041,0.568560004234,0.126201972365,-0.208073139191,0.527400069837,-0.247198243877,0.306225367019,0.0548391900579,0.99018860019,0.12092668071,0.043542357283
-0.462041079998,0.0470378547907,0.0152336098254,-2.08104228973,-0.0520619116724,2.26116275787,-0.635677218437,0.0562218315899,-0.504290342331,0.0260261837393,-0.443213135004,0.0209479946643,0.603157997131,0.0914163812995,-0.192037537694,0.523379920615,-0.257263064209,0.306439483539,0.052049862248,0.991581406868,0.109158968699,0.0462757457576
-0.474048793316,0.0472685284913,0.00551587343216,-2.08133721352,-0.0342660658062,2.26286244392,-0.6404530406,0.0562218315899,-0.396319806576,-0.00226482609287,-0.290151834488,-0.0242866780609,0.70044118166,0.0310076512396,-0.156756713986,0.518603537018,-0.267142568773,0.306274461749,0.0467969577785,0.993108286641,0.0951606254986,0.0499042162546
-0.479946523905,0.0472151190042,0.00128247658722,-2.08196616173,-0.0217116493732,2.26318287849,-0.642920851707,0.0562218315899,-0.29842248559,-0.00378913502209,-0.205172553658,-0.0416343696415,0.767307519913,0.00956480484456,-0.127116382122,0.516418122133,-0.2709518985,0.3059973346,0.0427822902313,0.993853561398,0.0877690683114,0.0521666990184
-0.484159976244,0.0471820011735,-0.00143489718903,-2.08276772499,-0.00827439688146,2.26332163811,-0.644781172276,0.0562218315899,-0.205608054996,-0.00129225850105,-0.126446962357,-0.0535495057702,0.814098596573,0.00743781682104,-0.102321080863,0.515113483345,-0.272899824379,0.305643120265,0.0385486012633,0.994416929096,0.081750567221,0.0544593511242
-0.487234324217,0.0471849478781,-0.00291600823402,-2.0841088295,0.0106604052708,2.26344466209,-0.646407365799,0.0562264248729,-0.0857850536704,0.000520503846928,-0.0200735330582,-0.0684957504272,0.899574756622,0.00747580081224,-0.0521474294364,0.514487699437,-0.273165856544,0.305006725417,0.0319531092488,0.995003608101,0.074767864497,0.0579360407088
-0.487105190754,0.0471839793026,-0.00177227146924,-2.08623671532,0.0375542417169,2.26350617409,-0.647007405758,0.0562264248729,0.0630731061101,-3.22576270264e-05,0.110429465771,-0.0770018473268,1.00387573242,0.00355943012983,-0.00111429020762,0.515659742928,-0.269528281919,0.304044063095,0.0221794621985,0.995463942687,0.067813533718,0.0629359564117
-0.485390245914,0.047243822366,0.000946633226704,-2.08759593964,0.0550731271505,2.26354026794,-0.646988809109,0.0562264248729,0.131596416235,0.00627548620105,0.199807628989,-0.0789427831769,1.05831122398,0.00222692126408,0.00275950087234,0.517403445559,-0.265307620209,0.303432525732,0.0156338021417,0.995572815205,0.0648506249996,0.0662174447628
-0.482775807381,0.0474565178156,0.00491214683279,-2.08881473541,0.0724718570709,2.26360440254,-0.646917462349,0.0562264248729,0.187944829464,0.0180402621627,0.291515171528,-0.0754743292928,1.10336041451,0.00962417386472,0.0124987671152,0.519899552967,-0.259631403505,0.302796145577,0.00859457491155,0.995550396131,0.0628541199473,0.0696771221454
-0.478475093842,0.0480174869299,0.0112593220547,-2.09001946449,0.0945813283324,2.26372742653,-0.646442711353,0.0562264248729,0.263272643089,0.0359822101891,0.369602829218,-0.0502491518855,1.19385755062,0.0105052972212,0.0499668754637,0.52353528433,-0.251656306773,0.302084052284,2.85649573745e-05,0.99538193128,0.0613817288261,0.0738044248687
-0.47181597352,0.049071893096,0.0204282179475,-2.09088969231,0.121692687273,2.26387238503,-0.644691705704,0.0562264248729,0.34279024601,0.0588132292032,0.463913202286,-0.0255634430796,1.27467048168,0.0124393580481,0.103124536574,0.528459643397,-0.241017947455,0.301392231811,-0.0101374806195,0.995026052227,0.0603801905478,0.0785787449899
-0.461697429419,0.0508903674781,0.0337149910629,-2.09132814407,0.155504122376,2.2641787529,-0.641228973866,0.0562264248729,0.441774040461,0.0811030864716,0.574229717255,-0.00622595753521,1.31092941761,0.0117504587397,0.169958010316,0.535642395908,-0.225219220495,0.300627289849,-0.0236996526904,0.994312638289,0.060173212734,0.0846161212172
-0.452320158482,0.0526077225804,0.0457143858075,-2.09134483337,0.182524234056,2.26456546783,-0.637200891972,0.0562297105789,0.500713706017,0.090552739799,0.627810716629,0.0019025169313,1.36320829391,0.0321827083826,0.243758022785,0.54178569807,-0.211092866665,0.300127348653,-0.0348059780372,0.993554538066,0.0606553503813,0.0892123979647
-0.435871481895,0.0552640892565,0.0654638782144,-2.09130573273,0.224775850773,2.26551699638,-0.628355264664,0.0562297105789,0.589166581631,0.0922888591886,0.695969521999,0.0033375066705,1.44053184986,0.0427704229951,0.359376728535,0.551340409522,-0.187278099217,0.29958793618,-0.0525661007495,0.992104097192,0.0614122506973,0.0958895226266
-0.425461441278,0.0570045635104,0.0778623446822,-2.09118747711,0.249309107661,2.26633071899,-0.621740281582,0.0562297105789,0.621278822422,0.104300566018,0.743162572384,0.00643413560465,1.44892072678,0.0543015450239,0.409964621067,0.556839490309,-0.172343981519,0.299324039204,-0.0631580812587,0.991110701788,0.061926910185,0.0993765116384
-0.415216803551,0.058705791831,0.0900348201394,-2.09105086327,0.272460132837,2.26730942726,-0.614848136902,0.0562297105789,0.646947681904,0.097364269197,0.766235172749,0.00545430649072,1.45255362988,0.0582795031369,0.443036109209,0.561874588596,-0.157667878843,0.299136325492,-0.0732945906715,0.99006915049,0.0624733872186,0.10241120941
-0.401797056198,0.0608502104878,0.105914346874,-2.09082627296,0.301498234272,2.26835727692,-0.605742275715,0.0562297105789,0.687654852867,0.112728841603,0.826469957829,0.0203523579985,1.45190370083,0.0481145046651,0.462935984135,0.567835969194,-0.13842572304,0.298985690227,-0.0862808564463,0.988614260871,0.0634608631345,0.105689051288
-0.387656003237,0.0632134303451,0.122124545276,-2.09041428566,0.330276727676,2.26941037178,-0.596045076847,0.0562297105789,0.716124951839,0.120687641203,0.815916419029,0.0178735163063,1.43288087845,0.0541396327317,0.501721322536,0.573356998148,-0.118461161567,0.298885624279,-0.0994232150351,0.987010915254,0.064674801469,0.108358881656
-0.368438094854,0.0661943629384,0.143781602383,-2.08988785744,0.367160499096,2.27056860924,-0.582495808601,0.0562297105789,0.736898779869,0.0986780673265,0.838869452477,0.0170651767403,1.40872943401,0.0385329127312,0.545783221722,0.579626919824,-0.0914863614494,0.298905697051,-0.11668174097,0.984721510733,0.0665519646543,0.110814048391
-0.354996412992,0.0679325908422,0.158696472645,-2.08960795403,0.391916453838,2.27104473114,-0.572566866875,0.0562297105789,0.7624168396,0.0997231975198,0.849574387074,0.0162186063826,1.36517715454,0.0140105299652,0.553658366203,0.583167997833,-0.0726776758679,0.299094011443,-0.128503001629,0.98304947095,0.0678202009991,0.111808480311
-0.342018038034,0.0697169229388,0.173006132245,-2.08919048309,0.414746284485,2.27126598358,-0.563358783722,0.0562297105789,0.749343693256,0.108410269022,0.818317115307,0.0297268256545,1.28765082359,0.012526798062,0.538772702217,0.585998908411,-0.0545697254541,0.299288201099,-0.139614374029,0.981374841275,0.0694861466863,0.112173626988
-0.326350271702,0.0716163441539,0.190230235457,-2.08863019943,0.441256344318,2.27147197723,-0.552290558815,0.0562336482108,0.752636313438,0.0751000344753,0.831663906574,0.0289627481252,1.23078274727,0.00101666664705,0.528117597103,0.588685940871,-0.0327490350433,0.299728932304,-0.152651872775,0.979273493344,0.071787649203,0.11210425545
-0.30757394433,0.0736812651157,0.211278229952,-2.08766722679,0.471357822418,2.27178192139,-0.538247704506,0.0562336482108,0.712163448334,0.0844743326306,0.796631813049,0.0420903563499,1.09159827232,0.023809440434,0.539113163948,0.591023457859,-0.00545316029699,0.300602800096,-0.168272413203,0.976569590989,0.074951040232,0.111259022887
-0.293921768665,0.0752090215683,0.226228952408,-2.08673644066,0.491513043642,2.27227210999,-0.528196334839,0.0562336482108,0.697250843048,0.0674613565207,0.761282086372,0.0525242052972,1.02964806557,0.0391504131258,0.516072273254,0.591976987496,0.0123160352197,0.301289986717,-0.177950658831,0.974765121021,0.0774194389124,0.110330195488
-0.278197497129,0.0764108896255,0.243057623506,-2.08567643166,0.513756513596,2.2733399868,-0.516525149345,0.0562336482108,0.683540523052,0.042001247406,0.724346518517,0.0502750836313,0.91316896677,0.0584773086011,0.497664242983,0.592535284524,0.0335671552463,0.302485765287,-0.189163186637,0.972539746051,0.0804177183668,0.109163736831
-0.268888235092,0.0769562646747,0.252924323082,-2.08500266075,0.525949299335,2.27424502373,-0.509553432465,0.0562336482108,0.647404968739,0.0308495033532,0.684790372849,0.0476834774017,0.816026687622,0.0816104263067,0.503790557384,0.592565393285,0.0459725897183,0.303313463854,-0.195354667348,0.971236328321,0.0823867425768,0.108392678886
-0.250706642866,0.077525280416,0.27144753933,-2.08360671997,0.547371923923,2.27741336823,-0.494894981384,0.0562336482108,0.607609570026,0.00486280117184,0.60941106081,0.0429459549487,0.670870125294,0.14795871079,0.492168575525,0.59218862143,0.0693751292019,0.305286590879,-0.206201536544,0.968821723865,0.0859664974056,0.107122148553
-0.241398513317,0.0774528831244,0.280731827021,-2.08281207085,0.557567715645,2.28005433083,-0.487177938223,0.0562336482108,0.563400268555,0.00127689866349,0.552773535252,0.0504467561841,0.599139809608,0.196587562561,0.474757492542,0.591959888421,0.0775368652684,0.306189292939,-0.209730544296,0.967974026834,0.0872443541292,0.106900909868
-0.232234582305,0.0774230659008,0.289730906487,-2.08186626434,0.567004799843,2.28413176537,-0.479234516621,0.0562421865761,0.5115711689,-0.00258697732352,0.504685759544,0.0628617927432,0.515586495399,0.271558701992,0.467064261436,0.591673399152,0.0922479482803,0.308058914476,-0.215691325634,0.966448418048,0.0892658370148,0.107174238197
-0.222476914525,0.0772381648421,0.29937389493,-2.08054828644,0.576485157013,2.29045677185,-0.470077782869,0.0562421865761,0.465990662575,-0.0145737314597,0.457689225674,0.0732700377703,0.439754366875,0.354248970747,0.459743857384,0.591698169389,0.103953551129,0.30999923226,-0.219935106531,0.965239851548,0.0905358100811,0.108369020873
-0.210466891527,0.0768275633454,0.311238288879,-2.0782968998,0.587881207466,2.30268859863,-0.456955462694,0.0562421865761,0.368832409382,-0.00694887340069,0.361845821142,0.0880462601781,0.366314589977,0.469144463539,0.424578279257,0.59246909253,0.11790382477,0.313188996086,-0.224446518399,0.963779891012,0.0907715377364,0.111859776906
-0.203158095479,0.076508037746,0.318101882935,-2.076141119,0.595180928707,2.31378436089,-0.448013603687,0.0562421865761,0.309192627668,-0.0225563887507,0.279750496149,0.10266456008,0.304561376572,0.536328434944,0.394340246916,0.593780039073,0.125879247217,0.315910929926,-0.226810617167,0.962842234797,0.0897511977088,0.115915905007
-0.199449568987,0.0762017890811,0.321553349495,-2.07472896576,0.598772644997,2.32120013237,-0.443000614643,0.0562421865761,0.263357311487,-0.0219304282218,0.252969533205,0.117378242314,0.253026813269,0.60363304615,0.375560849905,0.594938695061,0.130005726638,0.31783810627,-0.227772578837,0.962309462009,0.0887534909761,0.119176210668
-0.19511654973,0.0758489444852,0.325666278601,-2.07234501839,0.603267371655,2.33351373672,-0.436160117388,0.0562421865761,0.197567939758,-0.0164975896478,0.175868809223,0.129663541913,0.218514367938,0.69201862812,0.349988877773,0.596979166364,0.133974633885,0.320516240351,-0.228419771863,0.9616827304,0.0868001664822,0.124324030918
-0.191690668464,0.0753836780787,0.328507810831,-2.06959080696,0.607546389103,2.34904241562,-0.428789883852,0.0562421865761,0.1257494241,-0.0249367542565,0.10216050595,0.135772749782,0.193408384919,0.777977466583,0.345710664988,0.600075919114,0.136590335558,0.323892621493,-0.228439778873,0.961038128286,0.0831437215432,0.131560270103
