imanlab/tactile_prediction_flat_dataset/train/data_sample_2021-11-24-16-32-21/robot_state.csv
position_panda_joint1,position_panda_joint2,position_panda_joint3,position_panda_joint4,position_panda_joint5,position_panda_joint6,position_panda_joint7,position_panda_finger,velocity_panda_joint1,velocity_panda_joint2,velocity_panda_joint3,velocity_panda_joint4,velocity_panda_joint5,velocity_panda_joint6,velocity_panda_joint7,ee_state_position_x,ee_state_position_y,ee_state_position_z,ee_state_orientation_x,ee_state_orientation_y,ee_state_orientation_z,ee_state_orientation_w
0.00797152239829,0.149160906672,0.00489706359804,-2.50330662727,-0.0932596325874,2.6767141819,-0.632195591927,0.0773310363293,0.000457415939309,-0.000224264993449,0.000259856984485,8.85782283149e-05,6.89302032697e-05,-6.5186926804e-05,0.00351777207106,0.475135586883,0.0044286531466,0.116257414715,0.023732116595,0.934228092613,0.355848652336,0.00513750240025
0.00797195080668,0.149160727859,0.00489731039852,-2.50330662727,-0.0932590290904,2.6767179966,-0.632112443447,0.0773310363293,0.00171238859184,3.91078465327e-05,5.27187148691e-05,-0.000250105687883,1.02506901385e-05,6.34946700302e-05,0.00639828201383,0.475136443934,0.00442908647978,0.116257853277,0.0237322887587,0.934242829797,0.35580990531,0.00514046803585
0.00797529052943,0.149164170027,0.00489798281342,-2.50330328941,-0.0932594314218,2.67671966553,-0.63202470541,0.0773310363293,0.00025826311321,0.000607040477917,6.48138666293e-05,0.00025940782507,-0.0024628196843,0.000115322138299,0.00108734273817,0.475137766,0.00443105947868,0.116257529957,0.0237322892771,0.934257647041,0.355770970968,0.0051423042058
0.00797690730542,0.149163916707,0.00489923218265,-2.50330376625,-0.0932590961456,2.6767206192,-0.63200289011,0.0773310363293,-5.33559978066e-05,0.000164867102285,-2.54735859926e-05,0.000223312192247,-5.78888175369e-05,-4.65171251562e-05,-0.000613237498328,0.475137766441,0.00443248231102,0.116257573405,0.0237321541032,0.934261068775,0.35576198419,0.00514300724984
0.00798087380826,0.149163097143,0.00490044103935,-2.50330471992,-0.0932601466775,2.67672395706,-0.63196516037,0.0773310363293,0.000165362420375,9.29309317144e-05,-0.00025155604817,0.000676818715874,7.32119806344e-05,-6.25150860287e-05,0.00326852290891,0.475138267386,0.00443520058123,0.116257927339,0.0237325907094,0.934266771218,0.355746948549,0.00514515490472
0.00797727983445,0.149163261056,0.00489832693711,-2.50330495834,-0.0932593718171,2.67672419548,-0.631946086884,0.0773310363293,1.79137041414e-05,-0.000490380858537,1.59603769134e-05,0.000381707388442,9.72804355115e-06,-0.000287816132186,0.00252017006278,0.475138066423,0.0044322809832,0.116257803851,0.023732515489,0.934271187769,0.355735355294,0.00514510376364
0.00797376129776,0.14916241169,0.00489686708897,-2.50330471992,-0.0932587385178,2.67672753334,-0.631924211979,0.0773316919804,-0.00037853725371,0.000282927940134,0.000228385601076,0.000462875439553,-0.00145214411896,-0.000145251193317,0.00450060889125,0.475139134126,0.00443005736319,0.116258546551,0.023733050549,0.934276191558,0.355722145682,0.0051473251432
0.0079745426774,0.149162083864,0.00489705381915,-2.50330400467,-0.093259088695,2.67672967911,-0.631899833679,0.0773316919804,-0.000382173398975,0.000812311889604,-3.69756962755e-05,-0.000111301567813,-0.00300998799503,0.000171494437382,0.000348629342625,0.475140014331,0.00443048977436,0.116259202405,0.0237335285913,0.934280114064,0.35571178383,0.00514923433202
0.00798420235515,0.149163112044,0.00490166340023,-2.50330615044,-0.0932590663433,2.67673182487,-0.631850421429,0.0773316919804,0.000690330809448,-0.00149768777192,-6.39711506665e-05,-0.000234230144997,9.28963927436e-05,-8.36141916807e-05,-0.000149864659761,0.475139080634,0.00443743157691,0.116258169703,0.0237327752584,0.934286373161,0.35569538799,0.00514965557886
0.00798603985459,0.149161428213,0.00490407599136,-2.50330543518,-0.0932594910264,2.67673254013,-0.631830751896,0.0773316919804,-0.000621506362222,0.000608425412793,0.000206704498851,1.08220274342e-06,-0.00293660559691,0.000123190329759,0.000837831117678,0.475139950947,0.00443953277588,0.116259284689,0.0237331492585,0.934289043109,0.355688324087,0.00515144125211
0.00798244122416,0.149161964655,0.00490204710513,-2.50330376625,-0.0932590141892,2.67673420906,-0.631814956665,0.0773316919804,-8.45147442305e-05,-0.00103209586814,-0.000408545689424,-0.00019987601263,-8.27962649055e-05,3.5990273318e-05,-0.000218491462874,0.475141081739,0.00443686431209,0.11625976259,0.0237335744862,0.934292905235,0.35567813004,0.00515287947856
0.00797771476209,0.14916433394,0.00490046013147,-2.50330305099,-0.0932594314218,2.67673754692,-0.631797790527,0.0773316919804,-0.000247852876782,-0.00271653058007,-0.000591457472183,0.000136739297886,0.000873268232681,0.000193763858988,-0.00030798141961,0.47514168672,0.00443389628586,0.116259194749,0.0237339004061,0.934296980893,0.355667389254,0.00515377267306
0.0079717040062,0.149166837335,0.00489556975663,-2.50330162048,-0.0932587832212,2.67673921585,-0.631756722927,0.0773316919804,0.000102793288534,0.000127961262478,2.1026145987e-05,0.000804275041446,8.38828636915e-05,-9.43319391808e-05,-0.000247158808634,0.475142291566,0.00442864341732,0.116258654974,0.0237340524157,0.93430629721,0.35564289685,0.00515435302937
0.00797447841614,0.149166405201,0.0048977076076,-2.50330448151,-0.0932589918375,2.67673993111,-0.631744086742,0.0773316919804,0.000117320014397,-0.000392421003198,0.000289266521577,5.48497409909e-05,0.000225993440836,-3.46943343175e-05,0.00127702811733,0.475141038662,0.00443103107853,0.116257935409,0.0237335822767,0.934307643762,0.355639398617,0.00515380602461
0.00797955412418,0.149165019393,0.00490034883842,-2.5033018589,-0.0932588800788,2.6767437458,-0.631725847721,0.0773316919804,0.000393674010411,0.000400890712626,0.00058701162925,-0.000580683525186,6.53905590298e-05,-5.88582079217e-05,-0.000232222490013,0.475143482203,0.00443488399658,0.116259857186,0.0237345039439,0.934309498699,0.355634404445,0.00515790889892
0.00797288771719,0.149165868759,0.00489432457834,-2.5033056736,-0.0932591557503,2.6767475605,-0.631666481495,0.0773316919804,8.66970185598e-06,-3.32904528477e-05,-0.00014316488523,-0.0029270821251,8.26631221571e-05,-6.15712997387e-05,-8.30096687423e-05,0.475142206632,0.00442875457777,0.116258485126,0.0237345647842,0.934322219904,0.355600977476,0.00515793862632
0.0079730367288,0.149166554213,0.00489789946005,-2.50330448151,-0.0932595729828,2.67674899101,-0.631646156311,0.0773316919804,-2.69612755801e-05,-0.000734675675631,0.000301644089632,-4.7809775424e-05,-0.000455659028376,0.000309460185235,0.00146929302718,0.475142966253,0.00443065374951,0.116258706101,0.0237346198616,0.934325103108,0.355593379734,0.005159214751
0.00797780510038,0.149163916707,0.00489844474941,-2.50330328941,-0.0932590663433,2.67674994469,-0.631626486778,0.0773316919804,0.000220960064325,0.000738477625418,-0.000334985408699,0.000443095486844,-4.05355931434e-05,7.32039461582e-06,0.00442312285304,0.475144437643,0.00443380465231,0.116260321614,0.0237351613232,0.934328050107,0.355585562863,0.00516178925534
0.00798056926578,0.149166852236,0.00490087270737,-2.50330448151,-0.0932587906718,2.67675185204,-0.631582915783,0.0773316919804,-0.000418214971432,0.00433260062709,-0.000307519832859,0.000132761953864,-4.50752086181e-05,0.00381501251832,0.000350450252881,0.475143469853,0.00443581063531,0.116258829698,0.023734378553,0.934334591854,0.355568430474,0.00516146055492
0.00797937251627,0.149166747928,0.00489892065525,-2.50330448151,-0.093259125948,2.67675185204,-0.631557703018,0.0773310363293,0.000388678046875,0.00234545464627,-0.000267085735686,8.19425695227e-05,-8.61090593389e-05,0.000167688602232,0.0028492170386,0.475143507452,0.00443425560177,0.116258879357,0.0237345488628,0.934339571947,0.355555329095,0.00516169758834
0.00797797739506,0.149166673422,0.00489891786128,-2.50330257416,-0.0932588353753,2.67675375938,-0.631538510323,0.0773310363293,0.000208329016459,-0.000169396706042,-0.00129336863756,7.6258502304e-06,0.00203886837699,-5.52537385374e-05,0.000331801333232,0.475145183676,0.00443324027381,0.116260023312,0.023735193156,0.934343799574,0.355544142855,0.00516400718614
0.00797215942293,0.149168118834,0.00489579932764,-2.5033018589,-0.0932595878839,2.67675662041,-0.631491541862,0.0773310363293,-0.000175820110599,-0.000667846295983,0.000314340955811,-0.000249636126682,-0.0043727918528,-0.00010102710803,-2.50640150625e-05,0.475145641394,0.00442938388535,0.116259579715,0.023735565754,0.934353037757,0.355519823389,0.00516513462663
0.00797493942082,0.14916986227,0.00489867897704,-2.50330591202,-0.0932592824101,2.67675757408,-0.631477057934,0.0773310363293,0.000500054680742,-2.23532879318e-05,0.000460522598587,-0.000349206500687,-6.19889178779e-05,9.05352353584e-05,0.000430044863606,0.475143347719,0.00443215113992,0.116257434967,0.0237343731997,0.934354671757,0.355515636577,0.00516320932648
0.00797845143825,0.149170741439,0.00489973649383,-2.50330638885,-0.093259267509,2.67675757408,-0.631461143494,0.0773303806782,0.000580934283789,-0.000278009858448,-0.000168088401551,6.99162628734e-05,9.2557813332e-05,4.2899086111e-05,0.000210228725336,0.475142890174,0.00443434653496,0.116256852028,0.0237340085559,0.934356698048,0.355510340735,0.00516284487139
0.00797766260803,0.14916677773,0.0049004657194,-2.50330305099,-0.0932589694858,2.67675971985,-0.631447374821,0.0773303806782,1.63204967976e-05,0.000142134813359,-0.000125078586279,-2.06090935535e-05,-5.91138086747e-05,0.000195219850866,0.00186354306061,0.475145936876,0.00443442456882,0.116260091405,0.0237354042505,0.934359170184,0.355503682469,0.00516750562622
0.00797692686319,0.149167954922,0.00489846197888,-2.50330328941,-0.0932583361864,2.67676258087,-0.631429255009,0.0773303806782,-0.000363537110388,0.000190972277778,-0.00163039960898,-0.000225693773245,9.91201595752e-05,-4.45674959337e-06,0.00161371054128,0.475146186713,0.00443314806612,0.116259714267,0.0237354984089,0.934362950795,0.355493726611,0.00516839643355
0.00797695852816,0.149167731404,0.00489791436121,-2.50330328941,-0.0932589620352,2.67676305771,-0.631419837475,0.0773303806782,5.82099492021e-05,0.000400029181037,0.00019635805802,0.00015273426834,-3.55118354491e-05,7.11839020369e-05,0.00207260786556,0.475146476527,0.00443301755881,0.116259976205,0.0237357925294,0.934364591141,0.355489387813,0.00516892765455
0.00797795318067,0.149168625474,0.00489765917882,-2.50330424309,-0.0932590216398,2.67676544189,-0.631410777569,0.0773303806782,-0.000150146341184,-0.000569890195038,-9.26352149691e-05,-3.11489238811e-05,2.9715578421e-05,1.30419548441e-05,0.00231318362057,0.475146165675,0.00443328249647,0.116259331168,0.0237357536987,0.934366058803,0.355485529313,0.00516916700336
0.00797354988754,0.149169430137,0.00489796092734,-2.50330448151,-0.0932592973113,2.67676687241,-0.631401658058,0.0773303806782,0.000437055539805,-0.000659491983242,-0.000312590302201,0.0036755730398,-2.14316496567e-05,-6.40439975541e-05,2.25823623623e-05,0.475146195074,0.0044313687247,0.116258999234,0.0237357882146,0.934368354611,0.355479488982,0.00516941562053
0.00797860790044,0.149170875549,0.00489849364385,-2.50330376625,-0.0932596772909,2.67676925659,-0.631368875504,0.0773303806782,-8.88211216079e-05,7.36267902539e-05,-5.59733161936e-05,0.000134855377837,-0.00443524727598,0.000164478100487,-0.000457759218989,0.475146991713,0.00443395051613,0.116258958598,0.0237360926329,0.934373197191,0.355466716167,0.0051710405532
0.007976914756,0.149170696735,0.00489912042394,-2.50330376625,-0.0932590216398,2.67676830292,-0.63135778904,0.0773303806782,1.53783294081e-05,0.000300526153296,-6.73938411637e-05,-0.000371895352146,0.00386765343137,3.75035233446e-05,0.000393233727664,0.475146577905,0.00443359260211,0.116258777982,0.0237356138849,0.934375385169,0.355461005091,0.00517047083724
0.00797429587692,0.149169653654,0.00489732017741,-2.50330400467,-0.0932592973113,2.6767706871,-0.631345927715,0.0773303806782,0.000157272093929,-0.000559262465686,-0.002388341818,7.18320443411e-05,-0.000609530427027,1.10590815439e-06,-0.000484540621983,0.475147215228,0.00443149797169,0.116259412364,0.0237362361037,0.93437820342,0.355453532783,0.00517201968496
0.00797602720559,0.149167343974,0.00489640329033,-2.50330233574,-0.0932588279247,2.67677307129,-0.631329417229,0.0773303806782,0.00372957973741,-0.000381227204343,0.000347627705196,2.09780728255e-06,0.000193248357391,-1.10334613055e-05,0.00154740503058,0.475149088265,0.00443194264812,0.116261309181,0.0237371564505,0.93438103455,0.355445982049,0.00517524950869
0.00797784328461,0.149168297648,0.00489811040461,-2.50330257416,-0.093259125948,2.67677330971,-0.631323099136,0.0773303806782,-0.000618426478468,-3.69990157196e-05,-0.000116830145998,-0.000259662105236,-3.96422547055e-05,0.00553825078532,-0.000112711080874,0.475149045754,0.00443381750282,0.116260975342,0.0237369788801,0.934381416325,0.355444991196,0.00517518887005
0.00797935668379,0.149170085788,0.00489912508056,-2.50330424309,-0.0932591930032,2.67677330971,-0.631312131882,0.0773303806782,-1.32820268846e-05,3.6381186419e-06,-8.63893219503e-05,-0.000190620601643,-0.00552152842283,-0.000260261731455,0.000441953889094,0.475147532745,0.00443487308727,0.116259367931,0.0237362132978,0.934382991017,0.3554409273,0.00517350575181
0.00797792803496,0.149168416858,0.00489941751584,-2.50330495834,-0.0932594463229,2.67677521706,-0.631295919418,0.0773303806782,-0.000168188242242,-0.000528182834387,-0.000419900752604,-0.000320617313264,1.56221485668e-05,-3.1955052691e-05,4.4472008085e-06,0.475147941387,0.00443438143152,0.116260090334,0.0237366290952,0.934386014279,0.355432929542,0.00517504019715
0.00797503255308,0.14917036891,0.00489722797647,-2.5033018589,-0.0932591632009,2.67678356171,-0.631255269051,0.0773310363293,0.000428808416473,0.00121510692406,-0.000145433092257,-0.000134146699565,-0.00443776790053,8.77140155353e-06,0.000592692405917,0.475150942055,0.00443213348927,0.116261011319,0.0237379239052,0.934394101602,0.355411509753,0.00517998842546
0.00797533802688,0.149174362421,0.00489626824856,-2.50330281258,-0.0932588577271,2.67678523064,-0.631227493286,0.0773310363293,-6.22409497737e-05,0.0011683673365,4.76875402455e-06,6.43676958134e-06,0.000115851660667,3.92279689549e-05,-0.000431124732131,0.475149945895,0.00443183077305,0.11625893774,0.0237372159944,0.934399196709,0.355398178894,0.005178792431
0.00797695294023,0.149175420403,0.00489791249856,-2.50330471992,-0.0932587385178,2.67678809166,-0.631182610989,0.0773310363293,0.000466401921585,-0.000360904581612,0.000541491259355,7.77608220233e-05,6.53776660329e-05,0.000147944010678,0.000741846044548,0.475149332444,0.00443348236191,0.116258039549,0.0237368176685,0.934406599438,0.355378733031,0.00517940240744
0.00797763094306,0.149171188474,0.00489897700027,-2.50330376625,-0.0932591706514,2.67678999901,-0.631085634232,0.0773310363293,-8.52522280184e-05,7.13150584488e-05,-0.000117279552796,0.000108327854832,0.000150853156811,0.00051123148296,0.00180767860729,0.475151146699,0.00443439092605,0.116260558531,0.0237377342292,0.934423424169,0.355334365044,0.00518392149556
0.00797952897847,0.149169445038,0.00489948363975,-2.50330257416,-0.0932590067387,2.67679166794,-0.631029307842,0.0773310363293,-7.49122918933e-05,0.000195181797608,-4.22098455601e-05,-4.52886961284e-05,4.52902131656e-05,6.55024778098e-05,0.00413400307298,0.475153131225,0.00443548825299,0.116262524348,0.0237385814986,0.934433387781,0.355308049905,0.00518776505873
0.00797787867486,0.149172276258,0.00489646103233,-2.50330281258,-0.0932591706514,2.67679333687,-0.631012439728,0.0773310363293,-0.000413605797803,0.000240292109083,-3.9098358684e-05,0.000151681597345,0.00285657891072,-0.000396068237023,0.00231510703452,0.475152134129,0.00443333172426,0.11626068184,0.0237381413126,0.9344367915,0.355299149845,0.00518624557552
0.00797783583403,0.149168327451,0.00489846291021,-2.5033018589,-0.0932594910264,2.67679953575,-0.630938887596,0.0773310363293,-0.000124677477288,0.000136234899401,0.000132397253765,-4.22701086791e-05,0.000142238874105,0.00021175618167,0.000538063468412,0.475154810877,0.00443447568715,0.116263464719,0.0237395458527,0.934449396372,0.355265812674,0.00519245735849
0.00797701347619,0.149169936776,0.00489878561348,-2.50330257416,-0.0932589992881,2.67679858208,-0.630924165249,0.0773310363293,-0.00034763905569,-0.000162530515809,-0.000158776369062,-7.71835620981e-05,-3.40668339049e-05,5.71942728129e-05,0.00105796055868,0.475153887984,0.00443422569631,0.116262363164,0.0237388503971,0.934452195693,0.355258515611,0.00519111914421
0.00797733105719,0.14917576313,0.00489663239568,-2.50330257416,-0.0932586938143,2.67679905891,-0.630904197693,0.0773310363293,-0.000258747197222,-0.000362851045793,-0.000428849511081,6.85511113261e-05,0.00246477965266,5.664854325e-05,0.00375626259483,0.47515273605,0.00443330307492,0.116259638441,0.0237379363949,0.934456120306,0.355248287316,0.00518879979534
0.00797777157277,0.149177968502,0.00489921309054,-2.50330209732,-0.0932583883405,2.67680025101,-0.630884945393,0.0651406794786,0.000125245904201,0.000352776580257,0.000388706772355,0.000201366608962,-0.00381822232157,5.0173708587e-05,0.000677880074363,0.475152747074,0.00443484260098,0.116258866449,0.023737488129,0.934459056131,0.355240592977,0.00518891686228
0.00797581765801,0.149172484875,0.00489742262289,-2.50329995155,-0.0932589322329,2.67680478096,-0.630828797817,0.0651406794786,1.26144698243e-06,-0.000266982213361,0.000156001420692,0.000800288515165,-0.000106493440398,5.73274919589e-05,0.00360708357766,0.475156039375,0.00443313927633,0.116262636736,0.0237395159576,0.934469538836,0.355212789449,0.00519521571837
0.00797613523901,0.149171918631,0.00489776814356,-2.5033018589,-0.0932588353753,2.67680501938,-0.630811154842,0.0651406794786,-0.000366812106222,0.0007613603957,0.000414309004555,0.000536489998922,-8.50758660818e-05,3.16789300996e-05,0.00314382370561,0.475155224349,0.00443346022299,0.116262266751,0.0237392258552,0.934472572387,0.355204832405,0.00519493351688
0.00797754526138,0.149176165462,0.00489830737934,-2.5033056736,-0.0932589247823,2.67680764198,-0.630790829659,0.0651406794786,-0.000206187178264,3.00819192489e-06,0.000499309157021,4.42563832621e-05,-4.09508575103e-05,-2.52954778261e-05,0.00360441650264,0.475152888828,0.0044344320709,0.116259170102,0.0237381035944,0.934475819055,0.355196398784,0.00519268868526
0.0079735442996,0.149167492986,0.00489756884053,-2.50328469276,-0.0932597443461,2.67731714249,-0.630745828152,0.0651406794786,9.59804674494e-05,-0.00400402676314,-3.37347846653e-05,-0.000706032151356,1.44496070789e-05,0.00527417985722,0.000162945478223,0.475275468669,0.00444482759836,0.116317896106,0.0238106608654,0.934479777751,0.355177231857,0.0054526194412
0.00797813665122,0.149169430137,0.00489865941927,-2.50329875946,-0.0932588875294,2.67733836174,-0.630725324154,0.0651406794786,0.000592965981923,-0.000247989402851,0.000214226805838,-0.00100036733784,-5.74002224312e-05,0.000245697359787,0.00280232983641,0.475272324839,0.00444800345446,0.116314069633,0.0238103798197,0.934482396766,0.355170312065,0.00545573650701
0.00797985773534,0.149169132113,0.00489895092323,-2.5032954216,-0.0932594686747,2.67734289169,-0.630694925785,0.0651406794786,2.96508769679e-05,0.000245911913225,-6.67854837957e-05,5.68795767322e-05,-9.48961023823e-05,7.58063251851e-05,0.0070378985256,0.475275083126,0.00444908988491,0.116315790267,0.0238116209689,0.934487293557,0.355157279516,0.00545997976754
0.0079797366634,0.149178043008,0.00489781890064,-2.50329589844,-0.093259267509,2.67735075951,-0.630646288395,0.0651406794786,6.95509952493e-05,0.00114287238102,-0.000238710956182,-0.000452357868198,-5.35278013558e-05,0.00124360877089,0.0016430701362,0.475274607147,0.00444864284269,0.116312120706,0.0238109350985,0.934496133238,0.355134066619,0.00545992179286
0.00797480810434,0.149178296328,0.00489614065737,-2.50330066681,-0.0932587757707,2.67735314369,-0.630548894405,0.0604251548648,3.60703779734e-05,0.000177984693437,-0.000167791542481,-0.000177910784259,0.000276179023786,-0.00034161930671,0.00201674713753,0.475272630315,0.00444549491258,0.116310567958,0.02381014965,0.934514662978,0.355085358579,0.00545978580875
0.00797775201499,0.149176329374,0.00489938817918,-2.5033094883,-0.0932603180408,2.67736649513,-0.63049519062,0.0604251548648,0.000358606834197,0.000470862694783,0.000341245235177,0.000280646869214,-0.00301538943313,0.00394883612171,-0.000307462876663,0.475271349323,0.00444877091061,0.116309686766,0.0238106887715,0.934522753248,0.35506396962,0.00546369148579
0.00798378512263,0.149161204696,0.00490385480225,-2.50327157974,-0.0932600498199,2.67739272118,-0.630466222763,0.0604251548648,0.000528850359842,-0.00151408615056,-0.000364528386854,0.00207392452285,-6.90878441674e-05,0.000512627826538,-0.000257605221123,0.475299824727,0.0044547999152,0.116332459027,0.0238228054639,0.93452571672,0.35505476809,0.00550182439298
0.00798401236534,0.149123415351,0.00490261148661,-2.503221035,-0.093260332942,2.67749238014,-0.63044065237,0.0604251548648,0.000247250020038,-0.00299839326181,-0.000146947844769,-5.27751217305e-05,-0.00443979585543,0.0070522679016,0.00329912267625,0.47535561923,0.00445711801898,0.116377219279,0.0238512832331,0.934529235277,0.355042193188,0.00559155096284
0.00796954799443,0.148905724287,0.00489100441337,-2.50306081772,-0.0932602286339,2.6777844429,-0.630389511585,0.0604251548648,-0.000590919924434,-0.00987926777452,0.000104288206785,0.000961103185546,3.27576503878e-06,0.00113585917279,0.00108352978714,0.475548598825,0.00445299472276,0.11656350215,0.023955872433,0.934539158208,0.355003879115,0.00590960660096
0.00797527004033,0.148831292987,0.00489302212372,-2.50299334526,-0.0932607278228,2.6778011322,-0.63036441803,0.0604251548648,-0.000235343773966,-0.000154204113642,0.000685180420987,0.0036432268098,0.000103666374343,0.000357476004865,-0.000491001934279,0.475603126019,0.00445768870012,0.116623879318,0.0239824528174,0.934541611276,0.354994369961,0.00598462459471
0.00797219015658,0.148840874434,0.00489235529676,-2.5029706955,-0.0932596921921,2.67780733109,-0.63034671545,0.0604251548648,-1.33273797474e-05,0.000178512331331,-0.000312354386551,0.000249847420491,-7.2959868703e-05,0.000116605689982,0.00259760511108,0.475614104357,0.00445618886992,0.116627762445,0.0239852691698,0.93454549152,0.354983806733,0.00599397904372
0.00797063205391,0.148847147822,0.00489109195769,-2.50296831131,-0.0932610183954,2.67782044411,-0.630323410034,0.0604251548648,-0.00342584168538,0.000407341169193,0.000276128266705,-8.57319173519e-05,-0.000106109968328,0.000165520483279,-0.000249950535363,0.475616818998,0.004455114588,0.116626829447,0.0239866352991,0.934549796079,0.35497230378,0.00599860065888
0.0079776532948,0.148849248886,0.00489498209208,-2.50296759605,-0.0932598933578,2.67783260345,-0.630250155926,0.0604251548648,-0.000182982315891,0.000189694212168,-0.00020800101629,0.000289727904601,2.73679179372e-05,3.26941917592e-05,0.00682980520651,0.475619301981,0.00446073020595,0.116627211144,0.0239872297713,0.934560946456,0.354942797943,0.00600500139068
0.0079741878435,0.148857787251,0.00489462353289,-2.50296974182,-0.0932606309652,2.67783856392,-0.630190610886,0.0604251548648,-0.000258478248725,0.000903803040273,3.33413699991e-05,5.06872966071e-05,-2.19262383325e-05,0.00288595864549,0.00273607228883,0.47561764862,0.00445900592404,0.11662296109,0.0239861839715,0.934572045225,0.354913670146,0.00600347330547
0.00797183532268,0.148871988058,0.00489163957536,-2.50297284126,-0.0932601988316,2.6778459549,-0.630122423172,0.0530928149819,-3.04992317979e-05,-8.70441999723e-06,0.00028195217601,-0.000253207457718,0.00513792829588,0.000129112668219,0.00896646548063,0.475614472817,0.00445663008397,0.116615659011,0.0239840163016,0.934585955174,0.35487725177,0.00599960134273
0.00797295942903,0.148878484964,0.00489107891917,-2.50297212601,-0.0932605117559,2.67785549164,-0.630041599274,0.0530928149819,0.00164488633163,0.000895482779015,3.45293046848e-05,6.07935544394e-05,0.000419988384238,0.000113748850708,0.00130112958141,0.475615607126,0.00445700850886,0.116613865978,0.0239842013952,0.934599244633,0.354842190499,0.00600246125251
0.00797207653522,0.148832008243,0.00489092012867,-2.50295352936,-0.093260422349,2.6778883934,-0.62989872694,0.0530928149819,0.000579362153076,0.000725606165361,-0.000211172708077,-2.19379853661e-05,0.000103204059997,-5.61856313652e-06,0.00605431664735,0.475642362683,0.0044575184464,0.116645495973,0.0239993662161,0.934624290478,0.354774374336,0.006050542888
0.00797486305237,0.148852616549,0.00489113014191,-2.5029489994,-0.0932607352734,2.67790412903,-0.629805922508,0.0530928149819,0.00294426665641,1.68399201357e-05,-4.20978221882e-06,0.000364990177331,-5.14204111823e-05,3.69675981347e-05,0.0147317945957,0.475643621259,0.00445932375837,0.116638733389,0.0239984037491,0.934640068611,0.354732850202,0.00605173009945
0.0079693198204,0.148854076862,0.00489002233371,-2.50294923782,-0.0932613834739,2.67793130875,-0.629731833935,0.0529306158423,-0.000359927711543,-0.000556786428206,-0.000446293037385,-0.000329063215759,-2.22551989282e-05,0.000231101279496,0.00274658412673,0.475649068481,0.00445678268115,0.116640490212,0.024001708579,0.934654025398,0.354695628674,0.00606477349864
0.00796792656183,0.148839086294,0.0048864306882,-2.50295138359,-0.0932602137327,2.67794585228,-0.629684865475,0.0529306158423,0.000506228418089,-0.000186441975529,-0.000733546214178,0.000211674007005,-3.52882416337e-05,-8.95246994332e-05,0.00507978117093,0.475654357062,0.00445470757698,0.116648230317,0.0240057282492,0.934663238484,0.354670846869,0.00607829780058
0.0079776160419,0.148844242096,0.0048914658837,-2.50294780731,-0.0932611525059,2.6779551506,-0.629651665688,0.0529306158423,0.000209677076782,0.000595336314291,0.000499608635437,2.36160576605e-05,-0.00547962961718,0.00138200551737,0.00287896720693,0.475657027182,0.00446207116592,0.116647887792,0.0240063816053,0.934666298116,0.354662664331,0.00608268219038
0.00797132495791,0.14885622263,0.00489047681913,-2.50294589996,-0.0932612195611,2.67797160149,-0.629594445229,0.0529306158423,0.000556789978873,0.000630068941973,-0.000648561632261,0.000267517723842,1.00472143458e-05,0.000311152776703,0.0015697380295,0.475658997234,0.0044589766674,0.116644384946,0.0240067293731,0.934677594348,0.354632804772,0.00608646317065
0.00797261670232,0.148855865002,0.00488972617313,-2.50295543671,-0.0932608321309,2.6779897213,-0.629418730736,0.0529306158423,0.000364126230124,-0.000572072400246,0.000244679395109,-0.000353418377927,4.86506314701e-06,0.000290432566544,0.00418512104079,0.475658048502,0.00445960697716,0.116642932707,0.0240069775743,0.934708564522,0.354551039093,0.00609301249851
0.00797384325415,0.148875042796,0.00489101931453,-2.50296211243,-0.0932602360845,2.67799949646,-0.629318296909,0.0529306158423,-0.00037911022082,0.000826031726319,0.0020271090325,0.000567074806895,0.000143066354212,2.97968326777e-05,0.00284700165503,0.475652543862,0.00446101645909,0.116632403393,0.0240032612015,0.934726004514,0.354505414811,0.00608691147207
0.00796610116959,0.148878097534,0.00488604279235,-2.50294184685,-0.0932599008083,2.67801260948,-0.629260778427,0.0529306158423,-0.0034524181392,-0.000762303243391,-0.000369683752069,0.00335266790353,3.41444865626e-05,-0.000127425300889,0.00319000100717,0.475665233926,0.00445528588177,0.116639208758,0.024008065843,0.9347383174,0.354472367137,0.00610175225341
0.00797522626817,0.148834601045,0.00489032408223,-2.50293874741,-0.0932612344623,2.6780436039,-0.629178464413,0.0529306158423,7.69431353547e-05,0.00117529265117,0.00025390915107,0.000290819414658,-2.63178717432e-05,0.000688951695338,0.000743899377994,0.475682863625,0.00446260948215,0.116663867776,0.0240199279133,0.93474989641,0.354440372835,0.00613970801997
0.00797197967768,0.148855298758,0.00489019555971,-2.50293660164,-0.0932607874274,2.67805123329,-0.629155755043,0.0529306158423,-0.000104654915049,0.00172407750506,-0.000163972465089,-0.000281448068563,-1.71674109879e-05,3.21439074469e-05,0.00187630055007,0.475681152207,0.0044611747348,0.116655478049,0.0240175617693,0.934754573694,0.354428280103,0.00613495181323
0.00796595495194,0.148886650801,0.00488734338433,-2.50293731689,-0.0932599827647,2.67806792259,-0.629070818424,0.0529306158423,0.000174122556928,0.000531154219061,-0.000256159575656,-0.000985046033747,7.03399855411e-05,0.000635635224171,0.00584588758647,0.475677633714,0.00445724296207,0.116641870909,0.0240139886111,0.934771253275,0.354384634451,0.00612886222636
0.00797003787011,0.148882210255,0.00489094201475,-2.50295042992,-0.0932603701949,2.67807936668,-0.628953158855,0.0529306158423,-0.000218088258407,-0.0010001459159,2.10370762943e-05,0.000241469533648,0.000964097620454,-4.05630671594e-05,2.23517308768e-05,0.475674251389,0.00446119177926,0.116640497846,0.0240134717624,0.934790603932,0.354333571342,0.0061318740587
0.00796917360276,0.148855417967,0.00488672172651,-2.5029296875,-0.0932601317763,2.67809200287,-0.628936827183,0.0529306158423,0.000100220677268,-0.00434396974742,-0.000368927343516,0.00111792178359,-3.94037742808e-05,-0.000121522178233,0.00070561922621,0.47569350786,0.00445915349172,0.116661623594,0.0240235397591,0.934794162618,0.35432300704,0.00616031173243
0.00796506367624,0.148846060038,0.00488580064848,-2.5029232502,-0.0932606682181,2.67811059952,-0.628914892673,0.0529306158423,0.0006383912405,0.000167759208125,-5.62569221074e-05,-0.000916653487366,7.37359732739e-05,-0.000219487614231,-4.73446270917e-05,0.475702886992,0.00445723981988,0.116670045634,0.0240288426705,0.934798625625,0.354310585074,0.00617683091526
0.00797052588314,0.14885251224,0.0048883263953,-2.50293087959,-0.0932604894042,2.67816853523,-0.628868103027,0.0529306158423,-0.000145032579894,-5.53394093004e-05,-2.73492787528e-05,-0.000380204670364,1.36230901262e-05,-0.000102326310298,0.000681053497829,0.475709961332,0.00446233705494,0.116669664159,0.0240336585696,0.934805242988,0.354292411816,0.00619899614471
0.0079658832401,0.14885379374,0.00488595431671,-2.50293540955,-0.0932608172297,2.678180933,-0.628854572773,0.0529306158423,-0.000193328713067,-0.000116292751045,-0.000114403614134,-0.000262579647824,-0.00193128653336,-1.05660792542e-05,0.00044876546599,0.475710250663,0.00445916649746,0.116668806587,0.0240345760314,0.934808738184,0.354283065341,0.00620253723236
0.00796957314014,0.148854196072,0.00488892151043,-2.50293326378,-0.0932602509856,2.67819309235,-0.628834307194,0.0529306158423,0.000593759003095,0.000150898864376,0.00107032689266,-0.00055594596779,2.29275519814e-05,0.00289365765639,0.00125005492009,0.475713688195,0.00446291275605,0.116670392494,0.0240359998883,0.934810891612,0.354277168905,0.00620926008427
0.00797089934349,0.148856014013,0.00488889822736,-2.50293922424,-0.0932603254914,2.67821979523,-0.628735125065,0.0532110147178,0.000350718793925,-0.000384980114177,-0.00059558643261,0.000132602988742,3.12130941893e-05,0.000436487724073,0.000901571416762,0.475715962114,0.00446414633809,0.116669948819,0.0240378860686,0.93482798298,0.354231756702,0.0062196864649
0.00797276757658,0.148857071996,0.00488708540797,-2.50293755531,-0.0932609885931,2.67822408676,-0.628722012043,0.0532110147178,0.000329937553033,8.42574809212e-05,0.000806624186225,2.72826528089e-05,-0.000778799992986,6.34997559246e-05,0.00352346384898,0.475717691682,0.00446428823832,0.1166705237,0.0240388139455,0.934830409626,0.354225242718,0.00622236039332
0.00796668417752,0.148858889937,0.00488592125475,-2.50293493271,-0.0932606309652,2.67823719978,-0.628691256046,0.0532110147178,0.000170170707861,-0.000420893426053,-0.000716140784789,-0.000129974709125,8.42356603243e-05,-0.000121167620819,-0.000106142935692,0.475721338992,0.0044610897073,0.116671694689,0.0240405724423,0.93483679549,0.354208151803,0.00622908953452
0.00796910189092,0.148857399821,0.00488807586953,-2.50293874741,-0.0932603180408,2.67824292183,-0.62867641449,0.0532110147178,0.000112983980216,-0.000744667137042,-9.22887411434e-05,-6.32166338619e-05,-5.99740233156e-05,-7.25073041394e-05,0.000182396601303,0.475720973875,0.0044633900103,0.116671581898,0.0240406223812,0.934838508576,0.354203592408,0.00623106481255
0.00796749070287,0.148858204484,0.00488766143098,-2.5029361248,-0.0932599678636,2.67825222015,-0.628654837608,0.0532110147178,-4.69792103104e-05,-0.000436695117969,-0.000223132912652,0.000630568654742,1.86277320608e-05,1.80171336979e-05,-7.26796724848e-06,0.475724093894,0.00446272361296,0.116673007764,0.0240420774105,0.934842765354,0.35419216031,0.00623665291026
0.00796233676374,0.1488596946,0.00488218432292,-2.50293374062,-0.0932600349188,2.67825746536,-0.628646850586,0.0532110147178,0.000448212609626,0.000157202157425,0.000317461352097,0.000241149944486,0.000132155531901,0.000140137301059,0.00016690211487,0.475726181582,0.00445765958592,0.116673615734,0.0240433209711,0.93484597856,0.354183546099,0.00623942672993
0.00797572080046,0.148857116699,0.0048917629756,-2.50293207169,-0.0932608693838,2.67825913429,-0.628641963005,0.05273033306,-0.000876262958627,0.000415208749473,0.0025162731763,-0.000304737768602,3.99879172619e-05,5.81982822041e-05,0.000171538500581,0.475727797457,0.00446947986068,0.11667554976,0.024043611719,0.934842375904,0.354192978367,0.00624265255797
0.0079642990604,0.148840129375,0.00488524138927,-2.5029335022,-0.0932611972094,2.67825889587,-0.628638207912,0.05273033306,0.00262383720838,-0.00180003163405,-0.00011526702292,0.000411405344494,0.000185894503375,-1.88458197954e-05,0.000911480805371,0.475730824211,0.00446017768895,0.116683141403,0.0240469405987,0.934846369822,0.354182088949,0.00624956260138
0.00796324107796,0.148811087012,0.00488344533369,-2.50293183327,-0.0932606682181,2.67826080322,-0.628637731075,0.05273033306,0.000370376947103,-0.000350453017745,0.000387614913052,0.00129788916092,4.94354790135e-05,0.000159308649017,0.000362369348295,0.475738391192,0.00445888939778,0.116697715444,0.0240525288124,0.934846927488,0.354179967584,0.00626484403006
0.00797387491912,0.148740723729,0.00488846097142,-2.50293850899,-0.0932609811425,2.67825818062,-0.628632247448,0.05273033306,0.000329245056491,-0.00266110221855,4.54237924714e-05,-0.000721989548765,-6.60373625578e-05,-0.00013173923071,0.000919459969737,0.475748849351,0.00446625469909,0.116726668881,0.024062249972,0.934844892538,0.354184197174,0.00629199330355
0.00796328019351,0.148392274976,0.00488200085238,-2.50292372704,-0.0932605788112,2.67824339867,-0.628622591496,0.05273033306,0.00075405347161,-0.00973579287529,0.000357160228305,-0.00100175046828,-0.000193957355805,-8.00753405201e-05,0.000603817403316,0.475829380885,0.00445852827195,0.116898179312,0.0241242666208,0.934848719225,0.354166912786,0.00645674045718
0.00797936506569,0.148251742125,0.00489480001852,-2.5029053688,-0.0932606309652,2.67822313309,-0.628621280193,0.05273033306,-0.00102191383485,-0.014644713141,0.000605067412835,0.00114199577365,3.40653095918e-05,-0.000270181655651,0.00608467496932,0.475864728236,0.00447247377718,0.116969543386,0.0241481291797,0.934843575955,0.354177663672,0.00652216173154
0.0079910568893,0.147885560989,0.00490560755134,-2.50289440155,-0.0932619050145,2.67816591263,-0.628618717194,0.05273033306,0.00314346328378,-0.0269062109292,-0.000258697691606,0.00277334847488,-0.000103153761302,-0.00579920271412,-0.000624550390057,0.475937040936,0.004482738418,0.117142284304,0.0242054009432,0.934839233261,0.354182427834,0.00667188279944
0.00798659026623,0.146730944514,0.00490503758192,-2.50274729729,-0.0932621732354,2.67727065086,-0.628614485264,0.05273033306,-0.000310347124469,-0.052620049566,3.72484209947e-05,0.0051147332415,-1.40433539855e-05,-0.0510680675507,0.000719441683032,0.476069159885,0.0044612191022,0.117659362442,0.0243129765802,0.934845415611,0.354155330138,0.00685054015636
0.00797315314412,0.145569354296,0.00489556370303,-2.50264000893,-0.0932608917356,2.67621421814,-0.628612875938,0.05273033306,-0.00117198925,-0.0835700556636,-0.000496263150126,0.0034477871377,-4.41364863946e-05,-0.0740937143564,0.000716413604096,0.476147021676,0.00442677486228,0.118150925458,0.0243940453446,0.934856209423,0.354119604198,0.0069356949224
0.00796825345606,0.143893241882,0.00489031337202,-2.50251579285,-0.0932611823082,2.67484283447,-0.628608822823,0.05273033306,0.000749262282625,-0.107455402613,0.00021555814601,0.00945794861764,2.76849550573e-05,-0.090967476368,-0.00146924064029,0.476275406171,0.00439172443323,0.118864031379,0.0245256867769,0.934866290804,0.354080270269,0.00711834940274
0.00797911826521,0.141752898693,0.00489826733246,-2.50228047371,-0.0932637378573,2.67280864716,-0.628605782986,0.05273033306,0.00318212411366,-0.144423961639,0.000445074925665,0.0194713603705,-0.000325100059854,-0.147787049413,0.000492219347507,0.476416024569,0.00435595330067,0.119775198853,0.0246689638519,0.934875476475,0.35404335506,0.00725176753678
0.00798531528562,0.13804975152,0.00490219891071,-2.50181341171,-0.0932645797729,2.66863441467,-0.628603577614,0.05273033306,0.000268644071184,-0.204365536571,0.00259528774768,0.0296856686473,-0.00549451401457,-0.238568753004,-0.000242740090471,0.476544479051,0.00426745038643,0.12131206564,0.0248406002342,0.934901962288,0.353962568373,0.00719481521285
0.00798813439906,0.13116504252,0.00490744691342,-2.50076365471,-0.0932656824589,2.66014289856,-0.628597378731,0.05273033306,8.00012203399e-05,-0.289078712463,0.000489730213303,0.0468133203685,-0.000123347999761,-0.366752952337,0.00560163008049,0.476702281115,0.00408084960084,0.124167781036,0.0250935040927,0.93496104599,0.353796014944,0.00682187872903
0.00798419583589,0.125544086099,0.0049048406072,-2.4997689724,-0.0932672098279,2.6526517868,-0.62859672308,0.05273033306,-3.17648118653e-05,-0.336475372314,0.000373031885829,0.0632029026747,-0.000135495050927,-0.462568879128,-0.00051635998534,0.476764592573,0.00390917362117,0.126499293242,0.0252494647144,0.93501651526,0.353647747249,0.00631278655446
0.00798802264035,0.118944808841,0.00490832515061,-2.49849176407,-0.0932681486011,2.64371442795,-0.628593206406,0.05273033306,0.000402309000492,-0.398684382439,0.0009389675688,0.0753745436668,-0.000160111696459,-0.534119367599,0.000228093005717,0.4768372363,0.00372345283413,0.129098638589,0.0254187548017,0.93507758321,0.353483997736,0.00573265320155
0.00798934977502,0.111174426973,0.00490930629894,-2.49693608284,-0.0932705402374,2.63338661194,-0.628589987755,0.05273033306,-0.000751348910853,-0.458368301392,-0.00016571964079,0.101626999676,-0.00015359678946,-0.601922571659,0.000174616798176,0.476975556852,0.0034820496305,0.132569131491,0.0256768729185,0.935157312488,0.353264128289,0.00509455077369
0.00798215251416,0.0865531936288,0.00490916520357,-2.49039983749,-0.0932746604085,2.60012555122,-0.628582954407,0.05273033306,-0.000959843047895,-0.617655575275,-0.00130691321101,0.174143731594,0.00026288893423,-0.80748128891,4.05675763204e-07,0.477877837793,0.00274317550395,0.143619919498,0.0266454709664,0.935409945694,0.352540351003,0.00368143631058
0.00797875225544,0.0641691535711,0.00491018081084,-2.48308587074,-0.0932781621814,2.57000136375,-0.628572583199,0.05273033306,0.000789027602877,-0.706651449203,0.00075448321877,0.252065449953,-4.58314389107e-05,-0.962698459625,0.000559239939321,0.479102691279,0.00208532621305,0.154269958162,0.027753440393,0.935647703738,0.351828778227,0.0031034710952
0.00798930879682,0.0248540639877,0.00491990335286,-2.46741294861,-0.0932769030333,2.51752758026,-0.628562450409,0.05273033306,-0.000172865053173,-0.858350336552,-0.000270749558695,0.366028636694,-0.000592337746639,-1.0730792284,0.00534432474524,0.481873422437,0.000995383444401,0.173876205004,0.0301180355626,0.93607072521,0.350501874255,0.00359682768366
0.00798071734607,0.0114073455334,0.00491121131927,-2.46101093292,-0.093273460865,2.50006270409,-0.628557801247,0.05273033306,-0.00114107993431,-0.836024463177,-0.000739522278309,0.41685205698,-0.000780983013101,-1.10885179043,0.000471594248665,0.483275503521,0.000598986561042,0.181711097872,0.0312333785511,0.936233315423,0.349958388947,0.00455860157473
0.00796941109002,-0.00243701250292,0.00490006012842,-2.45399618149,-0.0932711660862,2.48199129105,-0.628555119038,0.05273033306,0.00309564708732,-0.869350552559,0.000390891975258,0.45602107048,-0.000152861117385,-1.12837553024,0.00133509398438,0.484855803329,0.000166084321183,0.190532903793,0.0325178442493,0.936414573291,0.349337162489,0.00582093838716
0.00796971004456,-0.0211245212704,0.0049028028734,-2.44415307045,-0.0932587459683,2.45787405968,-0.628541827202,0.05273033306,4.6454515541e-05,-0.913985550404,-0.000336048746249,0.498397827148,0.00250950595364,-1.14613997936,0.000926420558244,0.486547128097,-0.000281006804934,0.200325443427,0.0339774590792,0.936607959141,0.348648052349,0.00745643525275
0.0079619474709,-0.0634941235185,0.00489801680669,-2.41894817352,-0.0932563766837,2.40477514267,-0.628521680832,0.05273033306,-0.000348814501194,-0.921433389187,-4.18494419137e-05,0.575562596321,0.000579079962336,-1.16923069954,0.00166224758141,0.491305682402,-0.00135412698361,0.226508478386,0.0382589195359,0.937058930054,0.346799334303,0.0136761871634
0.00796630978584,-0.0794323980808,0.00489815091714,-2.40861916542,-0.0932578146458,2.38537931442,-0.62851369381,0.05273033306,-0.00456192018464,-0.933812260628,-0.000263666704996,0.629674494267,0.000812817248516,-1.12846946716,0.000395819573896,0.493032581798,-0.00171115651097,0.236277779089,0.0399490083109,0.937198509548,0.346107923781,0.0165025821338
0.00796060822904,-0.0971448794007,0.0048938235268,-2.39669084549,-0.0932562276721,2.36420750618,-0.628497719765,0.05273033306,-0.000655599113088,-0.929090499878,-0.00106180191506,0.614892959595,0.000749663216993,-1.09323430061,0.00348402466625,0.495166633728,-0.00215031133409,0.248779635981,0.0421712265364,0.937356280436,0.345204178258,0.0204662204258
0.00796060264111,-0.125037297606,0.00486036390066,-2.37737441063,-0.0932519361377,2.33237266541,-0.628340780735,0.05273033306,0.000526337244082,-0.92845582962,-0.00398320052773,0.651996552944,8.33218200569e-06,-1.03738963604,0.00732350768521,0.498207854387,-0.00277571680992,0.268046537664,0.0457405600407,0.937552922968,0.343733119233,0.0273835759293
0.00796729326248,-0.14330971241,0.00476158689708,-2.36456441879,-0.0932501405478,2.31200265884,-0.62827694416,0.05273033306,0.000413527537603,-0.915599346161,-0.00963458698243,0.64810281992,0.00153666408733,-0.98518127203,1.12143352453e-05,0.499904752819,-0.00320693663757,0.280900353629,0.0481384322526,0.937649313885,0.342721117065,0.0322287312149
0.00795587245375,-0.157805562019,0.00466755125672,-2.35420751572,-0.09324734658,2.29658102989,-0.628245890141,0.0527296774089,-0.00242178770714,-0.882759153843,-0.00413584662601,0.649067759514,0.000281825254206,-0.937479496002,0.00273749697953,0.50121333313,-0.00354707049898,0.291324406495,0.0501559555208,0.937688029387,0.341894231005,0.0365222420198
0.00795311760157,-0.172722399235,0.00450557470322,-2.34364509583,-0.0932506546378,2.2810382843,-0.628179132938,0.0527296774089,-1.62889282365e-05,-0.843399584293,-0.0121313491836,0.593844652176,-9.30694659473e-05,-0.891343891621,0.0103699536994,0.502343557522,-0.0039183228845,0.302092095864,0.0522427461165,0.937716119828,0.340989023768,0.0410567832291
0.00789517629892,-0.213927060366,0.00375298503786,-2.31603050232,-0.093239158392,2.24191999435,-0.627580881119,0.0527296774089,-0.00280757108703,-0.782956063747,-0.0246465057135,0.494138866663,0.000617413665168,-0.716932356358,0.019287886098,0.504388793891,-0.00501736363112,0.331164627871,0.058038816947,0.937717261048,0.338162227058,0.0544439338979
0.00785279553384,-0.227271035314,0.00339612900279,-2.30778861046,-0.0932384729385,2.23026418686,-0.62714189291,0.0527296774089,-0.00473982747644,-0.781653702259,-0.0210567414761,0.471441119909,0.000109812019218,-0.644028186798,0.0337296575308,0.504662608908,-0.00548029166807,0.341696399392,0.0601584636254,0.937720805845,0.33691435099,0.0595765836753
0.00779053196311,-0.237148493528,0.00309401378036,-2.3018579483,-0.0932387933135,2.22205209732,-0.626583337784,0.0527296774089,-0.00669877417386,-0.744444847107,-0.0273570064455,0.431888103485,-0.000230321209528,-0.617084562778,0.054704669863,0.50473948045,-0.00578918227107,0.348096907959,0.0614605068581,0.937746892988,0.33601569694,0.0628237366321
0.0076510021463,-0.254128277302,0.00241316831671,-2.29255414009,-0.0932372435927,2.20858645439,-0.625033318996,0.0527296774089,-0.00924774073064,-0.68237310648,-0.0333407707512,0.341547876596,-0.00021758476214,-0.517688989639,0.0725918188691,0.504533851502,-0.00641927693062,0.359235111136,0.0636913557756,0.93788544329,0.334086794828,0.0685588774064
0.00734670227394,-0.272891938686,0.00135188340209,-2.28402423859,-0.0932363271713,2.19535088539,-0.622501969337,0.05273033306,-0.0165130011737,-0.60175716877,-0.0391423776746,0.262402117252,0.000476938672364,-0.402098536491,0.0983057096601,0.50375773853,-0.00737890538349,0.371819755831,0.0662047226801,0.938205520548,0.331214146519,0.0753957872884
0.00699360715225,-0.282559603453,0.000611307041254,-2.28006339073,-0.0932366028428,2.18895483017,-0.620847582817,0.05273033306,-0.0280107874423,-0.540562272072,-0.0472232215106,0.20713840425,0.000279493018752,-0.363806962967,0.0968299210072,0.503204676982,-0.00804604251084,0.377897720657,0.0674009443405,0.938464234131,0.329441757181,0.078804329013
0.00649293931201,-0.291360139847,-0.000287657545414,-2.27697014809,-0.0932372957468,2.18314361572,-0.619210720062,0.05273033306,-0.0331952162087,-0.491382658482,-0.0557750910521,0.162294045091,0.000360735139111,-0.322680711746,0.0966966301203,0.502490618008,-0.00885556068669,0.383163480003,0.0683784323319,0.938795524062,0.327591969204,0.0816753046681
0.00588362244889,-0.29906642437,-0.00133386149537,-2.27464079857,-0.0932368189096,2.17800378799,-0.617477059364,0.05273033306,-0.0425866767764,-0.407485991716,-0.0654862299562,0.124238550663,1.82667863555e-05,-0.283053100109,0.101620957255,0.501653721238,-0.00983826339572,0.387798827275,0.0691632206501,0.939241454446,0.325524137629,0.0841188127982
0.000996055197902,-0.317341476679,-0.00739329215139,-2.27088880539,-0.0932375192642,2.16474533081,-0.609895825386,0.05273033306,-0.117629438639,-0.135220035911,-0.112309880555,0.00139264634345,0.000101366757008,-0.132135480642,0.123193904757,0.49892279868,-0.015352454619,0.396845424578,0.0700570312062,0.941935898007,0.316330742368,0.0882249258739
-0.00115087383892,-0.318842172623,-0.00944850686938,-2.2709634304,-0.0932413563132,2.16282296181,-0.607966423035,0.05273033306,-0.135104581714,-0.0437737517059,-0.12577457726,-0.00764257507399,0.000183573865797,-0.106714606285,0.0990507006645,0.498326471053,-0.0175839273345,0.397342144211,0.0697957801109,0.943008517898,0.31323790128,0.0880085287891
-0.00444931536913,-0.318982332945,-0.0124555751681,-2.2711956501,-0.0932401120663,2.16094708443,-0.606110155582,0.05273033306,-0.177070736885,0.0227608196437,-0.160464540124,-0.016819268465,0.000180997638381,-0.0721437111497,0.0950844436884,0.497771358758,-0.0207363707546,0.397029055936,0.0692582026887,0.944396808955,0.309413401013,0.0870707502996
-0.0186067000031,-0.310284882784,-0.0261986199766,-2.27362704277,-0.0932426303625,2.1601023674,-0.600874722004,0.05273033306,-0.279131740332,0.226937487721,-0.273642897606,-0.0526248924434,8.47232149681e-05,0.0265058912337,0.0467950329185,0.496738005033,-0.0345248729196,0.391241179138,0.0662945128251,0.949955244805,0.294232945504,0.0813452143961
-0.0242510885,-0.305296957493,-0.0317448340356,-2.27460551262,-0.0932430624962,2.16097092628,-0.600108802319,0.05273033306,-0.311981648207,0.287110030651,-0.308896005154,-0.0504456050694,-0.000207697448786,0.0645328089595,0.03519012779,0.496520885997,-0.040030901489,0.388323146692,0.0650939490022,0.951911621742,0.288801219043,0.0788726680418
-0.0419457554817,-0.288336485624,-0.0510429888964,-2.27776455879,-0.0932491570711,2.1673822403,-0.59918320179,0.05273033306,-0.390300661325,0.381017744541,-0.462728649378,-0.0755597352982,0.00024592858972,0.191096499562,0.00541786616668,0.496006065921,-0.0581906385704,0.37888887067,0.0615504521362,0.957740817857,0.271539008135,0.0721847241738
-0.0484677441418,-0.281946599483,-0.0586989931762,-2.27892255783,-0.0932488664985,2.17107653618,-0.59918153286,0.05273033306,-0.422510892153,0.414753198624,-0.491385042667,-0.0761606916785,-0.000103885402496,0.267715215683,0.000591521093156,0.495845266336,-0.0651476023673,0.375490924098,0.0604112717569,0.959769753699,0.265052925313,0.0702811824333
-0.0562563799322,-0.274393796921,-0.0678577721119,-2.28031134605,-0.0932501405478,2.17657279968,-0.599182546139,0.0527296774089,-0.452508807182,0.42476734519,-0.551542937756,-0.0838565528393,3.88271073462e-05,0.337902963161,0.00105692981742,0.495695291684,-0.0739647595477,0.371372630927,0.0592024061377,0.962212891825,0.256815503832,0.0684632937907
-0.0646507740021,-0.266651839018,-0.078276924789,-2.28175854683,-0.0932508111,2.18317556381,-0.599186778069,0.0527296774089,-0.471757203341,0.444290161133,-0.602863371372,-0.0746697559953,-0.000373836461222,0.389013767242,0.000796369509771,0.495458171053,-0.0827271675261,0.367669952474,0.058200390528,0.964518928028,0.248594620518,0.0672061482367
-0.0799106433988,-0.252450495958,-0.0980236828327,-2.28400564194,-0.0932580381632,2.19670271873,-0.599207341671,0.0527296774089,-0.515162348747,0.464656382799,-0.677846431732,-0.0659358426929,-0.000632039329503,0.476629465818,0.000139309995575,0.494820422343,-0.10001271995,0.360805557998,0.0566515911683,0.96876596041,0.232344375373,0.0655683009948
-0.0887574627995,-0.244515895844,-0.110076859593,-2.28499531746,-0.0932593941689,2.20512485504,-0.599246025085,0.0527296774089,-0.527718424797,0.459304302931,-0.734821021557,-0.0477106980979,-0.00015465755132,0.518662333488,-0.00415489729494,0.494260871566,-0.110376819693,0.357169177138,0.0560097871321,0.971121565483,0.222578596297,0.0651504179911
-0.097879871726,-0.236550301313,-0.122855596244,-2.28567957878,-0.0932647958398,2.21417307854,-0.599379181862,0.0527296774089,-0.552903056145,0.473521798849,-0.781413912773,-0.0342116542161,-0.000314241071464,0.55801987648,-0.00714090839028,0.493499540256,-0.121944029976,0.353515418701,0.0555597548315,0.973575943395,0.211712552151,0.065121356265
-0.107813768089,-0.227998897433,-0.136857300997,-2.28622674942,-0.0932606011629,2.22431993484,-0.599622488022,0.0527296774089,-0.564611554146,0.473859429359,-0.805582106113,-0.0229469966143,-0.00147428328637,0.571159660816,-0.0198340564966,0.492567743599,-0.133244956801,0.350132188196,0.0553262527268,0.975817697682,0.201126433378,0.0653221565962
-0.118639916182,-0.219235599041,-0.15242254734,-2.2865254879,-0.0932599455118,2.23545193672,-0.599942862988,0.0527296774089,-0.575638830662,0.449756085873,-0.858000934124,-0.00917622726411,-0.00172555330209,0.599296569824,-0.0117526445538,0.49109361924,-0.14719178339,0.346462695055,0.0553365282437,0.978377544306,0.188050574867,0.0659714364532
-0.135769471526,-0.206137269735,-0.178150579333,-2.28653764725,-0.0932558774948,2.25411534309,-0.600343585014,0.0527296774089,-0.57930713892,0.42856618762,-0.88641089201,-0.00252021267079,-0.00132857949939,0.654784321785,-0.0151693699881,0.488335494515,-0.168065483225,0.341795458043,0.0559895039995,0.981790115893,0.168383151565,0.0678266742622
-0.145533874631,-0.199029758573,-0.193547725677,-2.28648066521,-0.093252658844,2.26541733742,-0.600504040718,0.0527296774089,-0.565405488014,0.408725291491,-0.905084908009,0.0103991720825,-0.00256637041457,0.668578445911,-0.00872380286455,0.486395761328,-0.180024298026,0.339437300372,0.0566569412962,0.983530146971,0.1570501462,0.0692364952649
-0.15463334322,-0.192781880498,-0.208214238286,-2.28625369072,-0.0932566970587,2.27605676651,-0.600567638874,0.05273033306,-0.550395190716,0.376931607723,-0.914445340633,0.0177904795855,0.00167616619729,0.664998352528,-0.00020054311608,0.48402803379,-0.192792354491,0.337250800225,0.0576048785342,0.985217349047,0.144877962196,0.0709847087265
-0.165678292513,-0.185317054391,-0.226864427328,-2.28567171097,-0.0932458788157,2.28925061226,-0.600574672222,0.05273033306,-0.554231822491,0.369658172131,-0.949289619923,0.0365825742483,0.00143631547689,0.655133903027,-0.000363879575161,0.48085256447,-0.207834396426,0.334985642165,0.0589680229378,0.986985840873,0.130459997266,0.0732250708231
-0.181878164411,-0.175268262625,-0.25523468852,-2.28435754776,-0.0931283533573,2.30852103233,-0.600580215454,0.05273033306,-0.529640376568,0.309445083141,-0.930983066559,0.0548775494099,0.0160176884383,0.624611020088,-0.00389401544817,0.475185594588,-0.23038677584,0.332308731,0.0614728393246,0.989187064114,0.108678243016,0.0769355665988
-0.190699413419,-0.170221313834,-0.271154642105,-2.28329944611,-0.0925766602159,2.31878733635,-0.600578546524,0.05273033306,-0.500156462193,0.277669906616,-0.925978958607,0.0646297186613,0.0474468134344,0.59030264616,-0.0011849476723,0.471592374804,-0.242844160995,0.331195344915,0.062928570006,0.990190478091,0.0963856399419,0.0791998755408
-0.201593622565,-0.164605617523,-0.291612684727,-2.28166747093,-0.0911917760968,2.33165049553,-0.600573062897,0.05273033306,-0.48627281189,0.237878844142,-0.923040270805,0.0776651799679,0.0696194022894,0.582210481167,-0.000507970748004,0.466632889505,-0.258556555742,0.33030115867,0.0648631223316,0.99120755337,0.0805425552469,0.0825424617772
-0.208103895187,-0.161447048187,-0.304181486368,-2.2805454731,-0.0901285558939,2.33964467049,-0.60057425499,0.05273033306,-0.456720501184,0.207136198878,-0.898080050945,0.07302416116,0.0814154744148,0.556559324265,0.00132583035156,0.463421159409,-0.268105095172,0.329974332897,0.0661789020891,0.991671422589,0.0708115190186,0.0848166906391
-0.216664940119,-0.157957956195,-0.320822089911,-2.27907156944,-0.0879776254296,2.34992218018,-0.600569427013,0.05273033306,-0.439991295338,0.160148829222,-0.86851555109,0.0804347768426,0.151906579733,0.527072191238,-7.43786949897e-06,0.458848497648,-0.280590759791,0.329850551011,0.0678131939516,0.992123693809,0.0576915297378,0.0881114862171
-0.228925138712,-0.153845265508,-0.345494270325,-2.27674484253,-0.0813074633479,2.36469769478,-0.600560069084,0.0527296774089,-0.389225363731,0.116057612002,-0.774996399879,0.0870750620961,0.276625275612,0.45582139492,-0.000364130159141,0.451666882752,-0.298520646286,0.330220000942,0.0694045414945,0.992451093236,0.0373003267941,0.0939815006999
-0.2351103127,-0.152322560549,-0.357951492071,-2.27539181709,-0.076075732708,2.37220716476,-0.60055488348,0.0527296774089,-0.360874146223,0.0652317628264,-0.704436480999,0.0726359263062,0.339460641146,0.421824663877,7.8578828834e-05,0.447898229033,-0.307430408158,0.330789124243,0.0698705631355,0.99241456798,0.0263817812014,0.0976495314196
-0.240078613162,-0.151677563787,-0.367558062077,-2.27440881729,-0.0708557963371,2.37789130211,-0.600552976131,0.0527296774089,-0.33497107029,0.0321316383779,-0.662444233894,0.0677774399519,0.401204496622,0.384692579508,-0.000132510569529,0.444822589835,-0.314263609765,0.331454586183,0.0699447199194,0.99228202225,0.0174677201308,0.100891044824
-0.246755689383,-0.151312962174,-0.380385011435,-2.27303314209,-0.0617932602763,2.38530755043,-0.600548446178,0.0527296774089,-0.304205358028,0.00351876975037,-0.560177385807,0.0618640631437,0.458965986967,0.324063330889,0.00307296169922,0.440610595855,-0.323230680521,0.332609185595,0.0695029016691,0.991939122875,0.00484893933567,0.105842385909
-0.259940057993,-0.152783825994,-0.402070015669,-2.27052164078,-0.0347013920546,2.39881038666,-0.600532114506,0.0527296774089,-0.214692845941,-0.0476522482932,-0.322577655315,0.0486500933766,0.657620191574,0.240616768599,-0.000272683711955,0.433146362801,-0.338524709405,0.335893239551,0.0659924687396,0.990570098584,-0.0212821590849,0.118164898614
-0.262641996145,-0.153432279825,-0.406305491924,-2.26985740662,-0.024811193347,2.40220165253,-0.600521922112,0.0527296774089,-0.163218393922,-0.0403817333281,-0.267421543598,0.0457533188164,0.704118609428,0.227023646235,1.29979105168e-06,0.431948023547,-0.341393525903,0.336936434367,0.0642312053409,0.990039650632,-0.0279464390563,0.12212632263
-0.265249013901,-0.15432292223,-0.410877972841,-2.26909255981,-0.0104612549767,2.40649247169,-0.600500881672,0.0527296774089,-0.0997247472405,-0.0568135082722,-0.201214075089,0.0284456443042,0.758562028408,0.214586064219,0.00339071126655,0.431013660948,-0.344222943895,0.338299814288,0.0614078775194,0.989263127173,-0.0361845403987,0.127586114168
-0.26646822691,-0.15702329576,-0.41552311182,-2.2687394619,0.0259267687798,2.41511392593,-0.600103020668,0.0527296774089,0.0266246534884,-0.0605862252414,-0.00746780727059,-0.00415210379288,0.907892405987,0.174212425947,0.00923081301153,0.432100342109,-0.345601059568,0.341149294595,0.0529629747936,0.987361698815,-0.0511127330482,0.140354149325
-0.265094399452,-0.158085539937,-0.415238648653,-2.26880192757,0.043625831604,2.41793751717,-0.59992146492,0.0527296774089,0.121493607759,-0.0523737184703,0.0295735206455,-0.0016323318705,0.960998654366,0.128996923566,0.0121741658077,0.434037269823,-0.344048000272,0.342262699638,0.0479767669694,0.98649090509,-0.0563572921599,0.146143009836
-0.261690884829,-0.158947870135,-0.414223909378,-2.26880049706,0.0632630959153,2.42041277885,-0.599696040154,0.0527296774089,0.203664124012,-0.0352373942733,0.074914984405,-0.00126841745805,0.99604010582,0.130347236991,0.0123082706705,0.436737520131,-0.341385687349,0.343217151477,0.0426455213436,0.985673673544,-0.060405638263,0.151591316885
-0.254990130663,-0.159494683146,-0.411354392767,-2.26899933815,0.0901017412543,2.4233443737,-0.599223971367,0.0527296774089,0.295558452606,-0.011999828741,0.159027054906,-0.0184206906706,1.07715582848,0.0940699279308,0.0228758323938,0.441642370587,-0.335958903009,0.344191168128,0.0345261332931,0.984585263544,-0.0646020164538,0.158828159023
-0.249768331647,-0.159691274166,-0.408365935087,-2.26938867569,0.107459679246,2.42485594749,-0.598765313625,0.0527296774089,0.347164422274,-0.00762119470164,0.209866538644,-0.0268398169428,1.10307121277,0.0855463817716,0.0324087701738,0.445338452546,-0.331438289138,0.344610329849,0.0289502814325,0.983942698014,-0.0663924655988,0.163127828524
-0.242134332657,-0.159725651145,-0.403615385294,-2.2701587677,0.129698202014,2.42649722099,-0.597917079926,0.0527296774089,0.406627237797,0.000971124041826,0.260464131832,-0.047363884747,1.1290384531,0.0732947736979,0.0604734197259,0.450515293617,-0.324683741143,0.344906282643,0.0214726417053,0.983173049844,-0.0679007064772,0.168223581803
-0.228622883558,-0.159655287862,-0.394401699305,-2.2722299099,0.163850337267,2.42868518829,-0.595455467701,0.05273033306,0.494369000196,0.00820828974247,0.351774394512,-0.0869502425194,1.18167614937,0.0600427687168,0.101886302233,0.45918110139,-0.312293965579,0.344897581839,0.00926332138995,0.982058936841,-0.0689944156649,0.175254688244
-0.218681976199,-0.159422636032,-0.386872529984,-2.27402877808,0.186205923557,2.42979431152,-0.593297243118,0.05273033306,0.539730370045,0.016528621316,0.429493844509,-0.0982976108789,1.15230131149,0.0601878128946,0.13328845799,0.465317150507,-0.302761599564,0.344593644159,0.000808629642401,0.98140018154,-0.0687234683873,0.17924875001
-0.210290402174,-0.159104093909,-0.380227267742,-2.27569198608,0.203949302435,2.43059659004,-0.59099984169,0.05273033306,0.567233085632,0.0211586337537,0.449085742235,-0.117581360042,1.2081143856,0.0509452670813,0.18043667078,0.470330572918,-0.294525035275,0.344183421958,-0.00614263880248,0.980893005458,-0.0682409892401,0.182083351559
-0.199641317129,-0.158596724272,-0.371579945087,-2.27788305283,0.225400879979,2.43138432503,-0.5875197649,0.05273033306,0.625475883484,0.034583106637,0.519398987293,-0.128809034824,1.16743314266,0.0353035703301,0.196102336049,0.476454917304,-0.283890001051,0.3435365909,-0.0148211266218,0.980285644807,-0.0674753604834,0.18511473257
-0.167688205838,-0.156683653593,-0.343985974789,-2.28510475159,0.282411336899,2.43284654617,-0.576427161694,0.05273033306,0.710666656494,0.043860450387,0.636348605156,-0.166680425406,1.19174611568,0.0336251966655,0.2611322999,0.493243670271,-0.25075402361,0.340897880794,-0.0392429533049,0.978850417688,-0.0624497423001,0.190818971251
-0.153241708875,-0.155611902475,-0.331029653549,-2.28855538368,0.305972516537,2.43347072601,-0.571098089218,0.05273033306,0.730163216591,0.0583687461913,0.661832332611,-0.177863284945,1.1839338541,0.0289232172072,0.279264181852,0.500071289196,-0.235350228763,0.339479093612,-0.0497336514017,0.978279279352,-0.0594704157713,0.19224849766
-0.141982316971,-0.154705747962,-0.320741802454,-2.2911837101,0.323419243097,2.43385982513,-0.566670715809,0.05273033306,0.759022653103,0.0644787400961,0.704369485378,-0.174468025565,1.16372489929,0.0257558338344,0.307800710201,0.505075248961,-0.223190397226,0.338341692608,-0.0576728777617,0.977861789543,-0.0569185945898,0.192925978053
-0.103505887091,-0.150740340352,-0.284759253263,-2.29983711243,0.3785135746,2.43414163589,-0.549147486687,0.0527309887111,0.801539778709,0.0957628339529,0.756560981274,-0.174613729119,1.09688997269,0.00152886600699,0.423700481653,0.519911193606,-0.180734616415,0.333936853632,-0.0838300790791,0.976588622912,-0.0476396285576,0.192295722592
-0.0905368551612,-0.149058148265,-0.272276371717,-2.30253863335,0.395635157824,2.43412423134,-0.542058289051,0.0527309887111,0.802757978439,0.108294323087,0.785938739777,-0.163977175951,1.07189977169,0.00525005022064,0.460678726435,0.52418110539,-0.16614430117,0.332329581914,-0.0922634024443,0.976189960511,-0.0445068329384,0.191206085371
-0.0759555846453,-0.147023305297,-0.257960021496,-2.30544090271,0.414623618126,2.43416333199,-0.533592164516,0.0527309887111,0.818893253803,0.108176857233,0.808361649513,-0.16002073884,1.03890025616,0.000168156169821,0.486856549978,0.52858070014,-0.149533068622,0.330514367046,-0.101646973371,0.975715164607,-0.0410498526453,0.189638391824
-0.0603334829211,-0.144838958979,-0.24249881506,-2.30836176872,0.43406906724,2.43413972855,-0.524107038975,0.0527309887111,0.818378508091,0.125038281083,0.835890829563,-0.150626450777,1.0135846138,0.00702397013083,0.524986803532,0.532750620587,-0.131630337057,0.328624525003,-0.111385016983,0.975211161017,-0.0372211326772,0.187539746179
-0.0359291210771,-0.141159549356,-0.217773616314,-2.31278634071,0.463808327913,2.43412470818,-0.507082104683,0.0527309887111,0.812645316124,0.122363053262,0.845791876316,-0.142745405436,0.979279875755,-0.00106914760545,0.620740175247,0.538148739228,-0.103231868732,0.325571558201,-0.126459250688,0.974368790257,-0.0319316621183,0.183286352842
-0.0214472152293,-0.138873025775,-0.202930957079,-2.31531047821,0.481123924255,2.43412017822,-0.495185256004,0.0527309887111,0.802866876125,0.120506457984,0.830322921276,-0.132826417685,0.955415666103,-0.00736718019471,0.683015465736,0.540682117663,-0.0862359011195,0.323736330236,-0.135358608089,0.973824521403,-0.0295300416276,0.180199403623
-0.00933027174324,-0.137190312147,-0.190506443381,-2.31738162041,0.495204329491,2.43395519257,-0.484690397978,0.0527309887111,0.804910540581,0.107599399984,0.820298790932,-0.137137979269,0.920070111752,-0.009432092309,0.711953878403,0.54237254172,-0.0719829435524,0.322308693671,-0.142688772671,0.973353460654,-0.0276395947755,0.177366871996
0.00565905962139,-0.135126784444,-0.174893558025,-2.32007694244,0.51251834631,2.43388462067,-0.470489144325,0.05273033306,0.786015510559,0.109280847013,0.814253687859,-0.138127624989,0.903750181198,-0.00803757924587,0.789029717445,0.543936834523,-0.0542081445276,0.320491379244,-0.151722990369,0.972742693232,-0.0258001529358,0.173453563697
0.0279158372432,-0.132092550397,-0.150916740298,-2.3241853714,0.538000583649,2.43351173401,-0.446318536997,0.05273033306,0.752117216587,0.100178360939,0.809320509434,-0.143993586302,0.852328598499,-0.0151473227888,0.870987355709,0.54513525306,-0.0273420451782,0.317707914462,-0.165183992421,0.971798484017,-0.0241562604867,0.16654858115
0.0436374358833,-0.130131721497,-0.133792325854,-2.32714343071,0.555447220802,2.43318128586,-0.427383482456,0.05273033306,0.73955321312,0.0858488306403,0.807188808918,-0.137652516365,0.820356309414,-0.0141435014084,0.936683893204,0.545151085828,-0.00830558535954,0.315777385279,-0.174484797635,0.971115692967,-0.0236547501035,0.161027385123
0.0537797771394,-0.128990158439,-0.122470252216,-2.32906961441,0.566612064838,2.43301296234,-0.413857072592,0.05273033306,0.714017450809,0.0762869492173,0.789045095444,-0.134242922068,0.770676136017,-0.0157544892281,0.986481547356,0.544812480329,0.00409041559901,0.314588196527,-0.180458865478,0.97064916707,-0.0238205619698,0.15718579089
0.0665089040995,-0.127599775791,-0.108170889318,-2.33134555817,0.580021202564,2.43279147148,-0.39579513669,0.05273033306,0.704096794128,0.0767928287387,0.796091556549,-0.123515926301,0.717036724091,-0.0135866738856,1.02359986305,0.54402302707,0.0196215796189,0.313162479841,-0.18771214398,0.970076021292,-0.0243095303842,0.152071398835
0.0986313149333,-0.124694027007,-0.071640484035,-2.33647704124,0.610685169697,2.43245720863,-0.343577384949,0.05273033306,0.635925889015,0.0540489517152,0.737884402275,-0.0950298458338,0.545926690102,0.0021096742712,1.14970576763,0.540350620237,0.057811321492,0.310133644547,-0.204413663169,0.968694617633,-0.0273682099612,0.138191073715
0.109051533043,-0.123781979084,-0.0594447255135,-2.33783245087,0.619370102882,2.4324657917,-0.323563337326,0.05273033306,0.605938613415,0.0496262572706,0.712326049805,-0.0767039135098,0.477745324373,0.000538400898222,1.18511283398,0.53850982869,0.0712273956544,0.309203068654,-0.209782347273,0.968245378613,-0.0293680651315,0.132777144157
0.119707792997,-0.123071685433,-0.0467775948346,-2.33903765678,0.627485334873,2.4325158596,-0.301672965288,0.0527296774089,0.583062589169,0.0301989391446,0.695695519447,-0.0603612139821,0.421718716621,0.0116038648412,1.21406590939,0.536466941831,0.0841548688596,0.308487629229,-0.214667811017,0.967824666296,-0.0316225290041,0.127409424983
0.130699127913,-0.122433334589,-0.0332787409425,-2.34015488625,0.635441958904,2.43320512772,-0.276692837477,0.0527296774089,0.52734285593,0.0316927246749,0.657741248608,-0.056209217757,0.364616334438,0.0519536361098,1.28420853615,0.534147852336,0.0975582350165,0.307900322101,-0.219487685586,0.967356925109,-0.0348175058893,0.12179275962
0.145699590445,-0.121805474162,-0.0141098666936,-2.3414721489,0.644491970539,2.43502950668,-0.237770959735,0.0527296774089,0.466754168272,0.0112796789035,0.616064846516,-0.0364459566772,0.250042140484,0.0790188163519,1.29610943794,0.530565722069,0.115926600902,0.307332546996,-0.225392770065,0.966740231317,-0.0405919257447,0.113858331333
0.152324363589,-0.121662899852,-0.00507552968338,-2.342056036,0.648025810719,2.43686389923,-0.218112245202,0.0527296774089,0.43436384201,0.00854854751378,0.58542484045,-0.0419153980911,0.221552833915,0.159323096275,1.30463910103,0.528897854208,0.124150719677,0.307225689983,-0.227764979451,0.96642782056,-0.0440125122851,0.110468458115
0.15811419487,-0.121594503522,0.00294717866927,-2.34259438515,0.650990068913,2.43973636627,-0.199852272868,0.0527296774089,0.393188178539,0.00187054753769,0.559458374977,-0.0407167375088,0.201141893864,0.254431396723,1.30142021179,0.527545187944,0.131237222635,0.307261891431,-0.229661172899,0.966096563745,-0.0475728321901,0.107935168099
0.166941970587,-0.121575005352,0.01583500579,-2.34353804588,0.655456364155,2.44787025452,-0.168147534132,0.0527296774089,0.335242718458,0.00251608435065,0.518509745598,-0.0423571504653,0.156189620495,0.421178847551,1.32025432587,0.525869312842,0.141945178298,0.307654427348,-0.232268608152,0.965376288912,-0.0549977578667,0.105238589863
0.175604999065,-0.121533289552,0.0300130639225,-2.34459137917,0.658825099468,2.46269798279,-0.129783660173,0.0527296774089,0.269294768572,0.00329950335436,0.435978114605,-0.030209640041,0.099098958075,0.597342431545,1.30579042435,0.525002841894,0.152452585639,0.308595900699,-0.234175552335,0.96431393545,-0.0655380779842,0.104714872931
0.180146455765,-0.121484577656,0.0375180095434,-2.34514737129,0.660580933094,2.4742846489,-0.106322295964,0.0527296774089,0.231211289763,0.00242224079557,0.387930333614,-0.0333757251501,0.0966841429472,0.696424424648,1.29420804977,0.525155876586,0.157616406475,0.309467973685,-0.235069805926,0.963431262117,-0.0731050374697,0.1058208047
0.18335968256,-0.121473141015,0.0428125485778,-2.34557366371,0.661902666092,2.48555278778,-0.0869303718209,0.0527296774089,0.189388528466,0.00116890191566,0.317463755608,-0.0241396967322,0.0756751149893,0.817262768745,1.27574443817,0.525790246562,0.160963727612,0.310412720059,-0.235683769931,0.962504546993,-0.0802092841393,0.107724779129
0.186708405614,-0.121364727616,0.0483967401087,-2.34602212906,0.66295671463,2.50187063217,-0.0626717209816,0.05273033306,0.159094721079,0.00837721675634,0.262346118689,-0.0210501234978,0.0420021899045,0.89691722393,1.24634087086,0.527336301526,0.164154012257,0.31191950067,-0.236193138259,0.961025653242,-0.0904944973703,0.11159408984
0.191060215235,-0.120669454336,0.0570351593196,-2.34654331207,0.664960682392,2.55312657356,-0.00395683757961,0.05273033306,0.0126454951242,0.0270686931908,0.102942980826,-0.00307316239923,0.0403445139527,1.16823744774,1.14676821232,0.53429758672,0.165779031712,0.316883284667,-0.236930062056,0.955852521481,-0.118832917319,0.126841792501
0.190969601274,-0.12027066201,0.0580956637859,-2.34649133682,0.665516197681,2.57260894775,0.0140856010839,0.05273033306,-0.0145061165094,0.0255975909531,0.0313339009881,-0.00063515745569,0.0303984638304,1.24179947376,1.10534656048,0.537621118677,0.164341334833,0.318976812581,-0.237071479739,0.953489459912,-0.129515193123,0.133719025462
0.190505832434,-0.119851335883,0.0580451563001,-2.34651780128,0.66607093811,2.59470033646,0.0323072783649,0.05273033306,-0.0562386475503,0.0252033025026,-0.0283916350454,-0.00192369753495,0.032337743789,1.34348917007,1.04132044315,0.541557089463,0.161807796463,0.32140461526,-0.237145359258,0.950611942014,-0.141266266862,0.141925529131
0.188538432121,-0.119153447449,0.0570401772857,-2.34648728371,0.666866362095,2.6238014698,0.053921867162,0.05273033306,-0.124825082719,0.0413536652923,-0.0662383213639,0.00227312208153,0.0351232141256,1.41031765938,1.00412034988,0.547005282129,0.157167567501,0.32467632588,-0.237140342068,0.946440454082,-0.156651325559,0.15321647082
0.183800593019,-0.118046805263,0.0540144890547,-2.34640979767,0.667661011219,2.66590094566,0.08175522089,0.05273033306,-0.196714192629,0.0411233007908,-0.141476914287,0.00203978712671,0.0156456474215,1.47300684452,0.928356170654,0.555134358943,0.148377262086,0.329597902745,-0.236814496486,0.939689608091,-0.178609086187,0.170297177657
0.180399939418,-0.117363810539,0.0511835925281,-2.34635043144,0.667756080627,2.6898059845,0.0961016863585,0.05273033306,-0.226289749146,0.0488286390901,-0.207078069448,0.00717145903036,0.00416883733124,1.50327265263,0.859366476536,0.559839325314,0.142265105312,0.332485335034,-0.236389668764,0.93547233564,-0.191011726338,0.180349532413
0.176453918219,-0.116583883762,0.0474224686623,-2.34627532959,0.667839169502,2.71384763718,0.109326913953,0.05273033306,-0.269137680531,0.0486259199679,-0.257019519806,0.00952553655952,0.00265579018742,1.50636446476,0.793188333511,0.564620586966,0.135225786985,0.335428624759,-0.235787768431,0.930924630007,-0.203512345766,0.19069920375
0.170360222459,-0.115463957191,0.0414813496172,-2.34606647491,0.66792345047,2.74541807175,0.125717014074,0.05273033306,-0.314521819353,0.0543135777116,-0.307306200266,0.0152664892375,0.00568825239316,1.48605883121,0.770966351032,0.570910949863,0.124758802916,0.339418899128,-0.234779060148,0.924410593597,-0.220204698967,0.204581860382
0.152235746384,-0.11229582876,0.0241383109242,-2.34502029419,0.668026745319,2.8160238266,0.158962517977,0.05273033306,-0.421513289213,0.0716410800815,-0.414522439241,0.0294598061591,0.000752214109525,1.43022418022,0.648280262947,0.584753404677,0.0957823690414,0.348733073247,-0.23124277907,0.907369341672,-0.259163307499,0.236731989065
0.14477814734,-0.111021324992,0.0166022367775,-2.34447240829,0.668087363243,2.83991646767,0.169656351209,0.05273033306,-0.452226966619,0.0758026242256,-0.466340005398,0.0383244156837,0.0061404989101,1.392121315,0.594989776611,0.589247304352,0.0840031507721,0.352004881337,-0.229591977009,0.900659010531,-0.273204537638,0.247911579265
0.135955572128,-0.109369918704,0.0072388430126,-2.34369111061,0.668167054653,2.8656668663,0.180462762713,0.05273033306,-0.474277496338,0.0882906839252,-0.511378109455,0.0430720224977,0.000279352098005,1.32057726383,0.551092326641,0.59392985508,0.0699719120671,0.355537963297,-0.227395761902,0.892871965986,-0.288767265777,0.260162037422
0.127273365855,-0.107865527272,-0.00218249415047,-2.34289240837,0.66822963953,2.88889098167,0.190032184124,0.05273033306,-0.49395146966,0.0759491994977,-0.546901226044,0.0438561141491,0.00302614248358,1.25756239891,0.511996269226,0.597900933765,0.0561703650495,0.358823090517,-0.225093728734,0.885262789062,-0.303299447813,0.271389115875
0.111252993345,-0.105209894478,-0.0201446972787,-2.34150624275,0.668451905251,2.92573833466,0.20606726408,0.05273033306,-0.541608333588,0.0839488133788,-0.604198992252,0.0429143086076,0.00302155711688,1.11934101582,0.504741847515,0.603575636396,0.0308408393956,0.364031394089,-0.22064553766,0.871478063157,-0.328728884408,0.289445767582
0.10311844945,-0.103955455124,-0.0291501041502,-2.34086251259,0.668543457985,2.94178891182,0.213224038482,0.05273033306,-0.554237008095,0.0725223720074,-0.604771852493,0.042134013027,0.00632395595312,1.02106750011,0.45732229948,0.605703420552,0.0182877751712,0.366294040303,-0.218284233762,0.864743002384,-0.340725699254,0.297451728274
0.0907878801227,-0.102226033807,-0.0428591370583,-2.33989882469,0.668777704239,2.96316623688,0.222722679377,0.05273033306,-0.567118406296,0.0807143673301,-0.645605623722,0.0405225530267,0.0193142220378,0.92111825943,0.414443254471,0.608188758706,-0.00135614617198,0.369475349689,-0.21441066719,0.854385301245,-0.35869773917,0.308852318088
0.0743375867605,-0.0998602211475,-0.0617830082774,-2.33863735199,0.669260323048,2.98693537712,0.234361484647,0.05273033306,-0.568299233913,0.0778349414468,-0.652058959007,0.0419911555946,0.0176249966025,0.74646294117,0.399338454008,0.609911663588,-0.0254168436899,0.372588197139,-0.209500423633,0.841886971989,-0.380025584113,0.320805944413
0.0640112683177,-0.0985957831144,-0.0738054513931,-2.33791851997,0.669721841812,2.99956178665,0.241521537304,0.05273033306,-0.584432244301,0.0766555890441,-0.676096439362,0.0399050265551,0.0290798842907,0.668323636055,0.391144394875,0.610290395929,-0.0408954437627,0.374321030909,-0.206366333193,0.833785916973,-0.393580673035,0.327579356267
0.054845597595,-0.0973112508655,-0.0845608487725,-2.33728766441,0.670455217361,3.00923895836,0.247321248055,0.05273033306,-0.567628622055,0.0815704390407,-0.663596689701,0.0391655191779,0.0529997870326,0.563287258148,0.334467619658,0.610174942491,-0.05450181796,0.375481367131,-0.203561042848,0.826735991896,-0.405329553242,0.332833974318
0.0441328845918,-0.0958574563265,-0.0970219299197,-2.33662462234,0.671631038189,3.01879024506,0.25332686305,0.05273033306,-0.566768527031,0.0701729804277,-0.657572507858,0.0300481189042,0.0673680156469,0.461458683014,0.309621691704,0.609514883562,-0.070107472279,0.376505912575,-0.200298055747,0.818727713067,-0.418571302052,0.338177003165
0.0184520762414,-0.0921236947179,-0.128064185381,-2.33521604538,0.675135433674,3.03618884087,0.267453610897,0.05273033306,-0.514343142509,0.0869845598936,-0.620311617851,0.0296847764403,0.0748991891742,0.277644306421,0.289716333151,0.605821088275,-0.107409623274,0.377687985139,-0.192504654113,0.799415633268,-0.450099422006,0.348262994567
0.00995754264295,-0.0907674729824,-0.138498157263,-2.33475422859,0.676193118095,3.04001998901,0.272186785936,0.05273033306,-0.489652872086,0.0761572793126,-0.609759926796,0.0253990162164,0.0602384544909,0.18354600668,0.281031370163,0.603995139995,-0.119518356025,0.377656864197,-0.189971950931,0.793126564084,-0.460317968082,0.350668332055
0.00193136243615,-0.0893062725663,-0.148389473557,-2.33425474167,0.67729383707,3.04237508774,0.276944309473,0.05273033306,-0.457760006189,0.101991474628,-0.560452640057,0.0332795456052,0.0708655565977,0.104976400733,0.276617735624,0.601899162091,-0.131397892256,0.377291544574,-0.187601342655,0.786906501451,-0.470559071036,0.352360688091
-0.019033389166,-0.0836719572544,-0.174299865961,-2.33229494095,0.681573212147,3.04378437996,0.28833141923,0.05273033306,-0.367295831442,0.126554086804,-0.439323544502,0.0367164574564,0.0743402540684,-0.00681729661301,0.172372028232,0.595905653505,-0.159407838484,0.374832479917,-0.182111752557,0.772345764474,-0.495021994296,0.353935805585
-0.0246887207031,-0.0815041735768,-0.18075710535,-2.33174729347,0.682653486729,3.04363656044,0.291068792343,0.05273033306,-0.335889667273,0.140693411231,-0.36125394702,0.0266364961863,0.061717890203,-0.0138327507302,0.174081861973,0.594129621473,-0.166686090359,0.373699436222,-0.180489499843,0.768651151716,-0.501355963463,0.353894256725
-0.0295017287135,-0.0794250741601,-0.18591670692,-2.33139038086,0.683559298515,3.0433011055,0.293701380491,0.05273033306,-0.299323350191,0.137853950262,-0.330096542835,0.0193514097482,0.0663919821382,-0.0323302075267,0.175986051559,0.592377581624,-0.173364817801,0.372339872822,-0.178996211345,0.765187506421,-0.507418631271,0.353517706218
-0.0355270579457,-0.0764815807343,-0.192321717739,-2.33109903336,0.685164213181,3.04238080978,0.297398120165,0.05273033306,-0.244511932135,0.134699627757,-0.254022806883,0.00956951826811,0.0735619068146,-0.0526479631662,0.160220712423,0.590500006333,-0.179936166341,0.370615487817,-0.177617789403,0.761655801001,-0.513756380266,0.352685047957
-0.0449071638286,-0.0671179592609,-0.202378839254,-2.33099460602,0.688945174217,3.03449392319,0.305048197508,0.05273033306,-0.0648298710585,0.15802513063,-0.0553655959666,-0.000891778676305,0.0286551285535,-0.188363090158,0.10365807265,0.586911543664,-0.190332832921,0.363479155736,-0.175469558532,0.756669483583,-0.526127421834,0.346195988225
-0.0453722588718,-0.0656773597002,-0.202766463161,-2.33099865913,0.689121484756,3.03268527985,0.30597448349,0.05273033306,-0.014915201813,0.158567324281,-0.00104821566492,0.000697426206898,0.01526299119,-0.236558586359,0.0980950891972,0.58664452594,-0.190451256357,0.360951038414,-0.175484674286,0.757006541812,-0.527638877537,0.343137638976
-0.0444879718125,-0.058848656714,-0.201893016696,-2.33096337318,0.689516246319,3.02220511436,0.309663802385,0.05273033306,0.0795652121305,0.164703205228,0.0683578401804,-0.00381933595054,0.00342567451298,-0.296061724424,0.0790306031704,0.586960001172,-0.187891512698,0.356439646196,-0.1761716557,0.759244097014,-0.528122624876,0.337043679066
-0.042499139905,-0.0556994080544,-0.200124114752,-2.33101177216,0.689545571804,3.01656007767,0.311287254095,0.05273033306,0.12969712913,0.165045619011,0.116525165737,-0.00187900348101,0.00149834575132,-0.308056175709,0.0899574607611,0.587504811371,-0.184978013176,0.353737167329,-0.176964143155,0.761257285608,-0.527481336188,0.333068276404
-0.040298730135,-0.0531210117042,-0.198137909174,-2.33100008965,0.689553439617,3.01202940941,0.312693148851,0.05273033306,0.167495042086,0.17584823072,0.150606825948,0.00183496216778,0.000226693664445,-0.294609844685,0.10060390085,0.588268583899,-0.181373704415,0.351146870403,-0.177932435283,0.763515231276,-0.526369721365,0.329119212662
-0.0372414924204,-0.0501177608967,-0.195202723145,-2.33099532127,0.689561128616,3.00721502304,0.314424723387,0.05273033306,0.194821178913,0.17254331708,0.195626363158,-0.00141780730337,-0.000331009767251,-0.27135014534,0.0968003347516,0.589179247172,-0.177312264465,0.348718111841,-0.17896896297,0.765868921912,-0.524917708558,0.325386391256
-0.0252434574068,-0.0413694828749,-0.182234242558,-2.33084726334,0.689566791058,2.99619007111,0.317874312401,0.05273033306,0.284978181124,0.177156105638,0.301038563251,0.0125082833692,0.000116574818094,-0.159624546766,0.0620354004204,0.593022691762,-0.161179895068,0.341929234504,-0.182467869929,0.774673568235,-0.517158130284,0.314855215989
-0.0201524198055,-0.0383188053966,-0.176603034139,-2.33046030998,0.689565956593,2.99369716644,0.318916350603,0.05273033306,0.304795891047,0.172998487949,0.353398859501,0.0301745608449,-0.000134750938741,-0.133809044957,0.0626791492105,0.594833916958,-0.154068080046,0.339806082616,-0.18391116258,0.778239589553,-0.513319252938,0.311485424587
-0.0146436989307,-0.0354325696826,-0.170193105936,-2.32987761497,0.689564585686,2.99174046516,0.320064008236,0.05273033306,0.331926047802,0.172684073448,0.396084278822,0.0472199320793,-3.08902890538e-05,-0.0996288880706,0.0671848803759,0.596729273568,-0.146693970918,0.338099728277,-0.185462150222,0.781722703327,-0.509213099758,0.308569967122
-0.00847832672298,-0.0322779417038,-0.162945955992,-2.32865810394,0.689562857151,2.99051403999,0.321029424667,0.05273033306,0.36010491848,0.174022749066,0.407020330429,0.0839962363243,-0.000179792157724,-0.0378347560763,0.0387555584311,0.599102772496,-0.13808841992,0.336633340715,-0.187246128454,0.785637572817,-0.504123104743,0.305896038644
0.00965676642954,-0.0245077349246,-0.142207071185,-2.32249593735,0.689548969269,2.99059915543,0.322945982218,0.05273033306,0.403897792101,0.160931810737,0.462470501661,0.180069684982,-3.17718477163e-05,0.0126071823761,0.0438497848809,0.606013483116,-0.114947481578,0.335449925403,-0.192437175726,0.795190052665,-0.489414463636,0.301851281209
0.0173626542091,-0.0214280448854,-0.133216455579,-2.31852865219,0.689545631409,2.99145412445,0.323809683323,0.05273033306,0.40150436759,0.149606823921,0.470160037279,0.227434381843,-0.00262937275693,0.0743365362287,0.0445011034608,0.608996209501,-0.105609562115,0.335889842319,-0.194782218199,0.79863710501,-0.483284791854,0.301122021083
0.0244585406035,-0.0190699137747,-0.12520904839,-2.31444430351,0.689537584782,2.99328756332,0.324435591698,0.05273033306,0.424047857523,0.130140647292,0.471272289753,0.263659745455,-0.000306220899802,0.138147801161,0.0348336659372,0.611918687337,-0.096816122813,0.336995329882,-0.197112193315,0.801600922897,-0.477311772301,0.301257722431
0.032839294523,-0.0165277887136,-0.115920044482,-2.30857086182,0.689530849457,2.99666452408,0.325049370527,0.05273033306,0.417021512985,0.125409036875,0.46916103363,0.332797825336,-0.000991593697108,0.206657201052,0.0323765166104,0.615588087474,-0.0866612195114,0.339218465598,-0.200015468214,0.804626436119,-0.470174898314,0.30249905027
0.0452848561108,-0.013469658792,-0.1016189605,-2.29790687561,0.689516663551,3.00389957428,0.326111555099,0.05273033306,0.405016928911,0.0790288075805,0.462610900402,0.373535364866,-0.00105701270513,0.28589501977,0.0470588579774,0.6214690241,-0.0714443799198,0.344400016224,-0.204912193353,0.808269204175,-0.459229994116,0.306300014281
0.0521873235703,-0.0122570749372,-0.0938669964671,-2.29125738144,0.689492225647,3.00879001617,0.326725631952,0.05273033306,0.403713136911,0.0641586333513,0.446987062693,0.393627613783,0.000625588931143,0.29656291008,0.0355758816004,0.624803280489,-0.0631426092316,0.348136119887,-0.207876875807,0.809814197814,-0.453146055191,0.309268203726
0.0589437894523,-0.011516597122,-0.0864299014211,-2.28394961357,0.689479887486,3.01446843147,0.327149420977,0.05273033306,0.37760540843,0.0248666685075,0.427017986774,0.445326983929,-0.000731975305825,0.344316750765,0.0199591871351,0.628208796908,-0.0551674181549,0.352677609277,-0.210999444762,0.810904477968,-0.447097597916,0.313076507435
0.0655890479684,-0.0113237667829,-0.0790250077844,-2.27596282959,0.689438939095,3.0206360817,0.327469319105,0.05273033306,0.367741703987,0.000689390406478,0.407169550657,0.464494794607,-0.000375038391212,0.368312776089,0.0173838045448,0.63168013726,-0.0472696270686,0.358044357931,-0.214388730066,0.811626731418,-0.440954054184,0.317583127725
0.082319997251,-0.0126612307504,-0.0618817172945,-2.25106739998,0.689163446426,3.03982830048,0.328245460987,0.0527309887111,0.324294298887,-0.0523853562772,0.320795059204,0.526158869267,-0.011587546207,0.40365716815,0.0114477779716,0.641154575093,-0.0284550961321,0.376176731032,-0.224212785929,0.810950436528,-0.425537593748,0.333175287313
0.086321644485,-0.0135127902031,-0.0577896907926,-2.2432539463,0.689025640488,3.04530596733,0.328439027071,0.0527309887111,0.279932051897,-0.0651878044009,0.288266181946,0.561470389366,-0.015673847869,0.377523243427,0.0113496752456,0.643771447104,-0.023983147149,0.382106632349,-0.227111185234,0.810104529781,-0.42163183472,0.338197805978
0.0911703929305,-0.014972185716,-0.0526829361916,-2.23261260986,0.688777983189,3.05221509933,0.32872068882,0.0527309887111,0.240181088448,-0.102282814682,0.246126875281,0.573271751404,-0.0113700209185,0.366985142231,0.0227388739586,0.647114375508,-0.0184400910317,0.390323514255,-0.231039712437,0.808697485507,-0.416678642566,0.344975269676
0.0957983359694,-0.0175500679761,-0.0481051318347,-2.22053074837,0.688504695892,3.05959415436,0.328987956047,0.0527309887111,0.202865868807,-0.138418152928,0.198342815042,0.575399458408,-0.0102586764842,0.333609491587,0.0104533731937,0.650590024203,-0.0133788280799,0.400224386627,-0.235459178514,0.806472273142,-0.41177902925,0.352986513372
0.100976184011,-0.0222412124276,-0.0433862991631,-2.20385670662,0.6881955266,3.069003582,0.329166650772,0.0527309887111,0.142090722919,-0.185537829995,0.124931223691,0.557910442352,-0.00873681623489,0.29210370779,0.00751978391781,0.654885381562,-0.00804862597529,0.414591336877,-0.241461153483,0.802586982735,-0.405953882882,0.364351603702
0.102349720895,-0.0243643242866,-0.0420563519001,-2.19778084755,0.688085019588,3.07214331627,0.32919472456,0.0527309887111,0.109620630741,-0.203277915716,0.106090754271,0.535838603973,-0.00700082024559,0.271586984396,0.00321056111716,0.656416852486,-0.00653566222071,0.420570437578,-0.243808258379,0.800762102564,-0.403968683145,0.368980881518
0.104242101312,-0.0294698122889,-0.0401270724833,-2.186013937,0.687933743,3.07776141167,0.329253107309,0.0527309887111,0.0575694926083,-0.232773631811,0.0621025599539,0.472758859396,-0.00180992449168,0.214280620217,0.00240509910509,0.658751272397,-0.00479899941637,0.431304527719,-0.247829294228,0.797203907078,-0.401038912807,0.37711319457
0.104871302843,-0.0340022854507,-0.0392750278115,-2.17779564857,0.687862098217,3.08125495911,0.329302459955,0.05273033306,0.0163037031889,-0.269811034203,0.0377587378025,0.448429912329,-0.0052564595826,0.187105119228,0.00133063469548,0.660214013613,-0.00424428352562,0.439738142164,-0.25082339748,0.794194801955,-0.39924485303,0.38333508422
0.10477501899,-0.0402273125947,-0.0390032231808,-2.16914343834,0.687807381153,3.08434939384,0.329344391823,0.05273033306,-0.0235554371029,-0.317136973143,-0.00517131993547,0.366437315941,0.00122703262605,0.118129141629,0.00265080714598,0.66143343048,-0.00451999568646,0.449495721803,-0.254097070579,0.790517192348,-0.39771461637,0.390307994911
0.103976741433,-0.0467261821032,-0.0393215641379,-2.16254329681,0.687815070152,3.08611869812,0.329404562712,0.05273033306,-0.0625654533505,-0.343377321959,-0.0319436229765,0.295993417501,0.0022022461053,0.0553320087492,0.00383933843113,0.662017581634,-0.00551196149227,0.458000722574,-0.256816181487,0.787168801256,-0.396841151341,0.396141171171
0.0993635877967,-0.0644950717688,-0.0419939607382,-2.15301513672,0.687817275524,3.08694195747,0.329556584358,0.05273033306,-0.117411307991,-0.379265427589,-0.0932190418243,0.118759863079,-0.000538822088856,-0.00269013782963,0.00284945592284,0.661393902644,-0.0106116967085,0.475497837409,-0.261713190773,0.779710070097,-0.396796090662,0.407567509053
0.097029581666,-0.0713534206152,-0.0438881963491,-2.15160536766,0.687826395035,3.08676290512,0.329600811005,0.05273033306,-0.140206843615,-0.37640619278,-0.114877618849,0.040839176625,-0.000201644579647,-0.021707797423,0.00304149906151,0.660596479064,-0.0134838664432,0.480801136278,-0.26284442613,0.777104562871,-0.397553666328,0.411062511111
0.0947289317846,-0.0773896351457,-0.0459038317204,-2.15139055252,0.68782633543,3.08616757393,0.32964193821,0.05273033306,-0.150518745184,-0.374625384808,-0.132684484124,-0.0113931382075,0.000202742536203,-0.0556706264615,0.000793288578279,0.659656393826,-0.0163527138581,0.484764521382,-0.263523337333,0.775002632204,-0.398543283447,0.413629812285
0.0914038643241,-0.0850429609418,-0.0489198677242,-2.15223097801,0.687840163708,3.0843360424,0.329693168402,0.05273033306,-0.16521678865,-0.34892514348,-0.153210774064,-0.0711077451706,-0.000621123006567,-0.113447010517,0.0034620591905,0.658187930982,-0.020417035931,0.488904644915,-0.264045220129,0.772640970979,-0.400209808372,0.416098739011
0.0865219086409,-0.0945631787181,-0.0535843260586,-2.1553299427,0.687842726707,3.08015322685,0.329752355814,0.05273033306,-0.179988846183,-0.317418515682,-0.171126246452,-0.153728887439,-8.72828313732e-05,-0.176909267902,0.00296201347373,0.655877801883,-0.0262919383783,0.492433410312,-0.264063885099,0.770247247166,-0.403063443066,0.417767044315
0.0833161696792,-0.0997517779469,-0.0565709397197,-2.1583635807,0.687840878963,3.07680368423,0.329779446125,0.05273033306,-0.191907212138,-0.289340078831,-0.177644044161,-0.198083356023,-0.000387316336855,-0.210745021701,0.00130107835867,0.654320667311,-0.0299826992688,0.493330182078,-0.263676975279,0.769276740044,-0.405107691598,0.417822339965
0.0800827220082,-0.104161627591,-0.0595151372254,-2.16193342209,0.687843561172,3.07310938835,0.329809308052,0.05273033306,-0.202969625592,-0.263851225376,-0.181268274784,-0.251650542021,0.000238530046772,-0.254462599754,0.00328128784895,0.652771304077,-0.0335882794406,0.493324910701,-0.263034835589,0.768667181668,-0.407284949015,0.417231840864
0.0756306946278,-0.10925873369,-0.0634078606963,-2.16813731194,0.687852501869,3.06734728813,0.329840928316,0.05273033306,-0.216700032353,-0.212902978063,-0.185560435057,-0.329796135426,0.00184337119572,-0.294462651014,0.000289418327156,0.650538638595,-0.0383066675768,0.491774785242,-0.261752668709,0.768492590309,-0.410454500858,0.415249059504
0.0654351860285,-0.115720391273,-0.0727217942476,-2.18660354614,0.687866210938,3.05252456665,0.329916715622,0.05273033306,-0.220520570874,-0.0769680514932,-0.200524702668,-0.444278240204,0.00029169433401,-0.321422636509,0.00189621851314,0.64526789077,-0.0489227429868,0.481987918525,-0.256913880446,0.770270395554,-0.418949750216,0.406398673956
0.061890732497,-0.116407930851,-0.0758317187428,-2.19416832924,0.687901258469,3.0472869873,0.329940259457,0.05273033306,-0.222926780581,-0.0150939458981,-0.186680182815,-0.503803491592,0.00504294596612,-0.333811163902,0.00116679165512,0.643252899161,-0.0526585247063,0.476532612358,-0.254570113069,0.771515795331,-0.422400912872,0.40191404992
0.0574698746204,-0.116099737585,-0.0794002860785,-2.2047791481,0.687913119793,3.04084157944,0.329955905676,0.05273033306,-0.209833934903,0.0413262359798,-0.174764633179,-0.547430038452,0.000948523986153,-0.315985679626,0.00141384557355,0.640880585854,-0.0565826875693,0.469133872777,-0.251546235967,0.773344961945,-0.426387096484,0.396050633871
0.0513259880245,-0.112380005419,-0.0845957770944,-2.22211766243,0.688003718853,3.03235197067,0.329985111952,0.05273033306,-0.189667508006,0.185737237334,-0.168649494648,-0.583213984966,0.00517827551812,-0.233426898718,-0.000525902840309,0.637085792689,-0.0624289318364,0.454858541017,-0.245860110473,0.776846577372,-0.433077247637,0.385365149589
0.0485366173089,-0.109066069126,-0.087211869657,-2.23126864433,0.688090801239,3.0290312767,0.329998165369,0.05273033306,-0.166449740529,0.242137894034,-0.156510412693,-0.584894776344,0.0055685066618,-0.189975425601,0.00249770656228,0.635152481807,-0.0652689435326,0.446723989373,-0.242596903694,0.778733637304,-0.43660645181,0.379599091573
0.0459279678762,-0.104560889304,-0.0896568000317,-2.24048018456,0.688102841377,3.02642130852,0.330011636019,0.05273033306,-0.15548889339,0.325342476368,-0.143729016185,-0.547100901604,0.00138105591759,-0.135960251093,0.00210844934918,0.633260081924,-0.0679544159577,0.437971015922,-0.239039461202,0.780741043731,-0.440140079094,0.373604428551
0.0432607978582,-0.0967069193721,-0.092483587563,-2.25111436844,0.688218653202,3.02433180809,0.330039024353,0.05273033306,-0.118916675448,0.43807643652,-0.138185590506,-0.517434954643,0.00600928673521,-0.075955286622,0.00268030026928,0.63121183753,-0.0709423263639,0.42641340291,-0.234327066009,0.783331295956,-0.444454106412,0.365982860037
0.0402892045677,-0.0826679095626,-0.0962186977267,-2.26493287086,0.688346147537,3.02370429039,0.330084979534,0.05273033306,-0.092830516398,0.53377109766,-0.110559530556,-0.429978728294,0.00131773471367,0.0119797252119,0.000568851479329,0.62847394177,-0.0750449750527,0.40831640785,-0.226693398579,0.7871610956,-0.450741727014,0.354710315301
0.0388758815825,-0.0726598799229,-0.0978982299566,-2.27159810066,0.688455820084,3.02417612076,0.330115526915,0.05273033306,-0.0749164670706,0.636283993721,-0.0907503217459,-0.368517756462,0.0103875659406,0.0499733649194,0.00499666109681,0.627462762386,-0.076682574598,0.399464987019,-0.222923254333,0.78902636006,-0.453532171027,0.349358262091
0.0377335697412,-0.0607405640185,-0.0993330776691,-2.27763438225,0.688657224178,3.02568340302,0.330173164606,0.05273033306,-0.0501429289579,0.671008050442,-0.066756233573,-0.298060238361,0.0148720182478,0.127460122108,0.00154661678243,0.626451985862,-0.0784757650766,0.388291956968,-0.218080021528,0.791303779396,-0.456842267952,0.342891491257
0.0369652733207,-0.0477415472269,-0.100216515362,-2.28260493279,0.688822805882,3.02918934822,0.330256730318,0.05273033306,-0.0321346856654,0.708846628666,-0.0316660106182,-0.235571891069,0.00799991749227,0.249235033989,0.00625181151554,0.625853805971,-0.079834268663,0.378555046784,-0.213628681425,0.793148416902,-0.459501555057,0.337841228655
0.0365689136088,-0.0259842332453,-0.100631922483,-2.28727459908,0.688925981522,3.03894615173,0.330430805683,0.0527296774089,0.00355162401684,0.769638359547,0.000918259262107,-0.101100884378,0.00488650659099,0.426519006491,0.00414316309616,0.62580802591,-0.0816738907893,0.364116525058,-0.206391791906,0.795495455659,-0.463054851078,0.331918081453
0.0367847792804,-0.0121557228267,-0.100469455123,-2.28839278221,0.688989400864,3.04745864868,0.330524653196,0.0527296774089,0.0207038018852,0.762308299541,0.0128949647769,-0.027620440349,0.00247321114875,0.51831382513,0.00506883906201,0.626378248813,-0.0827170699393,0.355990671654,-0.201843559774,0.796489740902,-0.464866234408,0.329791833987
0.0372898727655,0.00134588498622,-0.100030504167,-2.28833556175,0.689004004002,3.05752086639,0.330624848604,0.0527296774089,0.0362566821277,0.730778813362,0.0312500782311,0.0223588682711,-0.00107206229586,0.605873405933,0.00449111452326,0.627237659332,-0.0835477765795,0.349776963405,-0.19800896458,0.797010812018,-0.466126270116,0.329078281603
0.0380389131606,0.0136167090386,-0.0994144752622,-2.28761839867,0.689008712769,3.06864237785,0.330701798201,0.0527296774089,0.0477475598454,0.707569479942,0.0359848663211,0.0660316199064,-0.000314433011226,0.690266489983,0.00248773791827,0.62833508923,-0.0843287332592,0.344478251101,-0.194338358005,0.797174574839,-0.467101711714,0.329486403961
0.0412782393396,0.0441975668073,-0.0971988663077,-2.28075385094,0.689039707184,3.10525393486,0.330927282572,0.0527296774089,0.0674663558602,0.535792469978,0.0586000084877,0.220207631588,8.40390057419e-05,0.777793705463,0.00192495505325,0.633028725909,-0.0862996312726,0.335576584399,-0.185768506185,0.795593974625,-0.468329400166,0.336434038458
0.0422540567815,0.0517935119569,-0.0962662249804,-2.27713823318,0.689036548138,3.11697244644,0.330982297659,0.0527296774089,0.0655331164598,0.475048393011,0.0626450255513,0.262316465378,0.00295380386524,0.786911964417,0.000114554226457,0.6349201221,-0.0868179572396,0.334860411075,-0.183902194303,0.79452288516,-0.468253650147,0.34007629534
0.0435451567173,0.0594714470208,-0.0951761677861,-2.27189588547,0.689041793346,3.1309056282,0.331046044827,0.0527296774089,0.0735101848841,0.384220272303,0.0602845288813,0.316077381372,0.00026981724659,0.767646789551,0.00671639107168,0.637441164576,-0.0873527604646,0.335370308976,-0.182252885765,0.792865537207,-0.467885830144,0.345298385647
0.0450224578381,0.066302485764,-0.0939617455006,-2.26505851746,0.689043700695,3.1461353302,0.3311406672,0.0527296774089,0.0754577368498,0.292746156454,0.0584311448038,0.359457790852,-0.00103102147114,0.76157951355,0.00618240470067,0.640504449232,-0.0878616183444,0.337519322244,-0.181113744053,0.790572033063,-0.467189425726,0.352033680752
0.0472319461405,0.0725278705359,-0.0920065864921,-2.2523458004,0.689038336277,3.1692814827,0.331277281046,0.0527309887111,0.0607650093734,0.130095154047,0.0672688409686,0.458042562008,0.000287588743959,0.707516312599,0.0100568998605,0.645737040658,-0.0885422774865,0.344725191897,-0.180976298186,0.785834148241,-0.465482612722,0.364744030582
0.0481400638819,0.0738980472088,-0.0909692794085,-2.24524044991,0.689032495022,3.17949199677,0.331353783607,0.0527309887111,0.0563483461738,0.0513533316553,0.0715169161558,0.48494797945,8.25753959361e-05,0.659001290798,0.00165141862817,0.648417293344,-0.0887582564912,0.349625667578,-0.181627827829,0.7831755078,-0.464419532581,0.371432300069
0.0491021983325,0.0740295276046,-0.0898246914148,-2.23690772057,0.689031243324,3.19043111801,0.331378608942,0.0527309887111,0.0641495585442,-0.0278026927263,0.0572563260794,0.504281878471,-0.00153797853272,0.623537540436,-0.000682639190927,0.651402507965,-0.0889609661225,0.356160071355,-0.182824113458,0.779892007447,-0.463062980136,0.379363251149
0.0502355359495,0.0729745253921,-0.0886639207602,-2.22654986382,0.689027130604,3.20210075378,0.331401616335,0.0527309887111,0.0581252910197,-0.091731287539,0.0662008821964,0.566094458103,0.00242879148573,0.580811500549,0.000986352097243,0.654862281551,-0.0891334658965,0.364758867114,-0.184736788984,0.775800338634,-0.461338443869,0.388809713375
0.0518144443631,0.0675132796168,-0.086911521852,-2.20915031433,0.689011454582,3.21860384941,0.331419199705,0.0527309887111,0.0515621006489,-0.228758454323,0.0520392768085,0.56116849184,-0.00130838016048,0.483071267605,-0.000193658634089,0.660055709434,-0.0892992436418,0.381146965761,-0.189063712295,0.768484208592,-0.458225823914,0.404618372998
0.0527312867343,0.0630657747388,-0.0861699581146,-2.19946479797,0.688991308212,3.22620892525,0.331418275833,0.0527309887111,0.0558390021324,-0.287937581539,0.0393900834024,0.567187070847,0.00854902900755,0.428627073765,0.000668333726935,0.662609577161,-0.089289553136,0.390963899237,-0.191923356744,0.764292357521,-0.456385741859,0.413200522299
0.0536239631474,0.0572975873947,-0.0856344103813,-2.19023513794,0.688978254795,3.2327299118,0.331417173147,0.0527309887111,0.0566640459001,-0.393049627542,0.0294821169227,0.512649774551,-0.00050892640138,0.350337862968,-1.19336627904e-05,0.664761389714,-0.0892797987158,0.401236336035,-0.195059713685,0.760008612963,-0.454530217139,0.42159328464
0.0545795559883,0.0498840510845,-0.0852056071162,-2.1820127964,0.688959598541,3.23795104027,0.331414431334,0.0527309887111,0.0550549514592,-0.471270054579,0.0268054213375,0.466768532991,-0.00510058831424,0.259391188622,0.000661849218886,0.666357288382,-0.0891220400277,0.411818985355,-0.198488270294,0.755777692982,-0.452606171926,0.429592991221
0.0571216568351,0.0122034484521,-0.0840768516064,-2.15716099739,0.688777685165,3.24531960487,0.331404536963,0.0527309887111,0.0223445575684,-0.635593414307,0.00890116393566,0.246568694711,-0.00965030677617,-9.39535457292e-05,-0.000192598992726,0.66830587218,-0.0879614884138,0.452545347805,-0.21316680806,0.740902013827,-0.445205727501,0.455429443126
0.0574823990464,-0.000315305456752,-0.0839239731431,-2.15319085121,0.688672482967,3.24520039558,0.331400990486,0.0527309887111,0.0184623058885,-0.68288987875,0.00357384607196,0.17521803081,-0.00631905253977,-0.00540275033563,-0.000342668412486,0.667552530584,-0.0877024650365,0.463138430805,-0.217159495034,0.737230579842,-0.443337929915,0.461285492268
