imanlab/tactile_prediction_flat_dataset/test/data_sample_2021-11-25-13-42-55/robot_state.csv
position_panda_joint1,position_panda_joint2,position_panda_joint3,position_panda_joint4,position_panda_joint5,position_panda_joint6,position_panda_joint7,position_panda_finger,velocity_panda_joint1,velocity_panda_joint2,velocity_panda_joint3,velocity_panda_joint4,velocity_panda_joint5,velocity_panda_joint6,velocity_panda_joint7,ee_state_position_x,ee_state_position_y,ee_state_position_z,ee_state_orientation_x,ee_state_orientation_y,ee_state_orientation_z,ee_state_orientation_w
0.493893325329,-0.00763124134392,-0.520260453224,-2.51635336876,0.0252563580871,2.55646753311,-0.779513835907,0.0353240706027,-0.000143422701512,1.2726636669e-05,2.26155116252e-05,-0.00204487750307,3.94025955757e-05,-1.67280231835e-05,-0.00042965207831,0.471817351833,-0.0106308281664,0.173771766161,0.0007691035952,0.933412033497,0.357930090006,0.0250486438218
0.493888735771,-0.00759865529835,-0.520263195038,-2.51638650894,0.0252564959228,2.55646729469,-0.779514372349,0.0353247262537,0.000173768305103,0.00137683271896,-0.000249489967246,-0.00110811484046,2.68093172053e-05,0.000224093892029,-0.000177460664418,0.471796891728,-0.0106362700544,0.173745390556,0.000764844238566,0.933414017494,0.357927132354,0.0250170855293
0.493890792131,-0.0075613069348,-0.520260572433,-2.5164270401,0.0252564344555,2.55646967888,-0.77951592207,0.0353247262537,0.000354525545845,0.00493548158556,-0.000158733775606,-0.00572000583634,0.000153188113472,0.000184810342034,-0.000432712928159,0.471772939411,-0.0106363484551,0.173714435452,0.00075993617564,0.933413755767,0.357930350017,0.024980937997
0.493895202875,-0.00749763194472,-0.52026039362,-2.51649856567,0.0252570677549,2.55646705627,-0.779513657093,0.0353247262537,-0.000129565858515,0.00435877405107,0.000429320381954,-0.00244532618672,-9.17242650758e-05,-0.000225507494179,-0.000135116686579,0.471729474681,-0.010637929598,0.173660054045,0.000749533056749,0.933414987883,0.357931740128,0.024915210023
0.493895590305,-0.00736299017444,-0.520258426666,-2.51656365395,0.0252567809075,2.55646753311,-0.779516458511,0.0353247262537,0.000346016458934,0.00720529165119,-0.000133831010316,-0.000349787296727,-6.23553714831e-05,6.47744891467e-05,0.000167329038959,0.471677603529,-0.0106465830711,0.173575140942,0.000746010550896,0.933416381765,0.357935174251,0.024813553543
0.493887513876,-0.00703437346965,-0.520260930061,-2.51661348343,0.0252568162978,2.55646848679,-0.779516339302,0.0353247262537,0.000253349251579,0.0176185686141,0.000184592514415,-0.00446813181043,-7.15925489203e-05,3.7679408706e-05,-0.000461950141471,0.471609975853,-0.0106752522124,0.173425176022,0.000757536454249,0.933422250381,0.357932311014,0.0246330885179
0.493890702724,-0.00675934320316,-0.520262360573,-2.5166258812,0.0252565182745,2.55646753311,-0.779514491558,0.0353247262537,9.06755667529e-05,0.019515780732,0.000653367198538,0.000246288574999,5.9941168729e-05,-0.00014079597895,-0.000216862521484,0.471565230926,-0.0106950651752,0.173307423453,0.000772513559212,0.933425300766,0.357934106011,0.0244905400693
0.493891090155,-0.00644269119948,-0.520261049271,-2.51662874222,0.025256793946,2.55647039413,-0.779515683651,0.0353240706027,2.85136648017e-05,0.0210014935583,5.07893819304e-05,-0.000579717219807,9.0537701908e-05,-4.33387094745e-06,0.000114016118459,0.471519959854,-0.0107182278578,0.17317672315,0.000792626935603,0.933428175284,0.35793727156,0.0243335702545
0.493890792131,-0.00520184868947,-0.520259916782,-2.51663732529,0.0252566318959,2.55647277832,-0.779515862465,0.0353240706027,-0.000235832238104,0.0302600394934,2.79017931462e-05,0.00169689417817,1.57719550771e-05,1.32318455144e-05,0.000230202698731,0.471341496888,-0.0108119167873,0.17266487244,0.00087050298613,0.933440927593,0.357945320029,0.0237154901705
0.493887245655,-0.00387214473449,-0.520261406898,-2.51663613319,0.0252569615841,2.55647325516,-0.77951592207,0.0353240706027,-8.79234139575e-05,0.0382963716984,-7.82283314038e-05,-0.000351287832018,7.20311509212e-05,-0.00118233647663,0.000256000465015,0.471154074167,-0.0109155342793,0.17212049414,0.000955453813734,0.933455251105,0.357950770425,0.0230570364365
0.493888050318,-0.00314377015457,-0.520259916782,-2.51664328575,0.0252567175776,2.55647230148,-0.779516458511,0.0353240706027,0.000101252015156,0.0490513965487,0.00113400106784,0.000744948047213,6.91626701155e-05,-3.87703366869e-05,0.000576683261897,0.47104720821,-0.0109699612877,0.171819261948,0.00100031347789,0.933461962976,0.357956462911,0.0226921438902
0.493899285793,-0.000813367136288,-0.520251333714,-2.51663923264,0.0252571031451,2.55647397041,-0.779517173767,0.0353240706027,-2.52914705925e-05,0.0515916906297,-0.000217302702367,-2.71005246759e-05,7.45143915992e-06,-0.000244131239015,-0.000217763343244,0.470718019204,-0.0111392749486,0.170867010534,0.00114948596309,0.933480381709,0.357979202414,0.0215394050879
0.493893235922,0.0001359473099,-0.520252764225,-2.51665592194,0.0252571534365,2.55647349358,-0.77951580286,0.0353240706027,-4.39150608145e-06,0.0505991615355,-0.000379446544684,-0.000713826273568,-3.37448873324e-05,2.66378392553e-05,-0.000131977300043,0.470574166321,-0.0112156300453,0.170472116683,0.0012066883988,0.933490791464,0.357980346837,0.0210607957723
0.493892282248,0.00105737114791,-0.520252466202,-2.51665210724,0.0252565313131,2.55647158623,-0.779516756535,0.0353240706027,-1.0432580666e-06,0.0546752214432,9.06686364033e-06,0.000447448110208,6.84058541083e-05,2.21012724069e-05,-7.1800650403e-06,0.470443560109,-0.0112870692782,0.170096599086,0.00126587570682,0.933498803522,0.357985789116,0.0206047532889
0.493892401457,0.00393875967711,-0.520252168179,-2.51664066315,0.0252564139664,2.55647873878,-0.779517591,0.0353240706027,0.000420915777795,0.0572094507515,4.61568997707e-05,0.00101782730781,-1.11584836304e-06,-0.000205947522772,-0.00065562070813,0.470035806716,-0.0115104164441,0.168924266958,0.00145297184215,0.933522700246,0.358001685771,0.019184620628
0.493893355131,0.00480992207304,-0.520248651505,-2.51666378975,0.0252567920834,2.55647683144,-0.779517173767,0.0353240706027,0.000177615002031,0.0587883591652,-0.00139315857086,-0.000831387762446,2.67042723863e-05,-0.000358065357432,-0.000268435745966,0.469898356283,-0.011575836185,0.168559421806,0.00150347380595,0.933529239993,0.358007914,0.0187411537342
0.493895739317,0.00591266108677,-0.5202460289,-2.51666760445,0.0252566002309,2.55647683144,-0.779518246651,0.0353240706027,-0.00088909000624,0.0589463189244,8.31346042105e-05,0.000132490691612,-0.000124561673147,4.15595350205e-05,-9.56574294833e-05,0.469736697814,-0.0116595281416,0.168107847881,0.0015729525591,0.933536724063,0.358016396486,0.0181925858103
0.493887543678,0.00708976807073,-0.520250558853,-2.51666283607,0.025256767869,2.55648040771,-0.779518246651,0.0353240706027,-5.14508756169e-05,0.0530188642442,0.00256428844295,0.00184101192281,6.40658035991e-05,3.38234749506e-05,0.000200957874767,0.469568465819,-0.0117577411887,0.1676298028,0.00164960186289,0.933547783985,0.358016206218,0.0176127681274
0.493903636932,0.00866379309446,-0.52023857832,-2.51667404175,0.0252564325929,2.55648088455,-0.779517889023,0.0353240706027,0.000710143358447,0.0503754802048,0.000100998222479,-0.000528242497239,3.57077478839e-05,0.000236972759012,3.44005493389e-05,0.469333865057,-0.0118680817609,0.166983706281,0.00174755220254,0.933554174321,0.358036857387,0.016827302413
0.493901282549,0.00946462526917,-0.520238280296,-2.51666712761,0.0252564493567,2.55648446083,-0.779519021511,0.0353247262537,-0.000212570841541,0.0469698347151,-0.000255577440839,0.0010069598211,-7.83260747994e-06,0.00134427822195,0.000155047135195,0.469220764448,-0.011932249857,0.166660322226,0.00180059328205,0.933559782346,0.358040193388,0.0164350313054
0.493894100189,0.0101299639791,-0.520239770412,-2.51665854454,0.0252563506365,2.55649089813,-0.779519438744,0.0353247262537,6.71974048601e-05,0.0520398579538,-0.000543853151612,0.00407559750602,-2.50184730248e-05,0.0021446805913,-0.000156410227646,0.469128660899,-0.0119889970992,0.16639315103,0.00184598750313,0.933565605956,0.358039459565,0.016112007519
0.493888020515,0.0110545363277,-0.520243167877,-2.51667094231,0.0252573359758,2.55653786659,-0.779518723488,0.0353247262537,-0.000287027884042,0.04105867818,0.000269185460638,-0.00311312382109,0.000185209064512,0.0061600250192,6.77544157952e-05,0.46899189442,-0.0120706182319,0.165998743026,0.0019162256688,0.933573796717,0.358038154918,0.0156516283575
0.493900388479,0.0122548183426,-0.52023422718,-2.51667094231,0.0252566244453,2.5574028492,-0.779519855976,0.0353247262537,-0.000255103572272,0.0354486741126,0.000312564021442,0.00202371017076,6.77620701026e-05,0.0279568769038,-0.000336535391398,0.46900730235,-0.0121615429278,0.165609264274,0.00216179678928,0.933571563274,0.358050464864,0.0154702028899
0.493900448084,0.0129386670887,-0.520234465599,-2.51665234566,0.0252575613558,2.55795288086,-0.779521524906,0.0353247262537,1.755878111e-05,0.0364466533065,0.000597088888753,0.000810497032944,0.000198794528842,0.0291283354163,0.000208412413485,0.469034215339,-0.0122220883481,0.165389936662,0.00231909734354,0.933572100212,0.358051467045,0.0153916251474
0.493901401758,0.0135330129415,-0.520231127739,-2.51667523384,0.0252576358616,2.55840158463,-0.779520571232,0.0353247262537,-2.87393359031e-05,0.029201714322,-1.91061644728e-06,-0.0011937704403,9.0662841103e-05,0.0146529311314,0.000298654224025,0.469032364407,-0.0122719787913,0.165181572748,0.00244256869723,0.933572572351,0.35805369299,0.0152917831948
0.49389642477,0.0139315417036,-0.52023422718,-2.51668357849,0.0252571813762,2.55858421326,-0.779520750046,0.0353247262537,-0.000652332208119,0.0241507980973,-0.00034612492891,0.00194605463184,0.000113034911919,0.00447941478342,0.000295451027341,0.469007303902,-0.0123147139911,0.165016854608,0.00251069231937,0.933575989158,0.358049909378,0.0151601771396
0.493899434805,0.0148860523477,-0.520232915878,-2.51665949821,0.0252572316676,2.55913567543,-0.779521048069,0.0353247262537,4.2961230065e-05,0.0168482344598,-1.8375716536e-05,-5.5970835092e-05,0.00134276412427,0.00434745149687,-0.000229947952903,0.468998279172,-0.0123896845019,0.164706109398,0.00267925166549,0.933576540136,0.358055496555,0.0149641702448
0.493898034096,0.0150110665709,-0.520233273506,-2.51665878296,0.0252575092018,2.55921840668,-0.779520511627,0.0353247262537,0.00035445674439,0.0138860596344,4.07859697589e-05,8.76192734722e-06,-6.63029204588e-05,0.0120343798772,0.00475921109319,0.468999006802,-0.0124144275319,0.164617183236,0.00273266347121,0.933577820886,0.358053622017,0.0149193949242
0.493896305561,0.015331691131,-0.520235478878,-2.51666021347,0.025257403031,2.55948090553,-0.779521226883,0.0353240706027,0.000312220916385,0.0102804405615,-0.000360661593731,0.00109567702748,-7.9585275671e-05,0.00521846115589,-0.00256303627975,0.469004803627,-0.0124291495516,0.164566318778,0.00276970369288,0.9335780457,0.358053406906,0.0149036511056
0.493897855282,0.0154958991334,-0.520232319832,-2.51665496826,0.0252571310848,2.55967879295,-0.779519021511,0.0353240706027,0.000304168497678,0.00379478442483,-0.000176272398676,0.00187849474605,1.31890089961e-06,0.00942244753242,0.000293738965411,0.469025865157,-0.0124443157588,0.164512114406,0.00282550169506,0.933577254934,0.358054754224,0.0149103411408
0.493894487619,0.0156646538526,-0.520235657692,-2.51665592194,0.0252576228231,2.56001138687,-0.779522657394,0.0353240706027,-0.000114886075608,0.00447564991191,-0.000230749690672,7.30230676709e-05,-7.82069236038e-08,0.0156216127798,-0.000825214432552,0.46907363649,-0.0124649380954,0.164473241098,0.00290532103525,0.933576748787,0.358052497856,0.014980710857
0.49389320612,0.0157285165042,-0.520234823227,-2.51665949821,0.0252576060593,2.56022071838,-0.779521405697,0.0353240706027,0.000320479011862,0.00298926536925,0.000428556668339,0.0016158457147,-7.10220338078e-05,0.0191392470151,-0.000369902118109,0.469107642131,-0.0124724721604,0.164465651236,0.0029507262795,0.933576127259,0.358051125815,0.0150432315089
0.49389731884,0.0158036164939,-0.520235240459,-2.51664829254,0.0252579115331,2.56051874161,-0.779521644115,0.0353240706027,0.000462514813989,0.00590895721689,-1.87935002032e-05,2.52906556852e-05,-8.39860076667e-05,0.0138846365735,0.000445533398306,0.469169317653,-0.0124801843431,0.164467767353,0.00302075135101,0.93357374539,0.358052113205,0.0151532469607
0.493899583817,0.0158583633602,-0.520229756832,-2.51665067673,0.0252571031451,2.56083750725,-0.779521286488,0.0353240706027,-0.000388509448385,0.00446855276823,-0.00021997911972,-0.00060111930361,4.50647166872e-05,0.0165418870747,-0.000185468728887,0.469225984775,-0.0124842233755,0.164474462966,0.00308452521911,0.933570741889,0.35805464221,0.0152652700435
0.493896067142,0.015929415822,-0.520233571529,-2.51664853096,0.0252572465688,2.56139492989,-0.779520869255,0.0353247262537,-0.00014470719907,0.00430703395978,-0.00045064027654,0.000167550737388,1.09184320536e-05,0.0189219322056,0.00213462486863,0.469336756653,-0.012499368108,0.1644991348,0.00320142881373,0.933568894495,0.358048943317,0.0154862506907
0.493894159794,0.0159605313092,-0.520234107971,-2.51664495468,0.02525697276,2.56167507172,-0.779521107674,0.0353247262537,-0.000149231855175,0.00146595097613,-5.13768900419e-05,-0.000653950555716,-1.52116990648e-05,0.02007169649,0.000739518553019,0.469401050668,-0.0125070575604,0.164516484323,0.00326731611922,0.933567366639,0.358046746428,0.0156148535191
0.493896573782,0.0159983988851,-0.52023255825,-2.51664805412,0.0252576638013,2.56220984459,-0.779521584511,0.0353247262537,0.000298939005006,0.000210498546949,-0.00298290583305,0.00323679554276,0.000112188863568,0.00969804078341,0.000414244015701,0.469502687998,-0.0125129227743,0.164548474128,0.00336941543181,0.933563495132,0.358046649976,0.0158254138132
0.493896961212,0.0160198137164,-0.520231366158,-2.51664614677,0.0252573341131,2.56242728233,-0.779520690441,0.0353247262537,0.000230714838835,0.00180030264892,6.65156549076e-05,-0.000380881363526,-0.000133571375045,0.0132210887969,3.2626245229e-05,0.469547379358,-0.012516262767,0.164561111758,0.0034148578981,0.933561951987,0.358046263532,0.0159151941093
0.493894308805,0.0160376299173,-0.520234882832,-2.51664495468,0.0252573322505,2.56273388863,-0.77952080965,0.0353247262537,-0.000262120651314,0.000789607584011,-0.00198173266836,-0.00057447690051,0.000173892316525,0.0134028373286,0.000387959822547,0.469611406419,-0.0125239021117,0.16458343875,0.00347786158681,0.933561019978,0.3580421916,0.0160472793848
0.493896842003,0.0160796716809,-0.520233392715,-2.51663780212,0.025257371366,2.56327700615,-0.77951925993,0.0353247262537,0.00013342629245,0.00103871501051,-0.000205641525099,0.000143524026498,3.20853214362e-05,0.01274747774,1.65690871654e-05,0.469719728558,-0.012530586818,0.164619087638,0.00358451857842,0.933557227883,0.358041142529,0.0162663283012
0.493894964457,0.0160927921534,-0.520232617855,-2.51664209366,0.0252575557679,2.56347990036,-0.779520750046,0.0353247262537,0.000234483508393,0.00174757209606,-0.00190129433759,-0.000462166615762,9.50037065195e-05,0.0178000256419,0.003393889172,0.469795242599,-0.0125373165948,0.164641902289,0.00366212020155,0.933554527322,0.35804013631,0.0164254031614
0.493896603584,0.0161191504449,-0.520231962204,-2.51664066315,0.0252569317818,2.56403470039,-0.779522240162,0.0353240706027,-0.000272950128419,0.00141130201519,0.000302059313981,0.000528637610842,1.03563825178e-05,0.0110360113904,0.000448063627118,0.469882077308,-0.0125420073789,0.164675589133,0.0037451074558,0.933551042758,0.358040109128,0.0166043571527
0.493897080421,0.0161216463894,-0.52023178339,-2.51663947105,0.0252567026764,2.5642478466,-0.779520750046,0.0353240706027,-6.51535956422e-05,0.000626334454864,-0.000157017537276,0.000195518237888,-1.55840880325e-05,0.0156574957073,0.00455772830173,0.469928257813,-0.0125442121723,0.164695337998,0.00378833070013,0.933549618278,0.358038862735,0.0167012340854
0.493895441294,0.0161261633039,-0.520231902599,-2.51663851738,0.0252574123442,2.56440711021,-0.77952259779,0.0353240706027,-4.15865833929e-05,0.000198084526346,-0.000270496180747,-4.68623738925e-06,-5.10627869517e-05,0.00808727834374,0.000113225200039,0.469962372706,-0.0125470885182,0.164709044505,0.0038206273831,0.933548565874,0.358037935794,0.0167724231382
0.493895441294,0.0161316934973,-0.520231425762,-2.51663780212,0.0252570956945,2.56454825401,-0.779521048069,0.0353240706027,-0.000157540504006,0.000394008297008,-0.000214733052417,5.07584700244e-05,-0.00014139545965,0.00872595980763,-2.21904720092e-05,0.469992338035,-0.0125488435578,0.164720520833,0.00384951643043,0.9335477064,0.358036949262,0.0168345997191
0.493897289038,0.0161687824875,-0.520232737064,-2.51664018631,0.025258237496,2.56482887268,-0.779520332813,0.0353240706027,-0.000347839726601,0.000438138114987,6.37503835605e-05,0.000225774463615,-2.45769806497e-05,0.0033018339891,-0.000110590888653,0.470046206303,-0.0125544951344,0.164731255679,0.00390747271151,0.933546104104,0.358035352159,0.0169437144159
0.493896484375,0.0161694027483,-0.52023100853,-2.51663684845,0.02525719814,2.56487751007,-0.779522359371,0.0353240706027,9.37752793106e-06,-1.77529072971e-05,3.422492955e-05,0.00025972086587,7.85019801697e-06,0.00777845969424,-0.000482564180857,0.470058219713,-0.0125547086402,0.16473691687,0.00391817828773,0.933545033381,0.358036919656,0.0169670969087
0.493894696236,0.0161741040647,-0.520232200623,-2.5166387558,0.0252567380667,2.5649535656,-0.779520571232,0.0353240706027,-1.79406288225e-05,-0.000162797965459,-3.4468681406e-05,-0.000321553437971,6.46950502414e-05,0.00441391766071,0.00473555270582,0.470072961938,-0.0125573075352,0.164741531688,0.00393352166909,0.933545304497,0.35803454769,0.0169986530326
0.493894517422,0.0161820668727,-0.520233273506,-2.51664042473,0.0252571366727,2.56503343582,-0.779521584511,0.0353240706027,0.000229588084039,0.000799102359451,-0.0001304383768,-0.00357369869016,-1.93635623873e-05,0.00199246872216,0.000859217718244,0.470086792881,-0.0125590891374,0.164745233548,0.00394798366579,0.933544860349,0.358034147726,0.017028091183
0.493898689747,0.0161907915026,-0.520228922367,-2.51664233208,0.0252584405243,2.56513905525,-0.77952170372,0.0353240706027,-0.000422551704105,-0.000112880952656,0.000298177852528,0.00365952355787,-3.15175238939e-05,0.000272493780358,-0.000106488179881,0.470108840866,-0.0125570943073,0.164751050558,0.00397062832765,0.933542815489,0.358037050015,0.0170738472908
0.493896096945,0.0161886662245,-0.52023088932,-2.51663684845,0.025257429108,2.5651705265,-0.779522716999,0.0353240706027,0.000344616360962,0.000131359876832,0.000117370036605,0.00408083526418,0.000121681812743,0.00679842242971,0.00015139124298,0.470118531452,-0.0125595099707,0.164757032241,0.00397818320294,0.93354299673,0.358035640782,0.0170917211131
0.493891179562,0.016195518896,-0.520231842995,-2.51663661003,0.0252583809197,2.56521439552,-0.779521107674,0.0353240706027,-0.000185260651051,3.04288842017e-05,6.4664403908e-05,-0.000169835271663,9.56474013947e-06,6.6106520535e-05,0.000420924305217,0.470127017627,-0.0125632493451,0.164758521426,0.00398727306017,0.933544190749,0.358031619432,0.0171086160802
0.493898063898,0.016221517697,-0.520227313042,-2.5166413784,0.0252577364445,2.56527042389,-0.77952259779,0.0353240706027,-0.000276347098406,-0.000398034433601,-0.00400580000132,0.000284753448796,2.49995064223e-05,0.000195429864107,0.000301473890431,0.470133076984,-0.0125605318275,0.16475142019,0.00399931033651,0.933541585606,0.358037775915,0.0171191169034
0.49389731884,0.0162204094231,-0.520228087902,-2.51663899422,0.025257376954,2.56528687477,-0.779521465302,0.0353240706027,-0.000662258826196,2.5723798899e-05,-6.3238250732e-05,0.000258051441051,0.000107280364318,0.001218885649,0.000156113979756,0.470137919936,-0.0125613758266,0.164754360514,0.00400310041779,0.933541852695,0.358036599897,0.0171282595127
0.49389436841,0.0162202604115,-0.520230174065,-2.51663756371,0.0252581946552,2.56531500816,-0.779520392418,0.0353240706027,-0.000256351951975,-0.000218782981392,-0.000266452552751,3.7852794776e-05,2.44607645072e-06,0.00126072089188,-3.22194537148e-05,0.470144638434,-0.012564015582,0.164757665229,0.00400885399914,0.933542840422,0.35803330445,0.0171419595163
0.493894279003,0.0162246804684,-0.520230352879,-2.5166387558,0.0252581145614,2.56535744667,-0.779520869255,0.0353240706027,-0.000126290353364,0.000266577291768,-3.30978546117e-05,0.000225718191359,1.61263360496e-05,0.000423742982093,0.000409791886341,0.470152552424,-0.0125649428835,0.164759459598,0.00401745692757,0.933542513709,0.358033261046,0.0171586365544
0.493896186352,0.0162523742765,-0.520229399204,-2.51664328575,0.0252565201372,2.56549811363,-0.779522657394,0.0353240706027,4.3447020289e-05,-0.000256864819676,0.000179627313628,0.000461085233837,3.66712010873e-05,0.00698355957866,0.000269885727903,0.470176613912,-0.0125673446954,0.164759859346,0.00404699005501,0.933540615989,0.358035553702,0.0172070375358
0.493891775608,0.0162652153522,-0.520230829716,-2.51663637161,0.0252577513456,2.5655195713,-0.779520273209,0.0353240706027,-1.81022205652e-05,0.000101749188616,0.000611301395111,6.38553465251e-05,-6.16081015323e-05,0.00129514059518,0.000320125138387,0.470182695398,-0.0125715937647,0.164759228163,0.00405332139166,0.933542194517,0.358031033964,0.017213949188
0.493896394968,0.0162678658962,-0.520229995251,-2.51663970947,0.0252576172352,2.56553506851,-0.779521286488,0.0353240706027,0.000383760518162,-0.000737249909434,-0.000368347769836,-0.000392884394387,-2.90911193588e-05,8.38454652694e-05,-2.26048832701e-05,0.470184009773,-0.0125691452711,0.164758443386,0.00405579454111,0.933540880192,0.358034235699,0.0172180513537
0.493897795677,0.0162733197212,-0.520229876041,-2.51664018631,0.0252570472658,2.56555724144,-0.77952247858,0.0353234149516,-0.00018402148271,0.000513225735631,-0.00022017682204,-0.000242667927523,6.31389702903e-05,0.000171058898559,-0.000592969707213,0.470187883117,-0.0125692866203,0.16475798967,0.00406081652821,0.933540298521,0.358035334699,0.0172255507519
0.493894517422,0.0163108855486,-0.52023088932,-2.51663947105,0.0252575296909,2.56561017036,-0.779521346092,0.0353234149516,0.000327596557327,0.00194170803297,-0.00261575751938,0.000360221194569,-6.75068940836e-06,-6.23250234639e-05,0.000295188307064,0.470193910798,-0.012574642809,0.164747689578,0.00407404869049,0.933540901885,0.35803335249,0.0172309263952
0.493897497654,0.0163270942867,-0.520227849483,-2.51664400101,0.0252567380667,2.56562042236,-0.779522895813,0.0353234149516,8.34745296743e-05,8.81980813574e-05,0.000255679653492,-0.00172887148801,0.000190273596672,-9.15036653168e-05,0.000425972655648,0.470191595994,-0.0125732525486,0.164740779276,0.00407607625215,0.933539671682,0.358036789429,0.0172256814053
0.493900001049,0.0163344871253,-0.52022600174,-2.51664304733,0.0252562779933,2.56563043594,-0.779521405697,0.0353234149516,-0.000202537979931,0.00120340194553,0.000408524618251,4.18494018959e-05,-1.85574685929e-06,0.000394629663788,0.000506977376062,0.470193170934,-0.0125719295795,0.164739078132,0.00407879245786,0.933539055384,0.358038301996,0.0172269995532
0.493898391724,0.0163328386843,-0.520226418972,-2.51663899422,0.0252571273595,2.56564068794,-0.779524683952,0.0353234149516,-0.00050065072719,-0.000589800416492,-0.000439948635176,-0.000272969977232,3.55019219569e-05,1.34533502205e-05,0.000206602227991,0.470197559231,-0.0125728622742,0.164742286306,0.00408135183817,0.933538827202,0.358038508427,0.0172344667121
0.49389347434,0.016342766583,-0.520227909088,-2.51664042473,0.0252563264221,2.56566143036,-0.779522120953,0.0353234149516,-0.000343499239534,-0.000351764756488,0.000259089661995,-0.00032086900319,-6.90065571689e-05,0.000176346293301,3.02693824779e-05,0.47019978787,-0.0125769159052,0.164739674779,0.0040861258065,0.933540237953,0.358034591814,0.0172382843878
0.493893921375,0.0163509417325,-0.520228385925,-2.51663899422,0.0252573955804,2.56566929817,-0.779522180557,0.0353234149516,0.000168041398865,-0.000457447400549,7.03708210494e-05,0.000602378684562,-2.28458939091e-05,0.00487996963784,-0.000666897336487,0.47020125271,-0.0125775323265,0.164737732516,0.00408845419994,0.933540269308,0.358034454939,0.0172388771056
0.493896573782,0.0163675025105,-0.520227432251,-2.51663732529,0.0252581425011,2.56567907333,-0.779523611069,0.0353234149516,0.000359451310942,-0.000149840139784,-0.000135157533805,0.000258926476818,-0.000133936671773,3.4622826206e-05,9.72728375928e-05,0.470201470946,-0.0125773429816,0.164732454606,0.00409134740678,0.933539598002,0.358036323593,0.0172357335902
0.493898898363,0.0163761824369,-0.520226478577,-2.51664113998,0.025257948786,2.56568431854,-0.779524803162,0.0353234149516,-6.04002525506e-05,0.000395022914745,7.64396536397e-05,-0.000385626597563,-3.14841563522e-05,0.00129623920657,-0.000128399726236,0.470199897151,-0.0125766532697,0.164728472211,0.00409213537687,0.933539004068,0.35803801933,0.0172324899774
0.493897736073,0.0163820758462,-0.520228981972,-2.51664280891,0.0252577029169,2.56569337845,-0.779523193836,0.0353234149516,0.00040334861842,-0.000617798417807,0.000757720670663,0.00280179223046,-9.57731390372e-05,0.00268078758381,0.000403539597755,0.470199742722,-0.0125788124132,0.164725778788,0.00409422425191,0.933539720667,0.358036127647,0.0172324765807
0.493895739317,0.0163876973093,-0.520227253437,-2.51663899422,0.0252583343536,2.56571650505,-0.779524207115,0.0353234149516,-0.000408477237215,0.000514688959811,0.000119214739243,-0.00037089860416,0.000254318088992,0.00114812201355,-0.000107558167656,0.470205732507,-0.0125796390159,0.164727151386,0.00409978971084,0.933539504221,0.358036164774,0.0172421049147
0.49389487505,0.0163957588375,-0.520226716995,-2.5166387558,0.0252571478486,2.56572628021,-0.779524445534,0.0353234149516,0.000376880576368,0.000162882119184,0.000394939619582,0.000474643835332,-4.8000139941e-05,0.000144939331221,-9.24734486034e-05,0.47020675273,-0.0125805960759,0.16472488521,0.00410261604435,0.933539322028,0.358036585551,0.017242559562
0.49389436841,0.0164044871926,-0.520229876041,-2.51663994789,0.0252567976713,2.56573390961,-0.779523551464,0.0353234149516,-0.000197523986571,-0.00036013594945,-2.29085362662e-05,0.000221764261369,1.28032525026e-05,0.00267557869665,-0.00030463913572,0.470206485366,-0.0125831098732,0.164721607844,0.0041046150516,0.933540098281,0.358034607362,0.0172411326207
0.493894547224,0.0164146311581,-0.520227611065,-2.51663923264,0.025256453082,2.56574773788,-0.779522657394,0.0353240706027,0.000526570947841,0.000588485272601,5.64213696634e-05,0.00014185278269,-1.13057303679e-05,-4.42594819106e-06,-0.000265859998763,0.470208419753,-0.0125827652611,0.16471867414,0.00410853531828,0.933539467475,0.358036132988,0.0172426727612
0.493898153305,0.0164248198271,-0.520226478577,-2.51664042473,0.0252576675266,2.56576418877,-0.779525160789,0.0353240706027,0.000344574655173,-0.000326871086145,0.000501530070323,0.000124959929963,-9.11214519874e-05,-0.000191733983229,0.000148656748934,0.470209856244,-0.0125816276706,0.164716009673,0.00411159889694,0.933538563238,0.358038353178,0.0172447975341
0.493898034096,0.0164304058999,-0.520227193832,-2.51664209366,0.0252576433122,2.56577110291,-0.779523611069,0.0353240706027,0.000304125453113,0.0013462039642,-0.000702326826286,-0.00311664910987,2.0746845621e-05,0.00241354946047,4.4743235776e-05,0.470209703057,-0.0125825267437,0.164713754077,0.00411302958757,0.933538987873,0.358037247658,0.0172444217943
0.493896096945,0.0164321698248,-0.520227432251,-2.51664185524,0.0252571217716,2.56577539444,-0.779524147511,0.0353240706027,-7.98311957624e-05,0.0012464968022,-0.00285035069101,-0.00011431913299,4.56140105598e-06,0.000159468661877,-0.000885537243448,0.470210453623,-0.0125837630235,0.164713536679,0.00411420823004,0.933539181006,0.35803667578,0.017245558812
0.493896275759,0.0164320338517,-0.520228803158,-2.5166387558,0.025257376954,2.56578087807,-0.779525160789,0.0353240706027,-0.000335262302542,-8.62921151565e-05,-0.000150309861056,7.4003132795e-06,-4.96085449413e-05,0.00126099504996,-0.000138906034408,0.470213139994,-0.0125843928753,0.164715309897,0.00411585776534,0.933539176644,0.358036473824,0.0172495936838
0.493898630142,0.0164351649582,-0.52022767067,-2.51663804054,0.0252586025745,2.56579422951,-0.779524743557,0.0353240706027,0.00029211177025,0.000346353714122,-0.000218496439629,0.000400637625717,-8.03687144071e-05,0.000280834879959,0.000260532659013,0.470215944136,-0.0125830949301,0.164715578677,0.00411851724836,0.933538720458,0.358037390154,0.0172546271292
0.493897199631,0.0164414271712,-0.520226836205,-2.51663827896,0.0252568311989,2.56580305099,-0.779524385929,0.0353240706027,-0.000153165965457,-0.000468045269372,0.000359170080628,-7.08023871994e-05,-7.44775461499e-05,-0.000174207030796,9.84332073131e-05,0.470216789992,-0.0125840456044,0.164713771462,0.00412109116233,0.933538606711,0.35803762698,0.0172552525104
0.493896126747,0.0164490509778,-0.520228803158,-2.51663804054,0.0252593755722,2.56580853462,-0.779525339603,0.0353240706027,-0.000752441759687,0.000266139482846,-0.000142353586853,0.000361419020919,-9.08608490136e-05,-6.75418632454e-05,0.000169018821907,0.470216927113,-0.0125860335391,0.164711284399,0.00412212084541,0.933539362066,0.358035688191,0.0172543693085
0.493896871805,0.0164546389133,-0.520227849483,-2.5166387558,0.0252581499517,2.5658159256,-0.779524445534,0.0353240706027,-0.000166319776326,-0.00032121775439,0.000338633602951,-2.7051764846e-05,5.90908784943e-05,0.00193008594215,-0.000442286924226,0.470217364119,-0.0125858064205,0.16470943248,0.00412410806787,0.933539025346,0.358036535995,0.0172545201663
0.493897408247,0.016459858045,-0.520227313042,-2.51664090157,0.0252570696175,2.56582307816,-0.779524385929,0.0352006182075,0.000165593752172,-0.000999118783511,0.0033573936671,0.000119863667351,-3.76367388526e-05,1.61690004461e-05,-0.000103120415588,0.47021710643,-0.0125858223321,0.1647071615,0.00412572923741,0.933538686549,0.358037421057,0.0172540975431
0.493896156549,0.0164610408247,-0.520225763321,-2.51664090157,0.0252579450607,2.56584501266,-0.779526770115,0.0352006182075,0.000194663909497,-3.43688989233e-05,-0.00054924871074,0.000455009081634,-2.09221652767e-05,0.00384899252094,-0.000161998585099,0.470221662225,-0.0125859685652,0.164708769912,0.0041299894389,0.933538177214,0.358038239762,0.0172636445861
0.493896722794,0.0164611712098,-0.520225584507,-2.51663947105,0.0252575315535,2.56586146355,-0.779528617859,0.0352006182075,0.00019163050456,0.00121765560471,0.000221532623982,-0.000137374328915,3.38202262355e-05,0.000385497231036,0.00034819720895,0.470226331276,-0.0125854664569,0.164710595877,0.00413419711973,0.933537393536,0.358039808901,0.017272469742
0.49389603734,0.0164644308388,-0.520224153996,-2.51664304733,0.0252592992038,2.56592440605,-0.779530823231,0.0352006182075,0.000447843573056,0.000204066425795,0.000496420776471,-0.000281944754533,-1.81721661647e-05,0.00111444247887,0.000522699556313,0.470237254106,-0.012586304641,0.164714148326,0.00414539780052,0.93353682591,0.358039952742,0.0172974643695
0.49389642477,0.0164721906185,-0.520226061344,-2.51664185524,0.0252577569336,2.56606459618,-0.779530465603,0.0352006182075,-0.000265460577793,-0.000461878691567,-0.000322863925248,0.000801192596555,-0.000125360893435,0.0041523091495,-0.000285064917989,0.470266872917,-0.0125892287382,0.164724851342,0.00417468899498,0.933535904614,0.358039076211,0.017358178458
0.493896335363,0.0164716467261,-0.520224630833,-2.51663351059,0.0252602361143,2.56612157822,-0.77953261137,0.0352006182075,-2.00646882149e-05,-0.000593825883698,-4.75995293527e-05,-0.000207381031942,-0.000119465861644,0.00228860136122,-0.000503510644194,0.470283283806,-0.0125891301036,0.164733718184,0.00418705008441,0.93353512211,0.35803949293,0.0173886625643
0.493898421526,0.0164756476879,-0.520226299763,-2.5166425705,0.0252569895238,2.56616306305,-0.779533207417,0.0352006182075,-0.00029731169343,0.00169451662805,-0.00124978704844,-0.000165662844665,4.69489459647e-05,0.000738411443308,-3.23548533743e-06,0.470287255846,-0.0125897627362,0.1647325853,0.00419475038762,0.933534262558,0.35804103835,0.0174011276163
0.493895739317,0.016477484256,-0.520225584507,-2.51664161682,0.025257492438,2.56620025635,-0.779536128044,0.0352006182075,-6.72208188917e-05,-3.18717829941e-05,0.000465951365186,0.00065547588747,-5.65117516089e-05,0.00147122575436,3.57203293788e-06,0.470295434683,-0.0125912180028,0.164735756888,0.00420242521808,0.933533883531,0.35804112931,0.0174177303413
0.493896275759,0.016482245177,-0.52022331953,-2.5166413784,0.0252575576305,2.56631779671,-0.779541492462,0.0352006182075,-0.00291673652828,-0.000464783777716,2.49125805567e-05,-0.000113672911539,8.75572004588e-05,0.00258755497634,-1.09832417365e-05,0.470320205476,-0.0125915353744,0.16474514281,0.00422636156051,0.933531557703,0.358044399702,0.0174692921622
0.493896275759,0.0164810400456,-0.520224869251,-2.51663708687,0.0252590477467,2.56641125679,-0.779542565346,0.0337126106024,0.000194582447875,0.000439611496404,4.89456215291e-05,0.000449208484497,6.62286620354e-05,0.0046355817467,0.000350508838892,0.470343231723,-0.0125931956941,0.164756372444,0.00424625139753,0.933531031601,0.358043257143,0.0175159380972
0.493894100189,0.0164840780199,-0.520223259926,-2.51663374901,0.0252585932612,2.56644773483,-0.779542446136,0.0337126106024,-0.00023111300834,0.000741089519579,-0.000549483229406,-0.000249419128522,-8.00070629339e-05,0.000224541086936,-0.00055443943711,0.470351592602,-0.012594096776,0.16475975654,0.00425378735585,0.933530850356,0.358042878377,0.0175315046288
0.493896484375,0.0164909660816,-0.520222246647,-2.51664018631,0.0252596680075,2.5664896965,-0.779545128345,0.0337126106024,-8.80099760252e-05,0.00179272482637,0.00068232929334,-0.000875650555827,0.000144704492413,0.00133828795515,-0.000103844911791,0.470356801073,-0.0125934353912,0.164758450503,0.00426152486688,0.933529612535,0.358045341957,0.0175452190962
0.493896603584,0.0164964478463,-0.520222306252,-2.5166425705,0.0252592079341,2.56658315659,-0.779547035694,0.0337126106024,-0.000353451789124,0.000216430184082,-3.02704138448e-05,0.000707003870048,-0.000171177278389,0.00669661257416,-0.00268396479078,0.470378790284,-0.0125954654697,0.164766267451,0.00428353950551,0.933528438314,0.358045922065,0.0175904384697
0.493893772364,0.0164964795113,-0.520223379135,-2.5166323185,0.0252574719489,2.56666302681,-0.77954864502,0.0337126106024,0.000419173942646,0.000478530244436,-0.000304308312479,-0.000409820990171,-1.53577020683e-05,0.00234009348787,3.95054739784e-05,0.470396825356,-0.0125976705602,0.164775856102,0.00429842517203,0.933528054305,0.358045072657,0.017624443208
0.49389642477,0.0164978113025,-0.520222246647,-2.51663970947,0.0252592619509,2.56671476364,-0.779550075531,0.0337126106024,0.000346230837749,-0.000350904330844,-0.00138997856993,-0.000487514102133,1.24041180243e-05,0.000904846761841,3.85677885788e-05,0.470404255404,-0.0125963972842,0.164777428734,0.00430699653033,0.933527067867,0.358046565679,0.0176442577462
0.493898928165,0.016499793157,-0.520218908787,-2.51663899422,0.0252585746348,2.56681227684,-0.77955186367,0.0337126106024,-0.000187340789125,0.000106546467578,-8.04018782219e-05,-0.001008115476,1.97028784896e-05,0.00211382424459,-0.00130099966191,0.470425383359,-0.0125948834268,0.164786221361,0.0043269519904,0.93352484632,0.358049950188,0.0176881781071
0.493897020817,0.0165009647608,-0.520220756531,-2.51663684845,0.0252583287656,2.56687831879,-0.779552459717,0.0337126106024,-0.000303195556626,9.52592890826e-05,0.000594995683059,-0.000306311849272,-7.72419025452e-06,0.00686888862401,0.000453568733064,0.470440428304,-0.0125974877011,0.164792900262,0.0043408138076,0.933524844611,0.358048273325,0.0177187889858
0.493897199631,0.0165040586144,-0.520219266415,-2.51664018631,0.0252595823258,2.56695652008,-0.77955365181,0.0337126106024,0.00047241957509,0.00104854104575,-9.02210376807e-05,6.41881342744e-05,3.12374031637e-05,0.00117242801934,0.000242115522269,0.470455226604,-0.0125976960953,0.164797844584,0.00435573695777,0.933523960703,0.358048768767,0.0177516539399
0.493896216154,0.0165050718933,-0.520220279694,-2.51664018631,0.0252597462386,2.56702756882,-0.779558122158,0.0337126106024,-4.87417382828e-05,1.3624409803e-05,-0.00146359624341,0.000386044994229,-4.48819118901e-05,-6.61277372274e-05,-0.000649322930258,0.470470358381,-0.0125994733688,0.164804243759,0.00437009103117,0.933522990967,0.358049532748,0.017783684238
0.493897646666,0.0165104288608,-0.520218551159,-2.51664066315,0.0252603869885,2.56720137596,-0.77956110239,0.0337126106024,-0.000172487052623,-0.00014631045633,0.000196555673028,-0.000206686338061,7.60122784413e-05,0.00655597588047,7.38409016776e-06,0.470506813238,-0.0126002407861,0.164818528297,0.00440505966952,0.933520658612,0.358051364211,0.0178604497768
0.493897080421,0.0165085978806,-0.520218551159,-2.51663637161,0.025258095935,2.56723713875,-0.779561758041,0.0314858518541,0.000275795871858,-0.000213499326492,-0.000240599707467,0.000119582116895,6.8550274591e-05,0.00152923981659,-0.000258276064415,0.470517293756,-0.01260084639,0.164824505558,0.00441394913296,0.933519938882,0.358052136009,0.017880390005
0.493897199631,0.0165127273649,-0.520215928555,-2.51664042473,0.0252587161958,2.56727957726,-0.77956366539,0.0314858518541,-0.000352818955434,0.000112035697384,-7.92427381384e-05,-0.00228670192882,-1.19385504149e-05,2.60343949776e-05,0.000389101129258,0.470523452731,-0.0126003103349,0.164825169092,0.00442136367422,0.933518958495,0.358053869051,0.017895033292
0.493897914886,0.016517193988,-0.520212829113,-2.51663970947,0.0252603851259,2.56740021706,-0.779565095901,0.0314858518541,-0.000107290237793,-0.000744083255995,9.89812178886e-05,-0.000329001515638,6.14518648945e-05,0.000407382962294,-0.000131545268232,0.470549168546,-0.0126000893788,0.164835178389,0.00444553353566,0.933517332628,0.35805512918,0.0179485672666
0.493897616863,0.016524521634,-0.520211458206,-2.5166413784,0.0252593215555,2.5675368309,-0.779569685459,0.0314858518541,0.000208915007534,0.000758932612371,0.0011414057808,-0.00145370548125,-5.44594804524e-05,0.00348275434226,0.000290158670396,0.470576710511,-0.0126016621078,0.164844646051,0.0044734043842,0.933515142212,0.358057580108,0.0180065800737
0.493898242712,0.0165265668184,-0.520211458206,-2.5166387558,0.0252589806914,2.56754970551,-0.779569685459,0.0314858518541,0.00337556726299,5.98358383286e-05,0.000648137880489,3.24713028022e-06,-2.26805532293e-05,0.000113476271508,0.000468515616376,0.470580453989,-0.012601708977,0.164846052402,0.00447670259569,0.933514863526,0.358057960909,0.0180126351741
0.493898570538,0.0165246464312,-0.52020907402,-2.51664066315,0.0252588298172,2.56757283211,-0.779570996761,0.0314858518541,0.000244926981395,0.000104771359474,0.000169948936673,0.00283347000368,5.55585902475e-05,0.00118445639964,-0.000206360506127,0.470584828776,-0.0126005105344,0.164848314554,0.00448086589532,0.933513943558,0.358059771766,0.0180232780587
0.493896216154,0.0165267754346,-0.52020829916,-2.51664090157,0.0252587608993,2.56763982773,-0.779571175575,0.0314858518541,-0.000900003593415,0.0001170831747,1.01402984001e-05,0.000610537186731,-0.00015643707593,0.00110022735316,0.000253207370406,0.47059880576,-0.0126021407475,0.164853779687,0.00449443499429,0.933513665982,0.358058839578,0.0180527716599
0.493895053864,0.0165291316807,-0.520209610462,-2.51664090157,0.0252601392567,2.56766271591,-0.779571950436,0.0280954837799,-0.000497998145875,-0.000879509665538,4.31898968145e-07,0.000291889882647,4.4413984142e-05,0.00297268806025,0.000251446588663,0.470603780007,-0.0126039587786,0.164855249194,0.00449925700472,0.93351410811,0.35805710273,0.0180631535628
0.49389642477,0.0165311675519,-0.52020663023,-2.51664042473,0.025259533897,2.56769418716,-0.779575586319,0.0280954837799,0.000204526179004,-0.000120851662359,0.000167014848557,-0.000161238611327,-8.31245997688e-05,0.00427270540968,-2.32186321227e-05,0.470610115548,-0.0126021558143,0.164857379886,0.00450553167042,0.933512244663,0.358061244964,0.01807577906
0.493899524212,0.0165310837328,-0.520204365253,-2.51664042473,0.0252604410052,2.56771397591,-0.779575645924,0.0280954837799,2.85748556053e-05,-0.000537002226338,0.000550880737137,0.000376186246285,3.60223493772e-05,0.000179289636435,-0.000466720404802,0.470614456068,-0.0125997905259,0.164859304984,0.00450920084845,0.933511248767,0.358063330069,0.0180849904207
0.493898123503,0.0165316145867,-0.520201206207,-2.51663899422,0.0252596829087,2.56773805618,-0.779575407505,0.0280954837799,0.000341076403856,0.000547866220586,0.00334751908667,-0.000171451378264,-0.00011745087977,0.00225378014147,6.7959932494e-05,0.470620270303,-0.0125993035954,0.164861936104,0.00451449333586,0.93351066047,0.358064224247,0.0180963294312
0.493896991014,0.0165323540568,-0.520201921463,-2.51664090157,0.0252596847713,2.5677511692,-0.7795753479,0.0248160902411,-0.000338770274539,0.000193110405235,-5.11317084602e-05,-0.000288983719656,6.06243993388e-05,0.00100575038232,-2.19623871089e-05,0.470622041454,-0.0126003561342,0.164862163659,0.00451683034052,0.933510922194,0.358063272204,0.0181010820566
0.493895798922,0.0165361054242,-0.520201206207,-2.51664185524,0.0252613015473,2.56776332855,-0.779575586319,0.0248160902411,0.000239387838519,0.000104370672489,-0.000273117737379,-0.000235027633607,-5.65839354749e-06,-1.21666480482e-05,-0.000753727625124,0.470623640586,-0.0126009264601,0.164861430506,0.00451891474519,0.93351114227,0.358062498066,0.0181045251391
0.493895769119,0.0165342763066,-0.520198702812,-2.51663947105,0.025260977447,2.5677781105,-0.779577672482,0.0248160902411,-0.000189603582839,-0.000250065786531,-0.000140652759001,0.000378710770747,8.26376799523e-06,-0.000147932267282,-0.00541406031698,0.470628272986,-0.0125998062593,0.164864501709,0.00452228110261,0.933510121828,0.358064674052,0.0181132630843
0.493894279003,0.0165323056281,-0.520202159882,-2.51663970947,0.0252589322627,2.5678024292,-0.779578268528,0.0248160902411,-0.000103793769085,-0.000192149847862,0.000338106532581,-0.00189222209156,-3.38935205946e-06,-1.60846520885e-05,0.00047941939556,0.470633624451,-0.0126023359854,0.164867562497,0.00452759545516,0.933510391698,0.358063307978,0.0181250279173
0.493895590305,0.0165367648005,-0.520199656487,-2.51663851738,0.0252606589347,2.56781315804,-0.779579758644,0.0248160902411,-0.000207922872505,0.000521000300068,-0.000627399829682,-0.000661792175379,-1.24395028251e-05,9.30509122554e-05,3.43662250089e-05,0.4706358987,-0.0126009388916,0.164867219592,0.00452977747825,0.933509629386,0.358065093377,0.0181284734244
0.493897169828,0.0165461096913,-0.520195007324,-2.51664066315,0.025260720402,2.56784081459,-0.7795779109,0.0248160902411,-0.000154093650053,0.000248796510277,0.0012782063568,-0.000441249809228,0.000126984523376,-0.000193868923816,-0.00010005285003,0.470639507361,-0.0125990144077,0.164865216726,0.00453538802666,0.933508719637,0.358067036789,0.0181355305327
0.493898719549,0.0165462661535,-0.520195245743,-2.51664018631,0.0252604372799,2.56785392761,-0.779578328133,0.0248160902411,0.000220783724217,0.000421467091655,-0.000348796282196,0.00372594897635,6.31486764178e-05,0.00283158081584,-0.000552709272597,0.470642554449,-0.0125985680652,0.164866595656,0.00453818841945,0.933508258836,0.358067892784,0.018141647456
0.49389564991,0.0165425818413,-0.520194470882,-2.5166413784,0.025261150673,2.56788921356,-0.779580593109,0.0248160902411,0.000222506001592,0.000506032200065,0.000218043729546,0.000212561179069,4.17550181737e-05,-0.000105483733932,-0.000394343485823,0.470650094315,-0.0125996873431,0.164871028163,0.00454466345809,0.933508072791,0.35806740869,0.0181591461281
0.493897616863,0.0165465604514,-0.520194292068,-2.51664066315,0.025259943679,2.56790137291,-0.779580652714,0.0246860701591,0.000319981161738,0.000201051778276,-0.000226402858971,-0.00102141930256,-0.000108095693577,9.82368655968e-05,-0.000199879854335,0.470652493292,-0.0125991854147,0.164870844197,0.00454778349816,0.933507421581,0.358068874339,0.0181629411957
0.493897587061,0.0165444556624,-0.520192444324,-2.51663827896,0.0252601634711,2.56791424751,-0.779582023621,0.0246860701591,0.00124609237537,0.000250068842433,0.000115852577437,-0.000414666370489,5.15952488058e-05,-0.000183942000149,0.00223468220793,0.470656749307,-0.0125983083983,0.16487384805,0.00455061483716,0.933506739761,0.358070206848,0.0181710037554
0.493897169828,0.0165513679385,-0.520192086697,-2.51663994789,0.0252594221383,2.56793212891,-0.779581665993,0.0246860701591,-0.000118078969535,-4.76446002722e-05,-2.53052094195e-05,-0.000490265374538,-9.9967866845e-05,0.00139342818875,0.000110843604489,0.470658767949,-0.0125990955275,0.164872099811,0.0045545102587,0.933506626338,0.358070254773,0.0181749099584
0.493896573782,0.0165512785316,-0.520189464092,-2.51664471626,0.0252593122423,2.56797671318,-0.779582619667,0.0246860701591,-0.000319858983858,0.00489404052496,0.0025604730472,0.000101663914393,-0.000116917901323,-0.000107624953671,3.82086036552e-05,0.470666101173,-0.0125985655951,0.164874577631,0.00456254201072,0.933505767162,0.358071466104,0.0181931507184
0.493897020817,0.0165539681911,-0.520189762115,-2.51664161682,0.0252599194646,2.5679872036,-0.779582679272,0.0246860701591,3.01713080262e-05,0.000229370838497,0.00223571108654,0.000107258732896,5.59945146961e-05,0.00236857542768,-7.29872554075e-05,0.470669461939,-0.0125988251619,0.164875677399,0.00456525804682,0.933505720507,0.358071300639,0.0181981192266
0.493897944689,0.0165510494262,-0.520189285278,-2.51663637161,0.0252588037401,2.56800246239,-0.77958291769,0.0246860701591,-0.000102379271993,-0.000146846912685,-0.000291973497951,1.06332572614e-06,-4.59361908725e-05,0.000464792654384,0.000119773532788,0.470675726794,-0.0125981955538,0.164880345991,0.00456940987489,0.933505062948,0.358072416259,0.0182088534172
0.493895232677,0.016554210335,-0.520190238953,-2.51664376259,0.0252614114434,2.56801986694,-0.779582619667,0.0220836997032,-8.80656953086e-05,0.00244505284354,-0.000107866384496,-0.00383757334203,-0.000207943885471,0.00236891815439,0.000237202286371,0.470675398637,-0.0126001742723,0.164877894296,0.00457106365561,0.933506117719,0.358069479053,0.0182121227447
0.493896156549,0.0165520347655,-0.52018892765,-2.51663374901,0.0252606477588,2.56804943085,-0.779583334923,0.0220836997032,-8.79572326085e-05,0.000662901380565,-3.98879274144e-05,-0.000243363814661,-0.000152169115609,-8.28161573736e-05,7.77842433308e-05,0.470686946022,-0.0125993919608,0.164885460526,0.00457894621585,0.933505116043,0.358071014917,0.0182312790161
0.493899226189,0.0165570750833,-0.520184934139,-2.51664376259,0.025261497125,2.56805849075,-0.779583871365,0.0220836997032,-6.74769762554e-05,6.91021341481e-05,-3.19974860759e-05,-0.000207667297218,4.47073216492e-05,0.000445578654762,-0.00032064714469,0.470683401541,-0.0125964233635,0.164880413431,0.00457886233457,0.933503949748,0.358074202758,0.0182284072123
0.493898391724,0.0165611710399,-0.520183205605,-2.51664352417,0.0252596363425,2.56806445122,-0.779583334923,0.0220836997032,-7.89554032963e-05,0.000542114372365,-0.000578786479309,0.000540436420124,2.90603420581e-05,8.39411077322e-05,-0.000113575406431,0.470684198817,-0.0125964744504,0.164879397197,0.00458081456395,0.93350358858,0.358075088654,0.0182290103258
0.493897229433,0.0165591910481,-0.520184516907,-2.51663088799,0.0252611208707,2.56809329987,-0.779587507248,0.0220836997032,-0.000128708852571,-4.957924466e-05,-3.85944695154e-05,0.000795363506768,-8.21831636131e-05,-0.000263244961388,-3.79630109819e-05,0.470696778206,-0.0125978466283,0.164887832572,0.00458858745712,0.933503121765,0.358075178397,0.0182491868741
0.493889868259,0.016551559791,-0.520186603069,-2.51661467552,0.02526377514,2.56826519966,-0.77958714962,0.0220836997032,0.000223041468416,-0.00156390876509,0.000199470901862,-0.000618178921286,-4.47376332886e-05,0.00144351937342,-0.000478575326269,0.470742635879,-0.0126035673779,0.16491369869,0.00462513688159,0.933503646356,0.35806872975,0.0183394331881
0.493896484375,0.0165526755154,-0.520185410976,-2.51662063599,0.0252637416124,2.56829571724,-0.77958714962,0.0220836997032,0.000747029320337,0.000630069349427,8.37687694002e-05,-0.000213098130189,-2.6807658287e-05,0.000760589377023,-0.00567242596298,0.470746260293,-0.0126002495595,0.164913883212,0.00463012339886,0.933502066471,0.358072237057,0.0183501113237
0.493897378445,0.016559695825,-0.520181715488,-2.51662969589,0.0252639297396,2.56831431389,-0.779588401318,0.0220836997032,-6.46056651021e-05,0.000564532238059,0.000218943867367,-0.00024705711985,0.000117210605822,0.000620278413408,-0.000295235164231,0.470744889344,-0.0125987321959,0.164909013872,0.00463261156219,0.933501070023,0.358074758689,0.0183509686563
0.493893712759,0.0165603980422,-0.520183324814,-2.51661920547,0.0252642519772,2.568338871,-0.779587328434,0.0220836997032,-0.000105723040178,-0.000500123889651,-0.000191199826077,0.000471404142445,6.13527445239e-05,-0.000176574321813,0.0057650860399,0.470755088494,-0.0126016356513,0.164915417312,0.00463941310041,0.933501919475,0.358071646881,0.0183667517075
0.493889600039,0.0165617913008,-0.520185530186,-2.51662445068,0.0252636689693,2.56837153435,-0.77958792448,0.0220836997032,0.000508865516167,-0.000261950131971,0.000236415158724,-0.00358158349991,-4.48608734587e-05,-0.000232440434047,0.000701056502294,0.470759304249,-0.0126050524039,0.164915982645,0.00464528853472,0.933502656712,0.358069045201,0.0183785135136
0.493892103434,0.0165585856885,-0.520185709,-2.51662683487,0.0252633318305,2.56838035583,-0.779588282108,0.0220836997032,0.000577199039981,0.000239856555709,5.14391140314e-05,0.000300285289995,-3.00126157526e-06,0.00198442977853,0.000230892546824,0.470760555647,-0.0126037900271,0.164917225542,0.00464646983616,0.933502057735,0.358070360732,0.0183830077366
0.49389514327,0.0165607687086,-0.52018404007,-2.51662373543,0.0252639949322,2.56839203835,-0.779587507248,0.0220836997032,-0.000195439759409,0.000307058624458,0.000488068908453,-0.00114106177352,7.32564512873e-05,0.000138524614158,0.000282744178548,0.470764302568,-0.0126018682015,0.164918640273,0.00464931299054,0.933501338218,0.358071902735,0.0183887898309
0.493894070387,0.0165603905916,-0.520183563232,-2.51662707329,0.0252638477832,2.56839823723,-0.779588520527,0.0220836997032,-0.000429128383985,0.000223029041081,0.00191954709589,-0.000383204402169,0.00197985093109,3.47720160789e-05,0.000288567913231,0.470764073187,-0.0126021588012,0.164918107388,0.00464994417201,0.933501224319,0.358072116333,0.0183902529507
0.493894696236,0.0165611784905,-0.520184457302,-2.51662659645,0.0252631921321,2.56840968132,-0.779591143131,0.0220836997032,-0.00033276155591,-0.000218182176468,-4.99424004374e-06,0.000255055434536,1.42562139445e-05,3.58652432624e-05,-0.000323474960169,0.470766780704,-0.0126023694434,0.164919204985,0.0046525956476,0.933500585222,0.358073482845,0.0183954155417
0.493893146515,0.0165615249425,-0.520184755325,-2.5166258812,0.0252636838704,2.56841540337,-0.779588460922,0.0195483099669,0.000258994667092,7.50781473471e-05,0.00112813443411,-3.70525667677e-05,-0.000203182993573,9.40898189583e-06,0.000237906977418,0.47076815105,-0.0126034507249,0.16491975639,0.00465376162694,0.933501444234,0.358071091426,0.0183980783211
0.493895560503,0.0165647827089,-0.520183086395,-2.51662921906,0.0252638310194,2.56842374802,-0.779589474201,0.0195483099669,-0.000417168077547,0.000443247467047,-0.000222769172979,-0.000339527527103,6.4922394813e-05,1.23369327412e-05,0.000455712492112,0.470767929906,-0.0126020125821,0.164917905758,0.00465495969909,0.933500622913,0.358073179249,0.0183988140391
0.493890076876,0.0165514778346,-0.520185768604,-2.5166053772,0.0252639912069,2.56845092773,-0.779591858387,0.0195483099669,-9.69596749201e-06,0.000196634558961,0.000270509248367,-0.000101615041785,0.000252663128776,0.000439860596089,-0.00277576805092,0.470787134912,-0.0126051365572,0.164935151933,0.00466417284032,0.933501030953,0.358070452944,0.0184288121064
0.493897289038,0.0165502503514,-0.520183980465,-2.51660323143,0.0252635516226,2.56847023964,-0.779591143131,0.0195483099669,0.000281485059531,-0.000243336660787,0.000808405224234,-0.00103200552985,-5.03109113197e-05,0.00355113181286,0.000438135903096,0.470792620052,-0.0126010442177,0.164938327002,0.00466839081173,0.933499292954,0.358074392887,0.0184392251809
0.493901997805,0.0165511704981,-0.520175337791,-2.51661634445,0.0252632554621,2.56847667694,-0.77959048748,0.0195483099669,-0.000495681772009,0.000501117669046,-7.61903211242e-05,-0.000651185051538,-8.10788042145e-05,0.000391204928746,-0.000513751932885,0.470787695433,-0.0125947687973,0.164933502138,0.00466711133984,0.933497071908,0.358080383865,0.0184356499029
0.493900716305,0.0165568031371,-0.520175814629,-2.51661801338,0.025263460353,2.56848168373,-0.779592573643,0.0195483099669,0.00024240440689,-0.000292941025691,-0.000234711071244,0.00064410577761,0.00011641591118,6.87051215209e-05,0.00122333143372,0.47078711298,-0.0125960751123,0.164931043498,0.00466814292695,0.933497059822,0.358080466657,0.0184343925398
0.493897587061,0.0165559556335,-0.520176053047,-2.51661682129,0.0252634622157,2.56849479675,-0.779591679573,0.0195483099669,0.000276093924185,-5.74304322072e-05,1.56406931637e-05,-0.00201986916363,-3.59672194463e-05,0.00117048528045,0.000146184276673,0.47079059475,-0.0125977452917,0.164933109179,0.0046709740496,0.933497696831,0.358078410249,0.0184413614137
0.493898749352,0.0165545381606,-0.520176589489,-2.51661705971,0.0252638235688,2.56850075722,-0.779592037201,0.0195483099669,0.000135450580274,-0.000159080140293,0.00012910499936,-0.00071495649172,-5.01538197568e-05,7.70968181314e-05,0.00509117683396,0.470791981919,-0.0125973843895,0.16493417207,0.00467194450033,0.933497517841,0.358078691009,0.0184447241648
0.493895322084,0.0165540445596,-0.52017802,-2.51661491394,0.0252646822482,2.56850552559,-0.779593884945,0.0195483099669,-0.000133245528559,-0.00380213116296,3.60894737241e-05,-0.0034587206319,0.00396487815306,4.98475264976e-06,5.53628706257e-05,0.470794059868,-0.0125996685105,0.164935661828,0.0046731344219,0.933498117849,0.358076930981,0.0184482240818
0.493896245956,0.016553811729,-0.520178675652,-2.51661252975,0.0252637378871,2.56851482391,-0.779592752457,0.018676912412,-7.24103447283e-05,1.99575370061e-05,0.000103973288788,0.000146992562804,-0.000801799993496,0.000101990575786,-0.00566540192813,0.470797249279,-0.0125996897648,0.164937568678,0.00467567650112,0.933498029342,0.358076851677,0.0184535969775
0.493902057409,0.0165318697691,-0.520172178745,-2.51658987999,0.0252633821219,2.56858205795,-0.779594659805,0.018676912412,0.000861318316311,-0.000373200920876,0.000414256734075,0.00145757326391,0.000139163414133,0.00408822111785,1.584869824e-05,0.470826049295,-0.0125930825203,0.164961670422,0.00469205090072,0.933494481831,0.358083196894,0.0185056974369
0.49390438199,0.0165315903723,-0.520173668861,-2.51659321785,0.0252635385841,2.5686750412,-0.779593884945,0.018676912412,-0.000474792992463,1.03090576431e-06,-0.000291748874588,-0.000405423139455,-2.10167636396e-05,0.00939504895359,0.000257389678154,0.470844507818,-0.0125936279434,0.164969453058,0.00471002204186,0.933493761935,0.358082706683,0.0185468859904
0.493901908398,0.0165357384831,-0.520173728466,-2.51659202576,0.0252634752542,2.56875014305,-0.779593527317,0.018676912412,6.23482410447e-05,-0.000442313292297,-0.000181419803994,0.000337794830557,8.24658272904e-05,0.00316675868817,0.000509752484504,0.470860603532,-0.0125959696606,0.164975441602,0.00472563001555,0.933493666219,0.358081046847,0.0185797504028
0.493900299072,0.0165401399136,-0.520171701908,-2.51659202576,0.025264473632,2.56876516342,-0.779595851898,0.018676912412,-0.000363493978512,-0.000926444015931,-0.000105363316834,0.000122563607874,1.3477207176e-05,0.000253638630966,0.000462839816464,0.470863190167,-0.0125962351882,0.164975080771,0.00472867149516,0.933493230046,0.358081894775,0.0185845485105
0.493901908398,0.0165344253182,-0.520173728466,-2.5165951252,0.0252636205405,2.56878209114,-0.779594957829,0.018676912412,8.77814454725e-05,-0.000847345858347,-0.000240636887611,0.000314617238473,3.41989361914e-05,0.000353021023329,-0.000235887870076,0.470866178719,-0.0125961712452,0.16497786214,0.00473134488236,0.933493191592,0.358081489358,0.018593608891
0.493900895119,0.0165337882936,-0.520172715187,-2.51658964157,0.0252634845674,2.56879663467,-0.77959394455,0.018676912412,-8.8779568614e-05,-1.51001240738e-05,-0.000164305936778,7.43483178667e-05,2.47331154242e-05,-2.11034639506e-05,1.78459231392e-05,0.470872048817,-0.0125963320014,0.164981623663,0.0047352896355,0.933493168778,0.35808100362,0.018603102119
0.493903279305,0.0165415778756,-0.520170271397,-2.51659274101,0.0252632964402,2.56881690025,-0.779595971107,0.018676912412,-0.000387886277167,0.00139312504325,-0.000105619335955,0.000414867623476,8.60481959535e-05,0.00280395429581,-0.000431376276538,0.470873819525,-0.0125948692443,0.164979191063,0.00473926392021,0.933491834854,0.358084222356,0.0186070691643
0.493901610374,0.0165379010141,-0.520172595978,-2.51659464836,0.0252636298537,2.56883430481,-0.779596567154,0.018676912412,0.000416810973547,-0.00257822358981,0.000327312940499,-0.000866119458806,6.14738164586e-05,0.00260695302859,-0.000359304918675,0.470877142444,-0.0125966157073,0.164981645102,0.00474213644334,0.933492342609,0.35808239606,0.018616007863
0.49390116334,0.0165389589965,-0.520172476768,-2.51659727097,0.0252637676895,2.5688393116,-0.779595792294,0.018676912412,-0.000277150771581,0.000508635246661,-0.000253819453064,-0.000195100466954,7.16433642083e-05,-0.000136915987241,5.3167448641e-05,0.470876793629,-0.0125968766036,0.164980687088,0.00474266737432,0.933492554844,0.358081805989,0.0186165802792
0.493902236223,0.0165407173336,-0.520170807838,-2.51659274101,0.0252632945776,2.56884646416,-0.779596626759,0.0173366572708,-0.00370778795332,0.00100590835791,-0.000487487443024,0.000265905837296,1.90235205082e-05,8.3436989371e-06,0.00260352692567,0.47088029105,-0.0125958623702,0.164982389845,0.004745170825,0.933491748869,0.358083642793,0.0186210256733
0.493902117014,0.016540767625,-0.520168185234,-2.51659345627,0.0252635553479,2.56885528564,-0.779597938061,0.0173366572708,0.000145053199958,-0.000704578240402,-0.000384056213079,0.000340273109032,9.38362209126e-05,-0.000258096464677,-0.000236096064327,0.470882135881,-0.0125946363597,0.164983329336,0.00474675348551,0.933490975472,0.358085415641,0.0186253009418
0.493903875351,0.016542384401,-0.52016711235,-2.51659965515,0.0252635199577,2.56886482239,-0.779598414898,0.0173366572708,8.49360658322e-05,-0.000110352695629,-0.0003814935626,-0.000109714637802,-4.11898836319e-05,-0.000140779578942,-0.00309785222635,0.47088072109,-0.0125935952211,0.164980806045,0.00474752043733,0.933490441954,0.358086789082,0.0186254395932
0.493901491165,0.0165543463081,-0.520167350769,-2.51661777496,0.0252632815391,2.56886482239,-0.779596745968,0.0173366572708,0.000311289652018,-0.000759606307838,5.28394957655e-05,0.000162245894899,3.62112259609e-05,-0.000402256933739,-5.01280628669e-05,0.470870171359,-0.0125956221672,0.164968960867,0.00474489012731,0.933491456059,0.358084925313,0.01861111044
0.493904769421,0.0165588352829,-0.520165681839,-2.5166144371,0.0252634435892,2.56886506081,-0.779596924782,0.0173366572708,8.51755976328e-05,-0.000262361048954,-0.000320616381941,0.000221051217522,-6.44979372737e-05,8.64446519699e-06,-0.000115164992167,0.470871230253,-0.0125936732789,0.164968424792,0.00474576201483,0.933490556044,0.358087288449,0.0186105630282
0.493907809258,0.0165684260428,-0.520161211491,-2.51661300659,0.0252634156495,2.56886601448,-0.779597640038,0.0173366572708,0.000326550216414,0.000593863776885,0.00086214451585,-0.000222251735977,-1.53551864059e-05,0.000112766756502,7.80673144618e-05,0.470870795715,-0.0125909153057,0.164965129477,0.00474674431482,0.933489124161,0.358091197824,0.0186069131946
0.493906587362,0.0165704153478,-0.520161151886,-2.51661968231,0.025263370946,2.56886672974,-0.779596507549,0.0173366572708,-3.10377727146e-05,-0.000552775221877,-0.000405327707995,0.00317234662361,3.4784527088e-05,9.97309907689e-05,5.81517997489e-05,0.470867417958,-0.0125915672562,0.164961821777,0.00474574981588,0.933489608895,0.358090142083,0.0186031656721
0.493902176619,0.0165670160204,-0.520161449909,-2.51662039757,0.0252638459206,2.56886529922,-0.779597640038,0.0173366572708,5.32052981725e-05,0.000491156242788,0.000147145110532,-0.000376840383979,-1.08135354822e-05,4.33446584793e-05,-0.000224212999456,0.470866828916,-0.0125932785919,0.164962411624,0.0047449408571,0.933490231455,0.358088516163,0.0186034295753
0.493900299072,0.016567632556,-0.520164966583,-2.51662659645,0.0252636242658,2.56886672974,-0.779597938061,0.0173366572708,0.000258817744907,0.000116859322588,0.000290049298201,-0.000173548716702,5.89135561313e-05,6.4829022449e-05,0.000222676666453,0.47086437034,-0.0125960349168,0.164960318831,0.0047443250699,0.933491253846,0.35808596676,0.0186013565974
0.493902176619,0.0165708418936,-0.520161271095,-2.51662135124,0.0252633299679,2.56886768341,-0.779596626759,0.0173366572708,-0.000150747000589,0.000366673339158,-1.79451562872e-05,0.000548983574845,5.35418348591e-06,8.33105004858e-05,0.000169541628566,0.4708666975,-0.0125937307329,0.164961098856,0.00474570416833,0.933490405736,0.358088094584,0.0186026044553
0.493907988071,0.0165756326169,-0.520158290863,-2.51661968231,0.0252632815391,2.56886959076,-0.779597461224,0.0180195905268,0.00252049975097,7.37836398912e-06,-0.00043413930689,0.000301411520923,5.01406793774e-05,5.17585322086e-05,0.000284106616164,0.470867371275,-0.0125903196174,0.164960034745,0.0047465954382,0.933488869117,0.35809212456,0.0186019106621
0.493905991316,0.0165724921972,-0.520157814026,-2.51661729813,0.025263754651,2.56886935234,-0.779599666595,0.0180195905268,0.000491838844027,-8.93179603736e-05,4.86192875542e-05,-0.000161937379744,9.1407513537e-05,-7.50299805077e-05,0.000279024912743,0.470868857016,-0.0125904672399,0.164962128147,0.00474674246145,0.933488576657,0.358092751745,0.0186044758069
0.493903577328,0.0165742654353,-0.520160317421,-2.51661920547,0.0252634380013,2.56886792183,-0.779600262642,0.0180195905268,-6.33845120319e-05,0.000900352548342,-0.000280851236312,-0.000853201840073,5.26143958268e-06,0.000146140358993,0.000290963100269,0.470867306732,-0.0125929106602,0.164960543134,0.00474635639798,0.933489348272,0.358090873219,0.0186020151179
0.493905395269,0.0165725555271,-0.520157814026,-2.51662826538,0.0252633597702,2.56886839867,-0.779598772526,0.0180195905268,-7.67428500694e-05,0.000153947155923,0.000180947186891,2.28821863857e-05,-7.49662794988e-05,-7.44312346797e-05,-0.000197596149519,0.470863339767,-0.0125906563719,0.164957799118,0.00474455717055,0.933488912242,0.358092195586,0.0185988989889
0.493907481432,0.0165741611272,-0.520158708096,-2.51662063599,0.025263691321,2.56886982918,-0.779599666595,0.0180195905268,-0.000127830600832,0.00106139259879,0.000154725537868,0.000188989550225,-5.04683157487e-06,4.76716413687e-05,2.0609528292e-05,0.470867109981,-0.012590297946,0.164960213825,0.00474632443877,0.933488504462,0.358093057473,0.0186023201692
0.493898123503,0.0165737103671,-0.520161449909,-2.51661705971,0.0252640582621,2.5688700676,-0.779597222805,0.0180195905268,-0.0003556785814,0.00102588126902,-0.00344834872521,0.000566956179682,5.35326544195e-05,0.000135840542498,0.000547576113604,0.470868806402,-0.0125959860468,0.164961804955,0.00474704559134,0.933491118385,0.358086129609,0.0186043253381
0.493907064199,0.0165650211275,-0.520154297352,-2.51662492752,0.0252641309053,2.56886672974,-0.77959883213,0.0180195905268,-0.000352538976585,-0.0019675786607,0.00161611859221,0.000689414679073,-1.71886294993e-05,0.000323880696669,0.000233187383856,0.47086576886,-0.0125875853933,0.164961985494,0.00474410677928,0.933488012015,0.358094308958,0.0186035064568
0.493893504143,0.0165509730577,-0.520161747932,-2.51660227776,0.0252648107708,2.56886792183,-0.779602110386,0.0180195905268,-0.000775597291067,0.000150490101078,-0.000744149030652,0.00116038369015,-5.42005291209e-05,-5.2385537856e-05,-6.78376745782e-05,0.470878784187,-0.0125965747598,0.164976567175,0.00474789459385,0.933490931767,0.358085711851,0.0186215052835
0.493883997202,0.0165496245027,-0.520170271397,-2.51657247543,0.0252651199698,2.56885552406,-0.779599905014,0.0180195905268,0.000437437323853,0.00141997530591,8.20476634544e-05,0.000738410337362,-5.73125225856e-06,-0.00036985296174,0.000100101940916,0.470890485895,-0.012605114414,0.164987402629,0.00475115382349,0.933494369459,0.358076250923,0.0186302693488
0.493909955025,0.0163063127548,-0.520060181618,-2.51619005203,0.0252636931837,2.56845736504,-0.779601156712,0.0181594602764,-0.00174421595875,-0.0111234551296,0.00584807945415,0.0179685223848,-6.03543667239e-05,-0.0288016851991,0.000474800064694,0.47102688679,-0.0125208462726,0.165194992236,0.00472703523567,0.933467014904,0.35814187129,0.0187453177577
0.493920177221,0.016063278541,-0.520027399063,-2.515853405,0.025262856856,2.56783723831,-0.779601871967,0.0181594602764,0.00148168194573,-0.0187542568892,0.00126528495457,0.0227306429297,-0.000152198015712,-0.046841531992,0.000637606077362,0.47109221698,-0.0124777887764,0.165363893273,0.00465097705486,0.933458827226,0.358164621769,0.0187373873617
0.493939161301,0.0155774559826,-0.519944667816,-2.51528000832,0.0252622589469,2.56666350365,-0.779600739479,0.0181594602764,-0.00167533941567,-0.0389400012791,0.00944552291185,0.0376334264874,2.71019325737e-05,-0.0897677615285,-0.000570979434997,0.471194356944,-0.0123781185687,0.165691697157,0.00448011693516,0.933439797247,0.358218173176,0.0187033034585
0.493935227394,0.0145767144859,-0.519862413406,-2.51441335678,0.0252617802471,2.56437849998,-0.779600918293,0.0181594602764,0.000939275545534,-0.0615866966546,0.00296059600078,0.0610403120518,-2.1734933398e-05,-0.152208656073,1.52242841978e-06,0.47126268709,-0.0122515570329,0.166192513388,0.00413473443732,0.933428766049,0.358258716454,0.0185562510464
0.494066953659,0.00745665468276,-0.51948595047,-2.50698423386,0.0252531990409,2.54289054871,-0.779601037502,0.0181594602764,0.00752176297829,-0.164186045527,0.00630560610443,0.176576197147,-2.42096975853e-05,-0.498523801565,-0.000275269267149,0.471234171606,-0.0112977497384,0.169926083036,0.000786669858841,0.933365240148,0.358584552207,0.0156789106143
0.494118392467,0.00456630438566,-0.51935750246,-2.50387597084,0.0252516642213,2.53427696228,-0.77960062027,0.0181686524302,0.00161782070063,-0.193922355771,0.0110234906897,0.208487257361,0.000299300299957,-0.577910244465,-8.14046361484e-05,0.471271811,-0.0109296734786,0.171503316145,-0.000531510922497,0.933335232044,0.358708523717,0.0146033153371
0.494275271893,-0.00244176085107,-0.519128918648,-2.49653887749,0.0252492632717,2.51438689232,-0.779599606991,0.0181686524302,0.00780934561044,-0.265386343002,0.00799168460071,0.276058346033,-0.000995842623524,-0.708793878555,-0.000490468519274,0.471439140882,-0.0100812954059,0.175378136098,-0.00356292133322,0.933252008146,0.358992026772,0.0123579643545
0.494416892529,-0.00682893255726,-0.519017934799,-2.49166345596,0.0252482984215,2.50257277489,-0.77960062027,0.0181686524302,0.00685126939788,-0.285252392292,0.00358291971497,0.327010303736,-0.000201402246603,-0.77430164814,-0.000770723447204,0.471784371192,-0.00956414141539,0.177996529598,-0.00527715544697,0.933183679823,0.35918101724,0.0113740003163
0.494551926851,-0.0125958481804,-0.518884003162,-2.48504424095,0.0252480395138,2.48700499535,-0.7795997262,0.0181686524302,0.0063316738233,-0.326693683863,0.0040506022051,0.3653383255,-0.000143486176967,-0.86583095789,-0.00583023997024,0.472289740766,-0.00892740032819,0.181544949388,-0.00749567689875,0.933094697769,0.35940906708,0.0101598232556
0.494667768478,-0.0180833097547,-0.518745779991,-2.4787197113,0.0252421777695,2.47268247604,-0.779596805573,0.0181686524302,0.00708062294871,-0.351934581995,0.0112999593839,0.421793490648,0.00024905015016,-0.927414119244,-0.000479892478324,0.472848015801,-0.00834104454764,0.185005061742,-0.00949938653731,0.932999512015,0.359633556403,0.00923996911292
0.494841456413,-0.025934625417,-0.518490314484,-2.46941876411,0.0252422038466,2.45239710808,-0.7795971632,0.0181686524302,0.00724081462249,-0.403215408325,0.0112885534763,0.467219263315,0.00095179741038,-0.998257040977,2.60207252722e-05,0.473737594968,-0.00749853653009,0.190122218188,-0.0122744552741,0.932836067668,0.360000052113,0.00813454179413
0.495034366846,-0.0370192341506,-0.518164515495,-2.45527005196,0.0252333432436,2.42503881454,-0.779595673084,0.0181686524302,0.00946503132582,-0.425626784563,0.0135837867856,0.556528627872,-0.000281510379864,-1.04079151154,0.00021468277555,0.475586762974,-0.00642997949714,0.197963604928,-0.0157304686819,0.932594812792,0.360501432109,0.00762788570833
0.495181024075,-0.0450405664742,-0.517922699451,-2.44499802589,0.0252318494022,2.40591740608,-0.779594838619,0.0181686524302,0.0117348460481,-0.455584198236,0.0113444877788,0.586789429188,-9.98019913823e-06,-1.08203232288,-0.0004355609708,0.476970669907,-0.00569598530963,0.203781587087,-0.0180849721036,0.932404356834,0.360884343849,0.00758545912911
0.495334774256,-0.0544521920383,-0.517606317997,-2.43216514587,0.0252241324633,2.38421535492,-0.779592514038,0.0181706231087,0.00305344513617,-0.469413042068,0.0134281264618,0.673553943634,-0.0011923997663,-1.10606610775,-0.00011146718316,0.478972345779,-0.00489481446139,0.211065630576,-0.0205428182016,0.932165882582,0.361354431985,0.00823007528801
0.495452255011,-0.0626574531198,-0.517276585102,-2.42064213753,0.0252164714038,2.36512112617,-0.779590904713,0.0181706231087,0.00841342099011,-0.48706305027,0.0227147713304,0.679769396782,0.000151387372171,-1.13686752319,0.000253496808,0.480703818465,-0.00422303387136,0.217607125727,-0.0226481518568,0.931938492861,0.361799824287,0.00886530163879
0.495584517717,-0.0855895131826,-0.515941262245,-2.38644099236,0.0251974575222,2.31378412247,-0.779577255249,0.0181706231087,1.54821318574e-05,-0.533908367157,0.0374285690486,0.803927063942,0.000195438333321,-1.15323901176,0.00047914579045,0.4861876643,-0.00252497577131,0.237249195381,-0.0276992211554,0.931222759918,0.363181833085,0.0124852056576
0.495624274015,-0.105355456471,-0.514425516129,-2.35421419144,0.0251632053405,2.27011108398,-0.779557287693,0.0181706231087,-0.00337916612625,-0.53032374382,0.0451426692307,0.888756155968,0.00112883478869,-1.14780211449,-0.000165326579008,0.491315238061,-0.00127473957925,0.25582594261,-0.0313461877118,0.930496973489,0.364553810915,0.0171265138026
0.495625793934,-0.130116224289,-0.511849939823,-2.31141829491,0.0247275810689,2.21590471268,-0.779486775398,0.0181758757681,-0.00056906521786,-0.514510095119,0.0606469921768,0.917480111122,-0.0107806455344,-1.11698663235,0.00355148036033,0.497516839952,7.84224182415e-05,0.280767772998,-0.0351026414709,0.929366288189,0.366687351016,0.0242176222547
0.495611965656,-0.138263940811,-0.510800480843,-2.29679131508,0.0244954768568,2.19842004776,-0.779299855232,0.0181758757681,-0.000685028615408,-0.503051280975,0.0706601142883,0.920233845711,-0.0141998901963,-1.08328795433,0.016013789922,0.499499939015,0.00047944709869,0.28938596003,-0.0361012929054,0.928964150919,0.3674185138,0.0269432432742
0.495581746101,-0.147656530142,-0.509371101856,-2.27983140945,0.0240654908121,2.17796969414,-0.779098391533,0.0181758757681,-0.00117065163795,-0.494412362576,0.0766623169184,0.894357919693,-0.0320029743016,-1.05618226528,0.00782602559775,0.501537144501,0.000956689518327,0.299419862728,-0.0372002047687,0.928434405612,0.368412398629,0.0299667058983
0.495516866446,-0.183514848351,-0.502155900002,-2.21138739586,0.0194259155542,2.09892988205,-0.777351617813,0.0181758757681,-0.00113641377538,-0.380668252707,0.0951946377754,0.76371717453,-0.101050555706,-0.896925866604,0.0448626764119,0.508054569035,0.00244156586866,0.340060830412,-0.0393787989516,0.925945394298,0.373216325701,0.0422375530248
0.49549934268,-0.191408529878,-0.500171363354,-2.19560909271,0.0173268709332,2.08075976372,-0.776307523251,0.0181758757681,0.00241079763509,-0.350975334644,0.0877267643809,0.734910130501,-0.108489625156,-0.836391210556,0.0539247877896,0.509023005858,0.00262602966459,0.349398723088,-0.0393549566928,0.925368731235,0.374358679052,0.0447155201094
0.495573014021,-0.20660354197,-0.496041059494,-2.16435337067,0.00927341263741,2.04384756088,-0.772943437099,0.0181798171252,0.00089223618852,-0.283139050007,0.0789689794183,0.581240057945,-0.207446277142,-0.696124196053,0.0900236517191,0.51014605093,0.00240090682076,0.366994493411,-0.0378471465733,0.92426079941,0.376807172614,0.0482278189475
0.49554720521,-0.211876228452,-0.494661480188,-2.15372371674,0.00435725972056,2.03036117554,-0.771152377129,0.0181798171252,-0.00256115361117,-0.25254625082,0.0649407058954,0.503214299679,-0.27202963829,-0.637643933296,0.0921844318509,0.510177687283,0.00183658947222,0.373810160509,-0.0364194990423,0.923869173879,0.377834080235,0.0487932079435
0.495574325323,-0.217997089028,-0.493049681187,-2.14054441452,-0.00468215718865,2.01343822479,-0.768244624138,0.0181798171252,-0.00295488908887,-0.190618962049,0.0415684580803,0.389174461365,-0.36055958271,-0.536612808704,0.101635739207,0.510053900675,0.000634279491978,0.381190195922,-0.0335126077301,0.923450130754,0.379150699467,0.0485953486397
0.495562255383,-0.220261439681,-0.492614507675,-2.13584828377,-0.0096569666639,2.00676131248,-0.766953408718,0.0181798171252,0.000691214634571,-0.160263359547,0.0289755687118,0.336545556784,-0.404259681702,-0.493017226458,0.100239694118,0.509843638656,-0.000176649755882,0.383760727745,-0.0318446664238,0.923296521752,0.379746453032,0.0479800086881
0.495580673218,-0.223651409149,-0.4921400249,-2.12927389145,-0.0198424085975,1.99637675285,-0.764870047569,0.0181798171252,-0.00166667206213,-0.13239350915,0.0132309095934,0.247020870447,-0.467099934816,-0.405633270741,0.073679856956,0.509304016808,-0.00191350105179,0.387303177772,-0.02831115515,0.922992290917,0.380981880903,0.0462224567629
0.495489656925,-0.225532159209,-0.492127925158,-2.12561988831,-0.0280966870487,1.9899879694,-0.763697087765,0.0181798171252,-0.0126850046217,-0.0865610092878,-0.00388474273495,0.177713215351,-0.506207406521,-0.352288842201,0.0734862238169,0.508871538263,-0.00350033422662,0.389164127616,-0.025335382359,0.922762877985,0.381946322489,0.044539823005
0.493559807539,-0.227594748139,-0.492706775665,-2.12101244926,-0.0555624067783,1.97571742535,-0.760347127914,0.0181863829494,-0.0544216670096,0.00363928894512,-0.0270960275084,0.021541569382,-0.650808751583,-0.251564949751,0.0782008692622,0.507073696892,-0.00957067982212,0.390546462582,-0.0152776834569,0.922375481552,0.38425181636,0.0366142694422
0.492410570383,-0.227387160063,-0.493407815695,-2.12100672722,-0.0668378099799,1.971580863,-0.759187221527,0.0181863829494,-0.074415795505,0.0269140936434,-0.0511403903365,-0.0121973846108,-0.675002813339,-0.246302887797,0.0645754933357,0.506193338507,-0.0125639576575,0.389861597336,-0.0109054971337,0.922307477269,0.384931957715,0.0325173048952
0.49099946022,-0.226489245892,-0.494518816471,-2.12133955956,-0.079314596951,1.96716856956,-0.758502662182,0.0181863829494,-0.0837838053703,0.0733406767249,-0.0763962417841,-0.0239370055497,-0.707133412361,-0.240769967437,0.0220900699496,0.505296364525,-0.0157261880326,0.388777276104,-0.00660676006887,0.922196792884,0.385643887166,0.0280752184153
0.489232420921,-0.224644839764,-0.49652671814,-2.12203240395,-0.0939331352711,1.96254122257,-0.758172690868,0.0181863829494,-0.0952370762825,0.112428240478,-0.118212014437,-0.0445794016123,-0.758923351765,-0.217365145683,0.0183425229043,0.504236107893,-0.0200285719658,0.387008996421,-0.00127191830633,0.92208673049,0.386339073094,0.0222837151417
0.486159443855,-0.22094579041,-0.500491261482,-2.1235730648,-0.115285076201,1.95739722252,-0.757850944996,0.0181863829494,-0.126782640815,0.150011077523,-0.163168251514,-0.0567743517458,-0.765562653542,-0.15153734386,0.00760689470917,0.502868571754,-0.0270407901817,0.383916940137,0.00662514764734,0.92208029137,0.38669639405,0.0137819518829
0.483544141054,-0.217879399657,-0.503833353519,-2.12475562096,-0.128957018256,1.95494031906,-0.757764577866,0.0181863829494,-0.154822468758,0.188719630241,-0.205542206764,-0.0646805688739,-0.756588637829,-0.119088292122,0.000478175556054,0.502157510355,-0.0316228924748,0.381897816696,0.0111505045891,0.922229686855,0.386379942381,0.00886626971202
0.481004953384,-0.214840918779,-0.507250249386,-2.12576079369,-0.140398144722,1.9533649683,-0.757766187191,0.0181863829494,-0.175728008151,0.221934586763,-0.239530876279,-0.0627895891666,-0.762699365616,-0.0948780626059,-0.000741243711673,0.501464478862,-0.0370537634756,0.37955126404,0.015997126165,0.922532147231,0.385572106224,0.00356087983116
0.47703140974,-0.210252389312,-0.512315988541,-2.12700819969,-0.155490100384,1.95191383362,-0.757765829563,0.0181863829494,-0.218965619802,0.236815452576,-0.273784577847,-0.0608343556523,-0.749437272549,-0.0503074303269,-6.24319800409e-05,0.500730503371,-0.0439888488356,0.376674183538,0.0216981268736,0.923049367668,0.384060037138,-0.00263508904905
0.464883029461,-0.197102963924,-0.529514372349,-2.12937116623,-0.191343098879,1.95111370087,-0.757803201675,0.0181916374713,-0.282982736826,0.286207050085,-0.41345462203,-0.0270093735307,-0.68661481142,0.000227838871069,-0.000348796660546,0.498996606445,-0.064339608258,0.369360503845,0.0351743086006,0.925407648676,0.376938788898,-0.0173378457214
0.460188567638,-0.192498147488,-0.536459028721,-2.12967538834,-0.202103301883,1.95113348961,-0.757910192013,0.0181916374713,-0.309621274471,0.297363489866,-0.45756560564,-0.00575383286923,-0.652833223343,-0.00486643938348,-0.0124558107927,0.498320391424,-0.0718584394061,0.367075923569,0.0391165801747,0.92652458717,0.373552788396,-0.0219179490568
0.454318076372,-0.18709115684,-0.54536318779,-2.12971448898,-0.213636860251,1.95127797127,-0.758335351944,0.0181916374713,-0.348827332258,0.306528359652,-0.523774266243,0.00046314066276,-0.609437346458,0.0226162299514,-0.0310058165342,0.497415534714,-0.0810616526375,0.364538250199,0.0432402661867,0.928025259667,0.369013250919,-0.0269929088926
0.435482591391,-0.172363772988,-0.574204921722,-2.12942790985,-0.240427821875,1.95381402969,-0.760841548443,0.0181916374713,-0.407543331385,0.272063791752,-0.653788328171,0.0160678587854,-0.458724915981,0.0669112503529,-0.0741319209337,0.493927966312,-0.108966423108,0.357866659123,0.0522603021046,0.933280625934,0.353138958867,-0.0393574579516
0.428793758154,-0.168113067746,-0.585018634796,-2.12907624245,-0.247517466545,1.95489406586,-0.762497007847,0.0181916374713,-0.422264188528,0.264494299889,-0.689601063728,0.0299770925194,-0.429239779711,0.0782344788313,-0.141032516956,0.492251339968,-0.119361837108,0.355893492429,0.0544980615833,0.935373552493,0.346786295,-0.0429597935898
0.420422375202,-0.163165360689,-0.598429203033,-2.12830376625,-0.255037724972,1.95665562153,-0.76578181982,0.0181916374713,-0.453882664442,0.246626660228,-0.731743633747,0.042337693274,-0.362598448992,0.103853397071,-0.211313337088,0.490320026487,-0.130690587207,0.354018089136,0.0565576896519,0.93756583999,0.340038045389,-0.0463211700948
0.411583155394,-0.158678472042,-0.61263948679,-2.12728238106,-0.261161834002,1.95899796486,-0.77009499073,0.0182008296251,-0.464188486338,0.226314425468,-0.749761819839,0.0618674531579,-0.299731016159,0.145659178495,-0.244371250272,0.488027441635,-0.143018919761,0.352329758385,0.0581933669763,0.940001325676,0.332559713537,-0.0491434266925
0.389530986547,-0.149807706475,-0.649892807007,-2.12321519852,-0.272228628397,1.9680544138,-0.782708644867,0.0182008296251,-0.485991060734,0.157172173262,-0.8530626297,0.103420175612,-0.190017983317,0.251612901688,-0.296500533819,0.481844969771,-0.174001093472,0.349874558388,0.061338740347,0.946280780814,0.313113422163,-0.0524426100078
0.378978699446,-0.146864414215,-0.668780386448,-2.12073540688,-0.275981217623,1.97424638271,-0.789392113686,0.0182008296251,-0.489082872868,0.108155764639,-0.871269881725,0.119670383632,-0.140677347779,0.302293419838,-0.310753524303,0.478571490972,-0.189112997421,0.349530768506,0.0626849814246,0.949393065422,0.303316816429,-0.0521757510112
0.371589750051,-0.145629033446,-0.681827962399,-2.11892652512,-0.277719765902,1.97894990444,-0.794090986252,0.0182008296251,-0.47882565856,0.0644381046295,-0.869736373425,0.126382708549,-0.102417901158,0.328342437744,-0.314720720053,0.476146567098,-0.199463287304,0.349656687801,0.0634205844829,0.951590363411,0.296359810191,-0.0512296039406
0.342518955469,-0.14559404552,-0.73336237669,-2.11034083366,-0.280222922564,1.99989974499,-0.813076794147,0.0182008296251,-0.440482228994,-0.0644334405661,-0.756954610348,0.152434334159,-0.000305259483866,0.322990298271,-0.299191921949,0.465382859463,-0.239703124365,0.352700753232,0.0659996314518,0.960202379809,0.267996726462,-0.0428158002994
0.333816051483,-0.147640988231,-0.748193919659,-2.10744452477,-0.280217945576,2.00609445572,-0.818732261658,0.0182087104768,-0.437031209469,-0.128071770072,-0.71472299099,0.144707858562,0.00622740061954,0.293249577284,-0.271469086409,0.461689497894,-0.251347381345,0.35449957358,0.0667440563035,0.962646970556,0.259478004493,-0.0390794818827
0.320380419493,-0.152745351195,-0.769418776035,-2.10313510895,-0.279757589102,2.01466870308,-0.826578438282,0.0182087104768,-0.38815844059,-0.209169223905,-0.593637168407,0.118646040559,0.0365344882011,0.247480809689,-0.226194024086,0.455194212146,-0.269310727501,0.358078702301,0.0677197309648,0.966439659734,0.24569887534,-0.032256541685
0.313913434744,-0.156744793057,-0.778761744499,-2.10124206543,-0.278603971004,2.01859474182,-0.830228447914,0.0182087104768,-0.372430354357,-0.262926578522,-0.518872201443,0.103807516396,0.0959749668837,0.208909124136,-0.207778230309,0.452543105475,-0.275935923007,0.35989242305,0.0677831663977,0.967901220618,0.240301705311,-0.0287708115537
0.303355753422,-0.166812732816,-0.793715775013,-2.09847021103,-0.27377346158,2.02441310883,-0.836989343166,0.0182087104768,-0.260770529509,-0.329282313585,-0.390469968319,0.0666456893086,0.187662377954,0.143543273211,-0.203341126442,0.447266597203,-0.287641005135,0.364145779554,0.0665867517725,0.970684972503,0.230062406247,-0.0202034049571
0.298571884632,-0.17427110672,-0.801096439362,-2.09738349915,-0.269251465797,2.02696537971,-0.840690374374,0.0182087104768,-0.19511590898,-0.382526993752,-0.309292942286,0.0343814268708,0.250666171312,0.102622926235,-0.16322375834,0.44446217116,-0.29304825813,0.366977347459,0.0649003796677,0.972168760438,0.224671330189,-0.0140937941242
0.295026123524,-0.18314088881,-0.806734204292,-2.09702968597,-0.262464731932,2.02887296677,-0.844228804111,0.0182087104768,-0.126904323697,-0.418442845345,-0.198606625199,0.00112521788105,0.364094346762,0.0640052184463,-0.169322103262,0.442480123635,-0.296229209881,0.369671406894,0.0623200522548,0.973333921682,0.220632671459,-0.00764931167599
0.293201088905,-0.191287472844,-0.809437036514,-2.09717345238,-0.254677265882,2.02929592133,-0.847211956978,0.0182087104768,-0.0632251352072,-0.427407860756,-0.100116699934,-0.00856880936772,0.449534475803,-0.00433910218999,-0.148123592138,0.441396255835,-0.297200068549,0.37205502337,0.0590136278082,0.974123323726,0.21817114617,-0.00157879055632
0.292905986309,-0.201605528593,-0.810543775558,-2.09757447243,-0.243252649903,2.02919745445,-0.850471675396,0.0182087104768,0.0269614718854,-0.428810417652,0.00583236292005,-0.0261974185705,0.505506873131,-0.00504958583042,-0.133998498321,0.44120419582,-0.296211621472,0.375076589298,0.0542319927427,0.974731409443,0.216602839958,0.00638590825469
0.294729977846,-0.21121647954,-0.809544801712,-2.09816360474,-0.230504378676,2.02897953987,-0.853305637836,0.0182205308229,0.126018509269,-0.403254121542,0.0882613435388,-0.0266924798489,0.597752332687,-0.0166500248015,-0.114893935621,0.442274855944,-0.293122667005,0.377951835052,0.0490852395074,0.974905823439,0.216660945209,0.0143982361298
0.29729411006,-0.217498838902,-0.80762398243,-2.09868693352,-0.220501169562,2.028673172,-0.855177760124,0.0182205308229,0.195269688964,-0.376936793327,0.147829189897,-0.0356812700629,0.654134571552,-0.0212019216269,-0.116381406784,0.443989164453,-0.289145410368,0.380104395068,0.0446054100444,0.974738071545,0.217865338714,0.0207543527209
0.319315731525,-0.238645747304,-0.789039731026,-2.10262155533,-0.173446699977,2.02710819244,-0.860069692135,0.0182205308229,0.427428543568,-0.23999863863,0.421881198883,-0.0823899582028,0.732064425945,-0.0298106260598,-0.0406536310911,0.455626143841,-0.264021937851,0.386588699523,0.026726265738,0.971815474112,0.230407784659,0.0421027725783
0.326258331537,-0.241763517261,-0.782248020172,-2.1038813591,-0.162436023355,2.02653646469,-0.860779345036,0.0182205308229,0.496791630983,-0.178771585226,0.486005932093,-0.0793921947479,0.738492667675,-0.0391241125762,-0.0419502221048,0.459251062976,-0.255904540868,0.387656908883,0.0224377080764,0.970571989773,0.23528589829,0.046120577669
0.336320608854,-0.244442075491,-0.772459805012,-2.10552692413,-0.148445129395,2.02561068535,-0.861466228962,0.0182205308229,0.556710600853,-0.121026799083,0.537245810032,-0.0929851084948,0.73243278265,-0.0546919070184,-0.0243372805417,0.464257539996,-0.244359642191,0.388663714703,0.0169973609985,0.968675988419,0.242556428082,0.0504410355744
0.366492152214,-0.246800363064,-0.741857588291,-2.11012530327,-0.115064419806,2.02368235588,-0.861776590347,0.0182415433228,0.691219687462,0.0180375706404,0.711653828621,-0.102712601423,0.646351456642,-0.0326526015997,0.000371720350813,0.478012183795,-0.209871256333,0.390082236377,0.00430767049752,0.962279811085,0.265712380882,0.058274689968
0.378059864044,-0.246210709214,-0.729952573776,-2.11182498932,-0.105015918612,2.02326083183,-0.86177366972,0.0182415433228,0.764441072941,0.0612731277943,0.79571133852,-0.110844001174,0.620937466621,-0.0198371112347,7.6151030953e-05,0.482708607772,-0.196774297707,0.390136559869,0.000600208420108,0.959553720658,0.275099871653,0.0598026523521
0.391289919615,-0.244677111506,-0.716263353825,-2.11357951164,-0.0949345454574,2.02291464806,-0.86174839735,0.0182415433228,0.784577727318,0.116500370204,0.81891220808,-0.100150503218,0.56431889534,-0.0151732536033,0.00430939299986,0.48772549238,-0.181869355531,0.389953967329,-0.00299472032187,0.956268833756,0.286084086822,0.0608016792088
0.408594429493,-0.241889864206,-0.698428452015,-2.11560821533,-0.0839207470417,2.02257633209,-0.861615300179,0.0182415433228,0.849334657192,0.154752105474,0.883261799812,-0.0854802951217,0.494895279408,-0.0147045021877,0.014132401906,0.493649281455,-0.162585980617,0.389478706885,-0.00676511530612,0.951727127397,0.30070518238,0.0612054014856
0.434614777565,-0.235768809915,-0.670894622803,-2.11779475212,-0.0703712776303,2.02223205566,-0.860358297825,0.0182415433228,0.893604874611,0.249131977558,0.956407427788,-0.0563555806875,0.41873255372,-0.00653879716992,0.0733313560486,0.50150028699,-0.133437477811,0.388333340678,-0.0109231883348,0.944443100893,0.322906727628,0.0603254347018
0.449696332216,-0.231015056372,-0.654480695724,-2.11857867241,-0.0637464895844,2.0221760273,-0.85889083147,0.0182415433228,0.887269854546,0.300250530243,0.972106397152,-0.0364235974848,0.365933388472,0.004604479298,0.112138472497,0.505510310039,-0.116371852787,0.387363885857,-0.0126399860397,0.940005964306,0.33576413875,0.0590885829748
0.46602126956,-0.225384011865,-0.636453449726,-2.1190290451,-0.0576422102749,2.02215003967,-0.856528103352,0.0182415433228,0.896708965302,0.329704165459,1.02724981308,-0.0176438167691,0.29688757658,-0.00187099783216,0.154631212354,0.509538504872,-0.0968066311337,0.386160804848,-0.0140212488464,0.934773776187,0.350315688986,0.0572739877164
0.482193976641,-0.219238311052,-0.61803483963,-2.11917614937,-0.0525760017335,2.02213978767,-0.853273391724,0.0182415433228,0.912218928337,0.353728830814,1.0478836298,-0.0014291399857,0.278009831905,0.000788423873018,0.210920467973,0.512612069187,-0.079244829363,0.384938874392,-0.0147765424109,0.929975371215,0.363142717421,0.0552705092843
0.525739312172,-0.200022578239,-0.566810846329,-2.119130373,-0.0411320775747,2.0221927166,-0.837157726288,0.0182750336826,0.869436204433,0.416923284531,1.03459882736,0.0042580505833,0.215014755726,0.00137530616485,0.438743323088,0.518425296126,-0.0271808559845,0.379957688768,-0.015976868708,0.916117368875,0.397754845254,0.0475897979579
0.539440214634,-0.193497359753,-0.550249159336,-2.1191945076,-0.0377748571336,2.02217626572,-0.829448282719,0.0182750336826,0.847581684589,0.404741644859,1.03510963917,-0.00553906243294,0.202146068215,-0.000477303517982,0.511529326439,0.519123348346,-0.0118558496372,0.37813664577,-0.0162688203214,0.912277622437,0.40677006593,0.0449775302766
0.552741527557,-0.186788722873,-0.533892214298,-2.11918663979,-0.0349740535021,2.02218103409,-0.820433735847,0.0182750336826,0.808580040932,0.428816318512,0.995821595192,0.0028133969754,0.158271417022,0.0029598469846,0.611147761345,0.51941096354,0.00410598837808,0.376049728748,-0.0163467394172,0.908430655796,0.415597663722,0.0420132039669
0.602305054665,-0.159861311316,-0.471401125193,-2.11943292618,-0.0259424690157,2.02203130722,-0.77011692524,0.0182750336826,0.662644028664,0.374678790569,0.846371650696,-0.00468961382285,0.106963410974,-0.010937737301,0.909173190594,0.516024067553,0.0640355065584,0.366542125852,-0.0160403996246,0.896585566497,0.441610869637,0.0292722910515
0.614601135254,-0.152965575457,-0.455463826656,-2.11962604523,-0.0242744460702,2.02176260948,-0.752087771893,0.018292106688,0.615110337734,0.355694442987,0.820859670639,-0.01065527834,0.0632677152753,-0.0228464771062,0.985937297344,0.514000149023,0.0789203983318,0.36382469383,-0.0157323154031,0.8946100889,0.445831708874,0.0256782033639
0.625722706318,-0.146472617984,-0.440695941448,-2.11981773376,-0.0231392811984,2.0214073658,-0.732300817966,0.018292106688,0.560747027397,0.321766018867,0.743625998497,-0.0125265596434,0.0597539097071,-0.015954092145,1.0899130106,0.511871944,0.0917611109752,0.361309515755,-0.0152781354002,0.893507111351,0.448232577437,0.0223422635937
0.64054363966,-0.138004034758,-0.420793414116,-2.12028217316,-0.0216200090945,2.02054405212,-0.699198246002,0.018292106688,0.470745772123,0.271201074123,0.640454411507,-0.0179345626384,0.0438414514065,-0.0404241718352,1.1761149168,0.508010096258,0.11041849203,0.357512383154,-0.0146604178807,0.893391195753,0.448709144385,0.0172437501666
0.648454189301,-0.133465990424,-0.410090267658,-2.12062835693,-0.0209054835141,2.01971411705,-0.677401900291,0.018292106688,0.40940952301,0.231798872352,0.540538966656,-0.0238840840757,0.0350193791091,-0.0553219988942,1.22385656834,0.505636419909,0.119948696297,0.355429033864,-0.0143085471132,0.894238870337,0.44713119844,0.0143457071911
0.65420037508,-0.13021029532,-0.402590960264,-2.12106156349,-0.0203647837043,2.01884317398,-0.65858232975,0.018292106688,0.360533803701,0.199175208807,0.471952110529,-0.0299308877438,0.0315263159573,-0.057008177042,1.2740329504,0.503719252898,0.126676295133,0.353800465599,-0.0141044967422,0.895575370087,0.444523643319,0.0120228894594
0.660785973072,-0.126622781157,-0.394101917744,-2.12179613113,-0.019982393831,2.01771879196,-0.632445156574,0.018292106688,0.294351130724,0.155865758657,0.379733800888,-0.0441775023937,0.00815126206726,-0.0541353523731,1.32787394524,0.501332169553,0.134232624213,0.351860030289,-0.0137811250422,0.89809910931,0.439480769146,0.00920454647838
0.667920470238,-0.123143769801,-0.384916931391,-2.12321519852,-0.019831944257,2.01606965065,-0.593719661236,0.018292106688,0.203035593033,0.0925158560276,0.2556168437,-0.0519601479173,7.00197269907e-05,-0.0622792355716,1.33650898933,0.498343373313,0.142245641725,0.349603730327,-0.0133798873618,0.903014636412,0.429362850953,0.00575212471556
0.672647356987,-0.121237166226,-0.379243224859,-2.12505340576,-0.0198001079261,2.01378655434,-0.54519790411,0.018292106688,0.0602761395276,0.0235390681773,0.083129785955,-0.0495355278254,0.000104390099295,-0.0529842562973,1.36111342907,0.495828352998,0.147160498665,0.347755938424,-0.0132415207476,0.911044725652,0.412087419257,0.00247559281131
0.67308652401,-0.121123932302,-0.378484457731,-2.12586688995,-0.0197939183563,2.01281952858,-0.522263407707,0.018292106688,-0.00279728602618,-0.00345648499206,0.0108960429206,-0.0452911145985,0.00021585340437,-0.0701723098755,1.33885776997,0.495205036955,0.147635964624,0.347251828016,-0.0133140119513,0.915464663007,0.402175657291,0.00138860913964
0.664809286594,-0.123041316867,-0.386602729559,-2.12663054466,-0.0197931844741,2.00938344002,-0.431199878454,0.0182980168611,-0.22485730052,-0.0572917312384,-0.230411618948,-0.000193561587366,0.000193095620489,-0.0189162697643,1.26634931564,0.496582334883,0.139243041048,0.347315833598,-0.0142648484992,0.93570352872,0.352498555242,-0.000434368211431
0.661973297596,-0.123688690364,-0.38947814703,-2.1266336441,-0.0197947267443,2.00926661491,-0.416783004999,0.0182980168611,-0.265321046114,-0.0577239729464,-0.25836366415,0.000672818277963,-0.00240291189402,-0.00876190047711,1.25739169121,0.497336739101,0.13639838842,0.347542734923,-0.0145333985701,0.939194631855,0.343077443332,-0.000302297458219
0.655755758286,-0.125007808208,-0.395682305098,-2.12657165527,-0.0198035649955,2.00921607018,-0.390372157097,0.0182980168611,-0.314661055803,-0.0706364959478,-0.317761838436,0.00108421617188,-0.000613859738223,-0.000763534626458,1.22057580948,0.498986293071,0.130212687957,0.348041045188,-0.0150998756918,0.945659933413,0.324806515838,0.000105117599038
0.645708620548,-0.127239823341,-0.406322777271,-2.12636828423,-0.0198211707175,2.00918149948,-0.356078654528,0.0182980168611,-0.378244370222,-0.0741055905819,-0.40562069416,0.0130524924025,-0.000211239021155,-0.000252556754276,1.15020704269,0.501602896607,0.119873782672,0.348918557266,-0.0160874815133,0.95419897621,0.298738455585,0.000917378196337
0.623174965382,-0.131014540792,-0.430459022522,-2.12541103363,-0.0199462138116,2.00917410851,-0.298848479986,0.0182986725122,-0.490123987198,-0.0756750479341,-0.515685081482,0.0268730912358,0.00185729854275,0.00576387625188,1.07909142971,0.50690298547,0.0963790734173,0.350484465825,-0.0181275502996,0.968355959504,0.248901119526,0.00252190520155
0.615469038486,-0.132134020329,-0.438522070646,-2.12504768372,-0.0200127195567,2.00917673111,-0.283068358898,0.0182986725122,-0.542828500271,-0.0736244544387,-0.565358221531,0.0246120486408,-0.00720168231055,0.000395806215238,1.03002762794,0.508461589703,0.0883829742301,0.350946108547,-0.0187846356635,0.972137638855,0.233637266129,0.00302921667279
0.605548143387,-0.133402764797,-0.448915690184,-2.12454843521,-0.0202469099313,2.0091843605,-0.264630973339,0.0182986725122,-0.555913150311,-0.0649822056293,-0.580497920513,0.0304641071707,-0.01487119589,0.000127961320686,1.0162075758,0.510300482905,0.0780234363817,0.351462702039,-0.0195368669488,0.976446655476,0.214842028827,0.00362521512226
0.564243793488,-0.137205138803,-0.492239683867,-2.12179851532,-0.0220430456102,2.00920677185,-0.200237035751,0.0182986725122,-0.661445319653,-0.0426036976278,-0.69209498167,0.0456154607236,-0.0406831391156,0.000361003971193,0.868652641773,0.515920219159,0.0343759665827,0.353113339436,-0.0220250456744,0.989596156265,0.142059895843,0.00577326244803
0.554302871227,-0.137842729688,-0.50267469883,-2.12108421326,-0.022624257952,2.00921654701,-0.18733407557,0.0182986725122,-0.66311275959,-0.0348287299275,-0.698184609413,0.0489171259105,-0.0322856754065,-0.000278532039374,0.859454989433,0.51674088376,0.0237734543377,0.353379666952,-0.0224976876682,0.99179088595,0.125722974189,0.00619887535079
0.521188259125,-0.139174595475,-0.537879705429,-2.11857247353,-0.0237556099892,2.00924015045,-0.148562014103,0.0183013007045,-0.684706509113,-0.0225854236633,-0.731864750385,0.0556778870523,-0.0128547418863,0.000135402791784,0.753993988037,0.517950363526,-0.0117579161045,0.353892746411,-0.0242698822804,0.997025623562,0.0727799795949,0.00734527365262
0.508617937565,-0.139521658421,-0.551255226135,-2.11759471893,-0.0241149906069,2.00924658775,-0.135723903775,0.0183013007045,-0.699738264084,-0.0195913203061,-0.761520624161,0.055259924382,-0.0243151113391,0.00190974934958,0.678796052933,0.517760538191,-0.0260243652888,0.354007937102,-0.0249621650377,0.998280004554,0.0524761760798,0.0077571559761
0.492686331272,-0.139866277575,-0.568525671959,-2.11630392075,-0.0246370956302,2.00927472115,-0.120849095285,0.0183013007045,-0.702738344669,-0.010254480876,-0.769086718559,0.0594921782613,-0.0270616728812,0.00642068870366,0.626387894154,0.517067464491,-0.0425568092143,0.354092514831,-0.0257073457327,0.999195272995,0.0296699098196,0.00822404714511
0.483689785004,-0.139936223626,-0.578500330448,-2.11549377441,-0.0248965267092,2.00930118561,-0.112763606012,0.0183013007045,-0.693682014942,-0.00756218191236,-0.77358430624,0.0665915757418,-0.0185962151736,0.00321887922473,0.607751905918,0.516427909845,-0.0524275343929,0.35411058117,-0.0261385853318,0.999490677086,0.016220163783,0.00848921448106
0.450900614262,-0.140166372061,-0.616494119167,-2.11232876778,-0.0252810698003,2.00949454308,-0.0850589945912,0.0183013007045,-0.647587180138,-0.00767211522907,-0.780487000942,0.066149905324,-0.00648181745782,0.0035729187075,0.515783131123,0.512458967814,-0.0890713463245,0.354154388983,-0.027984813603,0.999021776929,-0.0328646658182,0.0096048357703
0.439997136593,-0.140245139599,-0.629648387432,-2.11117434502,-0.0253632366657,2.00960373878,-0.0764430463314,0.0183013007045,-0.626346588135,-0.00509764021263,-0.779710292816,0.073711514473,-0.00274165533483,0.00862263888121,0.506421804428,0.51055119459,-0.101468790332,0.354179174433,-0.0286203112146,0.99833076174,-0.0491487419075,0.0100483241883
0.428171515465,-0.140372782946,-0.644345521927,-2.10983514786,-0.0254231765866,2.00975704193,-0.0671892464161,0.0183032695204,-0.620402514935,-0.0120880622417,-0.766977369785,0.0691918209195,-0.00106866820715,0.00695263082162,0.460794985294,0.508127200628,-0.115093654777,0.354236532837,-0.0293366729182,0.997267127766,-0.0669718628194,0.0106021125079
0.417817652225,-0.140635341406,-0.657314896584,-2.10862994194,-0.0254404991865,2.0099272728,-0.0597993545234,0.0183032695204,-0.598206341267,-0.0169449523091,-0.749121904373,0.0725099146366,0.00737506430596,0.00901743490249,0.412152051926,0.505708920999,-0.127029125378,0.354351503328,-0.0300019518214,0.996096091657,-0.0822623158869,0.0111968815385
0.401004433632,-0.141153126955,-0.679052591324,-2.10646820068,-0.0254817288369,2.01033043861,-0.048398103565,0.0183032695204,-0.555727899075,-0.020121620968,-0.75346827507,0.0788885876536,-0.00211058021523,0.0155550325289,0.383892476559,0.501168967742,-0.146675631711,0.354625935363,-0.0310839208148,0.993686421901,-0.107090228331,0.0123599146951
0.391415119171,-0.141597762704,-0.692200660706,-2.10499429703,-0.025475634262,2.0106921196,-0.0415991283953,0.0183032695204,-0.51529276371,-0.0263102352619,-0.716535210609,0.0836004465818,-0.00171953847166,0.0265764780343,0.374741196632,0.498212816854,-0.158220086977,0.354917283459,-0.0317480976362,0.991964145999,-0.121751969636,0.0132532613969
0.380695462227,-0.142352730036,-0.707136571407,-2.10318636894,-0.0254718288779,2.0112247467,-0.0337044745684,0.0183032695204,-0.488637000322,-0.0480472035706,-0.700836002827,0.0820255279541,-0.000332647497999,0.0354554504156,0.37166377902,0.494617406961,-0.171207939241,0.35540470164,-0.0325271388791,0.98973930962,-0.138376389002,0.0144934086482
0.373940527439,-0.143059358001,-0.716840863228,-2.1019654274,-0.0254787560552,2.01162338257,-0.0286615695804,0.0183032695204,-0.464705437422,-0.0512055493891,-0.678366243839,0.0859809890389,-0.00228505814448,0.027038494125,0.346440345049,0.492155173428,-0.179515403119,0.355822116983,-0.033065652381,0.988162348494,-0.149008605029,0.0154360284821
