imanlab/tactile_prediction_flat_dataset/train/data_sample_2021-11-24-16-11-47/robot_state.csv
position_panda_joint1,position_panda_joint2,position_panda_joint3,position_panda_joint4,position_panda_joint5,position_panda_joint6,position_panda_joint7,position_panda_finger,velocity_panda_joint1,velocity_panda_joint2,velocity_panda_joint3,velocity_panda_joint4,velocity_panda_joint5,velocity_panda_joint6,velocity_panda_joint7,ee_state_position_x,ee_state_position_y,ee_state_position_z,ee_state_orientation_x,ee_state_orientation_y,ee_state_orientation_z,ee_state_orientation_w
-0.108571276069,0.149089276791,0.0815203040838,-2.47516441345,0.0666502937675,2.65767073631,-0.914036989212,0.0739341005683,-0.000130479238578,0.000129213673063,0.000333746778779,0.000439817784354,-0.00286521529779,-3.06180118059e-05,-0.000117184092232,0.485482418131,-0.00945337862305,0.124653216788,-0.0120351886393,0.915288801954,0.401845059348,0.0249421572779
-0.108571015298,0.149090453982,0.0815201252699,-2.47516179085,0.0666502937675,2.65767002106,-0.914036214352,0.0739341005683,-0.000449155544629,0.00029169706977,0.000431004678831,-0.000363092462067,-0.000115833703603,-8.17480467958e-05,0.000202696755878,0.485483354047,-0.009453349098,0.124653515078,-0.0120350922156,0.915288930958,0.401844746695,0.024942507013
-0.108569838107,0.149087607861,0.081520833075,-2.47516393661,0.0666513070464,2.65766978264,-0.914036095142,0.0739334449172,-0.00221292022616,0.00023200706346,-0.000548697717022,0.000378624419682,-7.89956811786e-06,-0.000136290575028,-0.000937156088185,0.485482823672,-0.00945241084685,0.124654108236,-0.0120351868286,0.915288739225,0.401845163164,0.0249427875212
-0.108568362892,0.149087116122,0.081521704793,-2.47516417503,0.0666497126222,2.65767049789,-0.914036929607,0.0739334449172,0.000150582534843,0.000266622635536,0.00030067624175,0.000131902081193,-6.51308291708e-05,-0.000124461905216,-0.000118563191791,0.48548297975,-0.00945131039737,0.124654332676,-0.0120346756073,0.915287822021,0.401847250663,0.0249430603322
-0.108562275767,0.149087801576,0.0815234854817,-2.47516751289,0.0666498318315,2.65766954422,-0.914037704468,0.0739334449172,-0.000375957373763,0.000598773825914,0.00351975532249,0.000263263442321,7.22687582311e-06,7.16453723726e-05,0.000583092565648,0.485481255638,-0.00944731153373,0.124653088582,-0.012035822218,0.915286042901,0.401851382335,0.0249412279107
-0.108561247587,0.149090349674,0.081525400281,-2.47517299652,0.0666507482529,2.65767097473,-0.914037168026,0.0739334449172,0.000247295422014,0.000174953791429,0.00025579702924,-0.000285914109554,-8.50381456985e-06,6.74583361615e-06,0.00545248622075,0.485478044212,-0.00944571785384,0.12464968826,-0.0120378450822,0.915285907486,0.401851826416,0.0249380658805
-0.108568817377,0.149086683989,0.0815216228366,-2.47520661354,0.0666500404477,2.65767121315,-0.914037764072,0.0739334449172,-0.000340653874446,0.00050862430362,0.001149648102,-0.00167655979749,1.13022733785e-05,-0.000110387562017,0.000203664108994,0.485461643767,-0.00945080462113,0.124639452679,-0.0120435165396,0.915288229733,0.401847213511,0.0249244236692
-0.108562000096,0.149084180593,0.0815230309963,-2.47525024414,0.0666501075029,2.65767264366,-0.914037823677,0.0739334449172,0.00017617753474,0.000243708229391,0.000440092378994,-0.002999963006,3.81873651349e-05,0.000301397783915,-0.000192334846361,0.485440370957,-0.00944605482998,0.124625226688,-0.0120520827493,0.915286974655,0.401850931052,0.0249064293215
-0.10856281966,0.149086713791,0.0815226212144,-2.47533845901,0.0666503459215,2.65767192841,-0.914039313793,0.0739334449172,-8.62695305841e-05,0.000211067424971,-0.000295829871902,-0.00444093625993,5.94734337938e-05,0.00552929379046,9.78944663075e-05,0.485394830697,-0.00944494817365,0.124592430707,-0.0120717343753,0.915287862284,0.401850873866,0.0248651812587
-0.108559928834,0.149086952209,0.0815237760544,-2.4758579731,0.0666500851512,2.65767216682,-0.914038181305,0.0739341005683,1.02648100437e-05,0.000695643189829,0.000383841223083,-0.0128566175699,9.30853420869e-05,6.70570952934e-05,-7.13537665433e-05,0.485123461253,-0.00943278149165,0.124401804067,-0.0121859746393,0.915292348395,0.401852055623,0.0246240545928
-0.108558274806,0.149081707001,0.0815263167024,-2.47609233856,0.0666500553489,2.65767216682,-0.914039313793,0.0739341005683,-3.3659474866e-05,0.000215114225284,-0.000447898317361,-0.0137478318065,-4.77354151371e-05,-3.76133684767e-05,0.000309383642161,0.485005344835,-0.00942697249756,0.12432067838,-0.0122348727507,0.915293716961,0.401853792347,0.024520375971
-0.108561784029,0.149083957076,0.0815231576562,-2.47636795044,0.0666498988867,2.65767121315,-0.914039671421,0.0739341005683,-0.000564172805753,0.000169512160937,-0.000830853707157,-0.0150488698855,0.00559684773907,-0.000114613918413,0.000258366664639,0.484871655243,-0.00942515013201,0.124226369068,-0.0122912413887,0.915297365184,0.401851040923,0.0244008045253
-0.108572468162,0.149092048407,0.0815176814795,-2.47665119171,0.0666497647762,2.65767168999,-0.914041399956,0.0739341005683,-0.00139369780663,-0.000314016418997,-0.000871045165695,-0.00976122543216,2.4031180601e-06,0.000134935209644,-0.00046535290312,0.484725781867,-0.00942770428971,0.124121503826,-0.0123530935002,0.91530303461,0.401844188174,0.0242694051386
-0.108569853008,0.149112254381,0.0815183743834,-2.47700691223,0.0666502043605,2.65767145157,-0.91404157877,0.0739341005683,0.000355196360033,0.000250258453889,0.00342989875935,-0.00897449161857,5.79848492634e-05,-4.96112261317e-05,-3.33482421411e-05,0.484540519184,-0.00941901391499,0.123984987134,-0.0124344062455,0.91530601351,0.401845099577,0.0240998506262
-0.108562275767,0.149113476276,0.0815213695168,-2.47719526291,0.066649697721,2.65767145157,-0.914040267467,0.0739341005683,-0.000141467899084,-0.000687586725689,0.000830527744256,-0.0123461177573,4.14608621213e-05,4.05371392844e-05,-0.000212670624023,0.484444490962,-0.00941030752977,0.123917333596,-0.0124751998936,0.915305856851,0.401849320299,0.0240141886711
-0.108561038971,0.14910787344,0.0815237462521,-2.47731566429,0.0666503310204,2.65767145157,-0.914041399956,0.0739341005683,0.000529805780388,-0.000823290203698,-0.000110440334538,-0.0115211950615,-9.45328356465e-05,-5.43854184798e-05,0.000108866130176,0.484384400136,-0.00940637627277,0.123877180864,-0.0124998584277,0.915306081386,0.401851137342,0.0239623457756
-0.108563259244,0.149103671312,0.081522628665,-2.47747778893,0.0666496381164,2.65767121315,-0.914042592049,0.0739341005683,-4.06799772463e-05,-0.000223786788411,-0.000426071754191,-0.00668297102675,1.20552804219e-05,8.90414594323e-05,0.000142596982187,0.484302637592,-0.00940512227543,0.123821460014,-0.012533249131,0.915307861999,0.401850306806,0.0238907101045
-0.108567968011,0.1491330266,0.0815194994211,-2.47782444954,0.0666504055262,2.65767192841,-0.914039671421,0.0739334449172,-0.000190819919226,0.00133960531093,0.000196546563529,-0.0026236709673,0.000112358007755,3.84181876143e-05,0.000195350148715,0.484120061764,-0.00940190189174,0.123683980374,-0.0126144045174,0.915313698552,0.401844488891,0.0237216456187
-0.108569867909,0.149145722389,0.0815184116364,-2.47789978981,0.0666505470872,2.65767192841,-0.914041876793,0.0739334449172,0.000157554444741,-0.000613656593487,-0.000176456553163,-0.00178454723209,-6.25599423074e-05,-6.80999510223e-05,-0.000102086414699,0.484079014289,-0.00940168734967,0.123651048036,-0.0126335737569,0.915314715721,0.401843901918,0.0236821065649
-0.108561113477,0.14920656383,0.0815216898918,-2.47806453705,0.0666497498751,2.65767240524,-0.914040148258,0.0739334449172,-0.000358798046364,0.00193040340673,0.000420742610004,-0.00124898506328,-8.48254130688e-05,7.75434818934e-05,0.000184914635611,0.483982652024,-0.00939137342492,0.12356317878,-0.0126840475827,0.915314700001,0.401848266589,0.0235814592217
-0.108565934002,0.149245128036,0.0815219134092,-2.47810506821,0.0666497796774,2.65767216682,-0.914038598537,0.0739341005683,-0.000256537430687,0.00309762358665,4.90322454425e-05,-0.00259262206964,0.000123801408336,0.000141402095323,-6.43876119284e-05,0.483953879728,-0.00939195944991,0.123530151733,-0.0127023686328,0.915316737607,0.401845104665,0.0235463633038
-0.108569957316,0.149284556508,0.081518009305,-2.47813248634,0.0666503161192,2.65767168999,-0.914038538933,0.0739341005683,-0.000291676697088,0.00384564185515,-5.10306017532e-05,-0.000489384459797,-0.000140391464811,3.49795736838e-05,-6.24391977908e-05,0.483929916144,-0.00939436204999,0.123499399152,-0.0127190874397,0.915319174628,0.401840880429,0.0235146734993
-0.108563244343,0.149482294917,0.081521525979,-2.47819876671,0.0666494145989,2.65767264366,-0.914030313492,0.0739341005683,-0.000230420162552,0.00675412593409,4.36824302597e-05,-0.00119560188614,0.000178386282641,9.77199451881e-05,-0.000114563379611,0.483855700725,-0.00938372961435,0.123379589606,-0.0127830131779,0.915321509265,0.401840304304,0.0233986916
-0.108564436436,0.149638861418,0.0815204232931,-2.47820687294,0.0666505470872,2.65767359734,-0.914026677608,0.0739341005683,8.27973271953e-05,0.00708316918463,-0.00251484871842,-0.000185485216207,-5.90900890529e-05,0.000180564937182,-0.000614921504166,0.483820275251,-0.00938117799303,0.123304289737,-0.0128221634896,0.9153244996,0.401836217963,0.0233303700892
-0.108566135168,0.149793848395,0.0815225690603,-2.47820901871,0.0666504725814,2.65767216682,-0.914018511772,0.0739341005683,0.000199444024474,0.0103713171557,0.000279292464256,-0.000106908395537,-1.53966334437e-06,-8.93722826731e-05,6.52439848636e-05,0.483786570226,-0.00937731382027,0.123228707158,-0.0128618296806,0.915327749111,0.40183153234,0.0232616496171
-0.108568139374,0.150306269526,0.0815194323659,-2.47820544243,0.0666498169303,2.65767216682,-0.914012134075,0.0739341005683,-3.55716874765e-05,0.0154994418845,-0.000160473558935,0.000506960204802,1.7894031771e-05,9.64925638982e-05,0.0010476274183,0.483681412549,-0.00936830962318,0.122983019709,-0.0129884934564,0.915335453164,0.401822616443,0.0230410896941
-0.108569473028,0.150536492467,0.0815195217729,-2.47819757462,0.0666511505842,2.65767431259,-0.914009213448,0.0739341005683,6.49253415759e-05,0.0139604862779,-4.46025078418e-05,0.000107414307422,-2.75374914054e-05,-4.42720738647e-06,3.81887730327e-05,0.483637799455,-0.00936383210884,0.122875088328,-0.0130440067095,0.915338914283,0.401818375986,0.0229459863289
-0.108564227819,0.150896534324,0.0815211459994,-2.47819185257,0.0666501373053,2.65767598152,-0.914005458355,0.0739341005683,-1.2958804291e-05,0.020898828283,0.0004827894154,8.5984764155e-05,-0.000116176706797,6.29718851997e-05,-0.000277491810266,0.483565905753,-0.00935243602187,0.122703827719,-0.013132157665,0.915341900518,0.40181739706,0.0227932159347
-0.108560554683,0.1513261199,0.0815236121416,-2.47819566727,0.0666498169303,2.65767788887,-0.913999319077,0.0739341005683,-0.000474783446407,0.0241814795882,0.000131773165776,-4.57026035292e-05,-9.02850588318e-05,6.87820502208e-05,0.000163023476489,0.483474582549,-0.00933959050726,0.122495744199,-0.0132398484884,0.915346418314,0.401814136174,0.0226062058347
-0.108563125134,0.15216948092,0.0815230086446,-2.47818374634,0.0666506141424,2.65767836571,-0.913987994194,0.0739341005683,-0.000483487354359,0.03177267313,-0.000312462303555,0.000584499211982,-5.96875725023e-05,-0.000559073756449,-0.000195796819753,0.483304085073,-0.00932210097421,0.122093884559,-0.0134476665916,0.915358156243,0.401800573732,0.0222464534805
-0.108564257622,0.153401196003,0.0815201923251,-2.47818136215,0.0666496530175,2.65767860413,-0.913963794708,0.0739341005683,-0.000390118977521,0.036957859993,0.000544647627976,0.000342112558428,-6.96109127603e-05,-8.76615522429e-05,0.00314627564512,0.483046696551,-0.00929596961512,0.12150185757,-0.0137540009704,0.915376171956,0.401778305682,0.0217136831767
-0.10856501013,0.154131084681,0.0815201997757,-2.47818803787,0.0666516050696,2.65767765045,-0.913944065571,0.0739341005683,0.000282946712105,0.0412360541523,0.00120257376693,-0.000240255583776,5.09297524331e-06,-0.000160566865816,0.0029569696635,0.482889486617,-0.00927939564848,0.121148240579,-0.0139382353646,0.915387947543,0.401762271384,0.0213941127432
-0.108553849161,0.156495854259,0.081523835659,-2.47818851471,0.0666519924998,2.65767931938,-0.913216590881,0.0739341005683,0.00025068220566,0.0465677678585,0.000351715862053,0.000903543783352,-3.50212649209e-05,5.23294729646e-05,0.00713357841596,0.482390384828,-0.0092177513125,0.120011268657,-0.0145353284424,0.915553841163,0.401416440165,0.0203649061866
-0.108552351594,0.157126456499,0.0815234035254,-2.47817659378,0.066652327776,2.65767931938,-0.913103878498,0.0739341005683,0.000346229004208,0.0465120226145,8.16360116005e-05,-0.000444030796643,9.69989705482e-05,3.47670938936e-05,0.00479886494577,0.482262884922,-0.00920290416882,0.119712463283,-0.0146910645742,0.915582059494,0.401359946763,0.0200962128264
-0.108549810946,0.157873108983,0.0815222412348,-2.47819018364,0.0666518956423,2.6576795578,-0.912940502167,0.0739341005683,-0.00050087843556,0.0447585061193,-0.000354865187546,-0.000358427147148,7.48719321564e-05,-0.00015004062152,0.00770869059488,0.482097531506,-0.00918476309962,0.119349056747,-0.0148813534405,0.915621386884,0.401279645852,0.0197652904519
-0.108548209071,0.158891960979,0.0815209746361,-2.47817969322,0.0666502341628,2.65768074989,-0.9126303792,0.0739334449172,9.05734414118e-05,0.0443840324879,0.000395623443183,0.000104753387859,4.44192955911e-05,-9.0094130428e-05,0.018775112927,0.481886519321,-0.00916129224309,0.118863636416,-0.0151351381803,0.915692241038,0.401129824451,0.0193264304091
-0.108549319208,0.160086944699,0.0815193727612,-2.47819304466,0.0666503533721,2.65767860413,-0.91219329834,0.0739334449172,0.000166728554177,0.0386069715023,-0.000212997940253,0.00144637643825,0.000131125183543,8.72558157425e-05,0.0116246743128,0.481624447794,-0.0091345790231,0.118285264973,-0.0154400303431,0.915790865592,0.400918104661,0.0187981115267
-0.108549840748,0.160818085074,0.0815187543631,-2.47817635536,0.0666505768895,2.65767860413,-0.911928832531,0.0739334449172,3.75593699573e-05,0.0352870263159,-8.73694007169e-05,-0.000128625804791,-6.77758071106e-05,-6.71556408633e-05,0.0154629936442,0.481468583901,-0.00911747430629,0.11792170528,-0.0156307659893,0.915854016832,0.400781696631,0.0184697139603
-0.108548633754,0.161444455385,0.0815207362175,-2.47819161415,0.0666500627995,2.65767931938,-0.911639153957,0.0739334449172,2.16868811549e-05,0.0358895026147,-0.000120787903143,-0.000616238627117,-6.11556060903e-06,-8.91037998372e-05,0.0169458091259,0.481335159086,-0.00910197947137,0.117634731732,-0.0157825124726,0.915912781093,0.400653493728,0.0182062455073
-0.108542561531,0.161998465657,0.081521242857,-2.47820186615,0.0666498020291,2.65767812729,-0.911326766014,0.0739334449172,0.000226412463235,0.0310688596219,-0.000134910471388,-0.00020689147641,2.0501885956e-05,0.000108987660496,0.0160325933248,0.481211007591,-0.00908564916467,0.117365439428,-0.0159256432596,0.915978553804,0.400508627182,0.0179583432136
-0.108537591994,0.163148999214,0.0815219059587,-2.47819876671,0.0666498020291,2.65767884254,-0.910660862923,0.0739334449172,9.37035292736e-05,0.0154300527647,0.000346671586158,-0.000678782991599,-2.10540019907e-05,9.17264405871e-05,0.0142581863329,0.48096586001,-0.00905608628744,0.11681520847,-0.0162168432258,0.916119831928,0.40019590632,0.0174557666554
-0.108539238572,0.163439109921,0.0815210863948,-2.47819447517,0.0666505247355,2.65767979622,-0.910406291485,0.0739334449172,-0.000157597183716,0.01060171891,-0.000129378124257,0.000645824882668,9.53331546043e-05,-8.50300602906e-06,0.00961317401379,0.48090588197,-0.00905058614229,0.116677797321,-0.0162900850594,0.916173608683,0.400075258375,0.0173302971434
-0.108540393412,0.163589403033,0.0815180614591,-2.47818636894,0.0666520297527,2.65767908096,-0.910246193409,0.0739334449172,-0.00312148220837,0.00797352287918,-0.000369098415831,0.000391258421587,8.39680433273e-06,-0.000140689749969,0.0122626526281,0.48087752622,-0.00904926254084,0.116608538757,-0.0163273270639,0.916207833822,0.399998082791,0.0172672255647
-0.108537971973,0.163679838181,0.0815193355083,-2.47819209099,0.0666512176394,2.65767931938,-0.910072803497,0.0739334449172,0.00013458263129,0.00221658707596,-0.000198589405045,-1.25508613564e-05,-4.73744512419e-05,2.51421297435e-05,0.00888303294778,0.480855213859,-0.00904524459063,0.116563256276,-0.0163523995566,0.916242359736,0.399919828881,0.0172240355984
-0.108531996608,0.163707330823,0.0815235078335,-2.47818279266,0.0666519775987,2.65768098831,-0.909683644772,0.0739334449172,-9.6341704193e-05,0.000111168854346,0.000415733578848,0.00059753342066,-0.000151227941387,0.000163743345183,0.0130505720153,0.480854552909,-0.00903979855876,0.11655350658,-0.0163607436232,0.91631842523,0.39974560216,0.0172140316663
-0.10853035748,0.163698002696,0.0815227255225,-2.47817087173,0.0666524097323,2.65768361092,-0.909380495548,0.0739334449172,0.000102328929643,0.000272772362223,-0.000118858508358,0.00024841161212,4.79984009871e-05,-4.87636170874e-05,0.0201679058373,0.480863267532,-0.00903990496569,0.116562359065,-0.0163579187329,0.91637877119,0.39960701124,0.0172221501604
-0.108529806137,0.163694187999,0.0815210714936,-2.47816801071,0.0666521266103,2.65768551826,-0.908999323845,0.0739334449172,-0.000205418473342,-0.000361176556908,-0.000300023908494,-0.000440073315986,-5.64831971133e-05,-7.74154341343e-06,0.027542674914,0.480865956734,-0.00904067711047,0.116565344306,-0.0163590040964,0.916455040306,0.399431995787,0.0172227322389
-0.108527041972,0.163702189922,0.0815239176154,-2.4781692028,0.0666497498751,2.65768575668,-0.9084405303,0.0739334449172,-0.000536519393791,0.00147675652988,0.000254722806858,-3.37342353305e-05,7.9727753473e-05,5.33653437742e-05,0.0404989346862,0.480863729562,-0.00903774969873,0.116561135359,-0.0163657422131,0.916565149833,0.399179363006,0.0172140763553
-0.10852882266,0.163710325956,0.0815216675401,-2.47817254066,0.0666502118111,2.65768957138,-0.906082391739,0.0739334449172,0.00372488447465,-0.000496160238981,-1.715675171e-05,0.000525951909367,-9.92173809209e-05,0.000176833942533,0.0543046407402,0.4808610436,-0.00903957442513,0.116556408218,-0.0163877448574,0.917036137028,0.398096245899,0.0171913898442
-0.108524054289,0.163704320788,0.0815210193396,-2.47816419601,0.066652327776,2.6576924324,-0.905194044113,0.0739334449172,-0.000177656125743,-0.000496253429446,-1.54428144015e-05,-0.000379762263037,1.16647152026e-05,-9.25258937059e-05,0.057130523026,0.480867288128,-0.00903792685436,0.116562448435,-0.016391884674,0.917212320805,0.397689957716,0.0171919135892
-0.108523719013,0.163701400161,0.0815217792988,-2.47815656662,0.0666503235698,2.65769600868,-0.904118776321,0.0739334449172,-0.000359398633009,-0.000222883740207,0.000226799791562,0.000153034110554,2.47340740316e-05,-9.85646402114e-05,0.0773721709847,0.480872625063,-0.00903772233667,0.116566832759,-0.0163975777787,0.91742537993,0.397198089642,0.0171892108308
-0.10852535814,0.163706049323,0.0815205872059,-2.4781537056,0.0666506811976,2.6577000618,-0.902510523796,0.0739334449172,-2.05236665352e-06,-0.00381640461273,-8.00417401479e-05,2.24868617806e-05,-9.62645717664e-05,-6.20525461272e-05,0.0615450926125,0.48087394516,-0.00903914796449,0.11656596311,-0.016410943313,0.917745125045,0.396458716195,0.017177090258
-0.108528986573,0.163711562753,0.0815198123455,-2.47815179825,0.0666515305638,2.65770244598,-0.900823831558,0.0739334449172,0.000560586748179,-0.000546777562704,0.000137981871376,0.000450055929832,4.65231169073e-05,9.11123279366e-05,0.062073327601,0.48087421559,-0.009041229141,0.11656419882,-0.0164259030155,0.91808019875,0.395682163538,0.0171628526932
-0.108521960676,0.163708522916,0.0815222114325,-2.4781460762,0.0666513741016,2.65770721436,-0.899672031403,0.0739334449172,-0.000303064327454,-0.000904903514311,0.000128345243866,0.00181338773109,-7.84559742897e-05,1.50080159074e-05,0.0712161883712,0.48087894003,-0.00903692173756,0.116568098359,-0.0164329204334,0.918305983284,0.395157733729,0.0171594098525
-0.108517713845,0.163708493114,0.0815239772201,-2.47812128067,0.0666507482529,2.65770888329,-0.898405075073,0.0739334449172,0.000319057144225,-4.98010485899e-05,-0.000307688547764,0.00325649254955,6.17049317952e-06,7.14740526746e-05,0.0831860676408,0.480892125522,-0.00903450671449,0.116576909738,-0.0164382169062,0.918554692427,0.39457896996,0.0171609496453
-0.108520805836,0.16371448338,0.081522397697,-2.47805690765,0.066651172936,2.65771412849,-0.896504938602,0.0739334449172,0.000848793890327,-0.000481564551592,-0.000543650123291,0.00645471923053,-8.13002134237e-06,0.00090870691929,0.0999339148402,0.480925046457,-0.00903799624686,0.116596922219,-0.0164411807018,0.918929826563,0.393703830189,0.0171742600036
-0.108518540859,0.163721591234,0.0815222561359,-2.47769284248,0.0666509866714,2.65771889687,-0.891608953476,0.0738349407911,0.000122317331261,-0.000685216626152,-5.26388757862e-05,0.00874558743089,5.1227529184e-05,-0.000111934772576,0.104703783989,0.481111860807,-0.00904387109292,0.116720757588,-0.0164077932856,0.919888365855,0.391454909408,0.0172983313128
-0.108516119421,0.163723543286,0.0815220922232,-2.47748351097,0.0666512027383,2.65771889687,-0.889918506145,0.0738349407911,0.000108203974378,-0.00304317800328,-7.32822954888e-05,0.0144735816866,-3.86408028135e-05,-0.000207223391044,0.100535497069,0.481219130902,-0.00904673150085,0.11679276388,-0.01637933972,0.920217292037,0.39067868068,0.0173787459378
-0.108518488705,0.163726955652,0.0815221592784,-2.47719907761,0.0666515082121,2.65771794319,-0.888493776321,0.0738349407911,-0.00210891128518,0.000303361419355,0.00122534797993,0.0250350181013,7.1981587098e-05,-0.000111025801743,0.10296355933,0.481375943449,-0.00905397426301,0.116897962861,-0.0163298277658,0.92051348606,0.389976759895,0.0175038604563
-0.108521446586,0.163733780384,0.0815194919705,-2.47666096687,0.0666531771421,2.65772151947,-0.886086344719,0.0738349407911,0.000347731343936,-0.000476248096675,0.00361426663585,0.0248902682215,-0.000101316305518,0.00027901341673,0.117676183581,0.481640350694,-0.00906608521664,0.117074914377,-0.0162440496811,0.920961228214,0.388912080453,0.0177183615365
-0.108517885208,0.163738787174,0.0815213024616,-2.47581481934,0.0666506066918,2.65772628784,-0.882323086262,0.0738349407911,-0.00035363988718,-0.00257723964751,0.00162417057436,0.0283381827176,3.38370336976e-05,0.000136701448355,0.124316595495,0.482075178514,-0.0090796371782,0.11736838545,-0.0161023142932,0.921684770217,0.387183776866,0.0180726987224
-0.108517982066,0.163738757372,0.081520833075,-2.475689888,0.066650994122,2.65772604942,-0.88184940815,0.0738349407911,0.000211914550164,-0.00118366186507,0.00396759621799,0.0309552289546,-4.53422180726e-05,-0.000235495128436,0.120092563331,0.482139306149,-0.00908229198696,0.117412025246,-0.0160808947315,0.921775836628,0.386965334863,0.0181257035567
-0.108518630266,0.163736045361,0.0815186277032,-2.47456717491,0.0666503459215,2.65773224831,-0.878152251244,0.0738349407911,-0.000391477486119,0.000146242295159,-0.000285313522909,0.0356449522078,3.99941418436e-05,0.00223030941561,0.118684232235,0.48271769871,-0.00910536139758,0.117806511363,-0.0158811179221,0.922482841665,0.385262005424,0.0186113886205
-0.108518533409,0.163736075163,0.0815195515752,-2.47397422791,0.0666511878371,2.6577372551,-0.87615185976,0.0738349407911,0.000112080830149,0.000221233305638,-0.000558166007977,0.0379356667399,-0.000211777791264,0.000366357446183,0.115505449474,0.483023085355,-0.00911624198652,0.11801459,-0.0157771811552,0.922863755082,0.384340425582,0.0188681492492
-0.1085203439,0.16373924911,0.0815196335316,-2.47321248055,0.0666508674622,2.65774083138,-0.873658180237,0.0738349407911,2.91354135697e-05,-0.00046243093675,-0.000519815308508,0.0320380330086,2.52132340393e-05,-7.14130146662e-05,0.117594927549,0.483395827159,-0.00913082833779,0.118267948308,-0.0156508550836,0.92331560894,0.383243308852,0.019180795763
-0.108521565795,0.163738936186,0.0815175548196,-2.47262215614,0.0666510611773,2.65774774551,-0.871642112732,0.0738349407911,-0.000108563457616,-0.000359622208634,0.000147804254084,0.0332849286497,-3.2682561141e-05,0.00161960104015,0.116152442992,0.483734698215,-0.00914528393474,0.118499900719,-0.0155360096038,0.923740920055,0.38220723552,0.0194672499327
-0.108516678214,0.16372936964,0.081522077322,-2.47135734558,0.0666499510407,2.65892577171,-0.86745262146,0.0738349407911,5.25513496541e-05,0.000787929457147,0.000263358582743,0.0191873367876,-5.09569617861e-05,0.032995402813,0.0800343379378,0.484622570264,-0.00919138012137,0.119046512174,-0.0150529208375,0.924506569409,0.38031529444,0.0205253304921
-0.108516864479,0.163728788495,0.0815203562379,-2.4710586071,0.0666510909796,2.65940999985,-0.866050601006,0.0734915062785,-0.000683219870552,-0.000138955569128,-0.00029922122485,0.016593568027,-0.000104270038719,0.01828016527,0.0927357599139,0.484880087982,-0.00920914140631,0.119196948403,-0.0148956564787,0.924770730959,0.379660106443,0.0208666681179
-0.108521007001,0.163730874658,0.0815197452903,-2.47081232071,0.0666509568691,2.65973329544,-0.864525973797,0.0734915062785,-0.000440929201432,0.000199710717425,-0.00125469267368,0.0149091845378,-0.000132407716592,0.0223895777017,0.0967968553305,0.485075386799,-0.00922352956458,0.11931278532,-0.0147880507027,0.925058493606,0.378949124094,0.0211106133347
-0.108521200716,0.16372962296,0.0815159827471,-2.47055649757,0.0666514411569,2.66005063057,-0.862831234932,0.0734915062785,-0.000300046842312,0.000277811137494,3.71528840333e-05,0.00885973870754,5.27030315425e-05,0.015109134838,0.0651477426291,0.485274940358,-0.00923772915657,0.119433107962,-0.0146811968791,0.925377649144,0.378159443161,0.0213565951132
-0.108518861234,0.163729846478,0.081519536674,-2.47026777267,0.0666514411569,2.66060876846,-0.859620034695,0.0734915062785,0.000451085128589,-0.000147017781273,0.000532167148776,-2.10548550967e-05,3.77490760002e-05,0.0158846694976,0.0629208981991,0.485542979848,-0.00925307223439,0.119586961016,-0.0145305334574,0.92597937169,0.376669077748,0.0217134141474
-0.108518563211,0.163733020425,0.0815207883716,-2.47024941444,0.0666503533721,2.66077327728,-0.858495950699,0.0734915062785,-0.002201737836,-4.76350942336e-06,5.33641941729e-05,0.00135731534101,-4.39999967057e-05,0.00714324740693,0.0702305585146,0.485587166448,-0.00925636092863,0.119607286509,-0.0145022287274,0.926190081343,0.376147597531,0.0217853882045
-0.108512990177,0.163736715913,0.0815201625228,-2.47024726868,0.0666501447558,2.66094517708,-0.857189059258,0.0734915062785,-0.000159720540978,4.03633566748e-05,-0.000366764492355,-0.000677445612382,-4.01975485147e-05,0.00729597639292,0.056057523936,0.48562456603,-0.00925788060659,0.119622323922,-0.0144777991508,0.926434446815,0.37554242335,0.0218517055225
-0.108504377306,0.163766920567,0.0815210565925,-2.47025251389,0.0666507855058,2.66125583649,-0.855084896088,0.0734915062785,-0.000337275589118,0.000440872710897,-6.87070278218e-05,-0.000140419986565,1.49052330016e-05,0.00769327627495,0.0397136136889,0.485682506769,-0.00925955344785,0.119634928118,-0.0144388144645,0.926827171024,0.374567365036,0.021959153485
-0.108502335846,0.163774579763,0.0815220996737,-2.47024893761,0.0666524097323,2.66137862206,-0.854382395744,0.0734915062785,-0.000263773807092,0.000614001881331,0.00200554472394,0.00056659989059,2.81384973277e-06,0.0050992872566,0.033446893096,0.485709201301,-0.00926069685603,0.119643985236,-0.0144202481215,0.926958194597,0.374240890087,0.0220072211553
-0.108496449888,0.163783296943,0.0815214216709,-2.47024536133,0.0666516125202,2.6614921093,-0.853905558586,0.0734915062785,0.00114597706124,0.00369933550246,0.00099042954389,0.000444202421932,4.2796255002e-05,0.00829543080181,0.0265708938241,0.485733675492,-0.00926067504339,0.11965164814,-0.0144009631823,0.927046146245,0.37402107418,0.0220520009339
-0.108462311327,0.163933426142,0.081524066627,-2.47023892403,0.0666513815522,2.66189718246,-0.852347970009,0.0723259225488,0.000299487641314,0.00519818626344,0.000113372887427,-0.000195874206838,-4.25160360464e-05,0.00989943183959,0.040093049407,0.485792736047,-0.00924868460766,0.119619227133,-0.0143611581822,0.927330977273,0.373309579156,0.0221579222662
-0.108447551727,0.164026156068,0.0815273076296,-2.47023487091,0.066652558744,2.66199445724,-0.851835548878,0.0723259225488,-3.09724055114e-05,0.00368576264009,-1.17755325846e-05,9.56338408287e-05,5.87419381191e-05,0.00419788807631,0.0367095433176,0.485795899534,-0.00923859990891,0.119578992699,-0.0143677755555,0.927435689818,0.37304913073,0.0221574823349
-0.108424514532,0.164180591702,0.0815275460482,-2.47023320198,0.0666513592005,2.66213488579,-0.851309359074,0.0723259225488,0.00175139075145,0.00727610196918,-0.00404307385907,0.000417853618274,6.06971843808e-05,0.00818371772766,0.0265146885067,0.485794818831,-0.00922838635167,0.119523926939,-0.0143767224691,0.927519050891,0.37284192412,0.0221499297268
-0.108401574194,0.1644218117,0.0815319642425,-2.47022104263,0.0666522830725,2.66229009628,-0.850948512554,0.0723259225488,-3.73053467229e-06,0.0164094381034,-0.000115360191558,0.000206578697544,8.12695816421e-06,0.00681982422248,0.0191096160561,0.485783540077,-0.00921316735337,0.119426054875,-0.0144008451225,0.927583430785,0.372682820456,0.0221158226903
-0.108369737864,0.164843201637,0.0815321803093,-2.47021269798,0.0666507035494,2.66252040863,-0.850603878498,0.0721604451537,0.000834696693346,0.0160589497536,0.000221422524191,0.000265083363047,4.43390963483e-05,0.00720586208627,0.0129650589079,0.485746048602,-0.00919202787825,0.119237702679,-0.0144530816447,0.927647974897,0.372525261713,0.0220288939624
-0.108345471323,0.165195584297,0.0815377980471,-2.47020792961,0.0666511058807,2.66266536713,-0.850340425968,0.0721604451537,0.001634560409,0.0235191825777,-0.000154761917656,0.000691016670316,9.30017704377e-05,0.00302213453688,0.0146350329742,0.485707269646,-0.00917390771232,0.119091433906,-0.0145031482335,0.927692055686,0.372418584531,0.0219432469701
-0.108325384557,0.165545329452,0.0815403908491,-2.47021245956,0.0666501149535,2.66277718544,-0.850111484528,0.0721604451537,-0.00070181582123,0.0232508275658,0.000138381830766,-0.000347051740391,-6.50249203318e-05,0.00492823543027,0.0122056547552,0.485654856945,-0.00915722638172,0.1189311006,-0.0145638170459,0.927733674615,0.372318892726,0.0218349724383
-0.108294516802,0.165981471539,0.081543058157,-2.47020983696,0.0666508302093,2.66288709641,-0.849784970284,0.0721604451537,0.00519576482475,0.0185079947114,0.000301490683341,-0.00028520214255,9.24424239201e-06,0.0025496641174,0.0198757052422,0.485587342341,-0.00913332068134,0.118731330649,-0.014645330731,0.92779248795,0.372177565978,0.0216903816857
-0.108225598931,0.167101457715,0.0815545171499,-2.47021889687,0.0666511282325,2.66301560402,-0.848679721355,0.0721604451537,0.000388122221921,0.025747615844,0.00035325778299,0.000221691589104,-0.00012288945436,0.00137413467746,0.0239171907306,0.485367598214,-0.00906938552373,0.118186735768,-0.0149006066813,0.927998165598,0.37168080739,0.0212309601793
-0.108205378056,0.167517617345,0.0815612748265,-2.47020936012,0.0666518583894,2.6630461216,-0.848346531391,0.0721604451537,0.000247478834353,0.0210363306105,-0.000323935324559,6.6996566602e-05,-7.68503159634e-05,9.30494279601e-05,0.0133687835187,0.485295137422,-0.00904869229012,0.118003616881,-0.0149884088296,0.928055016218,0.371544282169,0.0210732186523
-0.108174346387,0.167954072356,0.0815734043717,-2.47021913528,0.0666520819068,2.66308498383,-0.848051607609,0.0721604451537,0.00202457257546,0.0214122384787,0.00203774566762,0.000172779007698,1.2199725461e-06,0.00223795301281,0.0109486784786,0.485205609464,-0.00901795992597,0.117792911919,-0.0150885477327,0.928106051879,0.371422993058,0.0208914361641
-0.108101330698,0.168972611427,0.081631667912,-2.47021651268,0.0666529759765,2.66315603256,-0.847437918186,0.0721604451537,0.000102925550891,0.0177382454276,0.000555956677999,-0.000730318075512,2.75089169008e-05,0.000376674783183,0.00970662012696,0.485005519623,-0.00893055601742,0.117308663673,-0.0153232361959,0.928205357345,0.371188534466,0.0204715556987
-0.108077645302,0.169316321611,0.0816651061177,-2.47021698952,0.0666515231133,2.66318106651,-0.847203910351,0.0721604451537,0.00160725298338,0.0230655930936,0.00149703642819,0.000287484261207,4.8657766456e-05,2.14442134165e-05,0.0205191653222,0.48493757932,-0.00889447266439,0.117145016235,-0.0154034555419,0.92824117013,0.371103441933,0.0203297491961
-0.108060061932,0.169638887048,0.0817011967301,-2.47021436691,0.0666519477963,2.6632130146,-0.846946358681,0.0721604451537,0.00261403270997,0.0198340397328,0.00128938839771,-0.000243073271122,3.22996893374e-05,0.00309235835448,0.0103332297876,0.484877189311,-0.00886064825293,0.116993353502,-0.0154773186129,0.928282037004,0.371005115009,0.0202018985517
-0.108011081815,0.170390099287,0.0818287283182,-2.47021603584,0.0666511505842,2.66327023506,-0.846333324909,0.0709836930037,0.00128484447487,0.0138063244522,0.00111800117884,0.000314351462293,0.000177288995474,0.00188351760153,0.0134787559509,0.484729269881,-0.00875511211239,0.116636229005,-0.0156581328911,0.9283698355,0.370794422802,0.0198938963129
-0.107989907265,0.170534610748,0.0818585976958,-2.47021985054,0.0666515380144,2.66328597069,-0.846165657043,0.0709836930037,-8.09016637504e-05,0.00966778956354,0.000307149603032,7.84837611718e-05,1.14886506708e-05,0.000495014130138,0.00944099668413,0.484701963883,-0.00872798090142,0.116571039252,-0.0156915631733,0.928390862007,0.370743326553,0.0198385404669
-0.107959680259,0.170655995607,0.081893928349,-2.47022128105,0.0666522607207,2.66329789162,-0.845900833607,0.0709836930037,0.00321802357212,0.00274602230638,0.00176631822251,-0.000266431452474,1.50688038048e-05,0.000190841557924,0.0164256747812,0.484676604095,-0.00869097792504,0.116509056405,-0.0157258205377,0.928431057476,0.370644074504,0.0197848376477
-0.107937976718,0.170741915703,0.081926420331,-2.47021651268,0.0666518136859,2.66331028938,-0.845585823059,0.0709836930037,0.000116449977213,0.00603823782876,0.00191619212274,0.000235075189266,3.30958282575e-05,8.92925381777e-05,0.0166711006314,0.484664236798,-0.00866363123962,0.116472263549,-0.0157471930516,0.928477487404,0.370528476319,0.0197542202134
-0.107923038304,0.170794889331,0.0819839537144,-2.47021651268,0.0666518881917,2.66333246231,-0.845162689686,0.0709836930037,0.00057187420316,0.000342075974913,0.000369032553863,0.000659931392875,-6.52172020636e-05,4.07664192608e-05,0.0161407366395,0.484658481386,-0.00862335866614,0.116447574777,-0.0157648602099,0.928547344513,0.370353483202,0.0197381697261
-0.107911348343,0.170796275139,0.0820145457983,-2.4702091217,0.0666519701481,2.6633515358,-0.844961881638,0.0709836930037,0.00216176570393,-0.000114147966087,0.000388574932003,0.00034114549635,0.000103793019662,0.000855329912156,0.0153388753533,0.484666160272,-0.00860371874456,0.116451442995,-0.0157641397531,0.928574920566,0.370283817509,0.0197484928434
-0.107905484736,0.170795276761,0.0820336267352,-2.47020721436,0.0666503608227,2.66336584091,-0.844867765903,0.0709836930037,-0.000155352230649,0.000288800249109,0.000836128077935,-2.78679890471e-05,0.000168262020452,8.53715537232e-05,0.0110014732927,0.48467182368,-0.00858795293218,0.116454404914,-0.0157623107246,0.928590135304,0.370245231611,0.0197579940567
-0.107886224985,0.170796111226,0.08206397295,-2.47020769119,0.0666508227587,2.6634042263,-0.844753921032,0.0709836930037,0.00172261917032,0.000297373015201,0.0019201565301,-0.000547172676306,-3.14864664688e-05,0.000904678308871,0.00629200413823,0.484679396174,-0.00856622410244,0.116457337256,-0.0157581624677,0.928599767325,0.370220445316,0.0197730623239
-0.107845380902,0.170801490545,0.0821373462677,-2.47020745277,0.0666525512934,2.66348099709,-0.844575881958,0.0709836930037,5.23772796441e-05,0.00108893390279,0.000800159701612,0.000357420853106,-1.34630670345e-06,0.000130387081299,0.00575618585572,0.484695936936,-0.00851144399199,0.116462400242,-0.015751000162,0.928611616846,0.370189308846,0.0198052102626
-0.107829898596,0.17080104351,0.0821562260389,-2.47020840645,0.0666527450085,2.66349983215,-0.844493508339,0.0709836930037,8.34195670905e-05,0.000109251479444,0.00108844868373,-5.42568923265e-05,6.14272503299e-05,0.000114059141197,0.00421929452568,0.484699975186,-0.00849464783333,0.116464165982,-0.015749473023,0.92862054603,0.37016654488,0.0198132361416
-0.107820034027,0.170801922679,0.0821707397699,-2.47020936012,0.0666516795754,2.66351699829,-0.844417154789,0.0698095783591,0.00171504972968,-0.000318304577377,0.00089954957366,-0.000221839349251,5.85789603065e-05,5.95573728788e-05,0.00032589622424,0.484703263131,-0.00848277905849,0.116465103313,-0.0157478756557,0.928630016518,0.370142504399,0.0198197617356
-0.10781069845,0.170801505446,0.0821929946542,-2.4702064991,0.0666509866714,2.66354060173,-0.844374358654,0.0698095783591,-0.000136711911182,-7.86157252151e-05,0.00178684364073,-1.64427019627e-05,-7.69333346398e-05,0.000136535149068,0.00597399147227,0.484710270964,-0.00846742504202,0.116468655068,-0.0157441776781,0.928631966211,0.370137112537,0.0198320399098
-0.107797436416,0.17080321908,0.0822176113725,-2.47020816803,0.0666518211365,2.66357398033,-0.844332337379,0.0698095783591,0.000279690197203,0.000662817910779,-7.85963493399e-05,-8.9914239652e-05,0.000142377408338,6.67232689011e-06,-0.000366357766325,0.484716805196,-0.00844822307912,0.116470326006,-0.0157402600653,0.928632888208,0.370134210092,0.0198461420779
-0.107790462673,0.170806393027,0.0822368711233,-2.47020864487,0.0666521713138,2.66359019279,-0.844303786755,0.0698095783591,-4.89365811518e-05,-0.000278589985101,0.00429237307981,-0.00025012291735,0.000125489692437,-6.0784703237e-05,0.00100841373205,0.484719536603,-0.00843599953471,0.11647046222,-0.0157395064329,0.928633425636,0.370132587459,0.0198518541846
-0.107786662877,0.1708073318,0.082254357636,-2.47021102905,0.0666516050696,2.66360640526,-0.844282329082,0.0698095783591,-7.30062747607e-05,-9.38436423894e-05,-0.000252082565567,0.000539080880117,-0.000122920406284,1.15981702038e-05,-0.000277587532764,0.484721855732,-0.00842547994031,0.116470804988,-0.0157381764139,0.928633402183,0.370132378851,0.0198578942425
-0.107779353857,0.170808359981,0.0822692587972,-2.47020697594,0.066650621593,2.66362261772,-0.844257056713,0.0698095783591,-3.0815757782e-05,-0.000278429593891,-0.000350641203113,-4.948962669e-05,-5.56945742574e-05,0.00212003639899,-0.000176042201929,0.484727957305,-0.00841421101272,0.116473681972,-0.0157349617914,0.928633726924,0.370131183958,0.0198675248165
-0.107768774033,0.170807212591,0.0822888836265,-2.47020864487,0.0666508749127,2.66364455223,-0.844228804111,0.0698095783591,-0.000504157331306,6.55026597087e-05,0.00166719325352,0.000268200295977,4.3634827307e-05,0.00287086353637,0.000109762091597,0.484731914694,-0.00839998327841,0.116475484312,-0.0157326109341,0.928633487234,0.370131400267,0.0198765580967
-0.107764646411,0.170811831951,0.0822963789105,-2.47020745277,0.0666506662965,2.66365456581,-0.844212472439,0.0698095783591,0.000151165862917,0.000628688372672,0.000299470761092,0.000285880349111,0.000155759815243,3.16446858051e-05,0.00141432392411,0.4847338207,-0.00839427453914,0.116474653705,-0.0157320067489,0.928634360442,0.370129071864,0.0198795979725
-0.107762061059,0.170812040567,0.0823040157557,-2.47020602226,0.0666510239244,2.66366410255,-0.844194829464,0.0698095783591,-0.000431833090261,9.46380168898e-05,0.00245499005541,-0.00044581873226,9.37920121942e-05,0.000136037328048,0.00234653102234,0.484736685531,-0.00838932413042,0.116475993657,-0.0157305617367,0.928635784228,0.3701252954,0.0198845434227
-0.107758723199,0.170813813806,0.0823094621301,-2.47020745277,0.0666514709592,2.66367149353,-0.844185173512,0.0698095783591,-0.000446118036052,0.000423500256147,0.00204870779999,-0.000258131534792,-2.06919994525e-05,-2.28756762226e-05,0.000391304231016,0.484737260176,-0.00838499508487,0.11647536222,-0.0157302900248,0.928636043723,0.370124549665,0.0198865204216
-0.107752732933,0.170812919736,0.0823148041964,-2.4702064991,0.066651634872,2.66368198395,-0.844173908234,0.0635416954756,-2.84505531454e-05,0.00191112305038,6.01121646469e-05,-0.000153095257701,-3.31043411279e-05,4.60110368294e-06,0.00289518595673,0.484740323356,-0.00837961707128,0.116477138783,-0.0157282018547,0.928636041072,0.37012434569,0.0198920914118
-0.107751712203,0.170813173056,0.082325860858,-2.4702064991,0.0666506588459,2.6636941433,-0.844159901142,0.0635416954756,0.000278606632492,-0.0001059444985,0.000771175080445,-0.000292963493848,-3.75222080038e-05,0.000188999591046,0.000513010600116,0.484743035875,-0.00837372811463,0.116478223572,-0.015726415175,0.928636249955,0.37012360389,0.0198975542078
-0.107748866081,0.170812442899,0.0823304504156,-2.47021126747,0.0666506066918,2.6636993885,-0.844151973724,0.0635416954756,0.000576938735321,0.000367624452338,-0.00016620446695,0.000344902946381,1.99454716494e-05,3.80231313102e-06,0.00202995212749,0.484741955764,-0.00837003684134,0.116477427356,-0.0157264962207,0.928636361755,0.370123291276,0.0198980873765
-0.107744477689,0.170813381672,0.0823368057609,-2.47020888329,0.066651687026,2.66370654106,-0.844142258167,0.0635416954756,0.00022215480567,-2.58585860138e-05,0.00244475970976,0.000237864456722,-0.00012771312322,0.00135156151373,3.48215435224e-05,0.48474463911,-0.00836480162004,0.116478519042,-0.0157255536251,0.928636336433,0.370123175899,0.0199021598219
-0.107742764056,0.170814171433,0.0823446586728,-2.47020721436,0.0666508376598,2.66371011734,-0.844135582447,0.0635416954756,0.000386738160159,3.3082770301e-07,9.39347009989e-05,0.000101690333395,5.64250658499e-05,9.20562670217e-05,0.000256137747783,0.48474620709,-0.00836004515825,0.116479110436,-0.0157251755485,0.928635668691,0.370124753349,0.019904279211
-0.107737839222,0.170816957951,0.0823550894856,-2.47020816803,0.0666517242789,2.6637237072,-0.844114899635,0.0635416954756,-3.49186266249e-05,-0.000938369310461,0.00231472332962,-0.000133865280077,4.13425987063e-05,0.000112366724352,-0.000224558229093,0.484748221552,-0.00835249931917,0.116478768219,-0.0157243009623,0.928636829445,0.370121629659,0.0199089000324
-0.107734486461,0.170818015933,0.0823576450348,-2.47020888329,0.0666509196162,2.66372680664,-0.844110071659,0.0635416954756,6.17751211394e-05,0.000751493847929,0.00147860951256,-0.000186614823178,0.00010122245294,-8.18125772639e-05,0.00293371896259,0.484748405951,-0.00834999941134,0.116478347625,-0.0157241083771,0.928636676665,0.370121994008,0.0199094049077
-0.107732102275,0.170818686485,0.0823630914092,-2.47021055222,0.0666505172849,2.66373157501,-0.844101428986,0.0635416954756,1.42233820952e-05,-0.000508897821419,0.000982674886473,-0.00354474596679,-5.60537773708e-05,-0.000125779173686,0.00311592943035,0.484748466511,-0.00834572422074,0.116477886212,-0.015724025009,0.92863662485,0.37012206617,0.0199105460108
-0.107726931572,0.170818716288,0.0823693946004,-2.47020769119,0.0666523948312,2.66373825073,-0.844095647335,0.0635416954756,-6.45642194286e-06,0.000132253713673,0.000234988561715,-0.000131886685267,2.53137604886e-05,0.000103149483039,-0.000773902051151,0.484751494669,-0.00834013768193,0.116479539991,-0.0157230178844,0.928635851358,0.370123803251,0.019915125728
-0.107721917331,0.170820966363,0.0823783427477,-2.47020792961,0.0666519030929,2.6637430191,-0.84408557415,0.0634530410171,0.000517610867973,0.00050772423856,0.000208869387279,2.12184677366e-05,-3.89884335164e-05,3.19321152347e-05,0.000470285740448,0.484752067143,-0.00833316748644,0.116478877832,-0.0157233274537,0.928635082801,0.370125656636,0.019916273474
-0.107721559703,0.170821577311,0.0823823139071,-2.47021055222,0.0666508451104,2.66374564171,-0.84408146143,0.0634530410171,-4.7341472964e-05,-0.000154322871822,-0.000112645691843,-4.89116391691e-05,-0.000156923706527,-2.32564088947e-05,1.60176841746e-06,0.484751138955,-0.0083307271471,0.116477879579,-0.0157235724592,0.928634869781,0.370126197474,0.0199159615267
-0.107717595994,0.170821473002,0.0823888480663,-2.47021055222,0.0666506141424,2.66374897957,-0.84407377243,0.0634530410171,-1.22779320009e-05,-0.000480418442748,0.000335925258696,-0.000409139873227,8.86034613359e-05,0.000212040366023,0.000722651544493,0.484752059077,-0.0083257736735,0.116478344365,-0.0157234045579,0.928634350052,0.370127420741,0.0199175940558
-0.107715636492,0.170820966363,0.0823919475079,-2.47020697594,0.0666508153081,2.6637532711,-0.844066202641,0.0634530410171,0.000100772354926,-0.000343084015185,8.03897273727e-05,0.000195013257326,9.76455630735e-05,-2.90281695925e-05,0.000100525714515,0.484754986259,-0.00832340062496,0.116480261101,-0.0157220196549,0.928634816898,0.370126102278,0.0199214216314
-0.107710033655,0.170821234584,0.0824030712247,-2.47020626068,0.0666524171829,2.66375875473,-0.84404617548,0.0634530410171,0.00123324501328,-2.72987690551e-05,0.000524385075551,0.000143158293213,-1.48790595631e-05,3.85034181818e-05,0.00111119751818,0.484756664796,-0.00831505912803,0.116480974221,-0.0157222557219,0.928635688015,0.370123746838,0.0199243903524
-0.107707284391,0.170825988054,0.0824094042182,-2.47020864487,0.0666511878371,2.66376471519,-0.844026446342,0.0634530410171,-6.06362391409e-06,0.000416632945416,-1.64480059084e-06,-0.00169473397546,0.000195119107957,-0.000105775827251,0.000921023020055,0.484755727463,-0.00831071906666,0.116478478543,-0.0157228923661,0.928637351547,0.370119580783,0.0199237439283
-0.107704132795,0.170829534531,0.0824131295085,-2.4702103138,0.0666508823633,2.66376662254,-0.844014823437,0.0634530410171,0.00202792976052,-0.000317921745591,0.000468391081085,0.000316733086947,2.94583205687e-05,0.00015498198627,0.000457408954389,0.484754662991,-0.00830697036773,0.116476350333,-0.0157241307919,0.928638403598,0.370116968446,0.0199222595503
-0.107703544199,0.170825019479,0.0824174433947,-2.4702091217,0.0666517093778,2.66376924515,-0.844000279903,0.0634530410171,7.15014248271e-05,-9.0301160526e-05,-0.000139496201882,0.000247403950198,0.000107405183371,4.08101295761e-05,-8.85438294063e-06,0.484756872412,-0.0083046344651,0.116479223387,-0.0157229461619,0.928640272543,0.370112124248,0.0199260719743
-0.107700429857,0.1708214432,0.0824226588011,-2.47020483017,0.0666524469852,2.66377282143,-0.843973219395,0.0634530410171,0.000531380297616,0.000131003311253,0.000297562510241,0.000206156109925,3.63430626749e-05,1.24098378365e-05,-4.28902749263e-05,0.484760620392,-0.00829969390335,0.116482776686,-0.0157215098011,0.928643689043,0.370103339138,0.0199311558268
-0.107696756721,0.170826524496,0.0824312120676,-2.47020745277,0.0666507184505,2.66377329826,-0.843952357769,0.0634530410171,-0.00034032255644,0.000154967172421,-0.00029481164529,4.45348196081e-05,2.09657937376e-05,-3.02307562379e-05,0.000109891370812,0.484758502395,-0.0082943729803,0.116479557648,-0.0157235626219,0.928645194583,0.370099649595,0.0199279002951
-0.107694774866,0.170830845833,0.0824348255992,-2.47021102905,0.066652789712,2.66377568245,-0.843927323818,0.0634530410171,-1.925855031e-05,-0.000330645096255,3.09445094899e-05,-0.000508826109581,-5.1844814152e-05,0.000124602302094,-0.000156566122314,0.484756313982,-0.00829139464384,0.116476469578,-0.0157257650746,0.928649187182,0.370089666092,0.0199255161777
-0.107691422105,0.17083118856,0.0824397355318,-2.47021102905,0.0666528344154,2.6637775898,-0.843912124634,0.0563288666308,-0.000103006226709,-0.000352379720425,0.000649179331958,-0.000683374237269,1.48165390783e-05,-0.000101545083453,8.09484117781e-05,0.484756739428,-0.00828727845803,0.116476517376,-0.0157260293271,0.928650485313,0.37008635893,0.0199262326467
-0.107689619064,0.170830577612,0.0824440941215,-2.47020721436,0.0666514784098,2.66377902031,-0.843895316124,0.0563288666308,-2.99803996313e-05,-0.000723277160432,0.000581569212954,0.000564261164982,-4.7394696594e-05,5.19959066878e-05,-0.00022284919396,0.484759204623,-0.00828431042084,0.11647831078,-0.0157250780242,0.928652211753,0.370081931278,0.019928756949
-0.10768635571,0.170829206705,0.0824522897601,-2.47020673752,0.0666511058807,2.66378355026,-0.84387588501,0.0563288666308,0.000374994211597,0.000421388278482,0.000264426285867,-0.000412766588852,0.000189434897038,3.66619169654e-05,0.000543091155123,0.484760848362,-0.00827866519793,0.116479619788,-0.0157244909001,0.928653618339,0.370078270624,0.0199316538967
-0.107681028545,0.170832484961,0.0824571326375,-2.47020721436,0.0666518211365,2.66378498077,-0.843868792057,0.0563288666308,2.63433830696e-05,0.000486865785206,0.00112704362255,0.000194938213099,8.77977217897e-05,1.82946332643e-05,0.000198832378373,0.484760310677,-0.00827352335965,0.116478039381,-0.015725719611,0.928653200099,0.370079316497,0.0199307519559
-0.107676461339,0.170834362507,0.082465775311,-2.47020840645,0.0666505098343,2.66378593445,-0.843857467175,0.0563288666308,-0.000440412230091,-1.2915206753e-06,0.0023779834155,-0.00113271013834,1.78927384695e-05,3.23468557326e-05,-6.85090126353e-05,0.484759639911,-0.00826684977186,0.1164768671,-0.0157267916328,0.928652678531,0.370080629546,0.0199298269088
-0.107668668032,0.17083580792,0.0824738368392,-2.47021174431,0.0666511133313,2.66378808022,-0.843845665455,0.049872521311,0.000259936321527,-0.00025505584199,0.000250365555985,-0.00268388492987,0.000104439131974,-1.69871073012e-05,0.000159264382091,0.484758240438,-0.00825886564157,0.116475260671,-0.0157283169952,0.92865206912,0.370082150527,0.0199287758952
-0.10765850544,0.170836001635,0.0824895575643,-2.47020602226,0.0666506737471,2.66379094124,-0.843826413155,0.049872521311,-0.000168233484146,0.000356799719157,-8.28903866932e-05,0.000413706758991,4.02785772167e-05,1.27963330669e-05,0.000177154826815,0.484762138868,-0.00824587741519,0.116477600507,-0.0157281144698,0.928650699889,0.370085372382,0.0199329085651
-0.107655830681,0.170838862658,0.0824955701828,-2.47020769119,0.0666521787643,2.66379332542,-0.84382390976,0.049872521311,7.21899414202e-05,0.000112702451588,-0.000341067934642,-0.000112452129542,5.05423158756e-05,0.000110754168418,-0.00035926522105,0.48476093408,-0.00824151303386,0.116475229679,-0.0157297979988,0.928649897442,0.37008738882,0.0199315267041
-0.107649348676,0.170843929052,0.0825019031763,-2.47020864487,0.0666517615318,2.66379261017,-0.843816101551,0.049872521311,0.000178736881935,-0.000564345740713,0.000144272809848,2.29029374168e-05,-6.2780251028e-05,-2.31159938267e-05,9.21122191357e-05,0.484759562133,-0.00823502216097,0.116473053605,-0.015731599533,0.928648955262,0.370089801051,0.0199292124498
-0.107642956078,0.170843198895,0.0825069844723,-2.47020888329,0.0666511133313,2.66379308701,-0.84381121397,0.049872521311,-0.000239183093072,0.000115831375297,0.000301190768369,-0.00292459363118,1.81437530955e-06,3.22310224874e-05,0.000345447799191,0.484759812498,-0.00822934790641,0.116473404131,-0.0157317740383,0.9286476345,0.370093084168,0.0199296502541
-0.10763412714,0.170840635896,0.0825140923262,-2.47020673752,0.0666516572237,2.66379737854,-0.843794167042,0.049872521311,0.000394806207623,-0.000332595809596,0.000810175784864,-0.000335185119184,-3.16202422255e-05,0.000188775695278,0.00035002786899,0.484762552516,-0.00822159649621,0.116475843522,-0.0157307682614,0.928647892735,0.370092257502,0.0199337620674
-0.107628509402,0.170840710402,0.082518517971,-2.4702064991,0.0666512325406,2.66379904747,-0.843787372112,0.049872521311,-0.000214167477679,-5.84359877394e-05,-0.000114234208013,-0.000225263022003,-6.11552468399e-06,-9.41224425333e-05,-0.000189876343939,0.484763118003,-0.00821664706829,0.116476078118,-0.0157307734484,0.928647227262,0.370093882632,0.0199345877202
-0.107623890042,0.170843288302,0.0825214907527,-2.47020864487,0.0666512101889,2.66379833221,-0.843783020973,0.049872521311,0.000326489302097,0.000634590745904,0.00175334804226,-0.000230366626056,5.18157612532e-05,-0.000130765125505,0.000130874876049,0.484761380041,-0.00821276369188,0.116474038484,-0.0157322969453,0.928646666765,0.370095354713,0.0199321660441
-0.107610836625,0.170846179128,0.0825304985046,-2.47020745277,0.0666501969099,2.66380238533,-0.843764007092,0.049872521311,0.000609740731306,0.000180417846423,0.00112225941848,0.000192505438463,-4.06277467846e-05,7.23804987501e-05,0.00267959502526,0.484762458898,-0.00820187235547,0.116473501344,-0.0157326975602,0.928645967557,0.370097037172,0.0199331866153
-0.107607081532,0.170845761895,0.0825337022543,-2.47020697594,0.0666509643197,2.66380310059,-0.843758285046,0.0439592376351,0.00150143692736,-0.000712601176929,0.000142607648741,0.00049876049161,-5.37161395187e-05,4.85169730382e-05,0.000255946768448,0.484763018918,-0.00819842175642,0.116473960605,-0.0157328767734,0.928645856378,0.370097264107,0.0199340112487
-0.107603088021,0.170845672488,0.0825374051929,-2.47020626068,0.0666509270668,2.66380286217,-0.84375590086,0.0439592376351,0.000691105262376,-0.000515686231665,-0.000421616074163,-0.00283427559771,-8.04089086159e-06,2.33672963077e-05,0.0043650851585,0.484763431334,-0.00819459209095,0.116474259587,-0.0157331382014,0.928644866066,0.370099720294,0.0199343375363
-0.107595808804,0.17084749043,0.0825424417853,-2.47020888329,0.0666502788663,2.66380286217,-0.843750298023,0.0439592376351,0.000424526660936,-0.000387586507713,0.00064594775904,0.000484790245537,0.000202658280614,2.49742606684e-06,-0.000365719693946,0.484761811672,-0.00818839708038,0.116472501041,-0.0157344979623,0.928643562303,0.370103042109,0.0199323273354
-0.107578843832,0.170848116279,0.0825541615486,-2.47020673752,0.066651083529,2.66380620003,-0.84373652935,0.0439592376351,-0.000319748272886,0.00200400385074,-0.00031071351259,0.000199042318854,1.8606073354e-05,-3.52351744368e-05,6.91088862368e-05,0.484763781082,-0.00817422789095,0.116473347152,-0.0157349477239,0.928640931249,0.370109494752,0.0199347387048
-0.107576712966,0.170847296715,0.0825570896268,-2.47020506859,0.0666502267122,2.66380786896,-0.843733608723,0.0439592376351,-0.000119704585813,-0.000373322254745,-0.000168787650182,0.000102994956251,8.61290827743e-05,0.0011562750442,0.000181468363735,0.484765226144,-0.0081717956977,0.116474502395,-0.0157341685309,0.928640382566,0.370110805127,0.0199365849832
-0.107572086155,0.17084929347,0.0825616046786,-2.47020769119,0.0666513070464,2.66380882263,-0.843728363514,0.0439592376351,-6.62584570819e-05,0.000748229387682,-0.000117759460409,0.000761158880778,2.10343150684e-05,-7.79765541665e-05,0.000112396293844,0.484763748989,-0.00816713335856,0.116472743728,-0.0157356527364,0.928639874217,0.370112097784,0.0199350948126
-0.107565760612,0.170850649476,0.0825659409165,-2.47020745277,0.0666501894593,2.66380786896,-0.843721032143,0.0439592376351,4.38474562543e-05,-5.32603962711e-06,0.000727074570023,0.000539544387721,-6.35489195702e-05,-2.18489931285e-05,5.9094014432e-05,0.484762825532,-0.00816343339177,0.11647167581,-0.0157365211166,0.928639592617,0.370112851438,0.01993353485
-0.107562057674,0.170848205686,0.0825705304742,-2.47020816803,0.066651456058,2.66380858421,-0.843715727329,0.0439592376351,-0.000337843288435,0.000849149830174,-0.000165846111486,0.000178979564225,6.84831175022e-05,9.69218817772e-05,0.000205127798836,0.484763863711,-0.00815730604301,0.116472819766,-0.0157368371879,0.928638904825,0.370114471878,0.0199352399316
-0.107557736337,0.17085082829,0.082574762404,-2.4702064991,0.0666508972645,2.66380953789,-0.843710243702,0.0439592376351,3.43781794072e-05,0.00120640115347,0.0020070085302,-4.08981541113e-05,-2.57043611782e-05,1.39927587952e-05,0.000202142546186,0.484764459535,-0.00815342155477,0.116472583883,-0.0157369696453,0.928638092397,0.370116495493,0.0199354103275
-0.1075527668,0.170851036906,0.0825840979815,-2.47020936012,0.0666511058807,2.66381216049,-0.843700408936,0.0418769456446,-8.83131433511e-05,-0.000430963031249,-0.000122365512652,0.000623149157036,6.71305751894e-05,1.31249225888e-05,7.72456860432e-06,0.484763663896,-0.00814620837422,0.11647179484,-0.0157379808136,0.928637329648,0.370118367992,0.0199353781726
-0.107552476227,0.170851811767,0.082590252161,-2.47020673752,0.0666506588459,2.66381454468,-0.843693375587,0.0418769456446,0.00039321416989,-0.00105505564716,-0.000591072370298,-0.000269602838671,-4.70619124826e-05,0.00465046102181,0.00030968466308,0.484765351384,-0.00814287709929,0.116472222828,-0.0157378733469,0.928637380636,0.370118150758,0.0199371209315
-0.107550598681,0.170855522156,0.0825994834304,-2.47020721436,0.0666515231133,2.66381573677,-0.843686699867,0.0418769456446,0.0003154015576,7.01909448253e-05,0.0007072063745,0.000276320468402,-6.19658312644e-05,-7.27890947019e-05,-0.000134839545353,0.484764775492,-0.00813725107694,0.116470826601,-0.0157393601055,0.928636725135,0.370119771678,0.0199363881352
-0.107550024986,0.170854642987,0.0825978070498,-2.4702103138,0.066651687026,2.66381502151,-0.843681633472,0.0418769456446,0.000251610850682,0.000306803267449,-4.24787831435e-05,0.00017934582138,-2.87378716166e-05,1.06324314402e-05,0.000173636770342,0.484763203002,-0.00813777887099,0.116470087949,-0.0157398750132,0.92863790554,0.370116865533,0.0199349507331
-0.107549533248,0.170857340097,0.0826022848487,-2.47020983696,0.0666497126222,2.66381573677,-0.843681693077,0.0418769456446,0.000210150450584,-0.000172991829459,1.13531132229e-05,-0.000538444146514,-6.57294076518e-05,5.37964442628e-05,-0.000230702818953,0.484763051104,-0.00813516418015,0.116469089554,-0.0157401927447,0.928636734361,0.370119823046,0.0199343472709
-0.107548862696,0.170854642987,0.0826056450605,-2.47021174431,0.066649787128,2.6638174057,-0.843676924706,0.0418769456446,-0.00034921002225,0.000193456638954,-0.00292044389062,0.00050773966359,-5.28875716554e-05,-0.000135435300763,-0.000119513671962,0.484763123956,-0.00813329446972,0.116469861603,-0.0157399632262,0.928636863142,0.370119457427,0.0199353176194
-0.10754904896,0.170855328441,0.0826084688306,-2.47021007538,0.0666523724794,2.66381812096,-0.843675732613,0.0418769456446,0.0016105734976,-0.000291241973173,-0.000287312315777,5.24825481989e-05,-4.37353919551e-05,5.70776319364e-06,9.78658135864e-05,0.484763983979,-0.00813186539254,0.116470207813,-0.0157404153932,0.928636967313,0.37011911339,0.0199364954221
-0.107549078763,0.170855998993,0.0826063901186,-2.47021222115,0.0666511878371,2.66381764412,-0.843672096729,0.0410679318011,0.000971474917606,-2.0155817765e-05,-0.000151721949806,-0.000287399860099,2.96372909361e-05,-0.00373172247782,0.000311961572152,0.484762809911,-0.00813286624057,0.116469333675,-0.0157405872589,0.928637878767,0.370116896143,0.0199350672541
-0.107548438013,0.170856267214,0.0826089605689,-2.47020959854,0.0666520297527,2.66381955147,-0.843669056892,0.0410679318011,0.000342159386491,-0.0010292341467,0.000272508739727,-8.11100035207e-05,-0.000203253541258,-2.4712544473e-05,-0.000286396185402,0.484764345906,-0.00813134326937,0.116470057185,-0.0157402615381,0.928637948938,0.370116637122,0.0199368645518
-0.10754840076,0.170860335231,0.0826098024845,-2.47021007538,0.0666503161192,2.6638212204,-0.843668341637,0.0410679318011,-0.00378867960535,-0.000148218154209,-0.000192206935026,-0.000287360657239,-2.63275051111e-05,1.15636134979e-06,0.000549237942323,0.484763592642,-0.0081308650883,0.116468085211,-0.0157406449041,0.928637687027,0.370117354114,0.0199354508074
-0.107547834516,0.170861303806,0.0826112180948,-2.47021055222,0.0666505172849,2.66382098198,-0.843663334846,0.0410679318011,-0.000410858949181,-0.000567067996599,0.000108364009066,-4.01792240154e-05,0.000117829185911,7.32480621082e-05,0.0019233264029,0.484763099147,-0.00812985828291,0.116467515238,-0.015741143574,0.928638282763,0.370115871524,0.0199348317384
-0.107546404004,0.170860663056,0.0826142430305,-2.47021150589,0.066651314497,2.66382288933,-0.843664228916,0.0410679318011,-0.000384153303457,-0.000363005616236,0.000524047180079,-5.91181742493e-06,2.47331554419e-05,-9.29746747715e-05,0.000175317676621,0.484763218786,-0.00812759477138,0.116467615134,-0.0157412821541,0.928637432314,0.370117958896,0.0199355844812
-0.107544735074,0.17085903883,0.0826174542308,-2.47021079063,0.0666510760784,2.66382265091,-0.843660354614,0.0410679318011,0.000607832451351,0.000273905548966,9.9442571809e-05,0.000439073657617,-2.09170484595e-05,0.00202524103224,-3.6615456338e-05,0.484763935928,-0.00812518501579,0.116468651322,-0.0157410915594,0.928637192512,0.370118516109,0.0199365603123
-0.107543423772,0.170860603452,0.0826189517975,-2.47020959854,0.0666509047151,2.66382265091,-0.843659281731,0.0410679318011,-0.000219719760935,-9.55324503593e-06,-0.0025262190029,-0.00184599857312,5.41240353868e-07,-6.62119782646e-05,0.000271960656391,0.48476423973,-0.00812376846986,0.116468324017,-0.0157413365149,0.928636851507,0.370119368329,0.0199364294614
-0.107547208667,0.170864030719,0.0826198682189,-2.47021436691,0.0666513219476,2.66382312775,-0.843653440475,0.0410679318011,-0.000321836851072,0.000451821251772,0.000214319632505,0.000220473390073,3.19921564369e-05,5.34369755769e-05,0.000152845866978,0.484761136251,-0.00812496624392,0.116465052124,-0.0157431594568,0.928638595392,0.370115100513,0.0199329911107
-0.107545793056,0.170865356922,0.0826195776463,-2.47021126747,0.0666502192616,2.66382622719,-0.843652904034,0.0410679318011,-0.000650456757285,-0.000104822727735,-0.000160982774105,0.000455657893326,0.000104221442598,9.9290664366e-05,0.000168528204085,0.484763118131,-0.00812455024607,0.116465780032,-0.0157419227821,0.928638298861,0.370115784416,0.0199350837786
-0.107545338571,0.170862615108,0.0826224386692,-2.47021102905,0.066651314497,2.66382741928,-0.843650460243,0.0410679318011,-0.000336976663675,-2.7949361538e-05,-0.000204401498195,2.73189925792e-05,-3.10953655571e-05,5.11015496159e-05,0.000307014503051,0.484764547326,-0.00812308394432,0.116467506402,-0.0157414489255,0.928638685902,0.370114687417,0.0199377951064
-0.10754366219,0.170861557126,0.0826252251863,-2.47020816803,0.0666498765349,2.66382646561,-0.843646347523,0.0410679318011,-0.000850086624268,4.23871642852e-05,0.00164351728745,-0.000226795469644,4.33596396761e-05,-1.47496321006e-05,-0.000233531784033,0.48476564857,-0.00812061126901,0.116468628963,-0.0157409223218,0.928637872671,0.370116720254,0.0199383519443
-0.107545003295,0.1708625108,0.0826288610697,-2.47021102905,0.0666512846947,2.66382789612,-0.843644201756,0.0409700907767,0.000515214516781,0.000636362063233,-0.000488975550979,-0.00268558459356,0.000114003836643,-4.12231274822e-05,0.000221293317736,0.48476433311,-0.00811947715856,0.116467462708,-0.0157419481455,0.928638196263,0.370115909476,0.0199375210967
-0.107544347644,0.170868471265,0.0826278328896,-2.47021389008,0.0666508674622,2.66382884979,-0.843641877174,0.0409700907767,0.000199251589947,-0.000260295113549,0.000568563817069,4.02484183724e-05,-6.33784075035e-05,-4.19273892476e-05,0.000154581837705,0.484761778305,-0.00811952805729,0.116463663873,-0.0157435456237,0.928638701844,0.370114767859,0.019933903397
-0.107547268271,0.170867413282,0.0826299265027,-2.47021079063,0.0666517987847,2.66382908821,-0.8436409235,0.0409700907767,0.000721899734344,-0.000356572418241,0.000232083097217,-2.77817871392e-05,-4.45704390586e-05,4.56929228676e-05,2.39449182118e-05,0.484763652885,-0.00811993299511,0.116465297936,-0.0157429913783,0.928639149507,0.370113551362,0.0199360730365
-0.107543222606,0.170866638422,0.0826309919357,-2.47021007538,0.0666507929564,2.66383004189,-0.84363925457,0.0409700907767,-0.000451588217402,-0.000101379177067,5.1988150517e-05,0.000121673481772,0.000443067256128,2.44854963967e-05,-0.000127451494336,0.484764436718,-0.00811749908115,0.116466017581,-0.0157423875059,0.92863834148,0.370115551121,0.0199370627516
-0.107541687787,0.170865148306,0.082633972168,-2.47021055222,0.0666510984302,2.66383099556,-0.843636274338,0.0409700907767,-0.000174325323314,-0.000524222617969,0.000341510691214,-2.14922347368e-05,7.85651573096e-05,-4.73665113532e-06,7.37265436328e-05,0.484764767118,-0.00811526287162,0.116466681117,-0.0157422832645,0.928638098586,0.370116113566,0.0199380173345
-0.107543759048,0.170868396759,0.0826415270567,-2.47021126747,0.0666510760784,2.66383266449,-0.843630194664,0.0409700907767,0.000121004333778,-0.00021896076214,-0.000214298503124,0.000339496851666,-7.95161613496e-05,0.00199675490148,-0.000153342451085,0.4847641341,-0.00811233097975,0.116465073377,-0.0157434871996,0.928638247606,0.370115732078,0.0199372076034
-0.107542641461,0.170866429806,0.0826424956322,-2.4702103138,0.0666511282325,2.66383266449,-0.843628764153,0.0409700907767,-4.25617372457e-06,-0.000254288432188,0.000689762353431,-0.000357910350431,-0.000127589213662,4.87652732772e-06,-9.02482352103e-05,0.484765068209,-0.00811135308446,0.116466364092,-0.0157429580301,0.928638111021,0.370116026015,0.0199385306082
-0.107539601624,0.170867905021,0.0826416909695,-2.47021150589,0.0666505843401,2.66383290291,-0.843629896641,0.0409700907767,-0.0031749359332,0.00107630435377,0.00132762966678,-0.000278263236396,-2.76757164102e-05,-2.22992748604e-05,0.000103012658656,0.484764203704,-0.00811025478981,0.116465250173,-0.0157433188106,0.928637422379,0.370117802373,0.0199373448607
-0.107540771365,0.170871719718,0.0826446413994,-2.47021174431,0.0666518062353,2.66383361816,-0.843626558781,0.0381877943873,-0.00391162000597,9.28422159632e-05,0.000284272857243,-0.000176110159373,6.61736703478e-05,7.44877179386e-05,0.000232022575801,0.484763188643,-0.0081090660054,0.116463222296,-0.0157448418367,0.928638032394,0.370116287046,0.0199358594801
-0.107539892197,0.170870274305,0.0826474949718,-2.47021245956,0.0666517093778,2.66383337975,-0.843625664711,0.0381877943873,-0.000147852129885,-0.000303210195852,0.000276158942143,-0.000102663812868,-8.41978107928e-05,-1.67223811331e-06,-0.000442634947831,0.484763375767,-0.00810732357018,0.116463861214,-0.0157447275928,0.928637398368,0.370117857046,0.0199363358062
-0.107540942729,0.170868143439,0.0826480835676,-2.47021222115,0.0666508823633,2.66383433342,-0.843625545502,0.0381877943873,-0.000303623324726,0.000796640582848,0.000197141664103,0.00018562983314,-1.19579112834e-06,-5.02198672621e-05,0.000355767871952,0.48476415984,-0.00810762410481,0.116465065352,-0.0157438322857,0.928637353785,0.370117930288,0.0199377597297
-0.107540756464,0.170868083835,0.0826509594917,-2.47021055222,0.0666510388255,2.66383767128,-0.843622684479,0.0381877943873,0.000521277077496,-0.000685573322698,-0.000254069833318,0.000262496352661,0.000114074988232,-0.000183540774742,0.000162575350259,0.484765786877,-0.00810615853607,0.116466008885,-0.0157430502013,0.928637329772,0.370117896245,0.0199401275472
-0.107540480793,0.170868858695,0.082652375102,-2.47019720078,0.0666507855058,2.66384840012,-0.843620419502,0.0381877943873,0.000100615638075,0.00020461170061,-0.000756108434871,0.000401983212214,-4.13136731368e-05,-6.28081616014e-05,0.000156423862791,0.484774814091,-0.00810577143612,0.116471310612,-0.0157382877307,0.928637300777,0.370117601002,0.0199507147066
-0.107540339231,0.170869976282,0.0826550871134,-2.47020316124,0.0666507855058,2.66384744644,-0.843617796898,0.0381877943873,0.000379782373784,0.000422883575084,7.20782772987e-05,-0.000754500681069,-8.07827891549e-05,-0.000197870584088,1.81097357199e-06,0.484771339124,-0.00810415127278,0.116468617241,-0.0157401960474,0.928637314815,0.370117678293,0.0199471215903
-0.107538744807,0.170873463154,0.0826579406857,-2.47022104263,0.066652931273,2.66384673119,-0.843615591526,0.0381877943873,0.00021223143267,0.000158352399012,-0.00132268830203,-0.000592412252445,3.10408795485e-05,-6.55303228996e-05,9.72733614617e-05,0.484761299025,-0.00810143785065,0.116460633981,-0.0157454383403,0.928637403541,0.370117761135,0.0199373140751
-0.107539571822,0.170874387026,0.0826578959823,-2.47021150589,0.0666502192616,2.66385102272,-0.843615949154,0.0381877943873,-2.19429093704e-05,0.00317831011489,-0.000376398878871,0.00152593641542,0.000148500024807,0.000482686882606,0.000357477576472,0.48476691359,-0.00810217273866,0.116463919218,-0.0157422159467,0.928637005615,0.37011859283,0.0199429527841
-0.10753621906,0.170871391892,0.0826632529497,-2.47019553185,0.0666532367468,2.66385960579,-0.843611717224,0.0381877943873,-0.00017768755788,-0.000154893728904,-0.00402746722102,-0.0019816251006,-4.15804643126e-05,-9.24483538256e-05,-6.76061899867e-05,0.484776760546,-0.0080985209734,0.116471101127,-0.0157378647147,0.92863658759,0.370119177352,0.019955000477
-0.107536680996,0.170870706439,0.0826640576124,-2.47021532059,0.0666517540812,2.66386175156,-0.843609988689,0.0381877943873,3.07651862386e-05,0.000199293455807,1.90857645066e-05,-0.000337568868417,3.33202442562e-05,-1.82161511475e-05,0.000121595658129,0.484768162638,-0.00809782590722,0.116465402756,-0.0157406467045,0.928636669885,0.370119235543,0.019947895914
-0.107536390424,0.170872882009,0.0826660767198,-2.47019433975,0.0666527152061,2.66387224197,-0.843608021736,0.0381877943873,0.000703489000443,-7.48890233808e-05,0.000663799117319,-0.000848650757689,-3.0396222428e-05,-0.000123256308143,-0.000330029113684,0.484780765777,-0.00809719556138,0.116472681652,-0.0157350693735,0.928636622604,0.370118863221,0.0199614008044
-0.107534855604,0.170874416828,0.0826701819897,-2.47021055222,0.0666503980756,2.66387343407,-0.843609809875,0.0320262908936,-5.84281806368e-05,0.00159642344806,0.00169560266659,-0.000550762575585,-6.00713974563e-05,4.58090034954e-05,3.39443135999e-06,0.484771948806,-0.0080940189173,0.116465919699,-0.0157384147131,0.928634905694,0.370123473371,0.0199531544434
-0.107536509633,0.170872673392,0.0826722681522,-2.47019839287,0.0666530579329,2.66387891769,-0.843607366085,0.0320262908936,0.000205258009373,-0.000369892833987,0.000460371869849,0.000889947463293,2.84576035483e-05,-0.00554190017283,7.07727376721e-05,0.484780243448,-0.00809414265394,0.116472029011,-0.0157349304353,0.928635703984,0.37012109627,0.0199628412557
-0.107536114752,0.170874133706,0.0826712995768,-2.4701924324,0.0666509717703,2.66388320923,-0.843606472015,0.0320262908936,-0.000165112825925,0.00021241955983,0.000133229448693,-0.00037325869198,0.000110043227323,-0.000175116147147,-0.00048530564527,0.484783905308,-0.00809466829252,0.116473797718,-0.0157326191941,0.928635611025,0.370121224406,0.0199666110714
-0.107537172735,0.17087584734,0.0826729238033,-2.4702064991,0.0666511133313,2.66388654709,-0.843604445457,0.0320262908936,-0.000255441496847,0.000116710798466,0.000153176224558,-0.000758848385885,-8.42057488626e-05,-6.67603308102e-05,9.50721951085e-05,0.484777041882,-0.00809412064774,0.116468369371,-0.015735224943,0.928636019572,0.370120394399,0.0199609414434
-0.107534825802,0.170878559351,0.0826725661755,-2.47020983696,0.0666518062353,2.66388893127,-0.843602061272,0.0320262908936,-0.000634395575617,-0.000238686814555,-0.000209677091334,-0.000411386048654,0.00013401574688,7.74192303652e-05,-0.000483679177705,0.484775274132,-0.00809308101364,0.116466110746,-0.0157361490272,0.928636248812,0.370119868829,0.019959293248
-0.107534214854,0.170874968171,0.0826742872596,-2.4702026844,0.0666511580348,2.66389513016,-0.843600749969,0.0320262908936,0.000300229876302,0.000114918380859,-0.000269269250566,-3.3782391256e-05,5.88939983572e-05,6.98536532582e-05,-8.48430281621e-05,0.484781084278,-0.00809226856789,0.116470933928,-0.015732537628,0.928635870589,0.370120560294,0.0199669138146
-0.10753339529,0.170874223113,0.0826762244105,-2.47020363808,0.0666522681713,2.66389679909,-0.843601465225,0.0320262908936,0.000163587115821,-0.000277530809399,-0.000132710367325,0.000108112326416,1.73181015271e-05,-1.23430800159e-06,0.000201846225536,0.484781146937,-0.00809088757618,0.116471130172,-0.0157325814744,0.928635405132,0.370121682857,0.0199677183833
-0.107532933354,0.170873939991,0.0826781690121,-2.47020530701,0.0666502863169,2.6639008522,-0.843600273132,0.0320262908936,-0.000780983304139,0.000281929475022,0.00333571131341,-0.00145901425276,4.50574989372e-05,5.90578747506e-05,-0.000244670460233,0.484781248794,-0.0080897754851,0.116471070753,-0.0157316941209,0.92863487486,0.370122995517,0.0199687472816
-0.107534699142,0.170877352357,0.0826778709888,-2.47020435333,0.0666503384709,2.66390395164,-0.84359651804,0.0320262908936,-0.000188355450518,0.000123649908346,8.94479962881e-05,0.000177239169716,0.000124889105791,6.41767910565e-05,0.000140887234011,0.484781655558,-0.00809079176475,0.116470041707,-0.0157316158831,0.928635981414,0.370120206546,0.0199690429168
-0.107534281909,0.170877426863,0.0826771333814,-2.47020459175,0.0666524097323,2.66390633583,-0.843595147133,0.0320262908936,-0.00298524671234,0.000818765722215,-0.000837198400404,0.000110559012683,4.08755913668e-05,1.03646525531e-05,0.000646395026706,0.484782892349,-0.00809064815023,0.116471023471,-0.0157307198408,0.928636414647,0.370119022105,0.0199715549012
-0.10753441602,0.170877441764,0.0826772004366,-2.47020363808,0.0666508078575,2.66391658783,-0.843594670296,0.0320262908936,-2.92691356663e-06,-0.000986162573099,0.00033747710404,-0.000388726359233,-4.58963222627e-05,-6.55773837934e-05,-9.94208239717e-05,0.48478472351,-0.00809112663028,0.116471595788,-0.0157285857809,0.928636445451,0.370118835838,0.0199752550036
-0.10753390938,0.170878201723,0.0826800912619,-2.47020316124,0.066653072834,2.66392660141,-0.843593537807,0.0320262908936,-4.12724784837e-06,0.000138889139635,0.000158562383149,0.000772689469159,5.38092717761e-05,0.000332857016474,0.000421471573645,0.48478701343,-0.00808971919497,0.116472166046,-0.0157273218277,0.928636393808,0.37011878235,0.0199796415993
-0.107534952462,0.170879006386,0.0826794952154,-2.47020435333,0.0666513219476,2.66395568848,-0.843592762947,0.0312126800418,0.00225877319463,0.000515006366186,0.000499874528032,-0.000576905964408,-7.60037219152e-05,0.000180406568688,0.000127453735331,0.484792488997,-0.00809118702684,0.116474048334,-0.0157208056915,0.928636555785,0.370118009585,0.0199915530563
-0.107531353831,0.17088919878,0.0826839506626,-2.47021389008,0.0666510164738,2.66417193413,-0.84359151125,0.0312126800418,0.00026425672695,0.00138864491601,-0.00219048326835,0.000398726668209,-4.84766424051e-05,0.00594385899603,0.0003316901566,0.484832163886,-0.00809162933252,0.116485857668,-0.0156770275237,0.9286352434,0.370118404537,0.0200793882308
-0.107531771064,0.170885667205,0.0826827585697,-2.47020101547,0.0666520595551,2.66420388222,-0.843588471413,0.0312126800418,-1.87866055512e-06,1.46042486904e-06,0.0042824940756,-0.000787598837633,-4.46458543593e-05,0.00224454351701,0.000555315986276,0.484846419161,-0.00809346060951,0.116495022059,-0.0156666600726,0.928636115895,0.370115471395,0.0201011824609
-0.107533030212,0.170885026455,0.0826832130551,-2.4702103138,0.0666498243809,2.66423678398,-0.843586266041,0.0312126800418,-0.000108446351078,0.000355012860382,0.000106280676846,0.00024137145374,-4.75274209748e-05,0.00281899864785,0.000200184353162,0.484848874472,-0.0080944749773,0.116495127752,-0.015660548583,0.928636353243,0.370114563646,0.0201116910116
-0.107534021139,0.170887038112,0.0826833844185,-2.47020769119,0.0666515156627,2.66425323486,-0.843586087227,0.0312126800418,0.000457546906546,-4.40648946096e-05,-0.000163461096236,0.000892909709364,-2.29571687669e-05,0.00294948020019,0.0003901286982,0.484853337277,-0.00809520223249,0.116496602057,-0.0156571882088,0.928636791951,0.370113178845,0.0201195333388
-0.107532411814,0.170891851187,0.0826856046915,-2.47020459175,0.0666521415114,2.66427016258,-0.843587100506,0.0312126800418,0.000317555124639,0.00122197985183,-0.000229691198911,-0.00238747708499,9.12858304218e-05,0.00109479308594,-0.000267553463345,0.48485760165,-0.0080935748601,0.116496604006,-0.0156542558184,0.928635986875,0.370114940663,0.0201265629915
-0.10753248632,0.170894861221,0.0826853588223,-2.47020936012,0.066651687026,2.66429662704,-0.843585312366,0.0312126800418,7.98056935309e-05,-0.000100633187685,-7.72691491875e-05,0.000327573186951,1.40096381074e-05,0.000391659879824,-2.08973124245e-05,0.484860199657,-0.00809420615668,0.116496277182,-0.0156498616486,0.928636362671,0.370113737496,0.0201347648935
-0.107533752918,0.170891851187,0.0826858654618,-2.47020077705,0.0666498690844,2.6643383503,-0.843581199646,0.0312126800418,-0.000455891567981,-0.000417052797275,0.000110175351438,0.000355234427843,-0.000107238098281,0.00221672980115,0.00320627633482,0.484874811091,-0.00809594865875,0.116504917148,-0.0156373431483,0.928636946767,0.370111453001,0.0201595297259
-0.107530884445,0.170892223716,0.0826877579093,-2.47020411491,0.066652327776,2.66437983513,-0.843582630157,0.0312126800418,8.25484603411e-05,-0.00033559158328,6.90129963914e-05,-0.000318229780532,-4.64387885586e-05,0.004999154713,-5.03994742758e-05,0.484881466701,-0.00809421725442,0.116507119628,-0.0156299701011,0.928636089343,0.370113038374,0.0201756316978
-0.10752864182,0.170894607902,0.0826910883188,-2.4702038765,0.0666504278779,2.66440606117,-0.843580543995,0.0312126800418,-0.000142022428918,0.000398597156163,0.00196720380336,0.000154225141159,0.00016834057169,0.0028802852612,-0.000272690929705,0.48488679156,-0.00809200014697,0.116508506322,-0.0156245302543,0.928635144174,0.370115057852,0.0201862996626
-0.107530429959,0.170903459191,0.0826910063624,-2.47020459175,0.0666505470872,2.66442918777,-0.843579828739,0.0312290973961,-0.000361438666005,-0.000312336225761,-0.000434501533164,-0.000166980971699,7.08560837666e-05,0.00135765189771,-0.000231149489991,0.484889644981,-0.00809365362809,0.116506105742,-0.0156213304805,0.928635816584,0.370113145919,0.0201928970965
-0.107532024384,0.170905470848,0.0826889052987,-2.47020030022,0.0666530355811,2.66455101967,-0.843576669693,0.0312290973961,0.000176465211553,0.000259310676483,-0.000147997780005,-0.000717506743968,-4.59942202724e-05,0.000801965361461,0.00119491771329,0.484917532379,-0.0080977915874,0.116517941435,-0.0155942960909,0.928637246878,0.370107681087,0.0202481042197
-0.107531778514,0.170908778906,0.0826918706298,-2.47020816803,0.0666511058807,2.66457724571,-0.843577384949,0.0312290973961,0.000507501361426,-0.000595541729126,-4.63404066977e-05,0.000357691344107,3.57341887138e-05,0.000183863681741,-0.00012947509822,0.484918473584,-0.00809656118557,0.116516042323,-0.0155905851545,0.928636282184,0.370109899054,0.0202546629839
-0.107528440654,0.170913785696,0.0826940536499,-2.4702026844,0.0666508376598,2.66459727287,-0.8435754776,0.0312290973961,0.000333500705892,-0.000824913906399,-0.000116423514555,-0.000180619113962,-2.84890811599e-05,0.00294669810683,0.000210478014196,0.484924588101,-0.00809426170153,0.116517417473,-0.0155863731966,0.928635561384,0.370111378048,0.0202639242702
-0.107530355453,0.170920863748,0.0826929658651,-2.47020792961,0.0666504949331,2.66462349892,-0.843573868275,0.0312290973961,-0.000105309052742,-0.000288651994197,-0.000218394474359,0.000187232944882,0.00011561482097,0.00180530385114,-6.07852525718e-05,0.484926002084,-0.00809608926327,0.116514587004,-0.0155830231915,0.928636439012,0.370108982006,0.0202700431819
-0.107531145215,0.170925199986,0.0826909095049,-2.4702064991,0.0666520819068,2.6646668911,-0.843573331833,0.0312290973961,0.00290678418241,-0.000418512878241,-0.000149613857502,0.000516447762493,-7.49022728996e-05,-2.06794757105e-05,-0.000192936335225,0.484935141615,-0.00809840013481,0.116517005098,-0.015574204606,0.928637303716,0.370106185122,0.0202882655025
-0.107532732189,0.170925557613,0.0826919153333,-2.47020339966,0.0666524171829,2.66468262672,-0.843574285507,0.0312290973961,0.000129104853841,-0.000222058108193,0.000554386060685,0.000236462597968,3.31420778821e-05,-5.08260927745e-05,0.000386666069971,0.484940052894,-0.00809904852418,0.116519385149,-0.0155702864996,0.928637255084,0.37010601239,0.0202966481299
-0.107530869544,0.170933410525,0.0826954245567,-2.47020483017,0.0666517615318,2.66471004486,-0.843571186066,0.0312290973961,-0.0002032394259,-0.000331292976625,2.12389659282e-06,0.00013220575056,-4.21592194471e-05,0.00266089430079,0.000439491908764,0.48494360156,-0.00809676489336,0.116517660767,-0.0155664763989,0.928636792417,0.37010688714,0.0203047865439
-0.107528872788,0.170937970281,0.0826971456409,-2.4702064991,0.0666507184505,2.66473531723,-0.843570768833,0.0312290973961,0.000338900426868,0.00148893822916,0.00101934140548,0.000544871028978,5.80138912483e-05,0.000231128084124,0.000240444889641,0.484947252374,-0.00809536846862,0.116517230769,-0.0155621625799,0.928636049104,0.370108469915,0.0203132366202
-0.107530914247,0.170941397548,0.082695491612,-2.47020769119,0.0666517466307,2.66476082802,-0.843570172787,0.0292315166444,-0.000230850506341,0.00145879981574,-0.000477668712847,-0.00110553146806,5.97658035986e-05,0.00263815163635,-0.000106894396595,0.484951374223,-0.00809766120643,0.116517513791,-0.0155575535221,0.928637020801,0.370105709775,0.0203226327621
-0.107532463968,0.170946240425,0.0826957300305,-2.47020530701,0.0666499212384,2.66477251053,-0.843570530415,0.0292315166444,-0.000379583740141,-0.000160322582815,-0.000253276841249,-4.9373942602e-05,5.3467862017e-05,0.000142979290104,-0.00015892155352,0.484954064894,-0.00809852555835,0.116517093189,-0.0155552107963,0.92863692445,0.370105828989,0.0203266573078
-0.107532449067,0.170949578285,0.082699239254,-2.47020602226,0.0666506886482,2.66478633881,-0.843568980694,0.0292315166444,0.000130140702822,0.00097074592486,0.000378863885999,0.000271985743893,-0.000105690283817,0.00261144782417,1.84034288395e-05,0.484956007135,-0.00809691738934,0.116516540756,-0.0155535161981,0.928636708059,0.370106193183,0.0203312082815
-0.107529230416,0.170953825116,0.0827018618584,-2.47020959854,0.0666512772441,2.66480708122,-0.843567311764,0.0292315166444,-8.49349526106e-05,-0.000550335738808,-0.00054043950513,0.000339804362739,-9.89898617263e-05,-6.46168991807e-05,-7.66420125728e-05,0.484957548478,-0.00809406992595,0.116514914697,-0.0155511349851,0.928635975447,0.370107830584,0.0203366843546
-0.107529982924,0.170958846807,0.082700945437,-2.47020721436,0.0666531994939,2.66482686996,-0.843569278717,0.0292315166444,-0.000575194309931,-0.000387005129596,-2.67742052529e-05,9.8976001027e-05,8.20586865302e-06,-2.54117603617e-05,4.20348987973e-05,0.484962192899,-0.00809546583731,0.116515423032,-0.0155475512935,0.928636337119,0.370106618926,0.0203449586215
-0.107529364526,0.170966640115,0.0827009230852,-2.47020888329,0.0666515305638,2.66483640671,-0.84356790781,0.0292315166444,-0.00023606531613,-0.000171821346157,-5.16891741427e-05,-0.00023800956842,9.36076139624e-06,0.0010713331867,0.00019096271717,0.48496171816,-0.00809521824172,0.116511957504,-0.0155472289477,0.928636291356,0.370106754084,0.0203448350632
-0.107531651855,0.17097234726,0.0827005580068,-2.47021007538,0.0666506439447,2.66484570503,-0.843566954136,0.0292315166444,-0.000158909271704,0.000822731934022,0.000286994036287,-0.000566497095861,4.49423860118e-05,3.067567377e-05,8.90975570655e-05,0.484961662484,-0.0080966807341,0.116509580574,-0.0155467212765,0.928636917172,0.370105161305,0.0203456330174
-0.10753133148,0.170976057649,0.0827006921172,-2.47020983696,0.0666504651308,2.66485667229,-0.843565940857,0.0292315166444,0.000518596614711,-0.000249706325121,0.000451200670796,0.000999345444143,3.85068487958e-05,0.000108986751002,3.01060231322e-06,0.484963874487,-0.00809634299695,0.116509093207,-0.0155446985697,0.928636896598,0.370105082014,0.0203495595794
-0.107530713081,0.170986413956,0.0827021971345,-2.47020792961,0.066651083529,2.66487669945,-0.843563556671,0.0292315166444,-0.000191096769413,0.000143424520502,0.000443061842816,0.000266394985374,4.96758075315e-05,6.73297836329e-05,0.000186792341992,0.484966651729,-0.00809569447021,0.116506488359,-0.0155426889428,0.928637178887,0.370104185349,0.0203545198982
-0.107527345419,0.17099262774,0.0827010795474,-2.47020936012,0.0666508004069,2.66488909721,-0.843563437462,0.0270415339619,1.57352442329e-05,0.000938289100304,0.00197771354578,-0.000420329190092,0.000134657006129,0.000276789884083,0.000217450462515,0.484967386052,-0.00809498749104,0.116504390753,-0.0155415566375,0.928636859271,0.37010492385,0.0203565381976
-0.107526674867,0.17100250721,0.0827036872506,-2.4702064991,0.0666509196162,2.66490411758,-0.843563079834,0.0270415339619,-0.000195755201275,-0.00127103109844,-1.76086348347e-06,0.00023480024538,-2.61218119704e-05,5.44673166587e-05,-5.08010780322e-05,0.484969664998,-0.00809321092686,0.116501922169,-0.0155403765142,0.928636350611,0.370106058221,0.0203600190188
-0.107526399195,0.171011015773,0.0827056244016,-2.47020435333,0.0666514933109,2.66492342949,-0.843563079834,0.0270415339619,0.000165035409736,0.00115256744903,-0.000295377307339,-0.000227994314628,0.000164405137184,0.00411929143593,0.000410241860664,0.484973355522,-0.00809237880359,0.116500219781,-0.0155377049645,0.928636060792,0.370106552488,0.0203662910521
-0.107534110546,0.171012938023,0.0827031210065,-2.47019743919,0.0666512399912,2.6649813652,-0.843562602997,0.0270415339619,2.9715230994e-05,0.000999761279672,0.00015753149637,-0.000333368952852,-3.56464734068e-05,1.450992022e-05,-0.000325691275066,0.484988904447,-0.00809880239436,0.116507070296,-0.0155234819162,0.92863790654,0.370100966819,0.0203944622549
-0.107530109584,0.171018600464,0.0827033147216,-2.47020196915,0.0666521564126,2.6650147438,-0.843560576439,0.0270415339619,0.000272331206361,0.000260014930973,-0.00132682197727,-0.0002529406338,8.11331701698e-05,0.000701414130162,-0.000100768302218,0.48499259898,-0.00809728123057,0.116505849918,-0.015518502201,0.928637704231,0.370101111025,0.0204048443454
-0.107530362904,0.171025410295,0.0827052816749,-2.47020411491,0.0666502565145,2.66502952576,-0.843561768532,0.0270415339619,0.000201467701118,0.000382119469577,-5.38394197065e-05,0.000157469010446,5.13956110808e-05,0.000113463189336,-1.63962831721e-05,0.484993268603,-0.00809622779279,0.116502874725,-0.0155169188267,0.928636758893,0.370103409331,0.0204073846494
-0.107528463006,0.171036168933,0.082707002759,-2.47020363808,0.0666518881917,2.6650493145,-0.84356033802,0.0270415339619,0.000158530601766,6.14180389675e-05,-9.16391363717e-05,-0.000233667175053,2.97210863209e-05,0.00379755347967,-0.000128819505335,0.484995477971,-0.00809493277816,0.116500015573,-0.0155154773067,0.928636864862,0.370102957916,0.0204118448064
-0.107532076538,0.171038553119,0.0827040225267,-2.47019839287,0.0666507780552,2.66507148743,-0.843559086323,0.0270415339619,-5.9163539845e-05,3.93992013414e-05,0.00061722524697,0.000231218175031,0.000124748185044,0.000154143592226,2.39060718741e-05,0.485002377419,-0.00809878467802,0.116502735193,-0.0155095216415,0.928638098439,0.370099500956,0.020422926881
-0.107528954744,0.171023905277,0.0827071666718,-2.47018384933,0.0666504353285,2.66510629654,-0.843558430672,0.0247510802001,-0.000243672766373,-0.00313911400735,9.04853659449e-05,0.000185841316124,0.00016425512149,0.000259380496573,0.000135377704282,0.485020574951,-0.0080970527058,0.116518158241,-0.0154956708602,0.928636730359,0.370101926335,0.0204516752178
-0.107530534267,0.171025425196,0.0827070698142,-2.47018504143,0.0666515380144,2.66512799263,-0.843559503555,0.0247510802001,0.000195358938072,-0.00394506053999,0.00193495547865,-0.000463961623609,9.09629889065e-05,0.00184042088222,-0.000184371849173,0.485024305818,-0.00809827700202,0.116519021586,-0.015491605759,0.928637017843,0.370100899826,0.0204602755167
-0.107531644404,0.171026170254,0.0827046781778,-2.47018718719,0.0666511580348,2.66517090797,-0.843557715416,0.0247510802001,-0.000227699580137,0.000645549676847,-0.000448123319075,0.000101653167803,-0.000123946854728,-3.28485039063e-05,0.000199336049263,0.485032266405,-0.00810096702948,0.116521877214,-0.015482319026,0.928637912753,0.370098061476,0.0204780216504
-0.107533439994,0.171028926969,0.0827053114772,-2.47018527985,0.0666501373053,2.66521048546,-0.843559324741,0.0247510802001,0.000362097634934,-0.00011458217341,0.000182634103112,-0.000260678265477,-8.50769865792e-05,0.00239008292556,-0.000372571725165,0.485041721676,-0.00810224732802,0.116525157165,-0.0154729143265,0.928637451635,0.370098594819,0.0204963933548
-0.107530996203,0.171026527882,0.0827051773667,-2.47018766403,0.0666513219476,2.66524171829,-0.843558013439,0.0247510802001,-4.35681658928e-06,0.000276621169178,-0.00258897151798,7.28444138076e-05,2.99535349768e-05,0.000555768259801,0.000104252059828,0.485047236907,-0.00810197403456,0.116528117754,-0.0154667284438,0.928637605667,0.370097750775,0.0205093200116
-0.107529319823,0.171030119061,0.0827076435089,-2.47019314766,0.0666514113545,2.66528820992,-0.843557476997,0.0247510802001,0.000240508918068,-0.00266479584388,-0.000177972513484,-0.00267923693173,-6.34572279523e-05,9.85496735666e-05,8.7956454081e-05,0.485053723269,-0.00810075588027,0.116528799591,-0.0154584954306,0.928636981448,0.37009873281,0.0205260630041
-0.107530668378,0.171030089259,0.0827092081308,-2.47019290924,0.0666507780552,2.66529989243,-0.843557655811,0.0247510802001,-0.000199122165213,-0.000907433975954,0.000289307703497,-0.00176566746086,-9.68845961324e-06,-9.26191205508e-06,-9.57173106144e-05,0.485056379713,-0.00810088767806,0.116529993733,-0.0154558088057,0.928636795501,0.370099015092,0.0205314083313
-0.107532531023,0.171041995287,0.0827087089419,-2.47019910812,0.0666500106454,2.66532230377,-0.843557596207,0.0234226435423,0.000346243468812,9.3444949016e-05,7.72691346356e-05,-0.000527920608874,-1.44357973113e-05,-0.000167648802744,-0.000129312713398,0.485055446992,-0.00810218103648,0.116524148368,-0.01545457331,0.928637255584,0.370097810584,0.0205332411149
-0.107530035079,0.171045824885,0.0827088356018,-2.47020149231,0.0666505247355,2.66532754898,-0.843556702137,0.0234226435423,-0.000156793103088,-0.00012416941172,-0.000290245690849,3.69272820535e-05,5.25506693521e-05,-0.000184608521522,-2.33037008002e-05,0.485054552715,-0.00810087966947,0.11652195208,-0.0154549204674,0.928637065574,0.370098295926,0.0205328252515
-0.107532650232,0.171042919159,0.0827094987035,-2.47020435333,0.0666512623429,2.66533017159,-0.843555510044,0.0234226435423,-0.000192330699065,0.000217364664422,0.00150680134539,-0.00132330739871,0.000121620112623,-4.22931589128e-05,3.64096740668e-05,0.485054310185,-0.00810181555593,0.116522516756,-0.0154545106133,0.928637747628,0.370096533762,0.0205340488975
-0.107532627881,0.171044230461,0.0827085450292,-2.47020053864,0.0666505023837,2.6653342247,-0.84355443716,0.0234226435423,0.000468979444122,0.00072984455619,-0.000138804069138,-0.00019500120834,8.11666977825e-05,0.000224297924433,0.000237425905652,0.485056801772,-0.00810249258027,0.116523674247,-0.0154528324529,0.928637985271,0.370095846999,0.0205369422963
-0.107529446483,0.171040788293,0.0827130973339,-2.47019290924,0.0666514411569,2.66535067558,-0.843554615974,0.0234226435423,-5.86721980653e-05,0.000651472364552,-7.64099240769e-05,4.35673755419e-05,3.86350220651e-05,9.24555424717e-05,0.000173283362528,0.485065093153,-0.00809917699097,0.116529572067,-0.0154474611407,0.928636568783,0.370098926538,0.0205495333848
-0.1075328812,0.171039536595,0.0827092304826,-2.47020101547,0.0666523575783,2.66535305977,-0.843552470207,0.0234226435423,-0.000618832127657,0.000182826959644,0.000278630730463,-0.000430937216152,8.39212225401e-05,-3.29327231157e-05,0.00153216300532,0.485061641107,-0.00810274736813,0.116527531752,-0.0154480862848,0.928638503914,0.37009416325,0.0205474010515
-0.107535667717,0.171048387885,0.0827089771628,-2.47020483017,0.0666505619884,2.66535496712,-0.84355443716,0.0234226435423,0.000560133950785,0.000929791247472,0.000172004132764,0.000242284833803,-1.31182387122e-05,0.000133543173433,-0.0015527899377,0.485058159332,-0.00810403664147,0.116522093153,-0.0154500264109,0.928638526909,0.37009429956,0.0205424473191
-0.107525959611,0.171052545309,0.0827151834965,-2.47020077705,0.0666506290436,2.66536211967,-0.843551635742,0.0234226435423,0.000532070174813,-0.000841700530145,0.0014988676412,-0.000506315613165,6.37836346868e-05,-2.00099948415e-05,-9.80628828984e-06,0.48506104268,-0.00809627133072,0.116522214827,-0.0154492706612,0.928636119666,0.370100186359,0.0205457788654
-0.107526041567,0.171047225595,0.0827133506536,-2.47018933296,0.0666507184505,2.66536855698,-0.843550562859,0.0234226435423,2.04889238375e-06,-0.00017371805734,-0.00365416845307,0.000799223722424,2.37539825321e-05,0.000152658045408,-0.000213958759559,0.485069432452,-0.00809773058407,0.116529376646,-0.0154442022969,0.92863654227,0.370098758549,0.0205562054007
-0.107526674867,0.171036347747,0.0827145203948,-2.4701821804,0.0666512921453,2.66537499428,-0.843550086021,0.023366170004,-2.19952653424e-05,-0.00027639142354,0.000999497482553,1.80757833732e-05,-3.90674249502e-05,0.00290044327267,-0.00022728915792,0.485076846301,-0.00809795200642,0.116537744223,-0.0154390286746,0.928636461132,0.370098563404,0.0205672676915
-0.107530944049,0.171035528183,0.0827110335231,-2.47019004822,0.0666498690844,2.66537880898,-0.843552589417,0.023366170004,-0.000452836044133,0.00775107042864,-0.000436817441368,0.000336141383741,5.06875512656e-05,0.000370174879208,-0.00046243876568,0.485073725845,-0.008101809994,0.116535711907,-0.0154388629584,0.928637250285,0.370096687105,0.0205655238501
-0.107536904514,0.171039283276,0.082711353898,-2.47017812729,0.0666492581367,2.66538882256,-0.843550264835,0.023366170004,4.46963058494e-05,0.00043355973321,-8.14861050458e-06,7.16305876267e-05,-6.24578606221e-05,-8.34117163322e-05,2.91859214485e-06,0.485081155774,-0.00810490687136,0.116539004248,-0.0154350081021,0.928638563044,0.370093094138,0.0205737966573
-0.10753146559,0.171038284898,0.0827146023512,-2.47018003464,0.0666511580348,2.66539144516,-0.843550264835,0.023366170004,0.000253712962149,0.000691451248713,3.08163407681e-06,-0.000326498033246,3.80762467103e-05,5.71380442125e-05,0.000130576619995,0.485081043295,-0.00810060235902,0.116539088635,-0.0154353035148,0.928637262746,0.370096289952,0.0205747780544
-0.107527472079,0.171037912369,0.0827153101563,-2.47018766403,0.0666506364942,2.66539359093,-0.843550622463,0.023366170004,0.000528222764842,-0.000279299216345,0.000109563748993,0.000118285803183,-0.000123863545014,-1.98950438062e-05,-4.53186985396e-05,0.485077707645,-0.00809822999039,0.116536801091,-0.0154362267537,0.928636295997,0.370098812636,0.0205723413763
-0.107527241111,0.171045735478,0.0827217325568,-2.47019290924,0.0666499808431,2.66539359093,-0.84354788065,0.023366170004,0.00304138497449,0.000284718145849,-0.00016284341109,-5.1302202337e-05,6.81357269059e-05,4.27812919952e-05,-1.07740315798e-05,0.485073407168,-0.00809454960284,0.116531232105,-0.0154395284585,0.928635588664,0.370100769,0.0205665966211
-0.107538253069,0.171047106385,0.0827154815197,-2.47018814087,0.0666503757238,2.66539168358,-0.843549728394,0.023366170004,4.10555039707e-05,-0.00189276854508,-0.000373553892132,0.000509116507601,3.53748546331e-05,-0.00131077715196,8.95331395441e-05,0.485074986683,-0.00810311177418,0.116532015886,-0.0154387545031,0.928638475592,0.370093520345,0.0205672650482
-0.107536680996,0.171041637659,0.0827161446214,-2.47018265724,0.0666505098343,2.66539239883,-0.843549847603,0.023366170004,0.00402637850493,0.00188644160517,0.000491747108754,0.000604151748121,3.3343621908e-05,0.000121899647638,-7.22975601093e-05,0.485079155435,-0.00810224852067,0.116536649868,-0.0154363346491,0.928637968829,0.370094599509,0.0205725428653
-0.107525803149,0.171031236649,0.0827258378267,-2.4701859951,0.0666498541832,2.66539311409,-0.84354788065,0.023366170004,0.000729395251255,-0.000338415353326,0.000826962932479,-6.33538729744e-05,6.63806640659e-05,2.89605268335e-05,-6.06826615694e-05,0.485079937636,-0.00809295717386,0.116540452569,-0.0154351968258,0.928634578874,0.370102967968,0.0205758694474
-0.107524476945,0.17103241384,0.0827290266752,-2.47019743919,0.0666499435902,2.66539311409,-0.843547940254,0.0229360535741,0.000254394341027,-0.000511656922754,0.000135720983963,-0.000473255320685,-2.30280893447e-05,-3.20400431519e-05,-8.23579830467e-05,0.485073953883,-0.00808967172771,0.116536092356,-0.0154380558889,0.928633628425,0.370105537653,0.0205703979305
-0.107528172433,0.171031564474,0.0827269330621,-2.47020173073,0.0666522160172,2.66539287567,-0.843548238277,0.0229360535741,-0.000490244477987,-0.000271904456895,-0.0024147387594,6.30672220723e-05,1.51022613863e-05,-9.97130046017e-05,-0.000124506244902,0.485071830349,-0.00809242744241,0.116534964411,-0.0154390235025,0.928635026779,0.370102073238,0.0205688760224
-0.107530236244,0.171030193567,0.0827232152224,-2.47020220757,0.0666501224041,2.66539311409,-0.84354621172,0.0229360535741,-0.0001831985428,-0.000501578964759,0.000596745230723,-0.000264758331468,-9.1918191174e-05,0.000100163917523,-0.00016208467423,0.485072154443,-0.00809481194155,0.116535793814,-0.0154378313339,0.928635623342,0.370100581147,0.0205696850537
-0.10751991719,0.171030566096,0.0827329680324,-2.47020196915,0.0666503980756,2.66539263725,-0.843548119068,0.0229360535741,2.11681635847e-05,0.000375616829842,-0.000210177517147,4.63979667984e-05,2.75073616649e-05,6.39541831333e-05,-0.000155108675244,0.485072006649,-0.0080853709056,0.11653538448,-0.0154391024391,0.928632116021,0.370109363307,0.0205690565498
-0.107529118657,0.171032086015,0.0827290266752,-2.4702026844,0.066651314497,2.66539359093,-0.843546867371,0.0229360535741,-0.00165445439052,0.000323549116729,-6.49447611067e-05,7.02468096279e-05,6.41269580228e-05,0.000216473345063,0.000349197973264,0.48507139824,-0.0080918155031,0.116534459699,-0.0154391634746,0.92863493896,0.370102308371,0.0205685049494
-0.107529848814,0.171030327678,0.0827277004719,-2.47020435333,0.0666504874825,2.66539311409,-0.843546509743,0.0229360535741,0.00035797196324,0.000943565100897,-0.000222050191951,-0.000365444429917,-0.000131361899548,8.89836228453e-05,0.000142653661896,0.485070793277,-0.00809287000127,0.11653466972,-0.0154388941897,0.928635249383,0.37010155861,0.0205681829135
-0.107517518103,0.171032056212,0.0827373787761,-2.47020602226,0.0666509196162,2.66539216042,-0.843546867371,0.0229360535741,4.86450335302e-05,-9.92923160084e-05,7.89232944953e-05,0.000263472786173,-1.09349639388e-05,2.9745795473e-05,0.000112085064757,0.48506957419,-0.00808180633585,0.116533234527,-0.0154408822746,0.928631220302,0.37011167928,0.0205664868023
-0.107513785362,0.171030700207,0.0827447101474,-2.47020578384,0.0666504353285,2.66539263725,-0.843544006348,0.0223877374083,8.28824267955e-05,0.000342796207406,0.000194960884983,-0.000344901956851,-0.000132132510771,-0.00014857048518,2.54473270616e-05,0.485070207981,-0.00807628011933,0.116534071885,-0.015441001187,0.928629619267,0.370115632457,0.0205675471988
-0.10751901567,0.171029955149,0.0827413722873,-2.47021055222,0.0666518732905,2.66539216042,-0.84354531765,0.0223877374083,-0.000398562930059,-0.000294381316053,7.00078817317e-05,-0.000745971512515,3.30280126946e-05,3.53170835297e-05,2.40365698119e-05,0.48506773691,-0.00808042257801,0.116532694255,-0.0154418296052,0.928631215381,0.370111703976,0.020565553312
-0.107519678771,0.171031907201,0.0827409774065,-2.47021508217,0.0666502267122,2.66539335251,-0.843545794487,0.0223877374083,0.000159350878675,0.000535784696694,-0.00257166894153,-2.25712956308e-05,9.60489887802e-06,-0.00013153537293,-0.000339762744261,0.485065365106,-0.00808093474356,0.116530375441,-0.0154424386925,0.928631086299,0.37011213848,0.0205631048453
-0.107519172132,0.171030327678,0.0827422887087,-2.47021698952,0.066651403904,2.66539239883,-0.843544900417,0.0223877374083,-0.000137900467962,-0.00246961181983,0.000210027821595,5.85929810768e-05,-0.000126742015709,-0.00132480391767,-9.86374652712e-05,0.485064410537,-0.00807991631747,0.116530288664,-0.0154431130689,0.928631129977,0.370112033219,0.0205625204443
-0.107522770762,0.17099352181,0.0827419236302,-2.47022867203,0.0666489675641,2.66539025307,-0.84354442358,0.0223877374083,-0.000270620104857,-0.00256303441711,2.84493708023e-05,-0.00151190685574,-8.37140833028e-05,-0.00029401134816,-0.00521873356774,0.485065830112,-0.00808249660898,0.116543775234,-0.0154367064797,0.928631308711,0.370111312276,0.0205722333529
-0.107521697879,0.170856550336,0.0827421844006,-2.47023749352,0.0666499584913,2.66537642479,-0.843543469906,0.0223877374083,0.00031109052361,-0.0116625754163,0.000214265921386,-2.76382015727e-05,0.00016799729201,-0.000894464494195,-0.000328878551954,0.485087802019,-0.0080845280676,0.116605580648,-0.0154097700715,0.928630187843,0.370112444161,0.0206225986191
