imanlab/tactile_prediction_flat_dataset/train/data_sample_2021-11-24-15-21-15/robot_state.csv
position_panda_joint1,position_panda_joint2,position_panda_joint3,position_panda_joint4,position_panda_joint5,position_panda_joint6,position_panda_joint7,position_panda_finger,velocity_panda_joint1,velocity_panda_joint2,velocity_panda_joint3,velocity_panda_joint4,velocity_panda_joint5,velocity_panda_joint6,velocity_panda_joint7,ee_state_position_x,ee_state_position_y,ee_state_position_z,ee_state_orientation_x,ee_state_orientation_y,ee_state_orientation_z,ee_state_orientation_w
0.0584831051528,0.00918233487755,-0.0745226740837,-2.48668503761,0.00303941057064,2.51079487801,-0.875330924988,0.0748593434691,-9.35923599172e-05,0.000621389830485,0.000114632304758,0.000331504328642,-0.000213120918488,0.000412389606936,-0.000195078580873,0.473574193902,-0.00752751547045,0.173539147216,0.00271449268247,0.909593857203,0.415430853318,0.00698943910263
0.0584810376167,0.00917924847454,-0.0745237544179,-2.48668670654,0.00303953932598,2.51079559326,-0.875319540501,0.0748599991202,-0.000178731919732,-0.000308134040097,4.76752666145e-06,-8.33727608551e-05,1.58676502906e-05,1.48606641233e-05,0.00017254834529,0.473574025275,-0.00752896221929,0.173540022683,0.00271478763324,0.909596890443,0.415424192593,0.00699047292623
0.0584843084216,0.00918102357537,-0.0745208784938,-2.48668479919,0.0030400690157,2.51080226898,-0.875303149223,0.0748599991202,0.000264666450676,0.000155474233907,6.62930324324e-05,-0.000106494611828,1.41520376928e-05,0.00193268514704,-0.000618669670075,0.473576147357,-0.00752607445062,0.173540533147,0.00271608578668,0.909599083858,0.415419328489,0.00699361987487
0.0584827065468,0.00917740538716,-0.0745209306479,-2.48668289185,0.00303990812972,2.51080989838,-0.875273227692,0.0748599991202,-0.000297156570014,0.000328507536324,-0.00059021578636,-0.00017046580615,-6.2285871536e-05,3.22099622281e-05,0.00267213326879,0.473579276296,-0.0075268789247,0.17354367897,0.0027187429205,0.909605571086,0.415405005282,0.0069996251857
0.0584821924567,0.0091832280159,-0.0745224431157,-2.48668456078,0.00304143410176,2.51081871986,-0.875252485275,0.0748599991202,0.000313402124448,0.00061481987359,0.000347148947185,0.000235882907873,-8.44055757625e-05,0.000551955658011,0.000241376023041,0.473579417465,-0.00752815265242,0.17354134096,0.00271884421344,0.909610586504,0.415394007768,0.00700048540008
0.0584854185581,0.00917852763087,-0.0745209231973,-2.48668599129,0.00304009020329,2.51082348824,-0.875240981579,0.0748599991202,-0.00308698043227,-0.000149336294271,-6.36713666609e-05,0.000140705815284,-2.70056571026e-05,7.02327815816e-06,-0.000202002251172,0.473580604624,-0.00752562417529,0.1735431859,0.00272063870022,0.909611704605,0.41539149006,0.00700390139601
0.0584848038852,0.00917838793248,-0.0745211839676,-2.48668336868,0.00304079125635,2.51082873344,-0.875230669975,0.0748599991202,-0.000441626325483,-0.000154729917995,-0.000454914552392,-0.000209648016607,-4.32625347457e-06,8.2363418187e-05,-0.000302556960378,0.473583007266,-0.00752603801128,0.17354474899,0.00272214062499,0.909614117577,0.415386133646,0.00700761794903
0.0584780201316,0.00917951762676,-0.074526309967,-2.48668456078,0.00304031511769,2.51083946228,-0.875215172768,0.0748599991202,-0.000144948658999,-0.00323230866343,0.00042441955884,-0.000146767866681,2.45530991378e-05,0.00188944768161,0.000402272300562,0.473584506671,-0.00753175933271,0.173544733451,0.00272413554665,0.909619703184,0.415373826394,0.00701132593675
0.0584851279855,0.00917922239751,-0.0745197832584,-2.48668456078,0.00303864316083,2.51084303856,-0.875206947327,0.0748599991202,0.00338761764579,-0.000464640907012,0.000352493720129,0.000172375701368,-2.55331633525e-06,5.31759214937e-05,-0.000237440748606,0.473585210056,-0.00752594767917,0.173544939068,0.00272518775884,0.909618433033,0.415376580693,0.00701252661474
0.0584898032248,0.00918315351009,-0.0745175480843,-2.48668336868,0.00303992186673,2.5108487606,-0.875201404095,0.0748599991202,6.71125890221e-05,0.000430950778536,-3.01285817841e-05,4.57641217508e-05,-3.51510643668e-05,0.00222414801829,-0.000181105584488,0.473586670635,-0.00752212071703,0.173544324783,0.00272569140324,0.909618207939,0.415377039147,0.0070143724554
0.0584920793772,0.00918054673821,-0.0745179355145,-2.4866836071,0.00304065039381,2.51085233688,-0.875196576118,0.0748599991202,-0.00064528681105,-0.000431541295256,2.34572053159e-05,-4.33632776549e-05,-1.00633556599e-07,2.3068558221e-05,-8.41783039505e-05,0.473587765701,-0.00752117317805,0.173545790098,0.00272666627494,0.909618919962,0.415375425844,0.00701719470817
0.0584873259068,0.00918072462082,-0.0745220184326,-2.48668384552,0.00304009299725,2.51085782051,-0.875188052654,0.0748599991202,0.000976190902293,-0.000190973994904,-0.000410643377108,-0.000369353510905,1.21599032354e-05,8.58064304339e-05,7.12630208e-06,0.473588750819,-0.00752541875091,0.173546115327,0.00272793597047,0.909622415784,0.415367724796,0.00701939788034
0.0584844909608,0.00917921680957,-0.0745227560401,-2.48668336868,0.00303994095884,2.51086592674,-0.875177323818,0.0748599991202,0.000391759676859,-0.000585597008467,8.67352719069e-05,-8.38389751152e-05,-4.3181804358e-05,-5.53032332391e-05,-0.0002699989127,0.473590954197,-0.00752714343547,0.173547752829,0.0027300812052,0.909625326928,0.415361258341,0.00702396013022
0.0584845244884,0.00917823519558,-0.0745231583714,-2.48668479919,0.00303987367079,2.51087069511,-0.875170946121,0.0748599991202,0.000160198818776,7.23693810869e-05,0.000120692391647,-0.000143488898175,-3.2009655115e-05,9.4171919045e-05,-7.85747397458e-05,0.473591466339,-0.00752732258718,0.173548096462,0.00273098002573,0.909626702981,0.415358205753,0.00702592090968
0.058483954519,0.00918150506914,-0.0745224803686,-2.48668384552,0.00303921080194,2.51088094711,-0.875159978867,0.0748599991202,0.000117080111522,0.000301792664686,2.1035759346e-05,0.000360173173249,-4.56567431684e-05,-9.52516929829e-05,-0.000256623578025,0.473593629495,-0.00752738868797,0.173547857806,0.00273294521628,0.909628821618,0.415353494481,0.00702938078813
0.0584881901741,0.00918132532388,-0.074520431459,-2.48668289185,0.00304047879763,2.51089644432,-0.875143110752,0.0748599991202,0.00338672637008,9.55373470788e-05,0.000372943351977,0.000369913788745,-0.000149668048834,0.00196761242114,-7.68805766711e-05,0.473597549325,-0.00752405507737,0.17354938737,0.00273614108752,0.909630923878,0.415348743911,0.00703679392292
0.0584901683033,0.00918079260737,-0.0745207369328,-2.48668456078,0.00303948880173,2.51090145111,-0.875140011311,0.0748599991202,-0.000189304962987,0.000937569071539,0.00285197701305,5.13959676027e-05,-6.42484301352e-05,-5.58485189686e-05,4.78131732962e-05,0.473597925367,-0.00752367414833,0.173549787808,0.00273716952084,0.909631294684,0.41534789255,0.00703871214293
0.0584877766669,0.00918104778975,-0.0745230391622,-2.48668622971,0.00304002221674,2.51090455055,-0.87513667345,0.0748599991202,-0.000434639048763,0.000630351889413,0.000254992104601,-0.000181958632311,-1.24691323435e-05,-4.20004435e-05,0.000364087347407,0.473597732552,-0.00752587239682,0.173549303003,0.0027373055564,0.909633048269,0.415344041232,0.00703930019728
0.0584839656949,0.00917917303741,-0.0745245292783,-2.48668408394,0.0030405826401,2.5109140873,-0.875128805637,0.0748599991202,0.000288841605652,-0.000120797507407,-0.000291141768685,-6.58393691992e-05,-0.000114575486805,9.67029918684e-05,-0.000146909631439,0.473601085521,-0.00752839020444,0.173551892806,0.00274001258659,0.909635830525,0.415337824595,0.00704551604159
0.0584844909608,0.00918091088533,-0.0745252594352,-2.48668265343,0.00303862406872,2.51092863083,-0.875117361546,0.0748599991202,7.71147606429e-05,0.000146030215546,0.000109127468022,1.92098286789e-05,7.23967314116e-05,0.000103538608528,-0.000256128929323,0.473604649072,-0.00752868868121,0.173552955185,0.00274363772895,0.909637875791,0.415333216804,0.00705167193692
0.0584884695709,0.00917755346745,-0.0745221972466,-2.48668241501,0.00303966458887,2.51093649864,-0.875110805035,0.0748599991202,0.000678310054354,0.000518093584105,-0.000367349100998,-0.0002366953413,2.35266070376e-05,1.60408944794e-06,0.000830063130707,0.473607062587,-0.0075252921888,0.173555351032,0.00274565474677,0.909637910179,0.415333036818,0.0070570498154
0.0584911517799,0.00918040238321,-0.0745216459036,-2.48668241501,0.00303941429593,2.51094722748,-0.875105798244,0.0748593434691,6.33803429082e-05,0.00036546413321,0.000153917528223,-0.000148806298967,-2.90960173288e-07,-8.15637104097e-05,0.000435829744674,0.473608967802,-0.00752384525973,0.173554984648,0.0027474934366,0.909638210954,0.415332306609,0.00706053948397
0.0584901086986,0.00918238330632,-0.0745210945606,-2.48668527603,0.00304094795138,2.5109539032,-0.875102877617,0.0748593434691,-4.94783271279e-05,-0.000446465186542,-0.00422000931576,-0.000277697661659,-2.26862175623e-06,-0.00011916270887,0.000629190122709,0.473608745168,-0.00752401329212,0.173553547476,0.0027475395886,0.909639170416,0.415330187996,0.00706153590223
0.0584879294038,0.00917547754943,-0.0745212361217,-2.48668527603,0.00304008414969,2.51096606255,-0.875091254711,0.0748593434691,9.23209518078e-05,-0.000142789256643,-0.00029440439539,0.000338885583915,3.85438106605e-05,6.64373364998e-05,0.000157789792866,0.473612471931,-0.00752514857354,0.173557919637,0.00275161422371,0.909641857914,0.41532412855,0.00707013955128
0.0584875158966,0.00917599443346,-0.0745228156447,-2.48668193817,0.00304011069238,2.51097583771,-0.875087141991,0.0748593434691,-0.000610555580352,-0.000176493107574,-0.000967835250776,-0.000168294354808,4.38645656686e-05,0.00055961846374,-0.000184313059435,0.47361608614,-0.00752616285889,0.173559864553,0.00275434200266,0.909643087177,0.415321321444,0.00707581683106
0.0584858469665,0.00917409453541,-0.0745234340429,-2.48668384552,0.0030402992852,2.51098513603,-0.875080943108,0.0748593434691,-0.000692972680554,0.000104535232822,-0.00179151957855,-0.000212292434298,1.74543911271e-05,0.000612990057562,0.00486529385671,0.473617489668,-0.00752724273485,0.173560870614,0.00275622220337,0.909644850413,0.415317374723,0.00708006278178
0.0584874749184,0.00918111763895,-0.0745210424066,-2.48668289185,0.00303990812972,2.51100063324,-0.875058174133,0.0748593434691,7.09035157342e-05,-0.000508771976456,-7.55077708163e-05,-0.000620695005637,-7.34944160286e-06,0.00280200364068,-0.000138583985972,0.4736202263,-0.00752549458038,0.173559337656,0.00275850572543,0.909648647876,0.415308971593,0.00708419774707
0.0584882646799,0.00917951297015,-0.0745209306479,-2.48668313026,0.00303962477483,2.51100587845,-0.875051617622,0.0748593434691,-0.000229805445997,0.000381783902412,9.6105854027e-05,0.000444808916654,-2.35038646679e-06,2.4303830287e-05,0.00141097803134,0.47362151639,-0.00752508879871,0.173560481969,0.00275992676767,0.909649752814,0.415306491166,0.00708717738804
0.0584880262613,0.00918168388307,-0.0745214521885,-2.48668241501,0.00303963944316,2.51101517677,-0.875044286251,0.0748593434691,0.000121222736198,2.95197351079e-05,9.47319313127e-06,6.52274902677e-05,4.93522893521e-05,7.96174717834e-05,-6.10558126937e-05,0.473623527987,-0.00752551244075,0.173560583439,0.00276167175785,0.909651409307,0.415302791338,0.00709069106349
0.0584913268685,0.0091804638505,-0.0745216310024,-2.48668265343,0.00304011208937,2.51103401184,-0.875024199486,0.0748593434691,0.000476821849588,-0.000405394093832,0.000283131812466,-0.00012466624321,-4.13782072428e-06,-0.000188505306141,-9.3835813459e-05,0.47362773153,-0.00752407120876,0.173562787196,0.00276570100623,0.909654944684,0.415294866225,0.00709973770775
0.0584864206612,0.00917987339199,-0.0745213404298,-2.4866836071,0.0030388077721,2.51103925705,-0.875016212463,0.0748593434691,-0.000461191113573,-9.68978638411e-05,0.00011533057841,0.000478120549815,-3.6598637962e-05,5.97535617999e-05,0.00215223385021,0.473628478078,-0.00752634168962,0.173563174608,0.00276707305445,0.909657328235,0.415289601148,0.00710178516807
0.0584868825972,0.0091810869053,-0.074522934854,-2.48668241501,0.00304049719125,2.51104450226,-0.875008225441,0.0748593434691,0.000298361643218,0.000902822939679,-7.5367919635e-05,-4.88264195155e-05,3.27006382577e-05,1.02929852801e-05,0.00150021677837,0.47362998548,-0.00752682401121,0.173563543873,0.00276777145491,0.909659485578,0.41528482717,0.0071043466423
0.0584871061146,0.00917802937329,-0.0745214372873,-2.48668384552,0.00304120942019,2.51105284691,-0.874996840954,0.0748593434691,-2.71203043667e-06,0.000311997864628,0.00399495055899,0.000123353398521,-0.000432763568824,0.000753671862185,0.000192702704226,0.473631622551,-0.00752596076044,0.173565194328,0.00276957465055,0.909661577657,0.415280152876,0.00710900111739
0.0584926791489,0.00918048899621,-0.0745195969939,-2.48668479919,0.00303994584829,2.51105666161,-0.874964356422,0.0748593434691,0.000467045116238,-0.000262351095444,0.000470247468911,-0.000206878554309,-8.57075865497e-05,-0.000282285240246,0.00234452402219,0.473631662781,-0.00752255188891,0.17356400982,0.00276993910248,0.909666572203,0.415269209168,0.00710904003193
0.0584908127785,0.00917630363256,-0.0745225399733,-2.48668289185,0.00303901219741,2.51105833054,-0.874932289124,0.0748593434691,0.00010759964789,-0.000280563806882,0.000942025857512,-0.000519860186614,-0.000100628371001,5.22664267919e-05,0.00454716850072,0.473633560398,-0.00752487004377,0.173566880844,0.0027716322636,0.909674046097,0.415252766012,0.0071125178052
0.0584878586233,0.00917725916952,-0.0745227187872,-2.48668456078,0.00304055982269,2.51106071472,-0.874906182289,0.0748593434691,-7.33121123631e-05,-0.000387084844988,-0.000343897962011,0.000175955938175,0.000108357227873,0.000124241356389,0.000103356978798,0.473633354108,-0.00752640486256,0.173566234266,0.00277124843879,0.90968070878,0.415238166364,0.00711288468119
0.0584879182279,0.00918339565396,-0.0745215266943,-2.48668408394,0.00303767039441,2.51106119156,-0.874876797199,0.0748593434691,-0.00380044407211,-9.07284047571e-05,0.000632339972071,-0.000328082562191,3.03701453959e-05,-0.000128862768179,0.000129180538352,0.473632472704,-0.00752590661232,0.173563328659,0.00277087829907,0.909685753851,0.415227167878,0.00710986705643
0.0584911368787,0.00917981006205,-0.0745226144791,-2.48668336868,0.00303967972286,2.51106548309,-0.874819040298,0.0748593434691,-0.000488360936288,0.000415988557506,2.35575516854e-05,-0.000330843497068,5.46761366422e-05,-1.09705542854e-05,3.13866112265e-05,0.473634334966,-0.00752477185467,0.173565692573,0.00277185833898,0.909697607496,0.415201118092,0.00711413606441
0.0584906861186,0.00918373651803,-0.0745217949152,-2.48668384552,0.00303870043717,2.51106667519,-0.874788999557,0.0748593434691,7.83108262112e-05,-0.000394890113967,-0.000108681051643,-5.55839542358e-05,-0.000431962573202,0.000114353941171,0.000429297244409,0.47363363467,-0.00752468064959,0.173563920942,0.00277147898274,0.909703986041,0.415187170138,0.00711267298443
0.0584890954196,0.00917906034738,-0.0745209828019,-2.4866836071,0.0030411623884,2.51107168198,-0.874761998653,0.0748586878181,0.00032472141902,-2.17740071093e-05,-0.00040325144073,-5.26575749973e-05,6.45632972009e-05,-0.000130327389343,0.00159368885215,0.473635688349,-0.00752489436624,0.173566519833,0.00277267432616,0.909709758649,0.415174431958,0.00711744492194
0.0584906749427,0.00917538814247,-0.0745226368308,-2.48668050766,0.00304109579884,2.51107764244,-0.874752879143,0.0748586878181,0.000113875277748,-3.43813771906e-05,-0.000308901682729,-3.61657512258e-05,0.000182600590051,0.00278592994437,-3.94030357711e-05,0.473639040304,-0.00752494900157,0.173570002959,0.0027752835184,0.909711611823,0.415170254438,0.00712324534605
0.0584907121956,0.00917981099337,-0.0745217353106,-2.48668408394,0.00304045178927,2.51109814644,-0.874734640121,0.0748586878181,-0.000301297841361,0.000672614143696,-0.00243945466354,-0.000223037131946,-7.7281598351e-05,0.000521133013535,-0.000175521548954,0.47364116117,-0.0075247291942,0.173568541709,0.00277843272717,0.90971513561,0.415162412772,0.00712902899625
0.0584919080138,0.00917781982571,-0.0745206400752,-2.48668313026,0.00304072117433,2.51110649109,-0.874730110168,0.0748586878181,0.00269133783877,-0.00021496595582,-0.000285334914224,-0.000173329550307,1.08943122541e-05,6.54592950013e-05,2.22385933739e-05,0.473643709571,-0.00752356037708,0.173570469973,0.0027805100237,0.90971552701,0.415161457063,0.00713392813302
0.0584907643497,0.00917917117476,-0.0745208784938,-2.48668408394,0.00304062967189,2.5111117363,-0.874726474285,0.0748586878181,-0.00363273569383,0.000599950319156,0.0028669515159,7.52025662223e-05,-6.63643731968e-05,-5.16850159329e-05,0.000116606905067,0.473644172713,-0.00752424785194,0.173569940415,0.00278121126849,0.909716544058,0.415159201501,0.00713522385859
0.0584901235998,0.00917691737413,-0.0745220854878,-2.48668265343,0.0030417391099,2.5111181736,-0.874719917774,0.0739879459143,0.000858514104038,0.000273765064776,9.02845272321e-07,0.000168656784808,-1.43779998325e-05,6.85034392518e-05,-0.000177498586709,0.473646598433,-0.00752507642949,0.173572149009,0.00278300601431,0.909718438597,0.415154956439,0.00713997037694
0.0584902428091,0.00918211881071,-0.0745208337903,-2.48668408394,0.00303832115605,2.51113390923,-0.874710738659,0.0739879459143,-0.00039120882866,0.000279728556052,-0.00235097645782,-6.2093786255e-05,3.0574225093e-05,0.000124018653878,0.000234581617406,0.473648522133,-0.00752472640455,0.173570572992,0.00278603256193,0.909719460681,0.415152634485,0.00714357332362
0.0584912151098,0.00918071903288,-0.0745218768716,-2.48668336868,0.00304041733034,2.51114010811,-0.874708414078,0.0739879459143,0.00133415136952,-0.0037296321243,-0.000271026277915,6.28145280643e-05,-6.28189127383e-06,0.000210460653761,5.8931804233e-05,0.473650434991,-0.00752465758212,0.173572078674,0.00278721075909,0.90972027868,0.415150764536,0.00714761483926
0.0584906227887,0.0091804517433,-0.0745211169124,-2.48668575287,0.00303917587735,2.51114535332,-0.874704301357,0.0739879459143,-0.000545643444639,-0.000166534358868,-0.000341535604093,0.000367685337551,-5.12059014e-05,0.000205381293199,0.000186932316865,0.473650487156,-0.00752465071973,0.173571757886,0.00278819452896,0.909720881145,0.415149416029,0.00714887617544
0.0584916882217,0.00917663984001,-0.0745221152902,-2.48668146133,0.00303888344206,2.51115679741,-0.874699890614,0.0739879459143,0.000335078191711,0.000308890477754,0.000538341584615,-4.15542526753e-05,0.000140131262015,-9.74468348431e-05,-0.000325523054926,0.473655391209,-0.00752497774266,0.173576242876,0.00279206204427,0.909721894454,0.415147021363,0.00715747671351
0.0584921725094,0.00918042752892,-0.0745216980577,-2.48668527603,0.00303913489915,2.51118254662,-0.874693334103,0.0739879459143,0.00020594788657,-0.0011490060715,0.000176498506335,0.00013664769358,-9.27227811189e-05,0.000552412297111,5.38011954632e-05,0.473658817387,-0.00752435169305,0.173575352107,0.00279630349043,0.909722822702,0.415144813657,0.00716588554646
0.058491781354,0.00917960330844,-0.0745207667351,-2.48668575287,0.00303930882365,2.51118779182,-0.874691426754,0.0739879459143,-0.000225315292482,0.00164218922146,-0.000741866300814,0.000126995990286,0.000114795060654,-2.71001154033e-05,-3.80619567295e-05,0.473659867706,-0.007524094838,0.173576035166,0.00279742305257,0.909723116709,0.415144117619,0.00716844717051
0.0584913678467,0.00917649827898,-0.0745209828019,-2.48668503761,0.00303898728453,2.51119542122,-0.874688506126,0.0739879459143,-0.000283013912849,-0.000805552059319,-0.00063957949169,-0.000253596779658,-0.000134002955747,7.20698808436e-05,-0.000530826800968,0.473662356303,-0.00752441975138,0.173578476781,0.00279986411805,0.909723760788,0.415142600413,0.00717361976256
0.0584894306958,0.00917641911656,-0.0745231583714,-2.48668408394,0.00304026529193,2.51120638847,-0.87468534708,0.0739879459143,0.000617882353254,-0.000353246927261,-0.00355321890675,-0.000118117772217,-9.82132914942e-05,0.00211207242683,-0.000676138151903,0.473665178406,-0.00752634827216,0.173579887217,0.0028021208001,0.909725442156,0.415138804369,0.00717919211481
0.0584921501577,0.0091798985377,-0.0745205283165,-2.4866836071,0.00303930183873,2.51123929024,-0.874678790569,0.0739879459143,0.00332403671928,-0.000729070743546,-0.000281519809505,-6.23139349045e-05,-2.23643673962e-05,-0.000242360998527,2.09344434552e-05,0.473672048776,-0.00752403796357,0.173581433603,0.00280890418578,0.909725431444,0.415138551307,0.00719251970676
0.0584897883236,0.00918510835618,-0.0745220258832,-2.48668646812,0.00304140197113,2.51124930382,-0.874678015709,0.0739879459143,-0.000266846589511,0.000341033155564,-0.00380931911059,-0.000540008069947,-8.30550270621e-05,1.11796034616e-05,-0.000285432732198,0.473672013909,-0.00752581524435,0.173578776803,0.00280896396556,0.909726738332,0.415135668674,0.00719357761625
0.0584900043905,0.00917862169445,-0.0745223537087,-2.48668527603,0.00303971837275,2.51126194,-0.87467610836,0.0739879459143,0.000655212905258,-0.000165219287737,0.000124928643345,0.000509119068738,3.69276458514e-05,0.000139322015457,-0.000199797665118,0.473676823753,-0.00752526949754,0.173583657999,0.00281383063415,0.909726554192,0.415135870448,0.00720331187515
0.0584917329252,0.00917842239141,-0.0745205506682,-2.48668169975,0.00303984573111,2.51127767563,-0.874671578407,0.0739879459143,0.000405600469094,8.3615173935e-05,3.39546531904e-05,-8.35302046198e-07,1.06701181721e-05,-3.96678260586e-05,-6.59543657093e-05,0.473681537996,-0.00752437307794,0.173586378876,0.00281769868458,0.909726967872,0.415134796238,0.00721145840779
0.0584928058088,0.00918006151915,-0.0745199397206,-2.48668241501,0.00304066529498,2.51130509377,-0.874668180943,0.0700315311551,-0.000160491355928,-0.000184006814379,0.00145261769649,0.000226751188166,-2.14430619963e-05,0.000215508785914,-0.000291953067062,0.473686916684,-0.00752365006945,0.173587831884,0.0028229281648,0.909727375461,0.415133669491,0.00722284902942
0.0584895946085,0.00918051227927,-0.0745223164558,-2.48668336868,0.00303932558745,2.51131272316,-0.874664962292,0.0700315311551,-9.0226661996e-05,0.000688629748765,-0.000360224366887,0.000171382853296,0.00022601497767,0.000149433864863,-7.30579631636e-05,0.473688030378,-0.00752667897376,0.173587646457,0.00282452504838,0.909729091274,0.415129855601,0.00722531773272
0.0584871657193,0.00918070878834,-0.0745237842202,-2.48668718338,0.00304083549418,2.51131916046,-0.874660134315,0.0700315311551,-5.329259875e-05,-0.000830019067507,-0.000152560736751,-5.81417916692e-05,-0.000113918751595,-0.000127646882902,2.11258393392e-05,0.473687540744,-0.00752815265004,0.173587184028,0.00282494361168,0.909731068403,0.415125488793,0.00722710927821
0.0584911555052,0.00917809922248,-0.074522651732,-2.48668527603,0.00304060894996,2.51133131981,-0.87465929985,0.0700315311551,-0.000136235394166,-0.000962336082011,0.000137591952807,0.000453072832897,-3.71277892555e-05,0.000782851537224,0.000336605648044,0.473691544575,-0.00752579239838,0.173590045236,0.00282834131893,0.909730029559,0.415127617099,0.0072342936064
0.0584929287434,0.00917810201645,-0.0745193436742,-2.48668479919,0.00303926109336,2.51135921478,-0.874650716782,0.0700315311551,-0.000137666531373,1.95077918761e-05,0.000116239491035,9.06153873075e-05,7.85213487688e-05,3.18983511534e-05,0.000316971505526,0.473697876052,-0.00752357723421,0.173592777135,0.00283476502612,0.909730435087,0.415126464034,0.00724693874985
0.058491256088,0.00918317958713,-0.0745225399733,-2.48668384552,0.0030401814729,2.51136660576,-0.874649465084,0.0700315311551,3.14026146953e-05,0.000302315573208,0.000277014944004,-7.75701992097e-05,-4.06920662499e-05,-4.95291533298e-05,-0.000222784045036,0.473699093294,-0.00752591968085,0.173591425167,0.00283542818755,0.909731847871,0.415123337181,0.00724844279589
0.0584902651608,0.00918115489185,-0.0745227262378,-2.48668503761,0.00304078194313,2.51137280464,-0.874645888805,0.0700315311551,9.31498507271e-05,-4.8052661441e-06,0.000345091742929,-8.89287985046e-05,9.70579185378e-06,-4.2808955186e-05,0.000394122762373,0.473700190227,-0.00752644070803,0.173592485376,0.00283670704454,0.909732910734,0.415120941891,0.00725172415928
0.0584922730923,0.00917690247297,-0.0745231360197,-2.48668408394,0.00304042873904,2.5113825798,-0.874643981457,0.0700315311551,-7.35591238481e-05,0.000101585530501,0.00348352245055,0.000207836797927,-0.000183154639672,0.000154598063091,0.000155220972374,0.473703457963,-0.00752571237991,0.173595758303,0.0028398745965,0.909732864017,0.415120904114,0.00725850441508
0.0584966018796,0.00917699001729,-0.0745176300406,-2.48668146133,0.00303980032913,2.51139688492,-0.874638199806,0.0700315311551,-2.41283578362e-05,-5.85051157032e-06,0.00213466817513,0.000147724131239,3.49367837771e-05,-5.33601050847e-05,0.000130887085106,0.473707873813,-0.00752116107682,0.173598041106,0.00284359954216,0.909731859646,0.415122947685,0.00726604928999
0.0584945455194,0.00917936023325,-0.0745220482349,-2.48668336868,0.00304108881392,2.51140594482,-0.87463504076,0.0650362670422,-0.000438886403572,0.000635254371446,0.000277218641713,3.80389428756e-05,-2.22624930757e-05,0.000637851306237,0.000671628047712,0.473708515623,-0.0075242052336,0.173597010075,0.00284440269263,0.909734058384,0.415118083877,0.00726832213225
0.0584892556071,0.00918066687882,-0.0745230540633,-2.48668432236,0.00304092979059,2.51141524315,-0.874632298946,0.0650362670422,0.000129977532197,0.00322904787026,0.000206795506529,-0.000440111296484,4.69044607598e-05,0.000455155677628,0.000387024483643,0.473709830623,-0.00752724173802,0.173596872526,0.00284602948585,0.909735884118,0.415114016846,0.00727144838512
0.0584926716983,0.00917851366103,-0.0745211541653,-2.4866836071,0.00303896330297,2.51144909859,-0.87461835146,0.0650362670422,-0.000758224225137,0.000196129942196,-0.000322538602632,6.76981944707e-05,-1.60530260018e-06,-4.7555790843e-06,0.000453591841506,0.473718680011,-0.00752595382936,0.173602678755,0.00285543130728,0.909738109562,0.415108740247,0.0072905399937
0.0584934465587,0.00917958281934,-0.0745217427611,-2.48668384552,0.00303904875182,2.51147222519,-0.874608039856,0.0650362670422,-0.0031774295494,-0.000492337276228,-0.000202997660381,-4.11314686062e-05,-7.92675382399e-06,-1.16013188745e-05,0.00233740149997,0.473722665789,-0.00752497052302,0.173602777882,0.00285902254957,0.909739262752,0.415106062962,0.00729766877299
0.0584941953421,0.00917936582118,-0.0745193734765,-2.48668384552,0.00303957168944,2.51147913933,-0.874606668949,0.0650362670422,-0.000149565719767,-0.00422399397939,-0.000350404792698,0.000233583297813,4.09011481679e-05,-2.34321123571e-05,0.000507775810547,0.473724228363,-0.00752348617198,0.173603511723,0.00286038757987,0.909738962752,0.415106653063,0.00730096543028
0.0584952197969,0.00918180122972,-0.0745208337903,-2.48668384552,0.00303959287703,2.51148724556,-0.874603629112,0.0630426257849,0.000154713736265,0.000551668112166,-1.87458244909e-05,-0.000440897245426,-0.000112389629066,-0.000150225794641,0.000610857910942,0.473725601273,-0.00752374961085,0.173603102559,0.00286168902588,0.909739668433,0.415105053131,0.00730348960067
0.0584942176938,0.00917596742511,-0.0745220333338,-2.48668265343,0.00303971697576,2.51149535179,-0.874599337578,0.0630426257849,-0.000153072120156,0.000301972875604,0.000201853792532,0.00013027706882,-0.000150543462951,0.000153122411575,0.000521131500136,0.473728842527,-0.00752477491008,0.17360706335,0.0028647131077,0.909740983511,0.41510202815,0.00731042021919
0.0584936514497,0.00918301660568,-0.074520431459,-2.48668265343,0.00304002338089,2.51151156425,-0.874590754509,0.0630426257849,-0.00170101574622,-0.000140635369462,0.000159397255629,-5.14561361342e-05,-0.000173529377207,0.000123699384858,0.000242332185735,0.473731255947,-0.0075243967182,0.173605214398,0.00286681611793,0.909742570363,0.415098463974,0.00731450068349
0.0584938451648,0.00917952600867,-0.0745237693191,-2.48668527603,0.0030410294421,2.51152157784,-0.874588668346,0.0630426257849,-0.000285221409285,0.0003926671925,0.000331784394803,0.000205768577871,-6.77744101267e-05,0.00256185303442,4.43713652203e-05,0.473732722973,-0.00752582221357,0.173606761625,0.00286879307105,0.909743786478,0.415095695463,0.00731958186876
0.0584935881197,0.00917645078152,-0.0745230019093,-2.48668313026,0.00303837051615,2.51152682304,-0.874583423138,0.0630426257849,-8.67681228556e-05,-0.000143356228364,-0.00311347027309,0.000376608775696,0.000127011895529,6.9965943112e-05,-0.0002832764294,0.473735372658,-0.00752574204829,0.173609527163,0.00287163188719,0.90974428899,0.415094496253,0.00732401800178
0.0584940314293,0.00917522795498,-0.0745226740837,-2.48668384552,0.0030417481903,2.5115404129,-0.874579548836,0.0630426257849,-0.000980616081506,0.000199199144845,0.00232435506769,0.000236682943068,-0.000103380538349,0.00360882328823,0.000205303789699,0.47373819369,-0.00752521997159,0.17361106972,0.00287370737697,0.909745447172,0.415091823215,0.00733083453015
0.0584968701005,0.00917850714177,-0.0745205432177,-2.48668241501,0.00303964316845,2.5115506649,-0.874578714371,0.0630426257849,9.33198825805e-05,-0.000236600419157,0.000204102921998,2.1946587367e-05,-5.66092749068e-05,2.03112376767e-05,0.000515101943165,0.473740616084,-0.00752306784158,0.173611012472,0.00287617107364,0.909744209175,0.415094457916,0.0073343164732
0.0584980919957,0.00918170344085,-0.0745203495026,-2.48668527603,0.00303905596957,2.51155781746,-0.874576032162,0.0630426257849,-0.000168372294866,-0.000244041730184,-0.00343236606568,-1.02976810012e-05,4.71521670988e-05,0.000170685932972,0.000226620031754,0.473740315809,-0.00752246918759,0.173609044861,0.00287666545025,0.909744371921,0.415094091191,0.00733469093055
0.0584920495749,0.0091769611463,-0.0745222494006,-2.48668336868,0.00304012140259,2.51157069206,-0.874573469162,0.0630426257849,-0.000113352049084,7.11072862032e-05,0.000582396693062,0.000220369096496,0.000142386910738,-1.12572506623e-05,0.000409585714806,0.473744717956,-0.00752619567819,0.173613204244,0.00288045295307,0.909746660891,0.415088889049,0.00734369493259
0.058491319418,0.00918059051037,-0.0745230093598,-2.48668384552,0.00303945317864,2.51158070564,-0.874570667744,0.0630426257849,0.000341532664606,-0.00054058682872,-0.000458529480966,-0.000244168477366,-6.68108032187e-06,-0.000113669935672,-0.000440212956164,0.473746080762,-0.00752701297994,0.173612219974,0.00288203503347,0.909747420417,0.415087168769,0.00734621814857
0.0584948919713,0.00917451176792,-0.0745227262378,-2.48668336868,0.00304010487162,2.5115904808,-0.874567329884,0.0630426257849,-1.99540545509e-06,6.5736421675e-05,0.000531988742296,0.000186632067198,-2.37012827711e-05,0.00165225577075,-0.000136149013997,0.473749541471,-0.00752496202294,0.173616116521,0.00288514271661,0.90974728658,0.415087305604,0.0073538369011
0.0584967955947,0.00917624402791,-0.0745227858424,-2.4866809845,0.00303990999237,2.51159715652,-0.874565005302,0.0599234588444,0.000839272921439,-0.000145715297549,-0.000422755052568,-0.000419583229814,-3.53950526915e-05,2.34005237871e-05,0.00230199983343,0.473751752285,-0.00752433425585,0.173616889166,0.0028868209435,0.909747405233,0.415086977292,0.007357030491
0.0584925562143,0.00917837303132,-0.0745215192437,-2.48668384552,0.00303942291066,2.51160788536,-0.874560177326,0.0599234588444,8.4348161181e-05,-0.00342178437859,-0.000474236963782,0.000397818774218,-5.737056199e-05,4.56568377558e-05,-0.000709574029315,0.473752366832,-0.00752581203223,0.173615752545,0.00288825691429,0.90974892455,0.415083593144,0.0073595267484
0.0584936439991,0.00918207038194,-0.0745214372873,-2.48668432236,0.00304114772007,2.5116147995,-0.874558329582,0.0599234588444,0.000138119066833,0.00215286645107,-0.000139016847243,-0.000313064956572,-2.00757094717e-05,0.000618345278781,0.000215007865336,0.473753067032,-0.00752521731085,0.173614452659,0.00288850472859,0.909749343715,0.415082647813,0.00736093157938
0.0584946610034,0.00917632877827,-0.074522189796,-2.48668456078,0.00303918775171,2.51161885262,-0.874556183815,0.0599234588444,0.000206382246688,-0.000142787539517,-0.000798724184278,-0.000558496569283,-6.02149521001e-05,-4.25138969149e-05,0.000118882016977,0.473754749141,-0.00752516802131,0.173617443728,0.00289088638837,0.909749373877,0.415082491551,0.0073650793092
0.0584975369275,0.00917787570506,-0.0745206549764,-2.48668384552,0.00304048042744,2.51162433624,-0.874555230141,0.0599234588444,-2.05094984267e-05,-0.000891496893018,0.000414163136156,0.000258025771473,2.65574944933e-05,2.00481117645e-05,-8.31272918731e-05,0.47375606981,-0.00752304360165,0.173617491666,0.00289157098635,0.909748855538,0.415083582897,0.00736733017596
0.0584912374616,0.00917922053486,-0.0745234042406,-2.4866836071,0.00303908973001,2.51164031029,-0.874545633793,0.0599234588444,-7.50415783841e-05,-0.000777724257205,0.00047362598707,-2.73714103969e-05,-3.09697061311e-05,0.000103850070445,0.000154727167683,0.473759374688,-0.00752749506983,0.173618410422,0.00289521150761,0.90975244183,0.415075581805,0.00737383230635
0.0584960021079,0.00917991157621,-0.0745215415955,-2.48668408394,0.00304045178927,2.51164579391,-0.874545574188,0.0599234588444,-0.000215473744902,-0.000302805827232,-8.01635724201e-06,0.000647823675536,-8.82009117049e-05,-3.09577771986e-05,-1.67017369677e-05,0.473760282547,-0.00752429931532,0.173618399646,0.00289576966574,0.909751290986,0.415078062572,0.00737595536745
0.058498930186,0.00917832646519,-0.074519969523,-2.4866836071,0.00304060080089,2.51165032387,-0.874542653561,0.0599234588444,-0.000400513905333,8.9710301836e-05,5.12920560141e-05,-3.60303929483e-05,-4.90000093123e-05,-0.00479223392904,0.000164510362083,0.473761780375,-0.00752216381381,0.173619747618,0.00289706222587,0.909750964743,0.415078714749,0.00737898502581
0.0584938973188,0.00917920842767,-0.0745213776827,-2.48668265343,0.0030385304708,2.51166415215,-0.874536633492,0.0599681138992,0.00015460155555,-0.000220196016016,0.00322906975634,0.000138393676025,-1.16784103739e-05,-9.94815782178e-05,-7.00821765349e-05,0.473765050292,-0.0075254093893,0.17362096628,0.00290065706181,0.909753157364,0.415073777448,0.00738497183502
0.0584960877895,0.00917741190642,-0.0745224356651,-2.48668503761,0.00303920102306,2.51166605949,-0.874535143375,0.0599681138992,-0.000334891636157,0.000927209563088,0.000170066050487,-0.000157335889526,-0.000221616195631,0.000180895338417,0.000819151639007,0.47376462896,-0.00752480918081,0.173621063883,0.00290069587598,0.909753339349,0.415073365682,0.00738568125718
0.058495413512,0.00917717628181,-0.0745207294822,-2.48668384552,0.00304043362848,2.51167058945,-0.874533295631,0.0599681138992,-9.34178679017e-05,-0.000791431521066,-0.000100241268228,0.000332307245117,1.94974400074e-05,0.000175015171408,-4.35971778643e-05,0.47376596754,-0.00752405362708,0.173621648086,0.00290139904011,0.909753569733,0.415072813807,0.00738804168403
0.0584965161979,0.00917639490217,-0.0745239555836,-2.48668146133,0.00303896586411,2.51167845726,-0.874531030655,0.0599681138992,-0.000224394316319,5.90244162595e-05,-0.000538184307516,0.000138023722684,-2.98711347568e-05,-9.00093800738e-05,0.000556514249183,0.473769176578,-0.00752540994253,0.173624067936,0.00290438286057,0.909754319555,0.415071055268,0.00739333277021
0.0584956221282,0.00918030459434,-0.0745215117931,-2.48668646812,0.00304106064141,2.51168489456,-0.874526500702,0.0599681138992,-0.000447141996119,0.000365397077985,0.000152713269927,0.000131365173729,-1.15261809697e-05,-0.000116800612886,0.00679313251749,0.473767592597,-0.00752457715556,0.173620863798,0.00290339551085,0.909755298064,0.415068933473,0.0073924341757
0.0584963709116,0.00918174721301,-0.0745219737291,-2.48668479919,0.00303993164562,2.51168942451,-0.874526441097,0.0599681138992,-4.59635066363e-06,-0.000807846139651,0.000409632339142,-0.0001028574261,-0.000139786629006,4.27304003097e-05,0.000350317452103,0.473769141499,-0.00752455162256,0.17362124479,0.00290477545539,0.909755045791,0.41506944151,0.00739441279253
0.0584970675409,0.00917756184936,-0.0745215788484,-2.48668599129,0.00303982105106,2.51169347763,-0.874524354935,0.0599681138992,1.56424048328e-05,-0.000608767848462,0.000260275090113,4.06405633839e-05,5.42997586308e-05,6.87618376105e-06,0.000257191073615,0.473770131472,-0.00752400927877,0.173623129963,0.00290616653749,0.909755209181,0.415069016062,0.00739764482924
0.0584966689348,0.00917687639594,-0.0745210275054,-2.48668313026,0.00303926295601,2.51169991493,-0.874520897865,0.0599681138992,0.000276604027022,0.000411889282987,-0.00362629722804,-0.000198925932636,-0.00019568571588,-1.49795787365e-05,0.000214514802792,0.473772999093,-0.00752400954676,0.173625153751,0.00290842883485,0.909755766001,0.41506770045,0.00740209370754
0.0584976971149,0.00917846802622,-0.0745223611593,-2.48668313026,0.00304028857499,2.51171350479,-0.874515116215,0.0587605051696,0.00018853652,-0.000387885549571,0.000286346796202,-8.8736996986e-05,1.74858223545e-06,7.47521189624e-05,-0.000195765707758,0.473775701069,-0.0075241676322,0.173625645155,0.00291078528507,0.909757158407,0.415064533459,0.00740761765185
0.0584947615862,0.00917964242399,-0.0745216757059,-2.48668265343,0.00303965993226,2.51171851158,-0.87451338768,0.0587605051696,0.000288614595775,-0.000270883232588,-0.00215442269109,0.000507132383063,6.6152853833e-05,0.000152390945004,-0.000495340209454,0.473776811999,-0.00752530412634,0.173625733136,0.00291192443341,0.909757864303,0.415062945314,0.00740946300554
0.0584945939481,0.00917989760637,-0.0745227634907,-2.48668265343,0.0030402764678,2.51172447205,-0.874511837959,0.0587605051696,0.000137225913932,-0.000835351005662,-0.000103138016129,-0.000488059566123,0.000115465845738,0.000299200968584,-0.000118786745588,0.473778059317,-0.00752589173184,0.173626158136,0.00291300311627,0.909758529232,0.415061433055,0.00741210978014
0.0584968589246,0.0091821430251,-0.0745209604502,-2.48668384552,0.00303901010193,2.51173686981,-0.874505698681,0.0587605051696,-0.000248384225415,-0.000876701145899,3.92790461774e-05,0.000165442776051,6.89851949573e-05,0.00287147867493,0.000151183441631,0.473779862414,-0.00752409832232,0.173625767387,0.00291531279,0.909758717569,0.415060935059,0.00741597102788
0.0584980770946,0.00917813368142,-0.0745221376419,-2.48668432236,0.00303916749544,2.51174211502,-0.874504029751,0.0587605051696,-0.000210107362363,5.18664746778e-05,-0.000243777569267,-0.000329056172632,0.000109528838948,-2.40552744799e-05,0.000358281336958,0.47378141561,-0.00752405223981,0.17362795687,0.00291702318765,0.909759050607,0.415060120858,0.0074200112145
0.058494515717,0.00917688198388,-0.0745224133134,-2.48668527603,0.00303925340995,2.51174521446,-0.87450492382,0.0563925616443,-0.000509109406266,-0.000708950567059,0.000379446020816,0.000123770281789,0.000253791484283,9.41021644394e-05,4.79068039567e-05,0.473781807666,-0.0075258596927,0.173628461486,0.00291770917704,0.909759663989,0.415058743786,0.00742156564631
0.0584934204817,0.00917826127261,-0.0745242163539,-2.48668217659,0.00303981290199,2.51175117493,-0.874502301216,0.0563925616443,-0.000428055849625,0.000610079092439,8.72535601957e-05,5.43176720385e-05,-0.000143929632031,-1.79906346602e-05,0.000334921496687,0.473784334587,-0.00752726322159,0.173629559561,0.00291927108325,0.909760875004,0.415056015567,0.00742507837744
0.0584932267666,0.00917911250144,-0.0745212882757,-2.48668622971,0.0030392606277,2.51175785065,-0.874498844147,0.0563925616443,5.53817299078e-05,-0.000247536285315,0.00163621967658,0.000346296874341,-5.11403704877e-05,1.08269323391e-05,0.000483599375002,0.473783747695,-0.00752600114697,0.173628192549,0.00291980086999,0.909760928483,0.41505588162,0.00742580510578
0.05849448964,0.00918187014759,-0.0745211839676,-2.48668169975,0.00303944339976,2.51176166534,-0.874497354031,0.0563925616443,-0.000505204312503,0.000843816786073,0.000140165633638,-0.000177592199179,-0.000112857262138,0.00212082336657,-0.000249655888183,0.473786298924,-0.00752541732269,0.173628998078,0.00292103926855,0.909760963504,0.41505575127,0.00742831278276
0.0584991313517,0.00917974300683,-0.0745193138719,-2.48668432236,0.00303926086053,2.5117650032,-0.874495983124,0.0563925616443,0.00187000015285,-0.00380960758775,0.000508901197463,0.000520793488249,-1.87574951269e-05,7.22174945622e-06,-9.40846948652e-05,0.473786167533,-0.00752231467028,0.173629289179,0.00292159244287,0.909759857033,0.415058149301,0.00742961689968
0.0584987327456,0.00917742215097,-0.0745196864009,-2.48668527603,0.00303981662728,2.51176977158,-0.874495089054,0.0563925616443,0.00170628342312,0.000123291727505,0.00295020872727,-0.000126276048832,-4.23853816756e-05,0.000116190130939,0.000350820686435,0.473787116309,-0.00752263941334,0.17363045176,0.00292268798009,0.909760273765,0.415057176725,0.00743248967766
0.0584952794015,0.00917742587626,-0.0745223909616,-2.48668384552,0.00304123060778,2.5117764473,-0.874493420124,0.0563925616443,0.000338872458087,0.000208265948459,-0.00012894536485,0.00050521857338,5.82372886129e-05,-7.6529038779e-05,-0.000634405063465,0.473789202142,-0.00752551705688,0.173631617348,0.00292408419476,0.909762104586,0.415053085391,0.00743631480775
0.0584952943027,0.00917714647949,-0.0745232924819,-2.48668432236,0.00303986808285,2.51178145409,-0.874489843845,0.0563925616443,0.000221933485591,0.00118574302178,0.000226577612921,4.68853140774e-05,-0.000112171881483,0.000358432502253,-0.000276521168416,0.473790101392,-0.00752603178898,0.173632022364,0.00292547300126,0.90976278704,0.415051543872,0.00743831528106
0.0584951043129,0.00917789246887,-0.0745221972466,-2.48668313026,0.00303999474272,2.5117855072,-0.874488770962,0.0563925616443,-5.02584298374e-05,0.0036308823619,-0.000845312082674,-0.000501291942783,-2.84643647319e-05,-4.31118132838e-05,0.000440032250481,0.473791412172,-0.00752544876974,0.173632532773,0.00292645892896,0.909762859572,0.415051339594,0.00744045435806
0.0584977716208,0.0091793993488,-0.0745211541653,-2.48668527603,0.00303858239204,2.5117893219,-0.874486207962,0.0563925616443,0.00045094412053,-5.54323123652e-05,4.57937385363e-05,0.000176683999598,9.71896224655e-06,9.19728772715e-05,1.97555946215e-05,0.473791035071,-0.00752396265482,0.173631306306,0.00292686543185,0.90976235387,0.415052449156,0.0074402331177
0.0584974959493,0.00917832646519,-0.0745229497552,-2.48668503761,0.00303986622021,2.51180148125,-0.874480783939,0.0563925616443,-0.000672868394759,0.00264228554443,0.000118782583741,0.000127847539261,-6.36765616946e-05,0.000569270807318,-0.00487108109519,0.47379423081,-0.00752489386798,0.173633212114,0.00292955656306,0.90976419264,0.415048278725,0.00744697894236
0.0584973096848,0.00918068177998,-0.0745211392641,-2.48668408394,0.00304001383483,2.51180386543,-0.874479591846,0.0557398349047,-0.000231357262237,0.000580036314204,0.000277354702121,-3.57127137249e-05,-0.000190230537555,-8.16644751467e-05,0.000277563493,0.473794558545,-0.00752417220147,0.173632493965,0.00292962208894,0.909764007073,0.415048685983,0.00744692494886
0.058496657759,0.00917824078351,-0.0745218619704,-2.48668432236,0.0030408045277,2.51180648804,-0.874477624893,0.0557398349047,-0.00305419927463,0.00321818655357,-0.000266219693003,0.000168726939592,-7.32304688427e-05,-0.000188867838006,-6.33192030364e-05,0.473795394807,-0.00752476509746,0.173633795043,0.00293036633353,0.909764815079,0.41504686809,0.00744923925505
0.0584971532226,0.00917533971369,-0.0745218172669,-2.48668265343,0.00304006319493,2.51181650162,-0.874469101429,0.0557398349047,-0.00032497086795,-4.83015573991e-05,-0.000159732619068,-0.000213543054997,6.42722952762e-05,9.95147929643e-05,0.000285990274278,0.473798829814,-0.00752457845527,0.173636730313,0.00293357558463,0.909766296071,0.415043481698,0.00745577946062
0.0584972426295,0.00918023940176,-0.0745209753513,-2.48668074608,0.0030406259466,2.51181912422,-0.874470233917,0.0557398349047,-0.00331939430907,9.39758392633e-05,0.00303621659987,-0.000270196964266,-3.47475761373e-05,0.00288777938113,0.000383731676266,0.473799533449,-0.0075241738726,0.173635395623,0.00293351265035,0.909765962716,0.415044215852,0.00745561226098
0.0584973059595,0.00917766056955,-0.0745205059648,-2.48668384552,0.00303944316693,2.51182317734,-0.874467968941,0.0557398349047,0.000199403613806,0.000571132346522,0.000266555172857,0.000406090315664,0.000123621575767,7.9504075984e-05,0.000411965069361,0.473799357279,-0.00752395914734,0.173635780794,0.00293449289384,0.909766113616,0.415043851494,0.00745709615787
0.0584961101413,0.00918231159449,-0.0745203718543,-2.48668217659,0.00303930183873,2.51182746887,-0.874465227127,0.0557398349047,0.000178046349902,-2.0867708372e-05,0.00101199536584,-0.000173888780409,-6.47006017971e-05,3.79515927307e-06,0.000327143527102,0.473800334681,-0.00752454342026,0.173634623863,0.00293496908615,0.90976687471,0.415042170751,0.00745760112801
0.0584961511195,0.00917963776737,-0.0745206922293,-2.48668336868,0.00304078357294,2.51183056831,-0.874460339546,0.0557398349047,-0.00462132273242,0.000208022480365,-8.00953857834e-05,-0.000372880458599,4.42680466222e-05,-1.52389964114e-06,-0.000464207725599,0.473800868087,-0.00752456964428,0.173635708059,0.00293545114299,0.909768177796,0.415039269602,0.00745990369225
0.0584969259799,0.00917934067547,-0.0745222270489,-2.4866836071,0.00303996424191,2.51183342934,-0.874457418919,0.0557398349047,-0.00206290697679,-0.000742441508919,-0.00218514632434,0.000259411463048,-2.99709372484e-05,-6.93899564794e-05,7.24305791664e-05,0.473801418097,-0.00752498659036,0.173636018031,0.00293628981574,0.909768794848,0.415037889216,0.00746112029873
0.0584980621934,0.00917831063271,-0.0745210573077,-2.48668265343,0.00303984526545,2.51183724403,-0.874458372593,0.0557398349047,-0.00051079900004,0.000143034485518,-0.000184672215255,-0.000105370600068,-1.61298376042e-05,2.60231590801e-05,0.000255370861851,0.473802855547,-0.00752374857346,0.173637271571,0.00293748107295,0.909767971665,0.415039638637,0.00746371073063
0.0584978461266,0.00917929038405,-0.0745211914182,-2.48668313026,0.00303952721879,2.51183915138,-0.874457120895,0.0553366430104,0.000345107342582,0.000923808373045,-0.0017559165135,0.0003436775296,2.05229821404e-06,-2.89938325295e-05,-0.000185174154467,0.473802911226,-0.00752411032528,0.173636750193,0.0029377411342,0.909768355877,0.415038791404,0.00746388849212
0.0584948137403,0.00918718148023,-0.0745236426592,-2.48668479919,0.00303936260752,2.51184678078,-0.87444794178,0.0553366430104,0.000563134730328,-0.000502104870975,0.000475020671729,0.000382110272767,-2.80241602013e-05,-6.41352744424e-05,0.00123508379329,0.47380248219,-0.00752681423415,0.17363307172,0.00293764574698,0.909771379539,0.415032182317,0.00746287674994
0.0584938265383,0.00918288715184,-0.0745222344995,-2.48668265343,0.00303904991597,2.51184821129,-0.874448418617,0.0553366430104,0.000279409519862,3.99187665607e-05,-0.000399767304771,-2.60543929471e-05,-8.01179703558e-05,-2.50087396125e-05,-0.000340035971021,0.473804497524,-0.00752661247495,0.173636064996,0.00293926901508,0.909771112147,0.415032692603,0.00746645500863
0.0584966987371,0.0091819409281,-0.0745211169124,-2.48668265343,0.00304035283625,2.5118522644,-0.874444842339,0.0553366430104,-0.000250005861744,-0.000136167393066,0.000200387381483,-0.00031975764432,5.14326420671e-05,-4.03961712436e-05,-0.00035106530413,0.473805561031,-0.00752465299179,0.173636882702,0.0029399318314,0.90977122568,0.41503239497,0.00746890421177
0.0584995336831,0.0091801462695,-0.0745207741857,-2.48668289185,0.00304032117128,2.51185488701,-0.874444365501,0.0553366430104,0.00176618050318,0.00041657226393,-0.000148531500599,-1.00835322883e-05,7.8587065218e-05,-7.53699932829e-05,0.000367784814443,0.473806533411,-0.0075234038859,0.173637993216,0.00294088978454,0.909770882608,0.415033100157,0.00747112967625
0.0584975928068,0.00919128954411,-0.0745211839676,-2.48668670654,0.00304076052271,2.51185798645,-0.874441385269,0.0553366430104,-0.00023966061417,0.000361880753189,0.000434494926594,0.000135444439366,-9.80877666734e-05,1.34857918965e-05,0.00015101765166,0.473803401711,-0.00752431859086,0.173631414034,0.00293848331762,0.909771869056,0.415031058779,0.007465354535
0.0584986284375,0.00918554887176,-0.0745218619704,-2.48668384552,0.00303915049881,2.51186203957,-0.874438524246,0.0553366430104,0.000103949503682,4.32649940194e-05,0.00175912270788,0.000286594469799,-1.26736877064e-05,9.8346179584e-05,0.000639624428004,0.473806555369,-0.00752422745022,0.173635609197,0.002941432683,0.909772073996,0.415030488001,0.00747094770247
0.0584957934916,0.00918552558869,-0.07452108711,-2.48668265343,0.00304017867893,2.51186394691,-0.874438285828,0.0553366430104,-0.00127901509404,-0.000265618320554,0.00282014533877,0.000201044807909,-5.52922392671e-05,0.000164968601894,0.000249538745265,0.473807525189,-0.00752515932701,0.173636257632,0.00294183197135,0.909772710804,0.415029061526,0.00747248751173
0.0584962666035,0.00918822176754,-0.0745219513774,-2.48668408394,0.00303967669606,2.51186537743,-0.874436378479,0.0553366430104,0.000292700802675,0.000114244074211,0.00330012734048,0.000614786986262,8.19063061499e-05,0.000100019409729,-0.00110077578574,0.47380672518,-0.00752539545635,0.173634558949,0.0029414795872,0.909773114498,0.415028202887,0.00747116607311
0.0584993362427,0.00918839499354,-0.0745216533542,-2.48668622971,0.0030377258081,2.51187252998,-0.874430835247,0.0550549328327,2.34590661421e-05,-4.48878636234e-05,0.000233090249822,-0.000117481686175,-5.36169391125e-05,8.60372674651e-05,-0.000127994135255,0.47380725845,-0.00752392757414,0.173634297726,0.00294302097016,0.909773224779,0.415027915299,0.00747310540118
0.0584976673126,0.00918871257454,-0.0745226293802,-2.48668336868,0.00304038007744,2.51187849045,-0.874426484108,0.0550549328327,0.0017779803602,0.00015839606931,-0.000933781673666,0.000299390492728,-3.91069188481e-05,-4.23599485657e-05,0.000408437161241,0.473809845142,-0.00752507715293,0.173635804954,0.00294414963467,0.909775087651,0.415023748546,0.00747727863692
0.0584979690611,0.00919596850872,-0.0745221748948,-2.48668456078,0.00304060871713,2.51188564301,-0.874421060085,0.0550549328327,-0.000277729996014,-4.78410511278e-05,2.95731460938e-05,0.00055331538897,0.000148344042827,0.000102591460745,0.000383076461731,0.473809686813,-0.00752479327783,0.173632567316,0.00294404103758,0.909776100246,0.41502154142,0.00747662223234
0.0584994107485,0.00918960012496,-0.07452057302,-2.48668551445,0.00303931650706,2.51188802719,-0.874416947365,0.0550549328327,0.000102084552054,0.000312070682412,0.0020853728056,-0.000176849731361,0.000155153538799,-0.000135043039336,-8.55215912452e-05,0.473810787421,-0.00752336712103,0.173635423827,0.0029458142473,0.909776078982,0.415021513082,0.00748008345562
0.0584997199476,0.00919054541737,-0.0745204612613,-2.48668193817,0.00303908903152,2.51189279556,-0.874413907528,0.0550549328327,0.000505760603119,0.000135099966428,0.00347534636967,0.00022500223713,-0.000180582050234,-5.52322962903e-05,-3.53964946953e-06,0.473813374249,-0.00752323533796,0.17363680269,0.00294748865451,0.909776557186,0.415020393413,0.00748338397758
0.0584970265627,0.00919032096863,-0.0745226591825,-2.48668408394,0.00304011185654,2.51189565659,-0.874408721924,0.0507032051682,0.000162400538102,0.00069031160092,0.000261554843746,-7.10313397576e-05,0.000116240502393,-5.35295803274e-05,0.000128135812702,0.473812978519,-0.00752549086243,0.173636337738,0.00294741952491,0.909778816022,0.415015432225,0.00748393809658
0.0584967918694,0.00919079501182,-0.0745221972466,-2.48668670654,0.00303975259885,2.51189684868,-0.87440764904,0.0507032051682,-0.00382438697852,-0.00111303303856,-4.73835862067e-05,0.000670305918902,-7.04080375726e-05,-6.95575217833e-05,-7.16439899406e-05,0.473811919169,-0.00752539338584,0.173635203801,0.00294711767566,0.909778939434,0.415015180256,0.00748302714813
0.0584994331002,0.00918865762651,-0.0745212733746,-2.48668479919,0.00303828204051,2.51189994812,-0.874407827854,0.0507032051682,5.60034204682e-05,-0.000130577143864,-5.55355363758e-05,-1.97878343897e-05,-4.39036557509e-05,0.000114081638458,6.02709842497e-05,0.473813863687,-0.0075237947573,0.173637238028,0.00294896067393,0.909777891406,0.415017409176,0.00748610049253
0.058501239866,0.00918848346919,-0.0745209157467,-2.48668265343,0.0030403980054,2.51190233231,-0.874405801296,0.0507032051682,-0.000272386241704,-0.00062471407,0.000165643024957,-6.92988749051e-07,0.000174232278368,0.00216543977149,0.000563443114515,0.473815446757,-0.00752267027655,0.173638372109,0.00294938203857,0.909778197836,0.41501669108,0.00748850403227
0.0584976412356,0.00918770767748,-0.0745221376419,-2.48668313026,0.00303888740018,2.51190280914,-0.874401688576,0.0507032051682,-0.000500797468703,0.000418568059104,0.000125243095681,-0.000146738937474,6.61839658278e-05,-0.000144426565384,-8.15288221929e-05,0.473815409846,-0.00752503468115,0.173638597406,0.00294993628259,0.909779797238,0.415013178026,0.0074886685856
0.0584944859147,0.00919500831515,-0.0745228827,-2.48668527603,0.00304095516913,2.51190638542,-0.874401092529,0.0507032051682,1.80220740731e-05,-0.00031171538285,-0.000300975487335,0.000667823129334,-1.54308272613e-05,-0.000108503991214,0.000111473440484,0.473813980965,-0.00752683122503,0.173634641417,0.00294838941691,0.909781097101,0.4150103846,0.0074861679339
0.0584968030453,0.0091945445165,-0.0745207220316,-2.48668456078,0.00303942803293,2.51190686226,-0.87439852953,0.0507032051682,9.21885002754e-05,-0.000157147907885,-2.37746257881e-06,-0.000371159054339,-0.000112835245091,-3.77479627787e-05,-0.000176519053639,0.473814646191,-0.00752498714508,0.173635292398,0.0029490789081,0.90978056917,0.415011523708,0.00748690615998
0.0584980919957,0.00919090025127,-0.0745201185346,-2.48668479919,0.00303923245519,2.51190781593,-0.874398767948,0.0507032051682,-0.000233183207456,0.000174760076334,0.00128725299146,-7.39785828046e-05,-0.000102497222542,-1.15905495477e-05,0.000271315744612,0.473815217828,-0.00752387967033,0.173636897872,0.00294996069476,0.909779948793,0.415012844329,0.00748874008528
0.0584989637136,0.0091885169968,-0.0745214596391,-2.48668265343,0.00303964037448,2.51191139221,-0.874398827553,0.0507032051682,0.000560004729778,-0.000487026904011,-0.000185263765161,0.000391598849092,5.17063199368e-05,9.83555946732e-05,0.000398433039663,0.473817390152,-0.00752408867904,0.173639185424,0.00295152199311,0.909780072006,0.41501249558,0.00749248227228
0.0584972128272,0.00918812770396,-0.0745218992233,-2.48668241501,0.00304021360353,2.51191401482,-0.874394655228,0.0507032051682,-0.000197493383894,-0.000736500369385,0.000488266960019,-0.000114745977044,-4.14648047808e-06,7.46502555558e-05,0.000771852908656,0.473818109887,-0.00752510024526,0.17363956095,0.00295194266567,0.909781383814,0.415009592466,0.00749383350966
0.0584975853562,0.00919053144753,-0.0745220407844,-2.48668551445,0.00303952815011,2.51191616058,-0.874392926693,0.0507032051682,0.00010699894483,-0.000457290938357,0.00193802418653,-0.000289633404464,6.8912988354e-05,0.000130810672999,-0.00265796878375,0.473816734415,-0.00752504186666,0.173637558517,0.00295159102625,0.909781686058,0.415008958411,0.00749239217759
0.0584972500801,0.00919137429446,-0.0745225027204,-2.48668503761,0.00303934793919,2.51191663742,-0.874392867088,0.0490438081324,-0.000247102871072,-0.000552324170712,-4.14884671045e-05,7.73703795858e-05,-6.08977643424e-05,6.84332553647e-05,0.000531062600203,0.473816924173,-0.00752544400279,0.173637389231,0.0029516973338,0.909781833351,0.415008634538,0.00749240456852
0.0584974586964,0.00919205974787,-0.0745220482349,-2.48668479919,0.00303979287855,2.51191949844,-0.8743891716,0.0490438081324,0.000225826806854,-0.00111755810212,-5.05933967361e-05,-0.000346810382325,9.66562438407e-05,4.7135323257e-05,0.00019462108321,0.473817556015,-0.00752512334498,0.173637419616,0.00295210458007,0.909782528166,0.415007087835,0.00749354718043
0.058500893414,0.00918733980507,-0.0745199248195,-2.48668217659,0.00303979194723,2.51192188263,-0.874386906624,0.0490438081324,0.000230549369007,0.00198731874116,-0.000163083794178,0.000127227438497,-3.03208571495e-06,-0.00131505948957,-0.000183399126399,0.473820111658,-0.00752247186978,0.173640886443,0.00295399650595,0.909781808772,0.415008570604,0.00749802214581
0.0584977865219,0.00918722338974,-0.074520163238,-2.48668146133,0.00304078753106,2.51192617416,-0.874384105206,0.0490438081324,0.0001686438045,0.000640403071884,-9.08822621568e-05,0.000267326453468,6.91445748089e-05,7.14575289749e-05,0.000491833896376,0.473821378991,-0.0075240215489,0.173641612187,0.00295483315743,0.90978323166,0.415005401302,0.00750046132984
0.0584989078343,0.00919285696,-0.0745225399733,-2.48668575287,0.00303896935657,2.51192498207,-0.874383032322,0.0490438081324,0.000121143631986,1.87304212886e-05,-0.00255498685874,8.83757602423e-05,-4.67340178147e-05,3.41846425727e-05,-0.000565329217352,0.473818264055,-0.00752420107738,0.173637167554,0.00295327221762,0.909783012297,0.415005990658,0.00749507273208
0.0584981627762,0.00919739715755,-0.0745235234499,-2.48668527603,0.00304001639597,2.51192545891,-0.874380588531,0.0490438081324,-0.000272232369753,0.00059901480563,8.38672422105e-05,0.000120720484119,0.00010314964311,-4.50875304523e-05,-0.000131436434458,0.473817771679,-0.00752554870241,0.173635258006,0.00295224215432,0.909784506675,0.415002749123,0.00749356917939
0.0584971085191,0.00919427443296,-0.0745229274035,-2.48668408394,0.00304095400497,2.51192879677,-0.87437993288,0.0490438081324,-0.000787385215517,-0.000314475211781,0.000226251824643,-0.000118789437693,1.13687610792e-06,7.51703191781e-05,0.000416363182012,0.473819557716,-0.00752570412955,0.173637502126,0.00295352736014,0.909784866114,0.415001886601,0.00749719028693
0.0584981776774,0.00918981526047,-0.0745214819908,-2.48668408394,0.00303944642656,2.5119304657,-0.874378204346,0.0490438081324,0.000139274969115,-0.000191135142813,0.000693553651217,-1.15306909265e-06,1.09019929369e-05,2.34184644796e-05,0.000119531236123,0.473820230459,-0.00752414813296,0.173639589734,0.00295528503943,0.909783909969,0.415003928023,0.00749952378159
0.0584989786148,0.00918757077307,-0.0745216682553,-2.48668265343,0.00304002012126,2.51193213463,-0.874373018742,0.0490438081324,0.00043770368211,-0.00322027737275,3.47613349732e-05,0.000709954008926,0.000102738340502,0.000256495404756,0.000139181793202,0.473822051501,-0.00752423540347,0.173641530792,0.00295597322688,0.909785454026,0.415000486839,0.00750236415955
0.0585005246103,0.00919092725962,-0.0745209529996,-2.48668003082,0.00303943711333,2.51193499565,-0.874373555183,0.0490438081324,-0.000357407669071,0.000611374969594,0.000342590908986,0.000409445696278,-9.3225738965e-05,-0.000135995796882,0.000100588920759,0.473823400693,-0.00752325894743,0.173641225012,0.00295669508237,0.909784768287,0.415001969848,0.00750320255856
0.0584983155131,0.00919440295547,-0.0745212435722,-2.48668646812,0.00303997378796,2.51193547249,-0.874372065067,0.0490438081324,-0.000417925271904,0.000376850948669,-0.000749883474782,-0.000873087381478,0.000112563866423,-5.71195778321e-05,-0.000524199276697,0.473819878539,-0.00752439985195,0.173637125449,0.0029546488962,0.909785721789,0.414999970837,0.00749895744503
0.0584954544902,0.00919299572706,-0.0745229497552,-2.48668694496,0.00304099591449,2.51193547249,-0.874368071556,0.0483083389699,0.000103008256701,-0.00011901029211,-0.00144309480675,6.83925245539e-05,4.35441070294e-05,-0.000317099125823,-7.87513927207e-05,0.473820116948,-0.00752649833139,0.173637800578,0.00295468144026,0.909787702689,0.414995612031,0.00749983786984
0.058499392122,0.00919199083,-0.0745214745402,-2.48668026924,0.00303845154122,2.51193881035,-0.874368965626,0.0483083389699,0.00052953872364,-0.00125205190852,-0.0001406261581,-0.000246188719757,-0.00030297433841,-7.0662033977e-05,0.00486518256366,0.473823934666,-0.00752412427781,0.173640978968,0.00295753124012,0.90978589097,0.414999484718,0.00750419641831
0.058499481529,0.00918863620609,-0.0745221748948,-2.48668313026,0.00304023129866,2.51194190979,-0.874365389347,0.0483083389699,0.000190056933207,-0.000345680717146,-0.00048014082131,-0.000140974341775,1.17797653729e-05,-7.74619184085e-05,-6.36460026726e-05,0.473823782233,-0.00752427236902,0.173641736776,0.00295770535569,0.909787044209,0.414996920879,0.00750609809856
0.0584988966584,0.00919063016772,-0.0745220258832,-2.48668169975,0.00304038939066,2.51194477081,-0.874364674091,0.0483083389699,-1.55075995281e-05,-0.000158846451086,0.000110007924377,-0.000130540327518,0.000121676050185,0.000116379349492,0.000620707345661,0.473824763041,-0.00752451038765,0.173641612008,0.00295822598691,0.909787300959,0.414996335716,0.00750712554061
0.0585004277527,0.00919458176941,-0.0745211243629,-2.48668336868,0.00303972722031,2.51194524765,-0.87436157465,0.0483083389699,5.43102178199e-05,2.14321771637e-05,0.000315545592457,-0.000646565807983,0.000104820188426,0.000267429830274,0.000148824794451,0.473823463669,-0.00752342128404,0.173639139523,0.0029574102879,0.909787348362,0.414996282035,0.00750466933965
0.0584981292486,0.00919476617128,-0.0745205432177,-2.48668861389,0.00303919008002,2.51194572449,-0.874361336231,0.0483083389699,0.000329408736434,1.19547394206e-05,0.000326574663632,0.000493145023938,-0.000108590611489,2.15744748857e-05,-0.000415958173107,0.473821035471,-0.00752423043167,0.173637058092,0.0029565008216,0.909787684256,0.414995593897,0.00750235999262
0.0585000179708,0.00918937660754,-0.0745223984122,-2.48668384552,0.00303963874467,2.51194620132,-0.874358057976,0.0483083389699,-0.000162185664522,3.24683387589e-05,0.00209620874375,0.00109427259304,5.67670649616e-05,0.000114310758363,0.00247759441845,0.473824260254,-0.00752417800804,0.173641501778,0.00295847586122,0.909788392124,0.414993938628,0.00750730027484
0.0584969520569,0.00918680243194,-0.0745238363743,-2.4866809845,0.00303973141126,2.51195049286,-0.874358415604,0.0483083389699,-0.000347771507222,8.81886589923e-05,6.12156291027e-05,-0.000132511006086,4.87934630655e-05,0.00551901664585,-0.000551118340809,0.473826927216,-0.00752632345772,0.173644222968,0.00296048091966,0.909789232007,0.414992002897,0.00751173000329
0.0584975518286,0.00919158570468,-0.0745220556855,-2.48668432236,0.00303922686726,2.51195120811,-0.87435489893,0.0483083389699,0.000257937877905,0.000903762178496,0.00020741057233,2.52360223385e-05,6.67680360493e-05,-9.89497129922e-05,0.000121235243569,0.473824755152,-0.00752524515807,0.173640730622,0.00295916063806,0.909789411836,0.414991680829,0.00750826224478
0.0584994368255,0.00919241737574,-0.0745210796595,-2.48668718338,0.0030413235072,2.51195287704,-0.874353289604,0.0483083389699,0.000604468979873,0.000366564985598,2.16908097173e-06,0.000150147578097,-0.000112448142318,6.90323940944e-06,-0.000121153047075,0.473823651891,-0.00752376052275,0.173639378669,0.00295817219527,0.909789509718,0.414991485041,0.00750761259572
0.0585002340376,0.00919347442687,-0.0745207220316,-2.48668384552,0.00303983897902,2.51195430756,-0.874352931976,0.0477160252631,-0.000280424224911,-4.33240165876e-05,0.000355740077794,-0.000210552389035,-8.24334929348e-05,7.16587019269e-05,7.22254844732e-05,0.473825385888,-0.00752333888139,0.17364030656,0.00295939848217,0.90978908275,0.414992385714,0.00750908434251
0.0584992915392,0.00918924249709,-0.0745221748948,-2.48668169975,0.00304063549265,2.51195716858,-0.874348521233,0.0477160252631,-0.000230961493799,0.000299016479403,0.000278909341432,-0.000418535259087,9.44499606703e-06,0.000178220434464,0.000674547103699,0.473827682631,-0.00752441799861,0.173643402436,0.00296102562112,0.90979059357,0.414988983454,0.00751341937058
0.0584987029433,0.00919135846198,-0.0745197087526,-2.48668313026,0.00304064224474,2.51195788383,-0.874345123768,0.0477160252631,-0.000177496433025,-1.25545966512e-05,-5.48395582882e-05,-0.000104480466689,0.00012087655341,8.61161024659e-05,-0.000397074647481,0.473826836691,-0.00752353658444,0.173641911395,0.00296045858804,0.909790920955,0.414988293247,0.00751212224788
0.0584988035262,0.00919179711491,-0.0745212286711,-2.48668408394,0.00303961057216,2.51195979118,-0.874344289303,0.0477160252631,-0.000588199822232,-0.00292707979679,-0.00144965841901,7.47273443267e-05,9.70172332018e-05,-7.39218448871e-05,0.000153091270477,0.473826717587,-0.00752427589424,0.173641508578,0.00296087211508,0.909791215309,0.414987643358,0.00751221156848
0.0584979057312,0.00919784978032,-0.0745225176215,-2.48668384552,0.00303884525783,2.51196146011,-0.87434053421,0.0477160252631,-0.000273160869256,-3.93497139157e-05,-0.00290622795001,0.000226225878578,5.41381523362e-05,0.00112256105058,-0.000341298611602,0.473826213681,-0.00752542315802,0.173638893958,0.00296039599296,0.909792336009,0.414985227078,0.00751015182989
0.0584980808198,0.00919093750417,-0.0745217874646,-2.48668313026,0.00303951185197,2.51196432114,-0.874338626862,0.0477160252631,-0.000234113642364,-0.000101964345959,-0.000402541365474,0.000283990608295,-1.44032549088e-06,0.000102720587165,-1.37470569825e-05,0.473828282519,-0.00752490725981,0.173642700049,0.00296222237059,0.909792616718,0.414984509438,0.00751507881224
0.0584976747632,0.00919334497303,-0.0745226666331,-2.48668217659,0.00303975259885,2.51196622849,-0.874335587025,0.0477160252631,-9.01622479432e-06,0.000182076997589,9.82013898465e-06,0.000386940431781,-5.00070818816e-05,0.00270863366313,6.10183597018e-05,0.473828757612,-0.00752554086585,0.173642107687,0.00296233674029,0.909793552528,0.414982453361,0.00751527915145
0.0584995448589,0.00919526256621,-0.0745223164558,-2.48668527603,0.00303967692889,2.51196789742,-0.87433308363,0.0476779416203,-0.000112083405838,-0.000124777085148,7.28391751181e-05,0.000160187861184,4.0998980694e-05,0.000158743423526,-0.000297071615933,0.473827361378,-0.00752449470643,0.173640149979,0.00296168625068,0.909793611943,0.414982355685,0.00751373616785
0.0584998950362,0.00918853469193,-0.0745217427611,-2.48668289185,0.00304075842723,2.51197052002,-0.874328553677,0.0476779416203,0.000178057787707,-1.82427920663e-05,0.000433863839135,-0.000135654918267,4.85910641146e-05,4.22929333581e-05,-0.000205104224733,0.473829972237,-0.00752356600532,0.173644328918,0.00296367382094,0.909794280573,0.414980777732,0.00751914001066
0.0585027039051,0.0091992681846,-0.0745202824473,-2.48668503761,0.0030406541191,2.51197361946,-0.874326109886,0.0476779416203,0.000117795680126,-0.000651130569167,-0.00351168052293,-8.89179500518e-05,-6.74385737511e-05,0.000178939211764,2.75243201031e-05,0.473828121835,-0.00752203728721,0.17363887271,0.00296193247776,0.909794137687,0.414981183785,0.0075147035524
0.0585018545389,0.00919274333864,-0.0745193138719,-2.48668694496,0.00303945643827,2.51197624207,-0.874324858189,0.0476779416203,-0.000319835584378,-0.000199921778403,0.00384884374216,0.000266788410954,8.90387964319e-05,0.000100552795629,0.000142371514812,0.473828824744,-0.00752198466568,0.173641454839,0.00296357934073,0.909794147464,0.414981092385,0.00751791731776
0.0584979914129,0.00918916333467,-0.0745223835111,-2.48668503761,0.00304036750458,2.51197576523,-0.874323070049,0.0476779416203,1.43110391946e-05,0.0003504800261,-0.000506002048496,0.000204046824365,4.73813815915e-05,0.000245896400884,-0.000101193247247,0.473830144723,-0.0075252000376,0.173643845085,0.00296432012439,0.909796089717,0.41497678508,0.00752033681693
0.05850084126,0.00919161830097,-0.074521318078,-2.4866836071,0.00304035563022,2.51197743416,-0.874322295189,0.0476779416203,6.75632763887e-05,-4.55494337075e-05,-0.000300130050164,0.00069081701804,4.24224890594e-05,-6.54721661704e-05,-6.57646014588e-05,0.473830825369,-0.0075233842488,0.173643393063,0.00296452533232,0.909795433627,0.414978217291,0.0075205979554
0.0585023164749,0.00919233635068,-0.0745202824473,-2.48668336868,0.00303837051615,2.51197862625,-0.874321520329,0.0476779416203,-0.00023462928948,3.68275868823e-05,0.0016370479716,1.40315632962e-05,1.99107289518e-05,2.51330966421e-05,6.79366785334e-05,0.473831100254,-0.00752232116135,0.173643254985,0.00296522061183,0.909794740268,0.414979731306,0.00752066034411
0.0585004687309,0.00919301901013,-0.0745214819908,-2.48668599129,0.00304192816839,2.51197886467,-0.874321103096,0.0476779416203,-0.000242429756327,-6.5132335294e-06,0.00132209539879,-0.000786660122685,1.15689645099e-05,5.66834969504e-05,-0.000393278809497,0.473829779978,-0.00752354919793,0.173641935945,0.00296364508944,0.909796063623,0.414976858361,0.00751971597187
0.05849789083,0.00919564813375,-0.0745236054063,-2.48668646812,0.00303998519666,2.51197934151,-0.874319791794,0.0476779416203,-0.000127155493828,-0.000668212829623,1.89366546692e-05,0.000211578430026,-2.44426555582e-05,-0.00013083605154,0.000532228732482,0.473829201898,-0.0075259151832,0.173640552426,0.00296371468432,0.909796997305,0.414974837738,0.00751823206518
0.0585010945797,0.00919000711292,-0.0745210200548,-2.48668456078,0.00304056680761,2.51198172569,-0.874319851398,0.0447025820613,-0.000159197865287,0.000174268803676,-0.00274062901735,-0.000158534108778,-7.53794447519e-05,-2.59126336459e-05,-9.17234683584e-06,0.473831449793,-0.00752313134073,0.17364396203,0.00296541591249,0.909795767729,0.414977442996,0.00752255371659
0.0585009194911,0.00918606668711,-0.0745201930404,-2.48668217659,0.003038686933,2.51198387146,-0.874317467213,0.0447025820613,0.000174463668372,-0.000216971180635,-7.69041653257e-05,-9.76067822194e-05,-0.000142935445183,-0.000114174879855,0.000384254264645,0.473833794722,-0.00752289423084,0.173647161086,0.00296764497738,0.909795858951,0.414977154926,0.00752653219401
0.0584995374084,0.009188038297,-0.07452108711,-2.48668384552,0.00304053747095,2.51198482513,-0.874320328236,0.0447025820613,-9.50747853494e-05,-4.29399697168e-05,0.000546688097529,0.000116933682875,-3.67950960936e-05,4.48860992037e-05,0.000194964755792,0.47383312294,-0.0075239695346,0.173645903257,0.00296678993736,0.909796187584,0.414976454209,0.00752577878679
0.0584979504347,0.00919514335692,-0.074523024261,-2.48668527603,0.00304070999846,2.51198410988,-0.874316036701,0.0447025820613,-8.40517386678e-05,-0.000426663289545,7.86255986895e-05,-0.000162075084518,2.38089523918e-05,-0.000670372683089,-0.00026798361796,0.473831091542,-0.00752565882145,0.173641670775,0.00296494924577,0.909797749858,0.41497312244,0.00752135369591
0.0584994405508,0.00919000338763,-0.0745225474238,-2.48668336868,0.00304100033827,2.51198673248,-0.874313890934,0.0430970340967,-0.000400310818804,-0.000340706552379,0.000507647462655,0.000176286775968,-7.12347391527e-05,-2.93321463687e-05,0.000245631992584,0.473833198921,-0.0075246199421,0.173645100303,0.00296668548499,0.909797790592,0.414972941176,0.00752574126287
0.0584998838603,0.00918786600232,-0.0745215937495,-2.48668456078,0.00303992442787,2.51198744774,-0.874315083027,0.0430970340967,0.000292349461233,0.000339918886311,-0.00149424967822,-0.000122416066006,8.08441036497e-05,8.14214945422e-05,-0.00390300992876,0.473833138117,-0.00752399312072,0.173645712347,0.00296725387971,0.909797068506,0.414974508536,0.00752638599732
0.0584996454418,0.00919283367693,-0.0745222121477,-2.48668336868,0.0030385737773,2.51198792458,-0.874313175678,0.0430970340967,0.000184391246876,-0.000606249086559,-0.000430145533755,-0.000313253491186,-8.94906115718e-05,7.76644301368e-05,-0.000215785184992,0.473833009413,-0.00752453508218,0.173643871591,0.00296707743292,0.909797428903,0.414973751133,0.00752465036299
0.0585009679198,0.00919264741242,-0.0745197758079,-2.48668456078,0.00303993653506,2.51198863983,-0.874313473701,0.0430970340967,0.000109020103991,0.0002175703994,-6.90142405801e-05,0.000133735753479,4.21228105552e-05,-3.55085576302e-05,0.000260447734036,0.473832658462,-0.00752266419247,0.173643561253,0.00296661995609,0.909796815665,0.414975097876,0.00752470554425
0.0584989376366,0.00919363368303,-0.0745232701302,-2.48668503761,0.00304041453637,2.51199054718,-0.874310672283,0.0430970340967,-0.00026255461853,-0.00103160366416,-0.000300640036585,0.00028891893453,-1.00513270809e-05,-0.000108367239591,0.00204104068689,0.473832649404,-0.00752527288019,0.173643085636,0.00296664802918,0.909798621454,0.414971134329,0.00752494207922
0.0584999211133,0.00919066276401,-0.0745241641998,-2.48668456078,0.00303937820718,2.51199221611,-0.874311327934,0.0430970340967,-0.00218506529927,-0.00052647391567,-0.00026442235685,-0.000100622186437,-0.000265805225354,7.37516093068e-05,0.000316768098855,0.473833710958,-0.007525274413,0.173644827858,0.00296793132996,0.909798275524,0.414971843358,0.0075271599717
0.0585004538298,0.00918980222195,-0.0745208412409,-2.48668575287,0.00303964340128,2.51199150085,-0.874309659004,0.0430970340967,0.000694507209118,0.000877265178133,0.0034009879455,0.000197206842131,9.44054627325e-05,4.49225808552e-05,0.000321077735862,0.473833155605,-0.00752340763276,0.173644704886,0.00296757004832,0.909797870123,0.414972742224,0.00752674810852
0.0585012212396,0.00919594243169,-0.0745199769735,-2.48668980598,0.00303971511312,2.51199388504,-0.874307751656,0.0423326715827,0.000245831324719,-0.000513698672876,-0.000412680761656,-4.38716415374e-05,0.000169766557519,-8.08875938674e-06,4.71801904496e-05,0.473830748558,-0.00752289459396,0.173640609888,0.00296614548829,0.909798223386,0.414972044281,0.00752308773245
0.0584976896644,0.00919276569039,-0.074521869421,-2.48668241501,0.00304064201191,2.51199507713,-0.874306976795,0.0423326715827,0.000219222289161,0.000683611957356,-0.000127043706016,-4.03059093514e-05,3.59421319445e-05,-0.000161818461493,0.000548085023183,0.473835018582,-0.00752521514768,0.173644928874,0.00296826410732,0.909799364863,0.414969426339,0.00752861112775
0.0584981143475,0.00919584743679,-0.0745226293802,-2.48668718338,0.00304088741541,2.51199436188,-0.874306261539,0.0423326715827,-0.000380506680813,-0.000328086491209,5.29816097696e-05,-7.388323138e-05,-2.7706648325e-05,-0.000190294507775,0.000246516021434,0.473831894198,-0.00752544095147,0.173641543941,0.00296636379093,0.909799814078,0.4149685276,0.00752461094747
0.0585003942251,0.00919518526644,-0.0745222494006,-2.4866912365,0.00303871743381,2.51199364662,-0.874303460121,0.0423326715827,-0.00146962632425,-0.000264331843937,-0.000720355310477,1.04827158793e-05,1.79674079845e-05,6.57085620333e-05,3.71557252947e-05,0.473830151912,-0.00752417743464,0.173640227362,0.00296612075533,0.909799340243,0.414969604369,0.00752261590537
0.058501701802,0.00919555313885,-0.0745220035315,-2.48669171333,0.00303957401775,2.51199531555,-0.87430369854,0.0423326715827,0.00246730842628,-0.000636767130345,6.76000345265e-05,0.000590702693444,1.84533910215e-05,9.80351760518e-05,0.000869274779689,0.473830242708,-0.00752339828842,0.173640020984,0.00296607609996,0.909799108436,0.414970104245,0.00752309401056
0.0584995448589,0.00919134449214,-0.0745235681534,-2.48668885231,0.0030403630808,2.5119946003,-0.874303102493,0.0423326715827,2.48491483035e-06,-0.00382839282975,0.000227637312491,0.000247431977186,-2.47233328992e-05,-7.94530133135e-05,0.000215210282477,0.473832316532,-0.00752504489243,0.173643227012,0.00296730081229,0.909800012374,0.414968052591,0.00752646115811
0.0584984831512,0.0091925021261,-0.0745234042406,-2.48668909073,0.00303916772828,2.51199555397,-0.874302387238,0.0423326715827,-7.09633168299e-05,0.000313132419251,0.000304564542603,-0.000731209467631,8.14870145405e-05,-2.43827325903e-05,0.000200250506168,0.47383198938,-0.00752560439035,0.173642503954,0.00296736913009,0.909800248908,0.414967546431,0.00752574887773
0.0584971383214,0.00919525045902,-0.0745238959789,-2.48668861389,0.00304120895453,2.51199555397,-0.874299705029,0.0423326715827,-0.00028365678736,0.00245055765845,0.000258861342445,-0.000197575296625,-2.11568561781e-07,0.000150684951223,-0.000421018659836,0.473831766832,-0.00752638641697,0.173641390688,0.00296642602697,0.909801534668,0.414964748759,0.0075249450733
0.0584987998009,0.00919324532151,-0.0745201855898,-2.48668837547,0.00303943920881,2.51199626923,-0.874301016331,0.0423326715827,0.000176216693944,-0.00115875480697,-0.00219279085286,2.88328760689e-06,-7.19200306776e-06,8.54889276525e-06,0.000141044511111,0.473832392752,-0.0075239240303,0.173642495048,0.00296743776254,0.909799842505,0.414968430679,0.00752609533765
0.0585002303123,0.00919470377266,-0.0745194256306,-2.48668766022,0.0030394687783,2.51199626923,-0.874301850796,0.0423326715827,1.51436825035e-06,0.00142517057247,0.0020903754048,0.000209851554246,5.20537578268e-05,-3.28846981574e-05,-0.000354634394171,0.473832516591,-0.00752290214344,0.173642083442,0.00296731175592,0.909799222363,0.414969797557,0.00752574534965
0.0584984868765,0.00918936636299,-0.074523113668,-2.48668575287,0.00304036634043,2.51199817657,-0.87430202961,0.0423326715827,0.000903497915715,0.000281081796857,-0.000402345671318,-1.79647267942e-05,-4.70651248179e-05,-3.67945431208e-05,-0.000199603658984,0.473834646058,-0.00752540130358,0.173645522637,0.0029688924533,0.909800427754,0.414967065285,0.00753005604055
0.05850020051,0.0091932490468,-0.0745216906071,-2.48669028282,0.00303942197934,2.51199746132,-0.874300122261,0.0423326715827,-0.000137851471663,0.000269640877377,0.000204094336368,-0.00352720241062,-0.000150383100845,3.43992687704e-05,0.000326896260958,0.473831745683,-0.00752396757281,0.173641861876,0.00296729291564,0.909800050017,0.414967982716,0.00752576648624
0.0584990568459,0.00919469073415,-0.0745223239064,-2.48668885231,0.00304197473451,2.51199746132,-0.874298870564,0.0423326715827,0.000159639894264,0.000876374077052,0.00017314167053,0.000172752421349,8.25728347991e-05,-6.40367507003e-05,-8.31459910842e-05,0.473832184562,-0.00752468681108,0.173641736686,0.00296665886964,0.909801103263,0.414965672614,0.00752606586554
0.0585003681481,0.0091940658167,-0.074521034956,-2.48669052124,0.00303800962865,2.51199650764,-0.874296307564,0.0417699106038,0.000168039186974,-0.000308739137836,0.000272842647973,0.000210757600144,-7.32811531634e-05,-2.95954614558e-05,-4.79853406432e-05,0.473831299805,-0.00752366011473,0.173641295672,0.00296724750889,0.909800442778,0.414967141728,0.00752467468995
0.0585000142455,0.0091918213293,-0.0745204910636,-2.48668956757,0.00303905713372,2.5119972229,-0.874295592308,0.0417699106038,-0.000162484109751,-0.000402435805881,-0.000370159221347,4.22139382863e-05,3.2995656511e-05,-3.10250688926e-05,0.000276631995803,0.473832267496,-0.0075234977748,0.173642792231,0.00296772479299,0.909800711727,0.414966513537,0.0075266109991
0.0584996119142,0.00919198803604,-0.0745205655694,-2.48668885231,0.00304040778428,2.51199865341,-0.874294698238,0.0417699106038,-0.000106350737042,0.000312744727125,-0.00116756220814,0.000420832948294,-1.27774219436e-05,-0.000165133140399,-0.00275593670085,0.473832889399,-0.00752365842709,0.173643122363,0.00296779302653,0.909801213851,0.414965392852,0.00752767514785
0.0584999099374,0.00919254310429,-0.074521176517,-2.48669266701,0.00304078031331,2.51199507713,-0.874293267727,0.0417699106038,0.000299321487546,2.1436408133e-05,-0.00298598548397,-0.000143559780554,-4.95079766551e-05,6.91839959472e-05,0.000204813783057,0.473830211112,-0.00752374850646,0.173641050958,0.00296600009511,0.909801667343,0.414964475706,0.00752412948844
0.058500662446,0.00920082628727,-0.0745201781392,-2.48670244217,0.00303989043459,2.51200485229,-0.874293088913,0.0417699106038,-0.000813333434053,0.000314125383738,-0.000330548908096,-0.000102782287286,0.000388941611163,0.00692713400349,0.000654483272228,0.473826393042,-0.00752301461456,0.173634233174,0.00296474297816,0.909801227029,0.414965522158,0.00752015264426
0.0585053563118,0.00918115582317,-0.0745187550783,-2.48666763306,0.00304301315919,2.51201367378,-0.874291241169,0.0416392348707,-8.57530103531e-05,-0.00161723373458,0.000208571043913,0.0022262330167,0.000638320983853,-0.00065447029192,0.00046501099132,0.473848008123,-0.0075200419202,0.173657859805,0.00297679810994,0.909800620873,0.414966233148,0.00754943435464
0.0585126429796,0.00914276111871,-0.0745127499104,-2.48666524887,0.00304251280613,2.51201486588,-0.874288737774,0.0416392348707,4.44139404863e-05,-2.59396838374e-05,4.87192028231e-06,-0.00047103187535,-0.000270082789939,-4.76715140394e-05,0.000158751397976,0.473855604649,-0.00751342850766,0.17367703867,0.00298454777207,0.909798144067,0.414971252816,0.00756891946426
0.058513559401,0.00913962721825,-0.0745136514306,-2.48666906357,0.00304315029643,2.51201725006,-0.874288678169,0.0416392348707,-0.000372148730094,-0.000896517129149,0.000457624875708,0.00036821764661,-5.00123169331e-05,-0.000136625036248,-0.000590073759668,0.473854812456,-0.00751333854592,0.173677256202,0.00298464130754,0.909798254481,0.414970993752,0.00756981390394
0.058514893055,0.00914496462792,-0.0745136290789,-2.48666405678,0.00304290442728,2.51201891899,-0.874287962914,0.0416392348707,0.000425176112913,0.000562454108149,-8.28610936878e-05,-9.57009542617e-05,-3.76293100999e-05,3.89612323488e-05,0.000472559477203,0.47385671219,-0.00751280345409,0.173676831797,0.00298517120267,0.909798074547,0.41497137538,0.00757031026091
0.058520257473,0.00915360357612,-0.0745123326778,-2.48666620255,0.00304131233133,2.51201868057,-0.874288141727,0.0416392348707,-0.000579598592594,0.00120043416973,-0.000176636953256,-0.000182005387614,-4.82161158288e-05,6.60148580209e-05,-6.27189365332e-05,0.473854316334,-0.00750980116586,0.17367189293,0.00298349700379,0.909796431467,0.414975086343,0.00756501348433
0.0585179291666,0.00914538744837,-0.0745147019625,-2.48666524887,0.00304307532497,2.51201915741,-0.874288082123,0.0416392348707,-0.0019659253303,-0.00072414620081,-4.53530192317e-05,0.000500406313222,3.1600757211e-05,0.00017050691531,0.000567341863643,0.473856579798,-0.00751178767193,0.173676724426,0.00298512779299,0.909797724311,0.414972140957,0.00757045307117
0.0585171505809,0.00914074387401,-0.0745158717036,-2.48666453362,0.00304339267313,2.51202297211,-0.874287128448,0.0416392348707,-0.000651914975606,0.00034042383777,-0.000119391363114,-0.000100977915281,8.17066684249e-05,-4.79023401567e-05,0.000376106705517,0.473858039629,-0.00751274523709,0.173679013079,0.00298658077521,0.909798297676,0.414970809607,0.00757395105173
0.0585190989077,0.00915094185621,-0.0745136886835,-2.48666524887,0.00304395472631,2.51202344894,-0.874287009239,0.0416392348707,0.00413536699489,-0.000572294404265,-8.84609253262e-05,-0.000467931327876,-0.000255370279774,-9.54423157964e-05,0.000362966384273,0.473856213401,-0.00751084369232,0.173673958526,0.00298451273345,0.909797597656,0.414972446463,0.00756917034321
0.0585263930261,0.00914806965739,-0.0745119675994,-2.48666596413,0.00304296333343,2.51202464104,-0.874283730984,0.0416392348707,-0.000474376400234,-0.000316702440614,0.000319673214108,-1.75785444299e-05,-0.00014654804545,-0.00496037164703,0.00160839245655,0.473856656616,-0.00750659951927,0.17367514655,0.0029853473656,0.909796230191,0.414975412103,0.00757061820391
0.058528739959,0.00914735998958,-0.0745124071836,-2.48666548729,0.00304374052212,2.51202440262,-0.874284207821,0.0375199615955,-0.000154685199959,0.000114699250844,0.000340109632816,0.000226493415539,-3.11225521727e-05,0.000135357942781,0.000345582287991,0.473856993221,-0.00750553808777,0.173675609611,0.00298539007885,0.909795887146,0.414976153531,0.00757118600172
0.0585273131728,0.00915068294853,-0.0745128020644,-2.48666787148,0.00304294610396,2.51202535629,-0.874282062054,0.0375199615955,0.000297196907923,0.000518847664353,-0.00343793956563,0.000108848209493,-3.26746048813e-05,0.000110587403469,6.23426922175e-06,0.473855492188,-0.00750657444576,0.173673236165,0.00298462196415,0.909796570429,0.41497470345,0.00756886013548
0.0585278980434,0.00915238820016,-0.0745139569044,-2.48666596413,0.00304315844551,2.51202750206,-0.874282240868,0.0375199615955,-0.000627430563327,0.000915655808058,-8.82238455233e-05,-0.000264734058874,-0.000127001054352,-2.20372512558e-05,6.56588890706e-05,0.473856588765,-0.00750687258659,0.173673368142,0.00298513753893,0.909796678023,0.41497444455,0.00756991822115
0.0585263483226,0.0091467378661,-0.0745142474771,-2.48666667938,0.0030435572844,2.5120279789,-0.87428188324,0.0375199615955,-0.00023414651514,0.000349429494236,0.000187261204701,-0.000347309192875,0.000139707815833,-6.68845241307e-05,0.000363507540897,0.473857238422,-0.00750766604964,0.173675804395,0.00298600660723,0.909797180749,0.414973289129,0.0075724932946
0.0585289299488,0.00915290042758,-0.0745129659772,-2.4866669178,0.00304287532344,2.51202869415,-0.874281346798,0.0375199615955,0.000502197013702,6.09047565376e-05,-0.000212336919503,-3.48097782989e-05,-1.22142773762e-05,-5.35615763511e-05,-0.000211911145016,0.473856328853,-0.00750593169141,0.173672864315,0.00298515835986,0.909796398083,0.414975061101,0.00756975608684
0.0585316605866,0.00915397237986,-0.0745146647096,-2.48666715622,0.00304337404668,2.51202917099,-0.874281227589,0.0375199615955,0.000168021288118,0.000380203418899,0.000405119499192,0.000731510168407,9.1213529231e-05,-4.94035589327e-07,-1.03655847852e-05,0.473856157359,-0.00750542653224,0.173672309302,0.00298488550373,0.909796294932,0.414975295224,0.00756942657367
0.0585335604846,0.0091550219804,-0.0745114013553,-2.48666977882,0.00304286973551,2.51203012466,-0.874281406403,0.0375199615955,0.000290805997793,0.000806767435279,-0.000414569018176,-0.000331801595166,7.31187101337e-05,-0.000135652619065,0.000357282842742,0.473854991331,-0.00750299887394,0.173670880502,0.0029844413845,0.909795113419,0.414977912396,0.00756813125912
0.0585365742445,0.00915056094527,-0.0745118558407,-2.48666906357,0.00304337893613,2.51203250885,-0.874279856682,0.0375199615955,-0.000311857584165,-0.00193527759984,-0.000322672654875,-0.000238567386987,0.000139293144457,5.68061768718e-05,-0.000769933802076,0.47385691402,-0.00750171738958,0.17367397315,0.00298600651591,0.909794923377,0.414978240421,0.00757237211862
0.0585390552878,0.00901172775775,-0.074512720108,-2.48663425446,0.00304261571728,2.51203989983,-0.874276936054,0.0375718399882,0.000121928926092,-0.00747281918302,0.00381944235414,-0.000801184971351,-5.65313494008e-05,-0.00011338301556,-0.000265019305516,0.473896789788,-0.00750000125181,0.173753304364,0.00302008761289,0.909794424156,0.414977565455,0.0076553702006
0.0585391707718,0.00889888592064,-0.074511051178,-2.48663163185,0.00304188556038,2.51204037666,-0.87427854538,0.0375718399882,-0.000217721506488,-0.00375172751956,0.000160227165907,0.000251298159128,-0.000211087390198,3.5312127693e-06,-8.98478610907e-05,0.473916086001,-0.00749816547011,0.173807702096,0.0030413123544,0.909793163499,0.414979176062,0.00770929200845
0.0585368052125,0.00881750322878,-0.0745137259364,-2.48663640022,0.00304267159663,2.51204180717,-0.874276697636,0.0375718399882,-0.00667307898402,-0.0023275539279,0.000124183381558,-0.000820125394966,-6.90296001267e-05,5.8516565332e-05,-0.000289825868094,0.47392703017,-0.00749972556676,0.173844447856,0.00305510059749,0.909794430861,0.414975615993,0.00774582106725
0.0585438609123,0.00880730710924,-0.0745114684105,-2.48664331436,0.00304365926422,2.51204133034,-0.874273180962,0.0375718399882,0.000158448397997,0.00020849336579,3.2606080822e-06,0.000150852662046,-3.87340114685e-05,-2.19940957322e-05,0.000143593773828,0.473925337345,-0.00749510405555,0.173846535384,0.00305502931427,0.909793383799,0.414977882843,0.00774738802714
0.0585447028279,0.00880504865199,-0.0745112150908,-2.48664236069,0.00304214842618,2.51204133034,-0.874272525311,0.0375718399882,0.000206929427804,-0.000414764421294,0.000141683267429,8.08643817436e-05,-3.81776408176e-05,0.000246589421295,0.000150049483636,0.473926155135,-0.00749465792613,0.173847973426,0.00305603987764,0.909793028603,0.414978629991,0.0077486808837
0.0585385560989,0.00880073383451,-0.0745157748461,-2.48664355278,0.00304375751875,2.51204228401,-0.874271810055,0.0375718399882,-3.49109104718e-05,-0.000224224131671,0.000477545429021,4.65677258035e-05,5.783884626e-05,0.000848135037813,0.000279917061562,0.47392643781,-0.00749960658196,0.173850247665,0.00305654794989,0.909795751015,0.414972611138,0.00775116982748
0.0585396066308,0.00881491973996,-0.0745182037354,-2.4866502285,0.00304330931976,2.51204037666,-0.874272406101,0.0375718399882,3.90627865272e-05,5.0576245485e-06,0.000425311300205,-0.000145505327964,-4.16137118009e-05,-0.000107134539576,-0.000642890692689,0.473920558398,-0.00750035816411,0.173840164203,0.00305212589133,0.909795826451,0.41497268277,0.00774021534362
0.0585432499647,0.00881510786712,-0.0745162069798,-2.48665452003,0.00304255844094,2.51204061508,-0.874268651009,0.0375718399882,0.000371969304979,-0.000780492264312,0.000238091641222,-0.000236314546783,-0.000107676838525,-4.51587657153e-05,-0.000645267602522,0.473918585926,-0.00749769716615,0.173838428317,0.00305137907196,0.909795327469,0.414973819481,0.00773821858163
0.0585498288274,0.00881472602487,-0.0745123773813,-2.48665928841,0.00304213282652,2.51204109192,-0.874267399311,0.0359741710126,-9.16766148293e-05,0.000189012120245,0.000113019872515,-0.000221438051085,1.61173811648e-05,-5.99512204644e-05,-0.000101420839201,0.473916444788,-0.00749291437249,0.173836690206,0.00305054573157,0.909793396663,0.414978094572,0.00773629515966
0.0585382990539,0.0088218851015,-0.0745184719563,-2.48665428162,0.00304221268743,2.51204061508,-0.874266445637,0.0359741710126,-0.00117087794933,4.5152646635e-05,-0.000346553599229,0.000719741685316,0.000129879510496,7.66301018302e-05,0.000679804768879,0.47391756789,-0.0075012048803,0.173835318293,0.00305032845739,0.909797249219,0.414969671846,0.00773511068059
0.0585450306535,0.00878644920886,-0.0745149478316,-2.4866271019,0.00304256402887,2.51204514503,-0.874263942242,0.0359741710126,0.00486136227846,-0.00156425486784,1.25247797769e-05,0.000269933050731,-5.84382542002e-05,2.70212294708e-05,-0.000294857134577,0.473937152901,-0.00749620690988,0.173863047192,0.00306338061946,0.909795439147,0.414972966882,0.00776601854614
0.0585491172969,0.00875711813569,-0.0745127052069,-2.48663282394,0.00304249045439,2.51204538345,-0.874265372753,0.0359741710126,-7.31723266654e-05,-0.00448701856658,7.18725495972e-05,-0.000878440507222,2.15276086237e-05,-0.000267257622909,0.000254437851254,0.47393919721,-0.00749289438449,0.173874708409,0.00306748967305,0.909793728013,0.414976478254,0.00777721989642
0.0585498325527,0.00874063372612,-0.0745138600469,-2.48663806915,0.00304337940179,2.51204586029,-0.874263882637,0.0359741710126,-0.000636571960058,-0.00157494004816,-2.99370458379e-05,3.91357352783e-05,5.5963628256e-05,0.000260729284491,-0.000459543254692,0.473939429213,-0.00749286300429,0.173880505472,0.0030692037761,0.909794233368,0.414975251776,0.00778286644321
0.05854671821,0.0087417345494,-0.074515208602,-2.48663401604,0.00304288463667,2.51204609871,-0.874261558056,0.0359741710126,0.00025695952354,0.00056799442973,-5.05171810801e-05,0.000121198143461,-0.00014764763182,0.00218996778131,0.000152942011482,0.473941194857,-0.00749504949453,0.173881582996,0.00307007355569,0.909795546139,0.41497234178,0.00778422190416
0.0585503801703,0.00873838271946,-0.074511423707,-2.48663258553,0.00304378243163,2.5120472908,-0.874262869358,0.0359741710126,0.000613339128904,-0.000792908249423,0.000208947909414,0.000194843421923,4.4443680963e-05,-7.53258136683e-05,-8.61945445649e-05,0.473942721492,-0.00749144719554,0.173883831633,0.00307096250958,0.909793855633,0.414975987513,0.00778709886767
0.0585503689945,0.00874140951782,-0.0745138898492,-2.48663568497,0.00304388743825,2.5120472908,-0.874259293079,0.0359741710126,-0.000125018821564,0.000671053538099,-0.000116169576359,-0.000195964777959,-0.000196817651158,-5.05633579451e-05,0.000152189284563,0.473940752296,-0.00749262411121,0.173881196751,0.00306972818608,0.909795153156,0.414973204466,0.00778429937733
0.0585496202111,0.00874045398086,-0.0745133087039,-2.48663520813,0.00304295076057,2.51204776764,-0.874258518219,0.0359741710126,0.000313327735057,0.000749529979657,-1.96335986402e-05,-0.000418060022639,-5.19384375366e-05,-8.46655166242e-05,-0.000246914103627,0.473941231652,-0.00749275345904,0.17388187725,0.00307035290965,0.909795185427,0.414973114881,0.00778505692891
0.0585534051061,0.0087399603799,-0.0745130851865,-2.48663520813,0.00304359477013,2.51204705238,-0.874257981777,0.0359741710126,0.00144771777559,0.000436456291936,-0.000348120171111,0.000160367242643,-4.78919764646e-06,-4.66272758786e-05,-0.000183855896466,0.473941023283,-0.00749081198449,0.173881807052,0.0030699750164,0.909794586493,0.414974435414,0.00778481035884
0.0585526041687,0.00873683299869,-0.0745114311576,-2.48663663864,0.0030417686794,2.51204872131,-0.874256968498,0.0359741710126,-0.000187512632692,-8.26115574455e-05,-0.000146764010424,0.000487573386636,-3.21528023051e-05,-7.11238681106e-05,0.000327192625264,0.47394137069,-0.00749047488023,0.173883119484,0.00307119020909,0.909794290008,0.414975046792,0.00778639057003
0.058551762253,0.00874116271734,-0.0745137184858,-2.48663425446,0.00304272049107,2.51204848289,-0.874258100986,0.0359741710126,-0.000540303473826,-0.000337623176165,-0.000126948725665,2.24496161536e-05,-0.000119729797007,0.000114161230158,7.86259552115e-05,0.473941739737,-0.00749196285696,0.173881978637,0.00307063928519,0.909794870417,0.414973795969,0.00778545277541
0.0585518665612,0.00873905140907,-0.0745141357183,-2.48663592339,0.00304369302467,2.51205062866,-0.874255478382,0.0352840125561,-0.000766562530771,0.000277136539808,-0.00012033177336,5.24862407474e-05,6.23356900178e-05,-0.000134713947773,-0.000147707018186,0.473941748829,-0.00749203246465,0.173882524679,0.00307085655421,0.909795632309,0.41497209909,0.0077867790455
0.0585528053343,0.00873793289065,-0.0745149850845,-2.48663663864,0.00304316170514,2.51204967499,-0.874255359173,0.0352840125561,0.00011443666881,0.000683530641254,-0.000403449987061,-0.000393266876927,-0.000139514260809,-0.000112473659101,2.55192971963e-05,0.47394138002,-0.00749200239935,0.173882688163,0.00307084446564,0.909795552148,0.414972280569,0.00778647830313
0.0585541538894,0.00873367674649,-0.0745134428144,-2.48663592339,0.00304331281222,2.51205062866,-0.874256551266,0.0352840125561,-6.35407268419e-05,0.000578007486183,-2.03411436814e-05,0.000157186965225,-3.02255784845e-06,0.00441239960492,0.000127400286146,0.473942624425,-0.00749059098909,0.173885064998,0.00307191864611,0.90979470763,0.414974072321,0.00778924027231
0.0585527084768,0.00873734150082,-0.0745141208172,-2.48663926125,0.0030431272462,2.51205086708,-0.87425661087,0.0352840125561,-0.000428282684879,0.00087942898972,0.00154110358562,-0.000379834353225,6.18246995145e-05,1.82509647857e-05,0.000339231890393,0.473940494854,-0.00749161969918,0.173882057151,0.00307065300145,0.909795131493,0.414973211269,0.00778610369744
0.0585482157767,0.00874986220151,-0.0745156630874,-2.48664307594,0.0030419502873,2.51205086708,-0.874256789684,0.0352840125561,0.000262930931058,0.000359827739885,0.000321881263517,7.64680517022e-05,3.254848707e-05,-6.25142638455e-05,8.95232296898e-05,0.473936650168,-0.00749463871432,0.173874656214,0.00306792048764,0.909796213487,0.414971004127,0.00777838036533
0.0585507936776,0.00875625759363,-0.0745156630874,-2.4866464138,0.00304273981601,2.5120511055,-0.874255120754,0.0352840125561,0.00288220844232,0.000463940028567,0.000253276404692,-0.000130976957735,-2.42464393523e-05,-8.94830809557e-05,0.00043397929403,0.473934122958,-0.00749340741927,0.173870357554,0.00306587216121,0.909796193255,0.414971143709,0.00777410665373
0.0585500523448,0.00876459013671,-0.0745147690177,-2.48665428162,0.0030430550687,2.51204991341,-0.874251782894,0.0352840125561,0.00012969780073,0.00052718661027,0.00014219089644,-0.000310011208057,-9.43056584219e-05,-0.000198505877052,0.00409072590992,0.473928594766,-0.00749335348984,0.173862857111,0.00306214373132,0.909796894909,0.414969788843,0.00776577855992
0.0585510134697,0.00876930262893,-0.0745156779885,-2.48665618896,0.00304122245871,2.51204991341,-0.874251782894,0.0352840125561,0.00327619351447,0.000829803699162,-4.14988753619e-05,6.92263565725e-05,1.6518351913e-05,-4.35829897469e-05,8.25632450869e-05,0.473926982575,-0.00749350170552,0.173859884666,0.00306148931745,0.909796631437,0.414970432036,0.00776253332551
0.0585491135716,0.00877261441201,-0.0745179355145,-2.4866566658,0.00304237985983,2.51205039024,-0.874251842499,0.0352840125561,0.000137312512379,-0.000140584801557,-0.000379388249712,-0.000331811374053,0.000112949404866,-7.07366634742e-05,-0.000106546685856,0.473926476112,-0.00749537891136,0.173858575886,0.00306067255593,0.909797739563,0.414968028302,0.00776147764588
0.0585480816662,0.00877580139786,-0.0745202228427,-2.48665571213,0.00304110418074,2.51204991341,-0.874251067638,0.0352840125561,-2.20634392463e-05,0.000100971439679,2.45112933044e-05,-2.32453858189e-05,8.87408386916e-05,-2.9170045309e-05,-0.000673024856951,0.473926292428,-0.00749706356734,0.173857397117,0.00306056110839,0.909798386478,0.414966637753,0.00776003604214
0.0585504621267,0.00877381302416,-0.0745187029243,-2.48665499687,0.00304226740263,2.51204991341,-0.874249637127,0.0352840125561,-0.000262371904682,0.000320812483551,-0.00265048397705,0.000139104347909,7.20255193301e-05,-2.13169732888e-05,0.000175660316017,0.473926977952,-0.00749513246629,0.17385861462,0.00306073417213,0.909798057358,0.41496733169,0.00776144591605
0.0585486330092,0.0087739508599,-0.0745184868574,-2.48664355278,0.00304267881438,2.51204943657,-0.874248087406,0.0352840125561,-0.000403456535423,0.000618839869276,0.000118064315757,-0.000544817419723,-0.000125545018818,-2.73709192697e-05,-0.000189314421732,0.473932269179,-0.00749595595897,0.173862954364,0.00306295244571,0.909798738118,0.414965730336,0.00776638697117
0.0585481636226,0.00877540186048,-0.0745195150375,-2.4866271019,0.00304086063989,2.51204919815,-0.874247014523,0.0352840125561,0.000220866291784,0.000513314153068,0.00018318722141,0.000391001492972,4.4504107791e-05,5.58926549274e-05,0.00464821141213,0.47393977712,-0.00749690518464,0.173868641849,0.00306666572106,0.909798908473,0.414965209426,0.0077727953903
0.0585474222898,0.00877959281206,-0.0745206549764,-2.48659110069,0.00304248649627,2.51204848289,-0.874248683453,0.0352840125561,-0.00030399064417,-0.00035037388443,-0.000160110139404,0.00075442250818,-0.000115575057862,-6.04335655225e-05,-5.20760477229e-06,0.473956020171,-0.00749800406359,0.173880590978,0.00307306657486,0.909799095995,0.41496448508,0.00778697568482
0.0585499070585,0.00878777168691,-0.0745196789503,-2.48640918732,0.00304149021395,2.51204586029,-0.874244511127,0.0361659154296,-0.00417031580582,-0.00105052138679,2.66422994173e-05,0.0033067620825,2.28274293477e-05,-8.50008727866e-05,-0.000561426917557,0.474040456347,-0.00749781690059,0.173947210263,0.00311031793907,0.909798377781,0.414964329585,0.00786400410183
0.0585432462394,0.00878377445042,-0.0745265558362,-2.4863524437,0.00304118846543,2.51204514503,-0.874244272709,0.0361659154296,-0.000702197488863,0.00133564544376,-9.41892503761e-05,0.00280517572537,-5.42194429727e-05,8.8199347374e-05,0.000501432339661,0.474067744776,-0.00750463673923,0.173971101337,0.00312323059912,0.909800940375,0.414958099815,0.00789109628947
0.0585389882326,0.00876698363572,-0.074529491365,-2.48631238937,0.00304070883431,2.5120472908,-0.874243199825,0.0361659154296,-0.000101422578155,-9.26966313273e-05,0.000230307792663,0.00247553596273,-0.000152552398504,-6.79641307215e-05,2.73420482699e-05,0.474089817346,-0.00750822486864,0.173994814305,0.00313549012396,0.9098023381,0.414954432178,0.00791790277451
0.0585393533111,0.00871514622122,-0.074527643621,-2.48626422882,0.00304064643569,2.51204442978,-0.874243557453,0.0361659154296,0.000100230761745,-0.000547519244719,-0.000574453209992,0.000626457389444,-5.17586922797e-05,-5.31487785338e-05,8.03241928224e-05,0.474120276395,-0.00750703583858,0.174037793103,0.00315457262991,0.909801405612,0.414955478191,0.00796252579522
0.0585400760174,0.00858257059008,-0.0745304524899,-2.48621606827,0.00304019195028,2.5120446682,-0.874243199825,0.0361659154296,0.000192930485355,-0.00984302069992,-0.000591696123593,0.00119754055049,-0.000101423429442,-8.44660389703e-05,-0.000205707037821,0.474164180256,-0.0075071763733,0.174119243057,0.00318903642542,0.909801118249,0.414954232148,0.00804612836992
0.0585421584547,0.00845981575549,-0.0745296403766,-2.48619294167,0.00304177915677,2.51204133034,-0.874243021011,0.0361659154296,0.000427535618655,-0.00909130834043,0.000142249002238,0.000865064270329,2.24968971452e-06,7.18788141967e-05,0.0051537216641,0.47419796674,-0.00750451967788,0.174194804544,0.00321852071398,0.909800177178,0.414954602387,0.00812135260519
