imanlab/tactile_prediction_flat_dataset/train/data_sample_2021-11-24-15-30-24/robot_state.csv
position_panda_joint1,position_panda_joint2,position_panda_joint3,position_panda_joint4,position_panda_joint5,position_panda_joint6,position_panda_joint7,position_panda_finger,velocity_panda_joint1,velocity_panda_joint2,velocity_panda_joint3,velocity_panda_joint4,velocity_panda_joint5,velocity_panda_joint6,velocity_panda_joint7,ee_state_position_x,ee_state_position_y,ee_state_position_z,ee_state_orientation_x,ee_state_orientation_y,ee_state_orientation_z,ee_state_orientation_w
0.141482621431,0.0677650421858,-0.133595868945,-2.53517055511,-0.0151574416086,2.62793922424,-0.759381830692,0.072593845427,0.000228963108384,-0.000358153600246,5.55009501113e-05,6.33204253973e-05,-1.84586369869e-05,1.01486230051e-05,0.000223995753913,0.465081897726,0.00158919818503,0.138947059694,0.0124227593442,0.924650748211,0.38051107789,0.00883109102087
0.141483798623,0.0677666813135,-0.133599236608,-2.53516864777,-0.0151586122811,2.62793874741,-0.759382724762,0.072593845427,0.000293819932267,-0.00101802125573,-0.000206246695598,5.32411977474e-05,3.36570479931e-07,1.23059071484e-05,0.000385941879358,0.465082430084,0.00158815057182,0.138946915766,0.0124231629107,0.924650781879,0.380510990343,0.00883077034318
0.141480952501,0.0677682906389,-0.133612990379,-2.53516936302,-0.0151585256681,2.62793874741,-0.75938051939,0.072593845427,0.000252735160757,0.000296083278954,-0.00134654215071,0.000581581960432,-9.89801046671e-05,-4.68939106213e-05,5.66415619687e-05,0.465081228328,0.0015812365068,0.138945997346,0.0124230226166,0.924653581508,0.38050422735,0.00882923355623
0.141481891274,0.0677647143602,-0.133617937565,-2.53516435623,-0.0151584548876,2.62793946266,-0.759382247925,0.072593845427,0.000214739047806,-0.000981608871371,4.05480159316e-06,-1.18335810839e-05,-7.63244752306e-05,1.84322998393e-05,0.000350382993929,0.465085191951,0.00157843744784,0.138949521322,0.0124249997726,0.924654764519,0.380501182409,0.00883378182544
0.141482114792,0.0677654072642,-0.133620753884,-2.53516435623,-0.0151579603553,2.62793946266,-0.759381592274,0.0725945010781,-0.000215654785279,0.00339261768386,-0.000197948436835,0.00154721422587,-4.83214244014e-05,-1.45489511851e-05,-1.59458735993e-07,0.465085067811,0.00157719429154,0.13894921408,0.0124249001581,0.924655464739,0.380499491594,0.00883345710086
0.141483545303,0.0677669867873,-0.133626431227,-2.53516721725,-0.0151576856151,2.62793898582,-0.759382963181,0.0725945010781,-0.000591958581936,-0.000815422041342,-0.000438170303823,-4.94363921462e-05,1.27025468828e-05,-0.000140879885294,-2.48547057708e-05,0.46508323679,0.00157509261219,0.138947431941,0.0124242333113,0.924656079008,0.380498075665,0.00883108585118
0.141482099891,0.0677672922611,-0.133630633354,-2.53516316414,-0.0151588935405,2.62793874741,-0.759382307529,0.0725945010781,0.000411440851167,-0.000503369665239,-3.77992582798e-05,0.000206633718335,-9.99152689474e-05,8.4385057562e-05,-0.000252325262409,0.46508541154,0.00157251303175,0.138949093377,0.01242550799,0.924657016354,0.380495714328,0.00883288848719
0.141484946012,0.067766584456,-0.133632987738,-2.53516769409,-0.0151579193771,2.62793874741,-0.759381711483,0.0725945010781,-0.000506025622599,-0.000134794958285,-9.93771245703e-05,0.000132992616273,5.4833250033e-05,-7.32731859898e-05,6.54673785903e-05,0.465083042615,0.00157261523192,0.138947451128,0.0124244377256,0.924657256529,0.380495212992,0.0088308476043
0.141483351588,0.0677682086825,-0.133635088801,-2.53516316414,-0.0151592511684,2.6279399395,-0.759382843971,0.0725945010781,0.000342637387803,0.00240394473076,-3.00321808027e-05,0.000538525346201,-2.86663271254e-05,0.00149009632878,2.65105882136e-05,0.465085281425,0.00157082648483,0.138948461993,0.0124256976459,0.924657489832,0.380494565485,0.00883254522762
0.14148619771,0.067772269249,-0.133642405272,-2.535166502,-0.0151590313762,2.62793946266,-0.759380340576,0.0725931897759,-0.000337026227498,0.000788055069279,-0.000231272497331,0.000591752992477,-7.24653591533e-06,1.31440256155e-05,0.000312695774483,0.465082422653,0.00156873791134,0.138945225117,0.0124245981883,0.924658695434,0.380491764669,0.00882853438658
0.141485095024,0.067768894136,-0.13364353776,-2.53516411781,-0.0151587249711,2.62793898582,-0.759380817413,0.0725931897759,0.000227927273954,0.00131398870144,0.000266860181,0.0011021461105,-7.26471334929e-05,-0.000179479262442,-8.61804292072e-05,0.465086135418,0.00156796597615,0.138949680356,0.0124262913992,0.924659132688,0.380490528285,0.00883363948259
0.141483947635,0.0677660182118,-0.133647739887,-2.53516149521,-0.0151584371924,2.6279399395,-0.759382426739,0.0725931897759,-0.000100653218396,0.00142990832683,-7.51321786083e-05,0.000459719391074,5.25702926097e-05,-0.000190082893823,-5.61641936656e-05,0.465086584762,0.00156516621106,0.13895012888,0.0124265552711,0.92465996895,0.380488472533,0.0088342797096
0.141477912664,0.0677729770541,-0.133659794927,-2.53516340256,-0.0151590611786,2.62793946266,-0.759381473064,0.0725931897759,-0.000334626849508,0.00487366737798,0.000128666186356,-0.000380699959351,3.34490978275e-05,2.95119098155e-05,6.61234007566e-05,0.465084234662,0.00155638215311,0.138946241639,0.0124258731917,0.924663516721,0.380479983063,0.00882953523553
0.141480833292,0.0677744373679,-0.133664429188,-2.53516793251,-0.0151579696685,2.62793922424,-0.759380042553,0.0725931897759,0.000338588346494,-7.26918806322e-05,-0.00158718007151,-8.48668569233e-05,-7.57354646339e-05,-0.000147131984704,-0.000454045424704,0.46508163092,0.00155548887222,0.138943928403,0.0124247048317,0.924664326779,0.380478118875,0.00882667732783
0.141481131315,0.0677692368627,-0.133666872978,-2.53516793251,-0.0151585135609,2.62793970108,-0.759382605553,0.0725931897759,0.000101456542325,0.00056508241687,-8.26926916488e-05,0.000112271758553,7.66551602283e-05,-0.000793491897639,0.00024079499417,0.46508271684,0.00155441601156,0.138946217623,0.012425622743,0.924664307336,0.38047807649,0.0088292486051
0.141483068466,0.0677678957582,-0.133668452501,-2.53515982628,-0.0151596432552,2.6279399395,-0.759382724762,0.0725931897759,-0.000214897925616,0.000809438060969,6.84926708345e-05,-0.000372644746676,-9.15791315492e-05,-3.34827382176e-05,-5.55101250939e-05,0.465087137598,0.00155480039364,0.138949957812,0.0124276922327,0.924663797079,0.380479145118,0.00883372235298
0.141485035419,0.0677692964673,-0.13367125392,-2.535166502,-0.0151576343924,2.62793922424,-0.759383916855,0.0725931897759,-0.000109708802484,0.00121495197527,0.000314809702104,-0.000415152986534,6.17596379016e-05,-0.00250376807526,0.000161643663887,0.465083355702,0.00155434921269,0.138946843196,0.0124257790396,0.92466411168,0.380478534871,0.00882976624644
0.141482263803,0.0677721053362,-0.13367523253,-2.53516745567,-0.0151572963223,2.62793946266,-0.759380340576,0.0725931897759,0.000214470885112,0.000795281957835,0.000580960768275,-0.000145858546603,-1.40421389005e-05,0.000585686124396,-0.000333787262207,0.465081999812,0.00155108460624,0.138944676078,0.0124252302604,0.924666055987,0.380473882699,0.00882739066228
0.141482383013,0.0677693411708,-0.133680999279,-2.53516626358,-0.0151589736342,2.6279399395,-0.75938129425,0.0725931897759,0.000201721763005,0.00016538662021,-0.000454496446764,-4.36827758676e-05,3.14893031828e-06,-0.000125447084429,0.00025942036882,0.465083660287,0.00154843031089,0.138947018662,0.0124266217777,0.924666730889,0.38047213832,0.00882992092567
0.141482561827,0.0677658095956,-0.133680984378,-2.53516554832,-0.0151597326621,2.62793970108,-0.759379506111,0.0725931897759,-0.000166336918483,0.0017912624171,-0.0003914773406,9.3048751296e-05,-2.03168219741e-05,0.00549888936803,-9.39750025282e-05,0.465084647599,0.00154859751361,0.13894888213,0.0124273145979,0.924666893001,0.380471678237,0.00883179382036
0.141484260559,0.0677684098482,-0.13368730247,-2.53516221046,-0.0151595287025,2.6279399395,-0.759383320808,0.0725931897759,-0.000459683302324,0.000653486233205,0.000286626251182,-0.000515934778377,0.00016865984071,4.22611628892e-05,-0.000249423639616,0.465085899919,0.00154633481443,0.138948940692,0.012427856661,0.924667061364,0.38047124407,0.00883210766543
0.14148247242,0.0677711516619,-0.13369217515,-2.53517007828,-0.0151584595442,2.62793970108,-0.759383440018,0.072593845427,-7.54365464672e-05,-0.00137529172935,5.58537321922e-05,-0.000845314294565,-0.000139484283864,-8.33071462694e-05,-0.000129278356326,0.465081376547,0.00154307761816,0.138944831388,0.0124259498786,0.924668538569,0.380467833949,0.00882703596256
0.141481354833,0.0677718445659,-0.133694902062,-2.5351691246,-0.0151587249711,2.6279399395,-0.759380698204,0.072593845427,-7.68918253016e-05,-0.000635365373455,-0.00039699478657,0.000356049247785,-1.46052582295e-06,4.55581430288e-05,3.19310565828e-05,0.465081786656,0.00154123833517,0.138944891258,0.0124262415029,0.924669739733,0.380464901377,0.00882719929191
0.141483172774,0.0677695125341,-0.133699461818,-2.53516459465,-0.0151580767706,2.62794017792,-0.759383261204,0.072593845427,0.000616089033429,-0.000484420830617,0.000116869756312,-0.000140026197187,-1.42563776535e-05,3.3789299323e-06,-0.000111320143333,0.46508458062,0.0015400272953,0.138947645029,0.0124274382042,0.924669840051,0.380464541145,0.00883053187756
0.141484633088,0.0677709951997,-0.133702382445,-2.53516626358,-0.015159974806,2.62793874741,-0.759382665157,0.072593845427,-0.00036707916297,-0.000451030529803,0.000208489713259,5.69847907173e-05,8.07271192116e-08,3.51204607796e-06,0.000361697428161,0.465083154045,0.00153919289366,0.138946238506,0.0124272282865,0.92466993881,0.380464362929,0.00882816409236
0.141484826803,0.067771114409,-0.13370205462,-2.53516507149,-0.0151574853808,2.6279399395,-0.759382903576,0.072593845427,9.30253154365e-05,-0.000358607212547,-0.000204070369364,0.00044813027489,-7.83111536293e-05,1.13698156667e-07,0.00014346804528,0.465083986872,0.00153952923159,0.138946723361,0.0124270589038,0.924670193038,0.380463720667,0.00882945374121
0.141480773687,0.0677678361535,-0.133707523346,-2.53516602516,-0.0151580087841,2.62793970108,-0.759381532669,0.072593845427,0.000267677358352,4.76186687592e-05,0.000107876614493,-0.000124994476209,-5.46510418644e-05,3.896652197e-05,-0.000251585588558,0.465084109685,0.0015351005122,0.138947890403,0.0124275790745,0.924672169307,0.380458879918,0.00883034323188
0.141482889652,0.0677691325545,-0.13370783627,-2.53515982628,-0.0151585452259,2.62794113159,-0.759380102158,0.072593845427,-7.73272840888e-05,-0.00096481415676,-2.5018141514e-06,5.94033772359e-05,-2.40336544266e-06,9.64745868259e-06,-0.0002869842574,0.46508729147,0.00153593750844,0.138949669823,0.0124289541031,0.92467196502,0.380459264611,0.00883322477509
0.1414822191,0.0677674859762,-0.133709549904,-2.53515934944,-0.015157295391,2.62794113159,-0.759380698204,0.072593845427,-1.13553942356e-05,0.000963333819527,9.31341346586e-05,0.000386969157262,-0.000241853573243,0.000392258400097,-0.000132918255986,0.465087854026,0.00153489542788,0.138950607513,0.0124290239663,0.924672502959,0.380457929286,0.00883432854183
0.141484826803,0.0677694305778,-0.133709535003,-2.53516340256,-0.015158331953,2.62794089317,-0.759379804134,0.072593845427,0.000193699481315,0.000379262404749,-0.000270464050118,2.74005960819e-05,4.8657249863e-05,-4.48008831881e-05,7.70477417973e-05,0.465085383584,0.00153599886209,0.138948224505,0.0124282113137,0.924672034906,0.380459163256,0.00883131942885
0.141481980681,0.0677702948451,-0.133709892631,-2.53516840935,-0.015158762224,2.62794113159,-0.759382009506,0.0791565701365,0.000164120516274,-3.90323730244e-05,4.43946555606e-05,0.000186959878192,0.000193750413018,-2.29235520237e-05,0.000195541593712,0.465082644697,0.00153420375894,0.138945980909,0.0124273778382,0.924672149759,0.380458976789,0.00882849948892
0.141484826803,0.067766033113,-0.133711501956,-2.53516030312,-0.0151575747877,2.62794113159,-0.759379327297,0.0791565701365,0.00330889387988,-0.00019211070321,0.000460201437818,0.000134612360853,9.71949557425e-05,0.000116955248814,-0.000189057303942,0.46508765549,0.00153520116731,0.138950940599,0.0124291452225,0.924672591503,0.380457704747,0.00883456018506
0.14148670435,0.0677669867873,-0.133711695671,-2.53516197205,-0.0151592306793,2.62794065475,-0.759379863739,0.0791565701365,-0.000512499886099,0.000723742763512,0.000791505852249,-0.000285721500404,-5.8457499108e-05,-7.83418290666e-05,-1.32514087454e-05,0.46508652709,0.00153588946491,0.138949854988,0.0124290176875,0.924671910481,0.380459401435,0.00883295136581
0.141483202577,0.0677703246474,-0.133712813258,-2.53516149521,-0.0151560856029,2.62794089317,-0.759378552437,0.0791565701365,-0.000781845650636,-0.000607531983405,0.000132685323479,-0.00045609875815,-5.18816996191e-05,5.35475664947e-05,-0.000423585617682,0.465086184811,0.00153373869054,0.138948515294,0.0124280571796,0.924673567992,0.380455428018,0.00883193226053
0.1414809376,0.0677690282464,-0.133717790246,-2.53516578674,-0.015155505389,2.62794113159,-0.759378969669,0.0791565701365,8.38544146973e-05,-0.000711595348548,-0.000228325690841,-0.000186966513866,6.51408045087e-05,-0.000155297675519,0.0001441155473,0.465084343478,0.00153033456559,0.138947604492,0.0124275215908,0.924674978119,0.380452048118,0.00883064630487
0.141484007239,0.0677685588598,-0.133720174432,-2.53516364098,-0.0151559161022,2.62794113159,-0.759378671646,0.0791565701365,0.000236269785091,0.00235810014419,-0.00033207325032,8.59296851559e-05,-1.48066174006e-05,0.000165135876159,-4.59083203168e-05,0.465085518259,0.00153064074434,0.138948607066,0.0124281489912,0.92467481925,0.380452386578,0.00883181679954
0.141484946012,0.0677684992552,-0.133720085025,-2.53515934944,-0.0151553619653,2.62794089317,-0.759379684925,0.0791565701365,-0.000351055088686,0.000583629473113,0.00353914871812,-0.000236092018895,6.63782702759e-05,0.000146348393173,1.09283100755e-05,0.465087637913,0.00153116877552,0.138950163137,0.0124287813693,0.924674498667,0.380453099545,0.00883377826757
0.141484737396,0.0677684471011,-0.133722707629,-2.53516316414,-0.0151561237872,2.62794089317,-0.759379446507,0.0791565701365,0.000326427805703,-0.00122738187201,-0.00034455145942,-2.15567142732e-05,-1.26982677102e-05,5.25780305907e-05,0.000330746057443,0.465085735882,0.00152977058615,0.138948819745,0.0124283515165,0.924674976502,0.38045199527,0.00883192435047
0.141484260559,0.0677699148655,-0.133722826838,-2.53516721725,-0.015155066736,2.62794041634,-0.759379565716,0.0791565701365,-7.92288410594e-05,-6.52827511658e-05,0.000184464312042,-0.000499182322528,-4.99777415826e-05,-0.000107457693957,-0.000292822514893,0.465083309213,0.00152945187986,0.138946633602,0.0124270899402,0.924675276343,0.380451370855,0.00882920455359
0.141482815146,0.0677694305778,-0.133726343513,-2.53516483307,-0.0151557112113,2.62794041634,-0.759378373623,0.0791565701365,-0.000347794004483,0.000553005957045,0.000190892402316,0.000507769174874,6.73797476338e-05,0.000165090037626,-7.54505235818e-05,0.465084617847,0.00152711286746,0.138947734271,0.0124278762208,0.924676320441,0.380448779028,0.00883043192534
0.141479745507,0.0677694901824,-0.133726105094,-2.53516411781,-0.015155332163,2.62794041634,-0.7593780756,0.0791565701365,-0.000271228695055,-0.00207723374479,8.29438213259e-05,0.000273727462627,-2.86092799797e-05,2.56097519014e-05,4.87301840622e-05,0.465084970356,0.00152581429725,0.138947964179,0.0124279172992,0.924676974842,0.380447179628,0.00883075673056
0.141482636333,0.0677674561739,-0.13372606039,-2.53516435623,-0.015154927969,2.62794184685,-0.759378373623,0.0735821276903,-0.000178528207471,1.991156023e-05,0.000197284694877,-0.000537665735465,-6.57431592117e-05,0.000164190627402,1.98478956008e-05,0.46508554604,0.00152725530162,0.138948948344,0.0124282740035,0.924676410679,0.380448502105,0.00883235347947
0.141487449408,0.0677728354931,-0.133726403117,-2.53516674042,-0.0151551701128,2.62794041634,-0.759379088879,0.0735821276903,-0.000987418112345,-0.000603533466347,-0.00061441125581,-7.78879839345e-05,-1.63276454259e-05,-0.00011157267727,9.36909873417e-06,0.4650831834,0.00152854534443,0.138946023119,0.0124270779325,0.924675833417,0.38045003474,0.00882845269494
0.141482144594,0.0677694231272,-0.13372990489,-2.53516316414,-0.0151562355459,2.62794065475,-0.759379327297,0.0735821276903,-0.000771957857069,0.000572372053284,5.90301315242e-05,3.13720775011e-05,5.93394070165e-05,-0.00012097038416,3.93836678825e-08,0.465085525069,0.001525099791,0.13894837912,0.0124284931638,0.924676841646,0.380447474034,0.00883120974198
0.141480624676,0.0677656903863,-0.133732974529,-2.5351626873,-0.0151558090001,2.62794184685,-0.759378552437,0.0735821276903,-0.00412167748436,-0.000188124875422,-2.91145261144e-05,0.00025950523559,0.00011981993157,-0.000530204211827,5.18916021974e-05,0.465086753,0.00152305474236,0.138950395615,0.0124292748279,0.924677905441,0.380444803117,0.00883378631496
0.14148247242,0.0677665323019,-0.133733138442,-2.53516364098,-0.0151553908363,2.62794160843,-0.759379923344,0.0735821276903,0.000286900205538,0.000661073019728,0.00021292695601,-7.01747994754e-05,3.75467129743e-06,3.4352116927e-05,4.51337109553e-05,0.465086056648,0.00152381737355,0.138949641178,0.0124288569374,0.924677404324,0.38044605614,0.00883286469778
0.141483768821,0.0677679926157,-0.133733436465,-2.53516411781,-0.0151567198336,2.62794113159,-0.759377896786,0.0735821276903,-0.00074713624781,0.00109147594776,0.000520196335856,-7.48958846088e-05,-1.28823796786e-06,4.61374147562e-05,0.000188768506632,0.465085432497,0.00152419063419,0.138948753467,0.0124288082511,0.924677390073,0.380446121614,0.00883160492843
0.141483053565,0.0677696764469,-0.133735284209,-2.53516578674,-0.0151551542804,2.62794184685,-0.759378314018,0.0735821276903,0.000481874245452,8.40093998704e-05,-0.00181839650031,0.000110925742774,8.03729381005e-06,-0.000134929476189,9.41728576436e-05,0.465084429484,0.00152297110793,0.138947448512,0.0124281278146,0.924678067781,0.380444523203,0.00883046164966
0.141483664513,0.0677684992552,-0.133734345436,-2.53516173363,-0.0151567002758,2.62794113159,-0.759377837181,0.0735821276903,-3.55450429197e-05,0.000111256391392,-0.00101297663059,0.000146350663272,-6.56963748042e-05,2.49373824772e-05,0.000657437718473,0.465086539461,0.00152371271597,0.138949386009,0.012429219863,0.924677583868,0.380445617439,0.00883245379323
0.141484722495,0.0677690953016,-0.133732244372,-2.53516221046,-0.0151558658108,2.62794232368,-0.759379506111,0.0735821276903,0.000388505024603,-0.000855289341416,-0.00035053215106,0.000141877404531,3.73737316295e-06,5.97706530243e-05,0.000203265415621,0.465086317215,0.00152515636302,0.13894876264,0.0124288499212,0.924676875229,0.380447358527,0.00883216733302
0.141481980681,0.0677682906389,-0.133734941483,-2.53516554832,-0.0151555491611,2.62794137001,-0.759378671646,0.072384364903,0.000116532108223,-0.000131859516841,0.00023075559875,7.44022145227e-06,4.37216795035e-06,-0.000112264875497,2.74370104307e-05,0.465084199264,0.00152248149507,0.13894749776,0.0124281241937,0.924678282119,0.380444003085,0.00883043070196
0.141480758786,0.0677678361535,-0.133738830686,-2.53516340256,-0.0151554308832,2.62794184685,-0.759379386902,0.072384364903,-0.000254313199548,0.000962632941082,1.35612917802e-05,0.0002037572267,1.89163699815e-07,-0.000161418080097,0.000133714856929,0.46508599974,0.00152027132098,0.138949173772,0.0124290102256,0.924678904692,0.380442416151,0.00883236086266
0.141481235623,0.0677670091391,-0.133738040924,-2.53516364098,-0.0151557466015,2.62794232368,-0.759378552437,0.072384364903,0.000390764209442,-0.00016310015053,0.000357377517503,-7.38973467378e-05,-0.000142862132634,0.000224440809689,0.000243265429162,0.465086134422,0.00152117001977,0.138949501854,0.0124292372828,0.924678648887,0.380443019367,0.0088328393817
0.141485005617,0.0677682682872,-0.13373593986,-2.53516387939,-0.0151557987556,2.62794160843,-0.759378910065,0.072384364903,-0.000350290007191,-0.000440584030002,3.38689569617e-05,0.000406189617934,8.39495260152e-05,-6.21915314696e-05,0.0014609019272,0.465085608892,0.00152359730051,0.138948767658,0.0124287823658,0.924677585229,0.380445642305,0.00883185589559
0.141484320164,0.067768111825,-0.133736282587,-2.53516173363,-0.015155442059,2.6279425621,-0.759377062321,0.072384364903,0.000320244609611,0.000212274535443,-0.00293072382919,-0.000440353440354,5.0270697102e-05,-2.13314651774e-05,-0.00018936356355,0.465086928467,0.00152315189746,0.138949706027,0.012429298218,0.924678170604,0.380444166662,0.00883340757357
0.141480728984,0.0677679628134,-0.133738964796,-2.53516387939,-0.0151561433449,2.62794232368,-0.759379386902,0.072384364903,9.95874361251e-05,0.00038160168333,-0.000232465929003,-0.000149271712871,-5.47728777747e-05,2.62941448455e-05,-0.000482356612338,0.465085839439,0.00152016740308,0.138948988578,0.0124291628173,0.924678816978,0.380442627362,0.00883223150293
0.141480281949,0.0677700191736,-0.13374067843,-2.53516221046,-0.0151544287801,2.62794089317,-0.759379267693,0.072384364903,0.000297041231534,5.7026722061e-05,-0.00010010839469,-4.78476940771e-05,9.95605478238e-06,6.84180995449e-05,0.000580521358643,0.46508598062,0.00151914228335,0.138948517452,0.01242862861,0.924679542156,0.380440899765,0.00883147656029
0.141482934356,0.0677690505981,-0.13373836875,-2.53516364098,-0.0151561340317,2.62794208527,-0.759378492832,0.072384364903,1.86010674952e-05,0.00018642838404,-0.000454242195701,-0.000196170309209,-8.81080559338e-05,1.12760781121e-05,-0.00562667753547,0.465085613023,0.00152131112083,0.138948456136,0.0124289586344,0.924678514028,0.380443386527,0.00883153511184
0.141484215856,0.0677671134472,-0.133738711476,-2.53516364098,-0.0151560036466,2.62794280052,-0.759378790855,0.072384364903,-0.000139837124152,0.000529629120138,0.000407574872952,-0.000306735106278,-8.45293252496e-05,-6.31733200862e-05,-0.000226917269174,0.46508621976,0.00152194217412,0.138949509468,0.0124293378418,0.924678234378,0.380444019405,0.00883301818951
0.141481697559,0.0677693933249,-0.133739754558,-2.53516602516,-0.0151548217982,2.62794232368,-0.759379088879,0.0636579245329,0.000179316935828,0.00101215252653,9.66772131505e-05,0.000144714838825,-9.8486771094e-06,5.21429647051e-05,-0.000183379655937,0.46508448397,0.00152022719502,0.138947556556,0.0124283025462,0.924679076898,0.380442060116,0.00883066360608
0.141482025385,0.0677673220634,-0.133740603924,-2.53516459465,-0.0151557354257,2.62794327736,-0.759377777576,0.0636579245329,0.000144669611473,0.000165400022524,-0.000219872861635,-0.000122185621876,0.000255802646279,-4.51374835393e-05,0.000223453564104,0.465085812071,0.00152001920644,0.138949121241,0.0124292334882,0.924679249684,0.38044156276,0.00883268743563
0.141483291984,0.0677679106593,-0.133739948273,-2.53516340256,-0.015156250447,2.62794184685,-0.75937885046,0.0636579245329,-0.000651436916087,-0.000194313644897,-0.000344524800312,-3.16786026815e-05,-5.22223890584e-05,2.81426182482e-05,0.000232677935855,0.465085985875,0.00152088894958,0.138949144726,0.0124292200133,0.924678600344,0.380443151588,0.00883225052868
0.141481950879,0.067768715322,-0.133741855621,-2.53516459465,-0.0151554662734,2.62794327736,-0.759378969669,0.0636579245329,0.000731783511583,-0.000267888623057,0.000357684068149,-1.79658272828e-05,-5.71269119973e-05,-4.19755087933e-05,0.00628513563424,0.465085548564,0.0015193576678,0.138948484724,0.0124290514203,0.924679323729,0.380441404427,0.00883201158117
0.141483098269,0.067768022418,-0.133742570877,-2.53516435623,-0.0151546644047,2.6279425621,-0.759378135204,0.0636579245329,0.0035459776409,0.000177570822416,-0.000171540494193,4.03671874665e-05,0.00444019539282,-0.000104871578515,0.000166069396073,0.465085647001,0.00151959124327,0.138948825899,0.0124288832594,0.924679534526,0.380440893157,0.00883220173032
0.141483321786,0.0677692219615,-0.133740916848,-2.53516483307,-0.0151556245983,2.62794280052,-0.7593780756,0.0636579245329,6.14285381744e-05,-0.00108206586447,0.00017903855769,-3.55571064574e-05,0.000135491034598,3.05840803776e-05,-0.00025895005092,0.465085222693,0.00152041964362,0.13894811655,0.0124288505336,0.924679035735,0.380442124101,0.00883144598896
0.141481727362,0.0677666813135,-0.133742600679,-2.53516483307,-0.0151558332145,2.6279425621,-0.7593780756,0.0551600009203,-2.66303068202e-05,-0.000149111117935,-0.000356301374268,-0.00022915165755,-2.09192967304e-05,6.63691098453e-05,-0.000162201162311,0.465085667371,0.00151893646839,0.138949272022,0.0124292386601,0.92467961601,0.380440676295,0.00883251186935
0.141484200954,0.0677677690983,-0.1337454319,-2.53516387939,-0.0151561480016,2.62794280052,-0.759379088879,0.0551600009203,-2.74458361673e-05,0.000129884108901,-0.00011386659753,-0.000385627994547,4.51978885394e-05,-1.21323037092e-05,0.000772072758991,0.465085996456,0.00151870526283,0.138949150476,0.0124294977892,0.924679432595,0.380441114444,0.00883247667865
0.141483366489,0.0677711293101,-0.133743286133,-2.53516507149,-0.0151550779119,2.62794327736,-0.759378433228,0.0551600009203,0.000224279108807,-0.00125518417917,0.000286129041342,-0.00010015060252,-8.50621581776e-05,6.98884614394e-05,0.000181447830983,0.465084919016,0.00151906938164,0.138947177055,0.0124285467226,0.924679639593,0.380440688412,0.00883049447754
0.141482234001,0.067769639194,-0.133744567633,-2.53516173363,-0.0151568716392,2.62794280052,-0.759380400181,0.0551600009203,7.15067435522e-05,0.00112151389476,-3.09709918156e-07,0.000513683247846,4.46826925327e-05,-2.59509997704e-05,-0.000558700121474,0.465086718711,0.00151814486768,0.138949061432,0.0124298184987,0.924679266759,0.380441506725,0.00883249008828
0.141483694315,0.0677675753832,-0.133745476604,-2.535166502,-0.0151553424075,2.6279425621,-0.759378612041,0.0551600009203,-0.000119511278172,-0.00258207670413,-0.000121480974485,-0.000369391666027,-1.52653610712e-05,-0.000181740193511,0.000188155885553,0.465084721106,0.00151845676183,0.138948210758,0.0124288243097,0.924679719299,0.380440467626,0.00883126940702
0.14148285985,0.0677679851651,-0.133746370673,-2.53516340256,-0.0151569359004,2.62794232368,-0.759378015995,0.0551600009203,-0.000426212704042,-0.000312072021188,0.000857316714246,-4.93301001825e-07,1.90885966731e-05,-7.10423628334e-05,7.09781816113e-05,0.465086097588,0.00151760397762,0.138949183228,0.0124296937655,0.924679939837,0.380439879696,0.00883228144659
0.141483485699,0.067768253386,-0.133746013045,-2.53516387939,-0.0151554662734,2.62794303894,-0.759378194809,0.0551600009203,-0.0035397738684,0.000777195557021,0.000465161487227,0.000168147555087,-8.2815917267e-05,5.19472705491e-05,-0.000242652240559,0.465085957661,0.00151810469646,0.138948951854,0.0124293431857,0.924679962091,0.380439834077,0.00883240995422
0.14148633182,0.0677684023976,-0.133745148778,-2.53516364098,-0.015155964531,2.62794208527,-0.759379208088,0.0551600009203,-0.00026833609445,0.000386029714718,0.000197556961211,-4.78330912301e-05,8.82042659214e-05,0.00019883098139,0.00106527691241,0.465085835659,0.00151981706263,0.138948876722,0.0124292731117,0.924678987624,0.380442214816,0.00883198077803
0.141480430961,0.0677702650428,-0.133751317859,-2.53516292572,-0.0151560101658,2.62794351578,-0.759378194809,0.0551600009203,0.000251211546129,-0.000174813831109,-0.000113183370559,-9.75621078396e-05,0.000130038009956,-2.02391438506e-05,7.21528631402e-05,0.465086435018,0.00151407660852,0.138948549731,0.0124297092467,0.92468156045,0.380435941179,0.00883223828371
0.14148016274,0.067768484354,-0.133750602603,-2.53516626358,-0.0151560315862,2.6279437542,-0.759378194809,0.0551600009203,-0.000102695652458,0.00432237237692,3.19028331432e-05,-0.000309468363412,-7.88182660472e-05,1.09368411358e-05,-5.58360006835e-05,0.465084887989,0.0015143330241,0.138948070574,0.0124293163915,0.924681378989,0.380436414881,0.00883138501661
0.141483396292,0.0677688866854,-0.133750274777,-2.53516507149,-0.0151560083032,2.62794232368,-0.759378194809,0.0551600009203,-0.000318821257679,0.00104123528581,-0.000373892136849,-0.0003186679387,-4.84666561533e-05,-4.11702749261e-05,9.66151783359e-05,0.465085095359,0.00151598294019,0.138948181004,0.0124291992269,0.924680710573,0.380438049888,0.0088311031039
0.141484364867,0.0677685588598,-0.133752256632,-2.53516316414,-0.0151561563835,2.62794280052,-0.759378015995,0.0551600009203,-0.000258000887698,-0.000353306386387,0.0025581556838,0.000130336804432,4.66959500045e-05,5.14651765116e-06,-0.000394500122638,0.465086227792,0.00151550927224,0.138949074888,0.012429784401,0.924680894601,0.380437554913,0.00883233348613
0.141481772065,0.067767739296,-0.133753269911,-2.53516387939,-0.0151543207467,2.62794303894,-0.759378254414,0.0549932084978,2.7130329272e-06,-0.000808431359474,-0.000559833657462,0.000156509311637,0.000102156656794,3.08384951495e-05,-0.00154970609583,0.465086082699,0.00151389550845,0.138949219565,0.0124294175376,0.924681839423,0.380435263078,0.00883265024662
0.141483679414,0.0677690058947,-0.133750915527,-2.53516101837,-0.0151550751179,2.6279425621,-0.759378731251,0.0549932084978,0.000279395811958,-0.000726553029381,-0.000364422914572,-3.73715351998e-06,-1.71881838469e-05,-0.000146822538227,-1.41648451972e-05,0.465087641587,0.00151565037223,0.138950146692,0.0124299933532,0.924680959605,0.380437357617,0.00883373200808
0.141483366489,0.0677705332637,-0.133750706911,-2.53516483307,-0.015155791305,2.62794399261,-0.759377479553,0.0549932084978,-0.000303668435663,0.000398169475375,-0.000149549217895,6.18160265731e-05,0.000106453342596,0.000191269864445,-0.000361624726793,0.465085262002,0.00151573657743,0.138947666561,0.0124293044434,0.924680962036,0.380437432713,0.00883121243373
0.141483098269,0.0677691474557,-0.133752092719,-2.53516411781,-0.0151546206325,2.62794303894,-0.759378910065,0.0549932084978,-0.00167087942827,-0.00379010871984,0.000208651807043,-0.000123327001347,5.30014258402e-05,4.89249978273e-05,-0.00039360995288,0.465085686292,0.00151502430235,0.138948479741,0.0124292227954,0.924681196044,0.380436851796,0.00883185041418
0.141483440995,0.0677676126361,-0.133752122521,-2.53516483307,-0.0151558211073,2.62794280052,-0.759377658367,0.0549932084978,0.00180357065983,0.000280471605947,0.000126283543068,0.000634833355434,-4.91389182571e-05,-8.36723847897e-05,0.000135845170007,0.465085569544,0.00151516763149,0.138948906616,0.0124295091345,0.924681175609,0.38043688753,0.00883204772735
0.141482666135,0.0677690729499,-0.133752003312,-2.53516244888,-0.0151564227417,2.62794280052,-0.759379982948,0.0549932084978,0.000147945364006,-0.00103048549499,-5.74137266085e-05,0.000139108655276,-5.09927340318e-05,5.70201227674e-05,0.00101031246595,0.465086491249,0.00151482297448,0.138949095708,0.0124299232749,0.924680748746,0.380437903991,0.00883237204309
0.141481697559,0.0677710920572,-0.133753567934,-2.53516530991,-0.015155300498,2.62794327736,-0.759377777576,0.0549932084978,-0.000354166433681,-0.00125950260554,-7.4075491284e-05,0.000334859330906,8.89256261871e-05,0.000105487146357,0.000402952311561,0.465085141745,0.00151326771592,0.138947765445,0.0124291792557,0.924682023588,0.380434862873,0.00883094278251
0.141481220722,0.0677684172988,-0.133755668998,-2.53515958786,-0.0151551319286,2.6279425621,-0.759378910065,0.0549932084978,-1.1088298379e-05,-0.000367043801816,-0.000573958677705,9.68655513134e-06,-4.57284622826e-05,-7.25793215679e-05,-4.84956763103e-05,0.465088020538,0.00151247944396,0.138950425068,0.0124303318145,0.924682118636,0.380434523876,0.00883397153421
0.141481280327,0.0677698776126,-0.133754000068,-2.53516316414,-0.0151557121426,2.62794208527,-0.759379029274,0.0549932084978,0.000100137491245,0.000631278089713,-0.000240715700784,-0.000465135206468,0.000107751242467,5.93411868977e-06,-3.59407968062e-05,0.465086400018,0.00151338436675,0.138949169413,0.0124298255269,0.924681652382,0.380435711167,0.00883235740089
0.14148645103,0.0677672103047,-0.133752018213,-2.53516554832,-0.0151562010869,2.62794184685,-0.75937885046,0.0549932084978,-4.80989292555e-05,0.000381762423785,-0.000210936705116,-0.000254837621469,-2.57417577814e-05,2.14155406866e-05,-0.000163864315255,0.46508507527,0.00151660548147,0.138948743901,0.012429329926,0.92468030339,0.380439027406,0.00883144328059
0.141483902931,0.0677679553628,-0.133753538132,-2.53516125679,-0.0151557903737,2.6279425621,-0.7593780756,0.0549932084978,-0.000172122177901,0.000415230810177,2.2733993319e-06,-0.000172521118657,5.3434901929e-05,-1.933270687e-05,-0.000103808721178,0.465087257726,0.00151472344914,0.138950025558,0.0124301360652,0.92468126272,0.380436623638,0.00883341208321
0.14148080349,0.0677698478103,-0.133756533265,-2.53516936302,-0.0151566499844,2.62794303894,-0.759378194809,0.0549932084978,-0.000121205943287,-0.00418323324993,-0.000948655477259,2.29676297749e-05,1.0151558854e-05,-0.000136029382702,-2.6056819479e-05,0.465082929079,0.00151171845474,0.138946281074,0.0124288035786,0.924682305984,0.380434238195,0.00882881266744
0.141477644444,0.0677690804005,-0.133760303259,-2.53516602516,-0.0151556031778,2.6279437542,-0.759379029274,0.0549932084978,-0.000166386671481,0.000889409158845,0.000234800056205,-5.32461708644e-05,0.000141894794069,-4.65803168481e-05,2.74360936601e-05,0.465084929719,0.00150853302433,0.138947924077,0.0124295634948,0.92468360774,0.380430996561,0.00883108522513
0.141479179263,0.0677680298686,-0.133761838078,-2.53515791893,-0.015155560337,2.62794399261,-0.759378492832,0.0549932084978,2.17518640966e-06,-0.000250183511525,-0.000380998651963,-4.33398272435e-05,-0.000510956335347,1.99864962269e-06,9.11976676434e-05,0.465089269674,0.00150860545272,0.138951367732,0.0124312852681,0.924683660757,0.380430709852,0.00883546040963
0.141489639878,0.0677690282464,-0.133755490184,-2.53516769409,-0.0151567012072,2.62794303894,-0.75937962532,0.0549932084978,0.000108607906441,-0.000435979105532,7.92332648416e-05,0.000532225880306,-2.98520317301e-05,0.000107766085421,0.000105282721051,0.465083910437,0.00151635873305,0.138947257496,0.0124291560759,0.924680134014,0.380439477329,0.00883004035499
0.141488164663,0.067766956985,-0.13375723362,-2.53516244888,-0.0151558313519,2.62794280052,-0.75937885046,0.0549932084978,0.000309492897941,0.000305658322759,-0.000238814303884,0.000305211695377,-6.86751227477e-05,4.37336057075e-05,-0.000222004207899,0.465086906632,0.00151496146844,0.138950092823,0.0124302114024,0.924680999469,0.380437260891,0.00883341810261
0.141483202577,0.0677665919065,-0.133758276701,-2.53515982628,-0.0151554867625,2.6279437542,-0.759378373623,0.0549932084978,-0.00193565594964,-0.00129450741224,0.00265124230646,-0.000556827115361,3.49672700395e-05,-0.000118029078294,3.38574354828e-05,0.465088224429,0.00151197432755,0.13895141179,0.012430791727,0.924682401808,0.380433793866,0.00883512149193
0.141477942467,0.0677689537406,-0.133767664433,-2.53516221046,-0.0151556953788,2.62794303894,-0.759378015995,0.0549932084978,-0.000141761483974,-8.02311551524e-05,0.000161232921528,7.65722143115e-05,5.72718781768e-05,0.000140061049024,-0.00053381267935,0.465086745175,0.00150518424084,0.138949326708,0.0124304510115,0.924685103764,0.380427299009,0.00883247515017
0.141480058432,0.0677704364061,-0.13376802206,-2.53516626358,-0.0151547770947,2.62794184685,-0.759379029274,0.0549932084978,9.3877526524e-05,0.00115893559996,0.000590139359701,-0.000342354120221,8.04288865766e-05,-0.000144582387293,-8.73214376043e-05,0.465084157687,0.00150594869593,0.138947067909,0.0124290922664,0.924684767792,0.380428231213,0.00882940869157
0.141490459442,0.0677671432495,-0.133762970567,-2.53515815735,-0.0151554392651,2.62794303894,-0.75937885046,0.0549932084978,0.000148312523379,-4.08697887906e-05,-6.13901793258e-05,-0.000126560786157,0.000151315951371,4.80032795167e-05,2.42365949816e-05,0.465089100003,0.00151333193095,0.13895160561,0.0124311436707,0.924681687089,0.380435513145,0.00883539754872
0.141482189298,0.0677683800459,-0.133769109845,-2.53516602516,-0.0151556320488,2.6279425621,-0.759378910065,0.0549932084978,-0.000317276484566,8.36233884911e-05,-0.000588508788496,-0.00016374795814,-6.51221635053e-05,-0.000126499915496,2.42198912019e-05,0.465084690453,0.00150609121806,0.13894804086,0.012429676042,0.924684606466,0.38042857637,0.00883061054173
0.141478344798,0.0677696987987,-0.133769541979,-2.53517007828,-0.0151550741866,2.62794446945,-0.759377539158,0.0549932084978,-7.71939812694e-05,-0.0035231129732,8.62778106239e-05,0.000180667775567,-6.14699615653e-07,-0.000134516041726,-0.00035425790702,0.465082964744,0.00150438398515,0.138946206724,0.0124290399018,0.924685538197,0.380426369395,0.00882901856514
0.141479328275,0.0677696615458,-0.13377378881,-2.53516507149,-0.015155332163,2.62794446945,-0.759378910065,0.0549932084978,-1.53221226356e-05,0.00039913598448,-0.000190069142263,2.22247399506e-05,-1.01497903415e-06,0.000168277489138,-4.30223781223e-06,0.465085495974,0.00150288701089,0.138948126453,0.0124302295652,0.924685899166,0.380425397387,0.00883142017689
0.141480922699,0.067767560482,-0.133771300316,-2.53516292572,-0.0151555594057,2.62794280052,-0.759378135204,0.0549932084978,0.000239706510911,-0.00150451052468,0.00030865156441,-9.73578353296e-05,-0.00010204793216,-9.46713116718e-05,2.70938362519e-05,0.46508660849,0.0015048715362,0.138949703326,0.012430537194,0.924685226436,0.380426993148,0.00883268498642
0.141486495733,0.0677707418799,-0.133770167828,-2.53516173363,-0.0151554457843,2.62794423103,-0.759377717972,0.0549932084978,-0.00031039226451,0.000892646145076,0.000437323644292,0.000623012019787,9.04578555492e-05,-3.44968975696e-06,0.000162877200637,0.46508689544,0.00150793764488,0.138948797629,0.0124305307035,0.924684043398,0.380429874868,0.00883242784964
0.141483843327,0.0677701756358,-0.133770287037,-2.53516483307,-0.0151561815292,2.62794303894,-0.759378910065,0.0549932084978,0.00030316109769,-0.00217997748405,-0.000391941925045,2.80646781903e-05,-0.000109511980554,5.39574684808e-05,0.000426861428423,0.46508518947,0.00150660995624,0.138947827284,0.0124300003262,0.924684247115,0.380429439151,0.00883061376555
0.141482457519,0.0677715614438,-0.133770868182,-2.53516602516,-0.0151555798948,2.62794446945,-0.759378433228,0.0549932084978,-0.000184183576494,0.00289471563883,-2.14766769204e-05,-2.74505837297e-05,0.0094208130613,4.00005455958e-06,4.51816704299e-05,0.465084636201,0.00150566897527,0.138946893921,0.0124297509234,0.924684812937,0.380428083944,0.00883009876948
0.141483590007,0.0677683576941,-0.133771315217,-2.535166502,-0.0151564273983,2.6279425621,-0.759378969669,0.0549932084978,-0.00035140462569,-0.000278923893347,-0.0016052396968,0.000277888786513,0.000116551782412,-2.05475389521e-05,0.000218823333853,0.465084598664,0.00150602869522,0.138948021318,0.0124299238927,0.924684445073,0.380428964099,0.00883045809097
0.141481876373,0.0677690207958,-0.13377481699,-2.53516387939,-0.0151551095769,2.6279463768,-0.759379446507,0.0549932084978,-0.00275873881765,-0.000413519272115,-0.00248492485844,-0.000148544160766,9.98235555016e-05,9.66876905295e-05,0.000283213041257,0.465086632234,0.00150362643536,0.138949035353,0.0124308522571,0.924685520372,0.380426256636,0.00883319148486
0.141480311751,0.067768111825,-0.133775055408,-2.53515553474,-0.0151568902656,2.62796163559,-0.759378612041,0.0549932084978,8.0055273429e-05,-0.000403500424,-0.000260380940745,0.00191980204545,0.000163786360645,0.000713471963536,0.000167766833329,0.465094320113,0.00150290917116,0.138953900262,0.0124356989997,0.924685557368,0.380425746906,0.00884444227994
0.141482189298,0.0677600726485,-0.133777067065,-2.53508996964,-0.0151557167992,2.62802839279,-0.759378373623,0.0549932084978,-0.000261918146862,-0.000955282128416,0.000588516588323,0.00548951374367,1.35691034302e-05,0.00794898625463,0.00166555400938,0.465143355568,0.00150396663068,0.138987564198,0.0124607459326,0.924684892081,0.380425015231,0.00890997407096
0.141481414437,0.067755445838,-0.133777663112,-2.53483510017,-0.0151559393853,2.62844514847,-0.759378254414,0.0549932084978,-0.00041450856952,-0.000346442859154,4.50012630608e-05,0.00672048097476,9.82959318208e-05,0.00899476837367,-0.000200741997105,0.465362870038,0.00150785509846,0.139120914542,0.012584078091,0.924680374006,0.380424435123,0.00922473578751
0.14147618413,0.0677580907941,-0.133781626821,-2.53471159935,-0.0151554355398,2.62859773636,-0.759378314018,0.0549938641489,0.000817240623292,-7.42209431337e-06,6.06446083111e-05,0.00510688219219,-0.000250954908552,0.0045675849542,0.000517067499459,0.465462998766,0.00150574213201,0.139182233873,0.0126370881627,0.92468006738,0.380420150532,0.00935872556848
0.141474947333,0.0677573159337,-0.13378405571,-2.53461122513,-0.0151564441621,2.62868690491,-0.759378433228,0.0549938641489,0.000129223903059,-0.000716239621397,-0.000175969747943,0.00461314897984,1.16006804092e-05,0.00523806549609,-0.000277615559753,0.465531902803,0.00150501001081,0.13922667542,0.0126718455715,0.924679244213,0.380418835642,0.00944610098679
0.141480490565,0.0677542164922,-0.133781403303,-2.53450012207,-0.01515633706,2.62892079353,-0.75937885046,0.0549938641489,9.21305982047e-05,5.31902005605e-05,0.000618191843387,0.00891714915633,2.10736452573e-05,0.0129309520125,-1.71433166543e-05,0.465634760879,0.00151102009788,0.139287363615,0.012732711796,0.924675242336,0.380422617403,0.00960240140818
0.141480848193,0.0677551403642,-0.133782103658,-2.53433656693,-0.0151548031718,2.6291282177,-0.759379148483,0.0549938641489,-0.000195859189262,-0.0020561767742,2.6236886697e-05,0.00108102394734,-2.34960680245e-05,0.00499956915155,0.000148482547957,0.465761811626,0.00151333870007,0.139365656477,0.0128001718717,0.924672803894,0.380421893116,0.00977467439774
0.141479119658,0.0677599981427,-0.13378380239,-2.53432583809,-0.0151538318023,2.62917351723,-0.759378254414,0.0549938641489,0.000515444960911,0.00465318514034,-0.000559311243705,-5.13448321726e-05,-8.62277956912e-05,0.000984832528047,0.000277544168057,0.465776092068,0.0015119751507,0.139371565669,0.0128095860092,0.924673374278,0.380419577407,0.0097984803252
0.141477033496,0.0677803233266,-0.133784756064,-2.53433942795,-0.0151547743008,2.62917709351,-0.759379088879,0.0444615855813,-0.000196303604753,0.0025200129021,-0.000477017165394,-0.00140067038592,-2.97630958812e-05,3.36530720233e-05,-7.09868545528e-05,0.465766907776,0.00151017739716,0.139358555604,0.0128057798505,0.924673676578,0.380419320616,0.00978488792221
0.141473740339,0.0677824690938,-0.13379354775,-2.5343439579,-0.0151549698785,2.6291782856,-0.759378552437,0.0444615855813,-5.60920489079e-05,-0.00091359927319,0.000766886922065,0.000898434838746,4.46720878244e-05,0.000123528690892,-0.000100965131423,0.465763737089,0.00150406302349,0.139355126698,0.0128049611096,0.924676165703,0.380413394691,0.00978112333143
0.141481697559,0.0677733048797,-0.133794263005,-2.53434467316,-0.0151553880423,2.62919545174,-0.759379088879,0.0444615855813,0.000221432812396,0.000632024777588,0.000196112247068,-0.000774737272877,-0.00302164349705,7.98611654318e-05,-2.56976545643e-05,0.465768839625,0.00150776488541,0.139360711814,0.0128091400258,0.924674447919,0.380417117852,0.00979323367259
0.141474887729,0.0677763596177,-0.133798226714,-2.53433728218,-0.0151537051424,2.62919950485,-0.759378492832,0.0444615855813,-0.000511669728439,0.000296712416457,-0.00109084986616,0.000400199758587,8.38272826513e-05,1.1992009604e-05,-1.01311379694e-05,0.465772873934,0.0015027465697,0.13936237707,0.0128106610285,0.924676818182,0.380411204842,0.00979713193249
0.14147375524,0.0677793622017,-0.133802443743,-2.53433561325,-0.01515449211,2.62920379639,-0.759377837181,0.0444615855813,-0.00036276289029,0.000697549316101,8.88516296982e-05,-0.000220745554543,-0.00282756984234,0.00273811724037,0.000112231893581,0.465774083469,0.0015001369951,0.139362018479,0.0128117211561,0.924677792311,0.380408770865,0.0097983131076
0.14147926867,0.0677764564753,-0.133802711964,-2.53433656693,-0.0151547361165,2.62921524048,-0.75937885046,0.0444615855813,0.000509680074174,-0.000811151170637,0.000285553978756,0.000185798169696,-0.000146554419189,-2.60099059233e-05,-0.000188729987713,0.465776629901,0.0015027118581,0.139364090366,0.012814009975,0.924676464705,0.380411758421,0.00980461661314
0.141480341554,0.0677777677774,-0.133802711964,-2.5343375206,-0.0151546671987,2.62921833992,-0.759379267693,0.0444615855813,-0.000549284508452,-0.00326665909961,-0.000197435045266,3.05073008349e-05,1.41830389566e-06,7.79427427915e-05,0.000303784734569,0.465776515525,0.00150271169666,0.139363402956,0.0128142136081,0.924676377225,0.380411953548,0.00980502993435
0.141474813223,0.0677772089839,-0.133807122707,-2.53433680534,-0.0151542918757,2.62922286987,-0.759379088879,0.0444615855813,-7.29596649762e-05,-0.000182850169949,0.000241078902036,0.00018320090021,9.69454486039e-05,5.33735401405e-05,-0.000263334775809,0.465778037894,0.00149856767955,0.139364392831,0.0128153347854,0.924678119398,0.380407613586,0.0098076454516
0.141474932432,0.0677778720856,-0.133808538318,-2.5343413353,-0.0151540571824,2.62922430038,-0.759378969669,0.0444615855813,0.000263921538135,-0.000818177126348,0.000628688372672,-0.000143504381413,2.41333036683e-05,0.000165814490174,-0.000101581390481,0.465775944581,0.00149791182355,0.139362586493,0.0128146640585,0.924678447399,0.38040688408,0.00980589253882
0.141477584839,0.0677786096931,-0.133812129498,-2.53433895111,-0.0151550741866,2.6292321682,-0.759378969669,0.0429407469928,-0.000166632409673,0.000792210979853,-0.0002248371311,-0.000567362469155,2.0559616587e-06,-7.89173736848e-06,-0.000185832192074,0.465778872321,0.00149737503577,0.139364142526,0.0128168814801,0.924678442788,0.380406700071,0.00981056655222
0.141477525234,0.0677788928151,-0.1338121593,-2.53433847427,-0.0151551328599,2.62923431396,-0.759378671646,0.0429407469928,-0.00415644235909,0.000105681399873,0.000405818660511,-0.000149719722685,2.92502518278e-05,6.62237471261e-06,-0.000408994237659,0.465779244033,0.00149722157748,0.139363917469,0.012817239553,0.924678410169,0.38040675325,0.00981111117284
0.141478583217,0.0677770599723,-0.13381190598,-2.53433394432,-0.0151546299458,2.62923836708,-0.759378552437,0.0429407469928,7.47583817429e-06,0.000905759108718,-4.83322219225e-05,0.000868261791766,8.41757646413e-05,0.00294212601148,-2.35243369389e-05,0.465781003497,0.00149821723533,0.139365622783,0.0128180975522,0.924678080108,0.38040745016,0.00981407603365
0.141476050019,0.0677804201841,-0.133813381195,-2.53433895111,-0.0151549782604,2.62924766541,-0.759379148483,0.0429407469928,-0.000135473179398,-0.00184671627358,-0.000601991661824,9.44797866396e-05,-2.52431927947e-05,-0.000101124518551,-0.00278902915306,0.465781727774,0.00149618152896,0.139364492129,0.0128194015316,0.924678772442,0.380405660614,0.00981650629017
0.141475573182,0.0677747055888,-0.133814617991,-2.53433966637,-0.0151549438015,2.62924861908,-0.759379804134,0.0429407469928,0.000112780704512,-0.00114609021693,0.000451080850326,0.00016246335872,-0.000204921147088,5.07997356181e-05,-0.00010935957107,0.465782674442,0.0014955263248,0.139366964399,0.0128201878749,0.92467895277,0.380405121975,0.00981936587126
0.141477942467,0.0677744373679,-0.133815512061,-2.53434181213,-0.0151548003778,2.62925028801,-0.759379327297,0.0429407469928,0.000206874436117,0.00462309038267,0.000209681631532,0.000564739981201,0.000158746159286,0.000181475057616,0.000490465783514,0.465782140281,0.00149616782713,0.139366388894,0.0128201032651,0.924678857144,0.380405359968,0.00981926131706
0.141478925943,0.0677781701088,-0.13381382823,-2.53433728218,-0.0151550834998,2.62925386429,-0.759379267693,0.0429407469928,-8.53436940815e-05,-0.000101700425148,-0.000269709009444,-2.16761964111e-05,0.000224926872761,8.61703156261e-05,0.00222461740486,0.465784337934,0.00149741584397,0.139366719365,0.0128211355911,0.924678200558,0.380406869531,0.00982126225015
0.141474887729,0.067777864635,-0.133817464113,-2.53433680534,-0.0151540758088,2.62925744057,-0.759378492832,0.0429407469928,-0.000704529229552,3.82835241908e-05,-0.000323457206832,0.000114492147986,9.05373090063e-05,0.000100711076811,0.000567599141505,0.465785427992,0.00149386262849,0.139367384452,0.012821825644,0.924679939062,0.380402567245,0.0098233191949
0.1414783746,0.0677793771029,-0.133817315102,-2.53433537483,-0.0151549112052,2.6292579174,-0.759378492832,0.0429407469928,0.000223084265599,0.00032585291774,0.000442028744146,4.33900786447e-05,-0.00560818286613,0.00254313158803,0.000110936147394,0.465785956126,0.00149550438485,0.139367249481,0.0128221639611,0.924679101408,0.38040458944,0.00982341828083
0.141486153007,0.0677766278386,-0.13381421566,-2.53434085846,-0.0151547975838,2.6292591095,-0.759378790855,0.0429407469928,-3.1280094845e-05,-0.00020398136985,1.79876769835e-05,-0.000422707409598,-0.000190908031072,0.000110579785542,-2.74314352282e-05,0.465783958847,0.00150065394368,0.139366629943,0.0128215148455,0.92467701314,0.380409701635,0.00982286680625
0.141480237246,0.0677762851119,-0.13381549716,-2.53434300423,-0.0151543626562,2.62925863266,-0.759378969669,0.0429407469928,-0.000247129413765,0.000484271411551,0.00126661418471,-0.000426260929089,0.00107710820157,-6.89405860612e-05,-0.000253034231719,0.46578285415,0.00149729044524,0.1393659713,0.012821047926,0.924678435842,0.380406286731,0.0098217980931
0.141475185752,0.0677766576409,-0.133817628026,-2.53434276581,-0.015154636465,2.62925863266,-0.759378910065,0.0429407469928,-1.0765668776e-05,0.000121768171084,-6.01954234298e-05,-0.000122956131236,-8.75353580341e-05,0.000101150413684,-0.000415785878431,0.465782917596,0.00149390281341,0.139365895208,0.0128212151565,0.924679765678,0.380403052666,0.00982163905084
0.141474217176,0.0677786692977,-0.133822381496,-2.53434753418,-0.015154405497,2.62925934792,-0.759378910065,0.0429696403444,-0.00202593626454,0.000145549842273,0.000275672995485,-0.000168081154698,-0.000241513378569,-3.80467281502e-05,0.000127496488858,0.46578049461,0.00149123658836,0.139363483805,0.0128204245149,0.924680871784,0.380400458477,0.00981900944993
0.141472190619,0.0677768364549,-0.133824467659,-2.53435182571,-0.0151548031718,2.62926030159,-0.759379029274,0.0429696403444,0.000384870858397,-0.000925015774556,0.000264938076725,-0.000269474752713,-0.000129334148369,-0.000385738123441,3.28206624545e-05,0.465778990623,0.00148936595026,0.139363187958,0.0128202736061,0.924681573958,0.380398769757,0.00981850382722
0.141477286816,0.0677744373679,-0.133821606636,-2.53435134888,-0.0151545731351,2.6292617321,-0.759377658367,0.0429696403444,0.000253827805864,-0.000388087151805,7.73839492467e-05,0.00116469454952,-0.000152148058987,0.000105792612885,0.00432450091466,0.465779703749,0.00149299992861,0.139364118964,0.0128205659271,0.92468039072,0.380401593708,0.00982014735636
0.141473442316,0.0677755251527,-0.133827805519,-2.53435015678,-0.0151548236609,2.62926030159,-0.759378969669,0.0429696403444,0.000359522819053,-0.00175759114791,0.000639266276266,-0.000179688810022,0.00064880301943,1.36167345772e-05,0.000407323735999,0.465779812261,0.0014882106223,0.139363941577,0.0128207137124,0.924682012082,0.380397667865,0.00981935833966
0.14147426188,0.067768894136,-0.133827894926,-2.53434729576,-0.0151544306427,2.6292591095,-0.759377658367,0.0429696403444,7.76349406806e-05,-0.00170530879404,-0.00127956399228,0.000226717980695,-0.00515586929396,-4.28848215961e-05,4.91050650453e-06,0.465781252718,0.00148758023497,0.139366088493,0.0128212989193,0.924682628443,0.380396093841,0.00982152856163
0.14147593081,0.0677312389016,-0.133832067251,-2.53433799744,-0.0151550853625,2.6292591095,-0.759379446507,0.0429696403444,2.9658758649e-05,0.000639098405372,-0.00249725976028,-0.000175296983798,-0.000130713888211,-7.61581804909e-06,-0.000172585961991,0.46579417451,0.00148861613138,0.139388684095,0.0128284296984,0.924681965177,0.380396837584,0.00984582694359
0.141485452652,0.0673292577267,-0.13390918076,-2.5344080925,-0.0151548152789,2.62921118736,-0.75937885046,0.0429709516466,0.0002558780252,-0.015639603138,-0.00247949082404,-0.000473613938084,5.4425901908e-05,-0.00352244265378,0.000168523416505,0.465825788059,0.00146639400072,0.139544573049,0.0128589864415,0.924694147795,0.380362570375,0.00998470036539
0.141474500299,0.0663518682122,-0.134019091725,-2.53446388245,-0.0151552241296,2.62897062302,-0.75937974453,0.0429709516466,0.000284569396172,-0.0402942486107,-0.00359064224176,-0.000925415544771,-8.04573646747e-05,-0.0134988948703,-5.55094957235e-05,0.465933045935,0.00143355596698,0.139953164113,0.0129297415329,0.924715100512,0.380300318699,0.0103185245964
0.141474068165,0.0653506889939,-0.134103551507,-2.53446960449,-0.0151549363509,2.62858295441,-0.759378552437,0.0429709516466,-3.38157624356e-05,-0.0655218139291,-0.00272030895576,-0.0005004038685,-0.0045638596639,-0.0304750241339,6.73435715726e-05,0.466037726032,0.00141787063716,0.140376971738,0.0129849828206,0.924730408137,0.380252939435,0.010619049951
0.141470268369,0.0625985041261,-0.134271740913,-2.53451967239,-0.0151556301862,2.62720394135,-0.759378254414,0.0429709516466,9.46202417254e-05,-0.119289778173,-0.0055487640202,-0.00116991484538,5.05642601638e-05,-0.0735243856907,0.000323956104694,0.466238282546,0.00140172264999,0.141499788796,0.0130716399107,0.924762524354,0.380152702246,0.0112839903581
0.141461402178,0.0598593093455,-0.134423062205,-2.53454732895,-0.0151560576633,2.6257212162,-0.759379565716,0.0429709516466,-0.000494055158924,-0.16186824441,-0.00927632022649,-0.00111752783414,-4.72427091154e-05,-0.0907509922981,-0.000100286073575,0.466412167361,0.00139051103021,0.142550579104,0.0131376230846,0.924790878263,0.38006358825,0.0118702531492
0.141450658441,0.0575518608093,-0.134537383914,-2.53455233574,-0.0151570979506,2.6242992878,-0.759377896786,0.0429709516466,-0.000806037394796,-0.197616040707,-0.00781903602183,-0.000816021172795,6.41676670057e-05,-0.131863296032,-0.000427548657171,0.466546887684,0.00138407334415,0.143544589795,0.0131713985372,0.924817300973,0.379982628752,0.0123561973048
0.14143563807,0.0533625334501,-0.134724542499,-2.53456449509,-0.0151568427682,2.62125515938,-0.759378790855,0.0429709516466,-0.000162436830578,-0.249392092228,-0.0131188593805,-0.00295664416626,-0.000302231113892,-0.196789503098,-0.000276469043456,0.466671387067,0.00138285524323,0.145380319186,0.0131301760241,0.924865707251,0.379844211966,0.0130152352451
0.141328305006,0.0373792946339,-0.135262742639,-2.53464436531,-0.0151558062062,2.60568284988,-0.759377419949,0.0429709516466,-0.00195683236234,-0.384074956179,-0.00912882294506,-0.00383129250258,0.000143927245517,-0.414500981569,-0.000474507163744,0.466192733586,0.0014062691687,0.151058458851,0.012289098576,0.925036866985,0.379441895423,0.0134022556464
0.141134515405,0.0242683440447,-0.135566085577,-2.53448557854,-0.0151577880606,2.5907971859,-0.759379148483,0.0429709516466,-0.00734217837453,-0.46841314435,-0.00939072389156,0.00858325045556,8.67813796503e-05,-0.546394467354,-0.000171154082636,0.465389119837,0.00142783532463,0.155750473721,0.0112419957449,0.925186031954,0.379128356573,0.0128884728931
0.140967220068,0.0138082569465,-0.135726079345,-2.53418278694,-0.0151599086821,2.57799005508,-0.759378373623,0.0429709516466,-0.0104319443926,-0.52785295248,-0.0031843285542,0.0228897184134,-8.04418377811e-05,-0.667964041233,-0.000164938493981,0.464586689569,0.00147078791149,0.159468710725,0.0102661884899,0.925294448148,0.378916478306,0.0121281388111
0.140666618943,-0.00338122271933,-0.135958537459,-2.53310489655,-0.0151616027579,2.55586791039,-0.759379446507,0.043009698391,-0.00863140262663,-0.606284677982,-0.0128807714209,0.0563617609441,0.000373207643861,-0.78793245554,-4.50280967925e-05,0.463182469917,0.00153744757281,0.165921133442,0.00851337649002,0.925471523053,0.378573008105,0.0106046996898
0.140502765775,-0.0145919602364,-0.136056751013,-2.53187990189,-0.0151620283723,2.54124259949,-0.759378910065,0.043009698391,-0.0153099773452,-0.640926718712,-0.00266144541092,0.0831609144807,0.000753371568862,-0.854061305523,7.8538316302e-05,0.462479625422,0.00161066939023,0.169938669597,0.00752192233983,0.925554165522,0.378412697317,0.00983552548723
0.140320181847,-0.025247912854,-0.136134684086,-2.53034234047,-0.015160696581,2.52720975876,-0.759379088879,0.043009698391,-0.0107563538477,-0.688214600086,-0.00819220580161,0.107936605811,0.000792464357801,-0.900569856167,-0.000157307149493,0.461835107362,0.00167672773536,0.174378972943,0.00651077966639,0.925639750028,0.378239546132,0.00913828988685
0.140095829964,-0.0385488420725,-0.136205598712,-2.52801132202,-0.0151638770476,2.50961995125,-0.759379029274,0.043009698391,-0.0142080057412,-0.717993915081,-0.000479004665976,0.141758531332,-0.000110122426122,-0.94660037756,-0.000230911595281,0.461216505015,0.00175874354579,0.179467203178,0.00544409636763,0.925721755124,0.378070378418,0.0085077935705
0.139374598861,-0.0742375999689,-0.136328503489,-2.51865053177,-0.0151655226946,2.46197390556,-0.75937885046,0.043009698391,-0.0168408695608,-0.755851924419,-0.00243892287835,0.266373485327,-0.000285485497443,-1.03268396854,0.000171145962668,0.460374437927,0.00191397983033,0.195087082143,0.00291576122641,0.925931823466,0.377595719692,0.00795165277781
0.139092385769,-0.0880772173405,-0.136402636766,-2.51357889175,-0.0151644628495,2.44330739975,-0.75937962532,0.043009698391,-0.0205017793924,-0.756676018238,-0.00376904639415,0.296451717615,0.00619479175657,-1.04974126816,0.000443797063781,0.460474332226,0.00193624163067,0.201735780551,0.00216668491769,0.926007089758,0.377408259002,0.00831750654739
0.138808757067,-0.102013610303,-0.136482179165,-2.50783729553,-0.0151648363099,2.42461538315,-0.759377598763,0.043009698391,-0.0156970247626,-0.754202604294,-0.00147774943616,0.348419010639,0.000232623002375,-1.03603684902,-0.000313540658681,0.460733877969,0.00194086130804,0.208323689286,0.00157772593393,0.926073942272,0.377232013132,0.00897620063832
0.138126939535,-0.138716086745,-0.13667756319,-2.48911428452,-0.0151672195643,2.37492990494,-0.759377002716,0.043009698391,-0.018532499671,-0.745549857616,-0.0041754138656,0.449521392584,0.00116727803834,-1.03774869442,-0.000110179120384,0.462325517493,0.00189122529259,0.228729173433,0.000506996089259,0.926218676565,0.376783543031,0.0123639606319
0.137887299061,-0.15120960772,-0.136719629169,-2.48132944107,-0.0151652591303,2.35776090622,-0.759376943111,0.0430996604264,-0.013703994453,-0.732690095901,-0.00577966682613,0.473023027182,0.000829315686133,-0.993866324425,-2.29081579164e-05,0.463158662781,0.00184301834234,0.236172830645,0.000368570202324,0.926252906876,0.376640992239,0.014034931742
0.137650474906,-0.162881672382,-0.136790692806,-2.47359848022,-0.0151661094278,2.34197998047,-0.759377241135,0.0430996604264,-0.0105019537732,-0.71951854229,-0.00398098398,0.473993837833,0.00091298785992,-0.978078782558,-8.28740157885e-05,0.464103819645,0.0017542201812,0.243826197013,0.000369191013572,0.926286703507,0.376477656085,0.0160430906273
0.13740414381,-0.17765134573,-0.136874064803,-2.46306324005,-0.0151662481949,2.32200813293,-0.759377300739,0.0430996604264,-0.0127400998026,-0.685783624649,-0.00301865115762,0.528133332729,-0.00600423570722,-0.933977842331,-0.000208535086131,0.465304533279,0.0016523230918,0.252880787721,0.000511036423861,0.926303882207,0.376313825709,0.0186751416089
0.137158632278,-0.192609012127,-0.137028589845,-2.45121717453,-0.0151655497029,2.3019862175,-0.759379029274,0.0430996604264,-0.0139147220179,-0.656754791737,-0.0096008842811,0.531532883644,0.000381114223273,-0.880758821964,-4.19764583057e-05,0.466850171709,0.00147607550932,0.263100970142,0.00090332981653,0.926316323813,0.376096950829,0.0220983142831
0.136963129044,-0.205547228456,-0.137171268463,-2.44057917595,-0.0151605987921,2.28484773636,-0.759376883507,0.0430996604264,-0.0143638281152,-0.641240298748,-0.00503866188228,0.548931002617,-0.00169306551106,-0.829675316811,-0.000223797425861,0.468170137857,0.00129995452062,0.272188708828,0.00134417300875,0.926311453968,0.375904084831,0.0253259182864
0.136669144034,-0.222585812211,-0.13737885654,-2.42528986931,-0.0151622202247,2.26273131371,-0.759375810623,0.0430996604264,-0.0118692480028,-0.580660104752,-0.00830663274974,0.530890524387,-0.000264632457402,-0.756856381893,-0.000195260814507,0.470261942461,0.000976110889687,0.285418164978,0.00228680658407,0.92627740178,0.375590631061,0.0306042972383
0.136471092701,-0.233456507325,-0.137527987361,-2.41533446312,-0.015157318674,2.24874162674,-0.759377300739,0.0430996604264,-0.0130840819329,-0.568003535271,-0.0112789403647,0.529720902443,-4.46423437097e-05,-0.709114015102,-0.000235067855101,0.471358582315,0.000755484148854,0.29310396275,0.00287475635294,0.926247153791,0.375391086789,0.0337561477642
0.136294811964,-0.242237731814,-0.137648135424,-2.40697407722,-0.0151595165953,2.23773932457,-0.759377717972,0.0430996604264,-0.0121490238234,-0.528903663158,-0.00591835845262,0.507884025574,0.000337506702635,-0.67838537693,-0.000121002180094,0.472372392105,0.000539852718688,0.299967904038,0.00349860598746,0.926206620724,0.37520279544,0.0367684302081
0.136061355472,-0.251975268126,-0.137755692005,-2.39762187004,-0.0151582323015,2.22548723221,-0.759374320507,0.0430996604264,-0.0135327354074,-0.494292795658,-0.00974359922111,0.465181976557,-0.00579520640895,-0.615639507771,0.000491683429573,0.473385528769,0.000279066746159,0.30764252253,0.00419695874757,0.926154256834,0.374981186213,0.0401221604034
0.13554392755,-0.266278684139,-0.137896552682,-2.38431382179,-0.0151565792039,2.20826625824,-0.759377479553,0.0430996604264,-0.0198038332164,-0.450278252363,-0.000268382020295,0.411811441183,-0.000476522225654,-0.539736866951,0.000145071433508,0.474641431306,-0.000200022008273,0.318846761123,0.00528888189216,0.926077476866,0.374577999499,0.0452090316654
0.135177657008,-0.274077087641,-0.137931272388,-2.37718439102,-0.0151543626562,2.1986784935,-0.759375751019,0.0431068837643,-0.0199113041162,-0.415490984917,-0.00166076421738,0.381531089544,0.000764446158428,-0.508459866047,5.42398702237e-05,0.475119880802,-0.000493428827269,0.324897300862,0.00582990382702,0.9260395109,0.374338249256,0.0478300251053
0.134815812111,-0.280823111534,-0.138003334403,-2.37114739418,-0.015154633671,2.19047570229,-0.759374558926,0.0431068837643,-0.0244051795453,-0.379913151264,-0.00781854987144,0.330222785473,0.000242613168666,-0.463431060314,-0.000170016865013,0.475441297851,-0.000793431106574,0.330088614077,0.00628774105754,0.926017286751,0.374091500559,0.0500799145811
0.134435191751,-0.287353754044,-0.138084635139,-2.36572170258,-0.0151522019878,2.18244051933,-0.759375154972,0.0431068837643,-0.0226399116218,-0.351382672787,-0.00475102476776,0.287099063396,0.000217015316593,-0.419125080109,-8.73646786204e-05,0.475537361926,-0.00110210936159,0.334909142768,0.00663400329325,0.926008363051,0.373842649687,0.0520209046238
0.133265465498,-0.302245497704,-0.138240695,-2.35528349876,-0.0151522960514,2.16456198692,-0.759375631809,0.0431068837643,-0.0276169534773,-0.264102160931,-0.00278633227572,0.13875836134,2.60682063526e-05,-0.318016558886,0.000169215651113,0.475037527178,-0.00192157295025,0.345024886285,0.00715766642005,0.926052976788,0.37318367448,0.0557547915217
0.132746577263,-0.307038426399,-0.138279616833,-2.35310268402,-0.0151527402923,2.15863728523,-0.7593755126,0.0431068837643,-0.0254048723727,-0.208090037107,-0.00130873848684,0.0896023288369,0.000331468152581,-0.27835842967,6.27789850114e-05,0.474422293625,-0.00222919819297,0.34768571766,0.00708029989936,0.926116595987,0.372940666048,0.0563309797601
0.132425576448,-0.309477686882,-0.13832809031,-2.35215497017,-0.0151519048959,2.15521192551,-0.759375035763,0.0431068837643,-0.0216412059963,-0.171465918422,-0.00483741844073,0.0594440884888,0.000274849153357,-0.256932854652,-2.43629674515e-05,0.473966446606,-0.00242222665241,0.348913214741,0.00693306050095,0.926177300942,0.372788294172,0.0563598021962
0.131148934364,-0.31497874856,-0.138576433063,-2.35144948959,-0.0151590323076,2.14384317398,-0.759375095367,0.0431068837643,-0.0299676526338,-0.0348011516035,-0.00149139005225,-0.00992334540933,2.3175334718e-05,-0.225616708398,0.000464247510536,0.471720933671,-0.00314637498379,0.350569496827,0.00566420917074,0.926549096779,0.372224071364,0.0540733610286
0.130623713136,-0.315099865198,-0.138639733195,-2.35166287422,-0.0151653802022,2.14025402069,-0.759375810623,0.0431068837643,-0.0370680578053,0.00349556817673,-0.000757742731366,-0.0213824529201,-0.00246279966086,-0.227457582951,0.000329862727085,0.470901673369,-0.00341205242276,0.350125528249,0.00498735911091,0.926734122742,0.372017015233,0.0523672803862
0.128420487046,-0.312841892242,-0.138686329126,-2.35398435593,-0.0155611969531,2.13026094437,-0.759375870228,0.0431114807725,-0.0572964325547,0.0985451117158,-0.00187505886424,-0.0746720209718,-0.045845169574,-0.178593859076,0.000539685948752,0.467993596944,-0.00451146225128,0.346658679451,0.00255199122565,0.927430319602,0.371251171019,0.0451559223592
0.127240642905,-0.310843378305,-0.138728767633,-2.35528731346,-0.0165461916476,2.12710046768,-0.759376227856,0.0431114807725,-0.0746442228556,0.125355243683,0.000663181184791,-0.0703466832638,-0.0682256892323,-0.176415503025,0.000265450769803,0.467056310059,-0.00511420876348,0.344965101465,0.00197754494188,0.927656631688,0.371024651203,0.042308047526
0.124071002007,-0.305483400822,-0.138847351074,-2.3581328392,-0.0209210757166,2.12130069733,-0.759374678135,0.0431114807725,-0.100208438933,0.183551326394,-0.00559653900564,-0.0820426717401,-0.160507470369,-0.149433150887,0.000137049893965,0.464959943573,-0.00717389062433,0.340500204515,0.00151033687754,0.928106390243,0.370661317272,0.0350204916533
0.12217336148,-0.30223608017,-0.139023587108,-2.35952758789,-0.0244655832648,2.1187543869,-0.759377479553,0.0431114807725,-0.118238173425,0.196207568049,-0.0195557996631,-0.0805099532008,-0.262427121401,-0.139011561871,-0.000398149772082,0.463976165237,-0.00859345758572,0.338065760638,0.00180406157555,0.928275726614,0.370588266142,0.0310685922313
0.118268303573,-0.296406656504,-0.139733016491,-2.36209011078,-0.0339699722826,2.1147146225,-0.75937795639,0.0431114807725,-0.149171039462,0.220747709274,-0.030632365495,-0.0868890509009,-0.385319024324,-0.12295858562,1.37245415317e-05,0.46225465101,-0.0119926822081,0.333736280767,0.0036168972324,0.92841746642,0.370764064486,0.0237051528357
0.115093111992,-0.292151004076,-0.14047190547,-2.3637945652,-0.0421590916812,2.11233305931,-0.75937795639,0.0431114807725,-0.189398944378,0.219356656075,-0.0408305153251,-0.091912984848,-0.473531365395,-0.125004976988,3.49389192706e-05,0.461131351055,-0.0149051518607,0.330730552177,0.00553022878951,0.928463740459,0.370922223631,0.0184716789192
0.112106412649,-0.288972109556,-0.141182437539,-2.3652677536,-0.0499606989324,2.1105029583,-0.759377241135,0.0431114807725,-0.2103330791,0.208707988262,-0.0544536560774,-0.0992944091558,-0.579303264618,-0.119816191494,-0.000105375787825,0.460051126629,-0.0180692579847,0.328088942257,0.00786785766903,0.928456755733,0.37110862734,0.0135844008764
0.107919201255,-0.284782111645,-0.142368510365,-2.3671131134,-0.0618014149368,2.10838460922,-0.759379684925,0.0431114807725,-0.231049373746,0.237741738558,-0.0764479637146,-0.0922260507941,-0.673824965954,-0.0957085415721,9.33588453336e-05,0.458983062506,-0.0217598221336,0.325420217731,0.0108632628289,0.928364215938,0.371417100907,0.00843853807618
0.103040650487,-0.280025035143,-0.144180774689,-2.36893081665,-0.0762493237853,2.10652542114,-0.759385883808,0.0431114807725,-0.261117488146,0.227592393756,-0.10638576746,-0.0931894481182,-0.766749680042,-0.0791201069951,0.000274620077107,0.457770555271,-0.0268135416072,0.322249772703,0.0150708422391,0.928200907574,0.371767902784,0.0021379983631
0.0950228348374,-0.27415317297,-0.147895097733,-2.37150359154,-0.100116193295,2.104388237,-0.75939309597,0.0431141071022,-0.308186322451,0.215574488044,-0.152087494731,-0.0856157764792,-0.92179787159,-0.0749660879374,0.000164161043358,0.456008035516,-0.0354531851595,0.318260589437,0.0223575757794,0.927926107615,0.372032458073,-0.00671769572086
0.0891277715564,-0.270087838173,-0.151147976518,-2.3729326725,-0.117465607822,2.10306406021,-0.759403407574,0.0431141071022,-0.347051054239,0.230701074004,-0.201406806707,-0.0732741951942,-0.988932669163,-0.068804487586,-0.00128989829682,0.454823618804,-0.0420055950027,0.315719936126,0.0276699425449,0.927754384707,0.371944569665,-0.0127832983828
0.0826728716493,-0.266359984875,-0.154891550541,-2.37427282333,-0.135767951608,2.10187840462,-0.759440720081,0.0431141071022,-0.364034891129,0.181562885642,-0.206861972809,-0.0711811557412,-1.04240262508,-0.0630164369941,-0.00684468215331,0.453583790941,-0.0491514334007,0.313426554004,0.0333215167714,0.927599875706,0.371611847596,-0.0187824790804
0.075759716332,-0.26324275136,-0.159040182829,-2.37551927567,-0.154917538166,2.10077929497,-0.75988137722,0.0431141071022,-0.390378087759,0.174200877547,-0.253538310528,-0.0640229731798,-1.08723735809,-0.0516662187874,-0.0324838832021,0.452276673997,-0.0567879631989,0.31150349961,0.0393041577565,0.927369524253,0.371261771769,-0.0246098593503
0.0629857853055,-0.257796704769,-0.167975515127,-2.3768787384,-0.189267277718,2.0998570919,-0.760627090931,0.0431141071022,-0.456523895264,0.169618904591,-0.327949345112,-0.0267365481704,-1.17823863029,-0.0182450655848,-0.0341966487467,0.45011006743,-0.0712820923506,0.308681678804,0.0500660945829,0.927139607788,0.369773237964,-0.0342532628043
0.0554853752255,-0.255298376083,-0.1733751297,-2.37714195251,-0.208504706621,2.09970331192,-0.761241316795,0.0431141071022,-0.475529611111,0.140773758292,-0.349145650864,-0.0053143822588,-1.25315499306,-0.0101392595097,-0.0498276390135,0.448957224306,-0.0797188744058,0.307649857467,0.0562027190376,0.927033054983,0.368675210018,-0.0391095710032
0.0465898253024,-0.252748608589,-0.180206865072,-2.37702941895,-0.230199113488,2.09968352318,-0.762428760529,0.0431141071022,-0.506266117096,0.140043124557,-0.399668216705,0.0142628867179,-1.16784656048,0.00145780260209,-0.0794376581907,0.447597738447,-0.0897443279502,0.306828270554,0.0630901771396,0.926975144125,0.367113312422,-0.0443229878219
0.0378349348903,-0.250363528728,-0.187491387129,-2.37670207024,-0.250484406948,2.09969758987,-0.763890862465,0.0431141071022,-0.524876952171,0.137739092112,-0.445646315813,0.0243573021144,-1.23277413845,-0.000473471882287,-0.0931115299463,0.446128491232,-0.0996843464449,0.306178446508,0.0693685026408,0.927033822741,0.365205444721,-0.0492065561295
0.0117896692827,-0.245113775134,-0.211469709873,-2.37420535088,-0.309219539165,2.10002303123,-0.768985450268,0.0431141071022,-0.559788346291,0.114586934447,-0.56286907196,0.0972613692284,-1.23774373531,0.0265391562134,-0.0973122641444,0.44109763342,-0.129944220822,0.305865701233,0.0873796427879,0.927400163806,0.358320367604,-0.06245196589
0.00218042708002,-0.243241280317,-0.221123948693,-2.37228441238,-0.329244166613,2.10038399696,-0.770846128464,0.0431141071022,-0.557728886604,0.0945400297642,-0.560432076454,0.121410533786,-1.14201235771,0.0213178321719,-0.106264054775,0.439119660394,-0.141236420903,0.306240274317,0.0934493327763,0.927801503467,0.354965309206,-0.0667174738141
-0.0058696330525,-0.242091476917,-0.229312509298,-2.37039589882,-0.34508562088,2.10071825981,-0.772596001625,0.0431141071022,-0.591839253902,0.0796216651797,-0.606836557388,0.145176947117,-1.11513400078,0.0295585356653,-0.137138813734,0.437772584496,-0.148560490887,0.306707776106,0.0972552068664,0.928114408713,0.352635494454,-0.0692334948675
-0.0200229138136,-0.239822044969,-0.244534984231,-2.36618113518,-0.371070802212,2.10160923004,-0.776146531105,0.0431141071022,-0.579303920269,0.105034455657,-0.638685941696,0.207484915853,-1.04174304008,0.0490102246404,-0.155064284801,0.434016713846,-0.167898619668,0.308262927504,0.106368494674,0.929249032977,0.345728784249,-0.0751903283536
-0.0367643497884,-0.237328797579,-0.263513505459,-2.35926985741,-0.399235665798,2.10337710381,-0.780749857426,0.0431141071022,-0.569759368896,0.0825049802661,-0.695716321468,0.264550209045,-0.906120121479,0.0692927613854,-0.147028237581,0.430250556814,-0.187046370412,0.310711741802,0.114745110279,0.930744624121,0.337921846896,-0.0797297272752
-0.0479886606336,-0.235614299774,-0.277376741171,-2.35363078117,-0.416466832161,2.10489058495,-0.783849537373,0.04312133044,-0.553230285645,0.0851508229971,-0.684941411018,0.303231924772,-0.811922311783,0.0868375152349,-0.162600591779,0.427366623781,-0.200675487877,0.312775565023,0.120097708566,0.932141155406,0.331538318536,-0.0822906423798
-0.0551695004106,-0.234600052238,-0.286239385605,-2.34961843491,-0.426473528147,2.10621356964,-0.786136507988,0.04312133044,-0.551075279713,0.0699170976877,-0.679601609707,0.312391132116,-0.735217452049,0.112873084843,-0.173688650131,0.425532595288,-0.209294102209,0.314310139433,0.123338066775,0.933098995587,0.32733056871,-0.0834786451253
-0.0659040287137,-0.23332670331,-0.300145089626,-2.34335851669,-0.440102487803,2.1085870266,-0.789672493935,0.04312133044,-0.521317899227,0.0542172789574,-0.697531938553,0.310354351997,-0.639588654041,0.126360684633,-0.189937964082,0.422533311705,-0.222286750798,0.31678454308,0.127804136105,0.934767502645,0.320460168055,-0.0847413663367
-0.0812759771943,-0.231931507587,-0.321479022503,-2.33287262917,-0.457629472017,2.11310219765,-0.795407950878,0.04312133044,-0.470644921064,0.0304433628917,-0.680443167686,0.347848087549,-0.501217007637,0.173727050424,-0.19097609818,0.417973804034,-0.241402496813,0.321168025457,0.134069905379,0.937476615283,0.309676577817,-0.0852248385555
-0.0885174870491,-0.231581330299,-0.332325577736,-2.32733035088,-0.465083420277,2.11592674255,-0.798480451107,0.04312133044,-0.443878859282,0.00929417461157,-0.676891744137,0.348446846008,-0.445175498724,0.182219803333,-0.200797915459,0.415679946593,-0.250713006929,0.323634905256,0.13703684512,0.938891582613,0.30416522978,-0.0847762458364
-0.0958562269807,-0.231554970145,-0.343556076288,-2.32135939598,-0.472214311361,2.11903691292,-0.80171340704,0.0431318357587,-0.41776740551,-0.00314431451261,-0.643142640591,0.349790364504,-0.409393548965,0.190054520965,-0.188133507967,0.413244176137,-0.260243977479,0.326438291969,0.140116531758,0.940372162967,0.298363980314,-0.0839433593775
-0.10332468152,-0.231688588858,-0.355133265257,-2.314909935,-0.479573905468,2.12247014046,-0.805409669876,0.0431318357587,-0.379848659039,-0.0123282391578,-0.583269417286,0.338486909866,-0.362375885248,0.177928641438,-0.19689874351,0.410650663422,-0.270076544013,0.329562558462,0.14349588547,0.941779072855,0.292546862878,-0.0829303412078
-0.119017615914,-0.233840882778,-0.380091488361,-2.29869890213,-0.494400501251,2.13097953796,-0.814362764359,0.0431318357587,-0.278013080359,-0.0835670009255,-0.457302898169,0.329063653946,-0.252688229084,0.190648004413,-0.184845164418,0.405200157213,-0.291382012228,0.338291486581,0.151938176516,0.944623601997,0.279988422328,-0.0787878424471
-0.123857945204,-0.23542432487,-0.387881577015,-2.29309177399,-0.498758047819,2.13457846642,-0.817630171776,0.0431318357587,-0.256796985865,-0.10411594063,-0.40085297823,0.289078682661,-0.231040865183,0.199659526348,-0.170056924224,0.403607562817,-0.298091234192,0.341763242864,0.155112022325,0.945416724442,0.276159134902,-0.0765742095851
-0.127913981676,-0.23741979897,-0.394015014172,-2.28856229782,-0.502356052399,2.13812565804,-0.820359170437,0.0431318357587,-0.221461415291,-0.139769822359,-0.325340867043,0.249870881438,-0.2009947896,0.205903276801,-0.161188110709,0.402354448773,-0.30353062636,0.344960830314,0.158040125511,0.946001562091,0.273108360532,-0.0742710330161
-0.136755004525,-0.248795047402,-0.408096402884,-2.27553582191,-0.512736439705,2.14844584465,-0.829629302025,0.0431318357587,-0.0440037101507,-0.206291526556,-0.110377848148,0.127368450165,-0.103423476219,0.121782384813,-0.124784059823,0.400130637128,-0.316626553662,0.356928209668,0.168289598148,0.946538348328,0.267411189883,-0.0650770429009
-0.137107670307,-0.252210348845,-0.409467875957,-2.27360749245,-0.514403045177,2.15047979355,-0.831841111183,0.0431318357587,-0.0014356902102,-0.195339173079,-0.0521394982934,0.0962393209338,-0.0856935456395,0.117736935616,-0.130993798375,0.400324274636,-0.317922874166,0.359574070366,0.170443570097,0.946243602997,0.267644911586,-0.0627553518881
-0.136896401644,-0.256168693304,-0.409749120474,-2.27209162712,-0.516233325005,2.15277338028,-0.834178626537,0.0431318357587,0.0278645306826,-0.204847186804,0.0189714804292,0.0541494563222,-0.0937044546008,0.114670984447,-0.113263532519,0.400957549755,-0.31850568119,0.362365570242,0.172856078661,0.945656968097,0.268757095904,-0.0601938356439
-0.135628387332,-0.260504633188,-0.409213095903,-2.27127313614,-0.517592191696,2.15504431725,-0.836364507675,0.0431318357587,0.0992911234498,-0.21005256474,0.0357157513499,0.0156987756491,-0.0438799448311,0.121171541512,-0.113035880029,0.402009348257,-0.318143466296,0.365013774042,0.17509290586,0.944886437588,0.270613519176,-0.0574492585481
-0.131791651249,-0.265207618475,-0.4077231884,-2.27111506462,-0.518382906914,2.15802192688,-0.839058816433,0.0431318357587,0.166654348373,-0.188407808542,0.0828400552273,-0.0165948979557,-0.0335307493806,0.100346788764,-0.0774182975292,0.404165386685,-0.316179498719,0.367611570632,0.17736142581,0.943587697704,0.274332793499,-0.0540989785017
-0.128551051021,-0.268523275852,-0.405961811543,-2.2714805603,-0.519141972065,2.15950274467,-0.840364694595,0.0431318357587,0.196398153901,-0.158560588956,0.10839882493,-0.0124964043498,-0.0564724653959,0.064414434135,-0.0711067691445,0.40581354126,-0.314202882739,0.369203820429,0.178830893803,0.942555282115,0.277302738284,-0.0520791955295
-0.125014811754,-0.270527094603,-0.403713434935,-2.27160859108,-0.519879579544,2.16048336029,-0.841835379601,0.0431226417422,0.217117369175,-0.105591498315,0.15276402235,-0.00882401783019,-0.0382902398705,0.0562292449176,-0.0887151807547,0.40768190322,-0.311936812928,0.370318613729,0.180059522047,0.941374090474,0.2807461549,-0.0507443248068
-0.112468130887,-0.27429240942,-0.393548458815,-2.27295327187,-0.5210313797,2.16330552101,-0.846043407917,0.0431226417422,0.286441624165,-0.0310700722039,0.236585304141,-0.0471050478518,-0.0229182578623,0.0516216792166,-0.058698002249,0.414674924458,-0.302572918764,0.372364604991,0.183118313677,0.937057012716,0.293486680851,-0.0475121664855
-0.107016779482,-0.274656146765,-0.388969451189,-2.27384328842,-0.521501839161,2.16434216499,-0.847040593624,0.0431226417422,0.312282204628,-0.0126778921112,0.269922822714,-0.0568006709218,-0.0284310877323,0.0661365091801,-0.0614965073764,0.41763395396,-0.298332049324,0.372522205178,0.184068634327,0.935219260121,0.2988257072,-0.0467639792701
-0.101557694376,-0.274855911732,-0.38426476717,-2.27505302429,-0.522027373314,2.16542053223,-0.847976863384,0.0431226417422,0.332800328732,-0.00952208507806,0.284910857677,-0.0751124843955,-0.0313990674913,0.0668725073338,-0.0548469126225,0.420529053377,-0.293958873022,0.372458203749,0.184921948261,0.933325828477,0.304260337182,-0.0461781100964
-0.0955291613936,-0.27474039793,-0.378969937563,-2.27657485008,-0.5225045681,2.16644382477,-0.84883081913,0.0431226417422,0.3398039639,0.00386726902798,0.304430305958,-0.0933977663517,-0.0265965759754,0.0484424009919,-0.0406811349094,0.423638677855,-0.289011585166,0.37212377389,0.185672987094,0.931229093818,0.310231395272,-0.0457645907096
-0.0789223983884,-0.273144930601,-0.362996041775,-2.28211307526,-0.522903501987,2.16825866699,-0.850926458836,0.0431226417422,0.352106571198,0.036009889096,0.346726208925,-0.140946626663,-0.00180820992682,0.037069875747,-0.0433758124709,0.431806878134,-0.274304077302,0.369866359447,0.186672113866,0.925225278494,0.327134826228,-0.0457658288764
-0.0732404366136,-0.272357851267,-0.357400149107,-2.28442049026,-0.52294999361,2.16895866394,-0.851546406746,0.0431226417422,0.357354909182,0.0631394982338,0.350344002247,-0.144099354744,-0.00213338341564,0.0457363948226,-0.0260312780738,0.43444375834,-0.269090509492,0.368779443058,0.186836051628,0.923098733256,0.3329714107,-0.0459462491636
-0.0662535130978,-0.270852714777,-0.350133687258,-2.28749918938,-0.523013591766,2.16994404793,-0.852001428604,0.0431226417422,0.341741859913,0.0735850483179,0.372840225697,-0.162180453539,-0.00344504229724,0.0509832203388,-0.0182644985616,0.437522164815,-0.262780785801,0.367194031222,0.186939725356,0.920531215236,0.339889964879,-0.0463749104276
-0.0557853728533,-0.26878336072,-0.338780999184,-2.2928082943,-0.523101985455,2.17160558701,-0.852421700954,0.0431226417422,0.329993546009,0.0708352476358,0.357140123844,-0.183143720031,0.000571623852011,0.0628014355898,-0.0107150990516,0.44215590253,-0.252448209771,0.364461950777,0.187027773957,0.91631988765,0.350942564344,-0.0470934334998
-0.0501883029938,-0.267384797335,-0.332767486572,-2.29591345787,-0.523135781288,2.17252421379,-0.852621495724,0.0431226417422,0.330839544535,0.0936072990298,0.349542796612,-0.186323285103,-0.00216660299338,0.0413447394967,-0.0128007680178,0.444589272215,-0.246552999617,0.362623775833,0.186918418751,0.913888987201,0.357199563141,-0.0477168269716
-0.0447549708188,-0.266012758017,-0.327072620392,-2.29910039902,-0.523157656193,2.17309260368,-0.85288131237,0.0431226417422,0.307130992413,0.0716635808349,0.326450705528,-0.188347697258,0.00144528434612,0.0227244962007,-0.0120630022138,0.446595974224,-0.241175855915,0.360793017417,0.186659159301,0.911657853464,0.36288349108,-0.0485168841524
-0.0385101735592,-0.264380633831,-0.320161372423,-2.30312824249,-0.523176789284,2.17359805107,-0.853251039982,0.0431226417422,0.293894320726,0.0892661735415,0.324256271124,-0.189192548394,-0.00038477088674,0.0233983322978,-0.0153697198257,0.448768894229,-0.234771749351,0.358482250792,0.186250984579,0.908966389436,0.369628525281,-0.0496530623032
-0.0304996334016,-0.261629521847,-0.311495393515,-2.30851578712,-0.523203194141,2.17454075813,-0.853682935238,0.0431226417422,0.267361491919,0.0850179418921,0.278429210186,-0.18913397193,0.000612736504991,0.0263185985386,-0.0155889242887,0.451377718641,-0.226592970679,0.355117347017,0.185570787254,0.905453833202,0.37825653672,-0.0513695528903
-0.0263599883765,-0.260330557823,-0.30720320344,-2.31145644188,-0.52321845293,2.1750562191,-0.853852570057,0.0431226417422,0.249057382345,0.0842404291034,0.249843135476,-0.184051141143,-0.00301208952442,0.031133197248,-0.0119583550841,0.452578004285,-0.222421499388,0.353346608768,0.185179706546,0.903653483605,0.382607491516,-0.0522528943234
-0.0221081376076,-0.258665978909,-0.302889764309,-2.31458806992,-0.52323102951,2.17559361458,-0.854020416737,0.0431226417422,0.221170425415,0.0982063189149,0.232946529984,-0.164723917842,0.000565201626159,0.029020819813,-0.00450174044818,0.453720150436,-0.218161680178,0.351315418267,0.184665899645,0.901793311155,0.387067243956,-0.0533505182509
-0.0181965772063,-0.256940692663,-0.298663824797,-2.31767678261,-0.523245036602,2.17599534988,-0.854187607765,0.0431226417422,0.184587970376,0.0715054124594,0.212936922908,-0.164275303483,-0.000518012151588,0.0175512619317,-0.0164691023529,0.454705756815,-0.214103493815,0.349259206704,0.184107346877,0.90000046772,0.391314412191,-0.0545588986173
-0.0106965582818,-0.253352493048,-0.289906591177,-2.32538127899,-0.523268938065,2.1763317585,-0.854615151882,0.0431233011186,0.126313090324,0.0653863698244,0.143071338534,-0.152118965983,-0.00126558251213,0.000573138473555,-0.00451016286388,0.455996820018,-0.205826168082,0.344304154571,0.18242061119,0.89632514048,0.399973231052,-0.0578392364563
-0.00887269992381,-0.252437919378,-0.287913173437,-2.32775115967,-0.523275732994,2.17634510994,-0.854742884636,0.0431233011186,0.103872314095,0.0548367276788,0.111336618662,-0.145462542772,-0.000180661445484,0.00109939649701,-0.0138762174174,0.456094988136,-0.203818911354,0.342824959643,0.181814555036,0.895435077293,0.402085592871,-0.0588783968115
-0.00721178110689,-0.251455694437,-0.286219537258,-2.33004665375,-0.523280441761,2.17635822296,-0.854837298393,0.0431233011186,0.0904520601034,0.062156252563,0.0876367837191,-0.126360833645,-8.12918151496e-05,0.000255433988059,-0.00157201907132,0.456109914165,-0.201934671866,0.341250756445,0.181135447923,0.894600830809,0.404077034192,-0.0600087754777
-0.00560586294159,-0.250176906586,-0.284677833319,-2.33254599571,-0.523288607597,2.17636537552,-0.854916512966,0.0431233011186,0.0554484762251,0.0545778162777,0.0604604408145,-0.117978274822,0.000149433253682,-0.000189414437045,-0.00601707911119,0.456013968681,-0.2003130107,0.339609525054,0.180386371532,0.893880416653,0.405819066667,-0.0612326913796
-0.00425997795537,-0.248933076859,-0.283368051052,-2.33589696884,-0.523301959038,2.17636680603,-0.85512816906,0.0431233011186,0.0296280942857,0.0371279194951,0.0201454460621,-0.0998051688075,-0.000262360903434,0.00039372468018,-0.00359741412103,0.455555191158,-0.198718403195,0.337474041088,0.179294778375,0.893172314787,0.407608260241,-0.0628657649526
-0.00393158616498,-0.248418927193,-0.283179968596,-2.33743572235,-0.523306071758,2.17636919022,-0.855193793774,0.0431233011186,0.0107185207307,0.0248717088252,0.00328010832891,-0.0924165919423,-0.00261373096146,-0.00123169075232,-0.00442966027185,0.455202839003,-0.198301681374,0.336501184793,0.178739182826,0.893003300223,0.408104063204,-0.0636276951046
-0.00389870326035,-0.248118922114,-0.283207654953,-2.33886861801,-0.523310720921,2.17635416985,-0.855241417885,0.0431233011186,-0.00525307189673,0.0148394554853,-0.00578911695629,-0.0861250832677,-0.00228230119683,0.000172051994014,-0.00299233221449,0.454803530629,-0.19813444758,0.335714336871,0.178249329333,0.892955277491,0.408324550488,-0.0642581523046
-0.00411194330081,-0.248074814677,-0.283394515514,-2.34061193466,-0.523313879967,2.17634916306,-0.855313003063,0.0431233011186,-0.0134757347405,-0.000181286872248,-0.0129982149228,-0.0794024020433,3.92211622966e-05,-0.000203665418667,-0.00293768430129,0.454176360497,-0.19809859345,0.33479188882,0.177622658928,0.892986770967,0.408413155414,-0.0649885534058
-0.004942022264,-0.248223945498,-0.284470915794,-2.34346151352,-0.523332118988,2.17634916306,-0.85550057888,0.0431233011186,-0.0175009798259,-0.000733055232558,-0.0328110568225,-0.0420640222728,-6.8406416176e-07,-0.000647429260425,-0.000252488767728,0.452951968434,-0.198606488422,0.33342916369,0.176572127387,0.893295865418,0.408014785501,-0.0660962566594
-0.00557357724756,-0.248232021928,-0.285536140203,-2.34442186356,-0.523339688778,2.17634296417,-0.85556769371,0.0431233011186,-0.0214871168137,-0.000607733323704,-0.0287060756236,-0.0198236983269,-0.00140605226625,0.000232590813539,-0.00466592097655,0.452331622328,-0.199244020576,0.332916902196,0.176096641634,0.893623166603,0.407429936217,-0.0665466427746
-0.00591995613649,-0.248251989484,-0.286161959171,-2.34467363358,-0.523341953754,2.17634129524,-0.855614960194,0.0431233011186,-0.0171998869628,-0.00201721512713,-0.0328648500144,-0.00930903851986,2.54655060417e-05,4.52581189165e-05,-0.00240243622102,0.452065666272,-0.199644491652,0.332773978663,0.175919465557,0.89381606474,0.407060187034,-0.0666872390927
