imanlab/tactile_prediction_flat_dataset/test/data_sample_2021-11-25-13-20-06/robot_state.csv
position_panda_joint1,position_panda_joint2,position_panda_joint3,position_panda_joint4,position_panda_joint5,position_panda_joint6,position_panda_joint7,position_panda_finger,velocity_panda_joint1,velocity_panda_joint2,velocity_panda_joint3,velocity_panda_joint4,velocity_panda_joint5,velocity_panda_joint6,velocity_panda_joint7,ee_state_position_x,ee_state_position_y,ee_state_position_z,ee_state_orientation_x,ee_state_orientation_y,ee_state_orientation_z,ee_state_orientation_w
-0.137428686023,-0.042724840343,0.15040999651,-2.58670186996,-0.0484134554863,2.63530135155,-0.681169986725,0.0686682909727,9.2392496299e-05,0.00355439074337,-0.000542423338629,-0.000413069181377,-9.77769923338e-06,-0.000104837905383,-0.000348989880877,0.460744551127,0.00346632524539,0.170958500547,0.0298697874976,0.93204685878,0.359140568941,0.0376098425827
-0.137430846691,-0.0427228808403,0.15040679276,-2.58670139313,-0.0484119877219,2.63530111313,-0.681171357632,0.0686682909727,-0.000363028520951,6.13344891462e-05,-0.000289948569844,7.14822890586e-05,-1.43705319715e-05,-0.000129738691612,-0.000126772662043,0.460744447952,0.00346430516539,0.170957818737,0.0298691029111,0.932047733137,0.359138423936,0.037609200773
-0.137431800365,-0.0427236147225,0.15040551126,-2.58670139313,-0.0484125353396,2.6352994442,-0.68117171526,0.0686682909727,3.31323353748e-05,-0.000257003703155,0.000423557125032,-0.000367106113117,6.33589515928e-05,-1.6054855223e-05,0.000136130081955,0.460744150695,0.00346335854562,0.170957885869,0.0298690513149,0.932048076593,0.359137591626,0.0376086779657
-0.137430146337,-0.0427222885191,0.150409072638,-2.58670067787,-0.0484131574631,2.63529968262,-0.681172192097,0.0686682909727,4.06330764235e-05,0.000248225231189,3.73895272787e-05,0.000101914454717,-0.000135542650241,-0.000156555179274,0.000230352670769,0.460744386372,0.00346562587757,0.170957670031,0.0298691545324,0.932046896215,0.359140664697,0.0376085031514
-0.13742916286,-0.042723916471,0.150408968329,-2.58670163155,-0.0484127774835,2.63529992104,-0.681171953678,0.0686682909727,-0.000223430397455,0.000293499208055,0.000135892478283,0.000288459414151,5.8221983636e-05,8.19862762e-05,-0.00022339791758,0.460744235252,0.00346600188153,0.170958064238,0.0298693025807,0.932046820286,0.359140804494,0.037608932308
-0.137430071831,-0.0427251122892,0.150407478213,-2.58670210838,-0.0484132692218,2.63529920578,-0.68117326498,0.0686682909727,-0.00131470384076,-0.000265898124781,0.000161933843629,0.000167465390405,8.90009905561e-05,6.91823443049e-05,-2.11686583498e-05,0.460744058233,0.00346485179387,0.170958350673,0.0298695621204,0.932046940863,0.359140482941,0.0376088086123
-0.137431591749,-0.0427245125175,0.150407478213,-2.58670330048,-0.0484125129879,2.63529920578,-0.681173145771,0.0686682909727,0.00011072633788,-0.00220839795657,-0.000222576316446,-2.55184149864e-05,2.78905026789e-05,-6.63644095766e-05,-0.00013730309729,0.460743392442,0.0034641765307,0.170957609584,0.0298690500486,0.932047389829,0.359139441525,0.0376080335658
-0.137430846691,-0.0427253730595,0.150407969952,-2.58670163155,-0.0484124682844,2.63529968262,-0.681173801422,0.0686682909727,0.000194686450413,-0.000326172739733,-0.00058380397968,0.000521323119756,-5.36526094947e-05,0.000658734643366,0.000141503624036,0.460744428815,0.00346474651333,0.170958705292,0.0298696081704,0.932046994623,0.359140275001,0.0376094253979
-0.137430891395,-0.0427262037992,0.150407224894,-2.58669948578,-0.0484128072858,2.63529920578,-0.681174993515,0.0686682909727,-0.00355547876097,-8.46704551805e-06,4.65610501124e-05,-0.000226964897593,-5.01487447764e-05,5.36787556484e-05,0.000514005019795,0.460745498631,0.00346437134317,0.170959875762,0.0298702147682,0.932046821319,0.359140560174,0.0376105153032
-0.137428969145,-0.0427235625684,0.150407910347,-2.58670139313,-0.0484126247466,2.63529849052,-0.681176543236,0.0686682909727,0.000220616944716,0.00104048813228,-0.000127935505589,0.000816451443825,-7.17338189133e-05,-0.000133297187858,2.72589386441e-05,0.460743996928,0.00346560470802,0.170957845664,0.0298690832325,0.932046212635,0.359142481371,0.0376081525621
-0.137429893017,-0.0427230931818,0.150409892201,-2.58670210838,-0.048413656652,2.63529872894,-0.681175649166,0.0686682909727,4.65458333565e-06,0.000278297491604,0.000102446407254,-0.000316612509778,-7.47467784095e-05,1.01682016975e-05,-4.56237539765e-05,0.460743623469,0.00346605534614,0.170957372478,0.0298691374547,0.932046038669,0.35914298161,0.0376076438336
-0.137430846691,-0.0427204407752,0.150409534574,-2.58670163155,-0.0484115816653,2.63529872894,-0.68117672205,0.0686682909727,8.27071635285e-05,0.000422417127993,0.000135588459671,0.000269802461844,-4.60921073682e-05,0.000106491381302,0.000129902764456,0.460743428841,0.00346557735582,0.170956348917,0.0298681049768,0.932046452642,0.359142075411,0.0376068581108
-0.137432441115,-0.0427249968052,0.150408893824,-2.58670306206,-0.0484120957553,2.63529896736,-0.681176960468,0.0686682909727,1.08724871097e-05,-8.87731657713e-05,0.00028060603654,-0.000457858724985,-0.000131682871142,-0.000155245215865,-0.000258695130469,0.460743391843,0.00346451730568,0.170957850192,0.0298690768728,0.93204662622,0.359141416224,0.0376080794137
-0.137429878116,-0.0427198074758,0.150409296155,-2.58670544624,-0.0484131909907,2.63529777527,-0.681176543236,0.0686682909727,0.000518442539033,2.51385590673e-05,0.000291932636173,0.00020003975078,7.91687198216e-05,-8.07122050901e-05,-7.95738233137e-05,0.460741291784,0.00346583542401,0.17095446608,0.0298675191147,0.932046212535,0.35914302387,0.0376042163995
-0.137430846691,-0.0427219048142,0.150409936905,-2.5867023468,-0.0484114475548,2.63529801369,-0.681177616119,0.0686682909727,-0.00070504238829,-0.000263630936388,-0.0004039350315,0.00032348613604,-3.03733013425e-05,-7.82878269092e-05,0.000220019181143,0.460743167689,0.00346571447409,0.170956658267,0.0298682083459,0.932046241789,0.359142617656,0.0376068233723
-0.137428984046,-0.0427233800292,0.150409758091,-2.58670115471,-0.0484125055373,2.63529849052,-0.681179404259,0.0686682909727,-3.03796059598e-05,0.000509600271471,0.00059736543335,-0.00012432494259,-0.000151511208969,8.52127632243e-05,2.14140345633e-05,0.460744074068,0.00346644533769,0.170957850449,0.0298691048913,0.932045386858,0.359144621792,0.0376081604576
-0.137430906296,-0.0427219346166,0.150408953428,-2.58670258522,-0.0484126992524,2.63529753685,-0.681179225445,0.0686682909727,0.00303134135902,0.000304069457343,-0.000315233803121,-0.000533756567165,-0.000125554084661,4.48711653007e-05,0.00010182641563,0.460742641768,0.00346454352456,0.170956531781,0.0298684920451,0.932046226927,0.359142692154,0.0376062549461
-0.137430369854,-0.0427204892039,0.150408476591,-2.58670067787,-0.0484114810824,2.63529682159,-0.681181371212,0.0686682909727,-0.000321292638546,0.000370169495,-0.000139931507874,0.000323739135638,-4.07660263591e-05,-3.4053951822e-05,0.000117182040412,0.460743498366,0.00346529937284,0.170956542811,0.0298680421904,0.932045764258,0.359143919132,0.0376063614254
-0.137431770563,-0.0427212193608,0.150407209992,-2.58670282364,-0.0484126396477,2.63529515266,-0.681181252003,0.0685835778713,-0.000204120078706,-0.000793987419456,1.29177424242e-05,0.000205488846404,6.97649156791e-05,-7.24763885955e-05,0.000131713954033,0.460742245281,0.00346398642701,0.170955861006,0.0298678997801,0.932046150655,0.359143096304,0.0376047559971
-0.13743057847,-0.0427215099335,0.150408536196,-2.5866997242,-0.0484129711986,2.63529729843,-0.681181967258,0.0685835778713,-0.000390412664274,-0.000606913119555,0.000165617864695,0.000258332845988,1.95600077859e-05,-6.42387340122e-06,-0.000115114438813,0.460744060511,0.0034653561939,0.170957089414,0.0298687748083,0.932045332578,0.359144904116,0.0376070717128
-0.137433513999,-0.0427183620632,0.150406241417,-2.58670306206,-0.0484116971493,2.63529729843,-0.681182086468,0.0685835778713,0.000268561649136,0.000239722052356,-0.000358611694537,-0.000420459080487,7.95489977463e-05,-1.36461960665e-06,-0.000319646962453,0.460742130767,0.00346286437743,0.170954696929,0.0298673140643,0.932046648313,0.359141885032,0.0376044547891
-0.137429952621,-0.0427193827927,0.150408342481,-2.58669996262,-0.0484102740884,2.63529539108,-0.681182324886,0.0685835778713,0.000208914541872,-0.000386294472264,0.000508464872837,0.000133182678837,2.50151315413e-05,-0.000107651423605,-4.75497608932e-06,0.460743328989,0.00346581328736,0.170956193332,0.029867418567,0.932045665416,0.359144292717,0.0376057386614
-0.137429848313,-0.0427200458944,0.150408059359,-2.58670401573,-0.0484124422073,2.63529419899,-0.681186199188,0.0685835778713,-0.00397440977395,0.000613296811935,-0.000184539720067,-0.000112056630314,3.70893467334e-05,9.56979347393e-05,0.000164683020557,0.460741272589,0.00346526467182,0.170954754193,0.0298672705629,0.932044865958,0.359146644757,0.0376032077734
-0.137428507209,-0.0427180230618,0.150407060981,-2.58670282364,-0.0484117344022,2.63529491425,-0.681185483932,0.0685835778713,0.000271618599072,0.000308490882162,-0.00032632634975,2.03039926419e-05,4.75040651509e-05,-2.27981818171e-05,-0.00019802179304,0.460741670172,0.00346551628808,0.170954377698,0.0298668852316,0.932045045374,0.359146200472,0.0376033101154
-0.137430384755,-0.0427172780037,0.150407627225,-2.58670210838,-0.0484134815633,2.63529419899,-0.681185603142,0.0685835778713,0.000120559248899,0.000206190365134,-6.44180181553e-05,0.00016654326464,-2.11081624002e-05,6.9352513492e-06,0.000187997953617,0.460741751456,0.0034648692341,0.170954241523,0.0298671878107,0.932045003501,0.359146337469,0.0376027992132
-0.137430816889,-0.0427181906998,0.150406807661,-2.58670020103,-0.0484129302204,2.63529491425,-0.681186556816,0.0685835778713,0.000616803416051,-0.000428217899753,-0.000416679918999,0.000431892141933,-3.7048725062e-05,-6.46557891741e-05,0.000304060406052,0.460742970012,0.00346432140768,0.170955483184,0.0298677394477,0.93204507011,0.359145945349,0.0376044551625
-0.137429699302,-0.0427183359861,0.150408104062,-2.58670163155,-0.0484124831855,2.63529491425,-0.681186020374,0.0685835778713,0.000440227682702,-0.000267914205324,0.000175143155502,7.05955098965e-05,-4.67814206786e-05,-9.10457674763e-05,8.14096529211e-06,0.46074229471,0.00346542159893,0.17095498503,0.0298673848424,0.932044827902,0.359146659599,0.0376039185158
-0.137429535389,-0.0427202172577,0.150407969952,-2.58670210838,-0.0484120994806,2.63529443741,-0.681186556816,0.0685835778713,1.38187469929e-05,0.000243688729824,-0.00012285487901,-0.000399171753088,-0.000145963247633,-0.000100088051113,0.000147276907228,0.46074208519,0.00346533309106,0.170955435925,0.0298675889937,0.932044736294,0.359146870836,0.0376040094739
-0.137428253889,-0.0427182391286,0.150410681963,-2.58670449257,-0.0484124012291,2.63529348373,-0.6811876297,0.0685901492834,0.000622403807938,-0.000654919946101,-8.90764840733e-06,9.95483060251e-05,-4.10567881772e-05,7.25459467503e-05,0.00023838414927,0.460740821828,0.00346724425212,0.170953864873,0.0298667236386,0.93204396758,0.359149135881,0.0376021169215
-0.137429073453,-0.0427187718451,0.150409847498,-2.5866997242,-0.0484129711986,2.63529491425,-0.681191444397,0.0685901492834,0.00316677009687,0.000591215095483,0.000541595218237,0.000178041023901,-4.9264923291e-05,-2.01549337362e-05,2.97101996694e-05,0.460743273358,0.00346649319708,0.1709559263,0.0298680314948,0.932043304522,0.359150456882,0.0376048959035
-0.137429475784,-0.0427181273699,0.150407984853,-2.58669948578,-0.0484119020402,2.63529491425,-0.681191384792,0.0685901492834,0.000465085176984,-0.00164074427448,-0.000110619461339,0.000103259430034,-3.29975882778e-05,-4.93229999847e-05,-0.000137537615956,0.46074339458,0.0034656392008,0.170956023417,0.0298677640232,0.932043822652,0.359149112495,0.0376051061227
-0.137430042028,-0.0427173152566,0.150408148766,-2.58670186996,-0.0484121069312,2.63529491425,-0.681191146374,0.0685901492834,0.000152887558215,6.42413651804e-05,8.32180812722e-05,0.000327284651576,2.42824407906e-05,-1.86018278328e-05,9.10477247089e-05,0.46074201655,0.00346531553178,0.17095442578,0.0298671066956,0.932044045763,0.359148775976,0.037603312304
-0.137432008982,-0.0427187681198,0.150407105684,-2.58669996262,-0.0484127625823,2.63529467583,-0.681192874908,0.0685901492834,-0.000155782036018,0.00127497897483,3.15625038638e-05,0.000408646999858,7.2760405601e-05,-0.000102783480543,-0.000399170996388,0.460743129977,0.00346389793948,0.170955813235,0.029867983463,0.932044111378,0.359148396926,0.0376046098273
-0.137430146337,-0.0427155792713,0.150408372283,-2.58669877052,-0.0484126061201,2.63529491425,-0.681196272373,0.0685901492834,6.01240608376e-05,-0.00402662297711,0.000196586275706,-0.000374079740141,0.000114768765343,7.13792032911e-05,0.000362927821698,0.460743229453,0.00346541972396,0.170954848076,0.0298674461963,0.932043000083,0.359151401517,0.0376038844641
-0.137429773808,-0.0427162982523,0.150409042835,-2.58670043945,-0.0484123006463,2.63529491425,-0.681196272373,0.0685901492834,-0.00021127834043,-0.00075851281872,3.45560765709e-05,0.000199767309823,-5.300866178e-05,-0.000143777157064,2.44001148531e-05,0.460742283476,0.00346593350874,0.170954148807,0.0298671168428,0.932042811392,0.359152015654,0.0376029573292
-0.13743005693,-0.0427185595036,0.15040782094,-2.5867023468,-0.0484133064747,2.63529491425,-0.68119674921,0.067592009902,0.000112265341158,0.000311601615977,0.000345401378581,0.000181891795364,-5.92562537349e-05,-0.000625793589279,-0.000125400125398,0.460741990176,0.00346509323525,0.170954808415,0.0298677265101,0.932042896752,0.35915169268,0.0376034421035
-0.137429401278,-0.0427192524076,0.150408044457,-2.58670067787,-0.0484125204384,2.63529634476,-0.681199491024,0.067592009902,0.000327334331814,0.000184003234608,0.000469333550427,-0.000144876918057,-3.14878452627e-05,2.92465865641e-05,0.000115113834909,0.460743199995,0.00346553978534,0.170955930023,0.0298682489083,0.93204228814,0.359153039879,0.0376052450664
-0.137429744005,-0.0427196063101,0.150408044457,-2.58670163155,-0.0484111309052,2.6352956295,-0.681202292442,0.067592009902,0.000148560866364,0.000500702648424,0.000384184502764,-0.000430901214713,2.01877683139e-05,0.000298991624732,-7.00416712789e-05,0.460742646947,0.00346539576372,0.170955639768,0.0298677750403,0.932042093379,0.359153643021,0.0376046881809
-0.137425884604,-0.0427156314254,0.150410503149,-2.58670306206,-0.0484122335911,2.63529586792,-0.681206166744,0.067592009902,0.000262009911239,0.000170654486283,-1.5307963622e-05,-7.86879609223e-05,-0.000100151293736,0.00115051004104,3.04771074298e-05,0.460741300576,0.00346814839381,0.170953264749,0.0298668374125,0.932040267958,0.359158719067,0.0376021958199
-0.13742634654,-0.0427145771682,0.150409534574,-2.58669829369,-0.048410795629,2.63529610634,-0.681206882,0.067592009902,0.000149568164488,-0.000740466755815,-0.000204413547181,-7.68325044191e-05,7.17450457159e-05,9.82508354355e-05,0.000112000932859,0.460743293908,0.00346784133637,0.170954505176,0.0298670392051,0.932040446612,0.359158041907,0.0376040751351
-0.137430429459,-0.0427163429558,0.150406658649,-2.58669877052,-0.0484121851623,2.63529586792,-0.681208014488,0.067592009902,5.53002064407e-05,0.000803276139777,-0.000409961474361,-0.000280698295683,8.66752161528e-05,2.79949813375e-06,7.82930728747e-05,0.460743559926,0.00346452156346,0.170955303019,0.0298679000368,0.932041278034,0.359155766054,0.0376045207687
-0.137430757284,-0.0427124798298,0.150407731533,-2.58670544624,-0.04841215536,2.63529491425,-0.681209027767,0.067592009902,0.000357361888746,-0.000162791737239,0.000153861663421,0.000698869116604,-0.000121256809507,8.53424353409e-05,0.000204172058147,0.460739523896,0.00346487165318,0.170950821771,0.0298656791582,0.932041201201,0.359156702978,0.0375992401848
-0.137427330017,-0.0427138470113,0.150409221649,-2.58670306206,-0.0484112538397,2.63529610634,-0.681212544441,0.067592009902,-0.000159444811288,-0.00254232343286,-0.000374941242626,0.00042742563528,3.83130864066e-05,-0.000181645955308,0.00014551867207,0.460741120761,0.00346716066252,0.17095250163,0.0298663857127,0.932039723588,0.359160231123,0.0376016053299
-0.137427464128,-0.0427163615823,0.150408968329,-2.58670330048,-0.0484110154212,2.63529610634,-0.681213438511,0.067592009902,-0.000168834885699,4.13394482166e-05,-0.000162057782291,-4.72044121125e-06,5.92841897742e-05,-0.000466517492896,-8.86783309397e-05,0.460741410888,0.00346693306441,0.170953555187,0.0298669127151,0.932039622847,0.359160344905,0.0376025969866
-0.137428358197,-0.0427152961493,0.150408089161,-2.58669710159,-0.0484116822481,2.63529634476,-0.681215822697,0.067592009902,2.39287237491e-05,-0.0022837605793,-2.26632091653e-05,8.09844277683e-05,8.34928359836e-05,0.000111594730697,0.000108023159555,0.4607442807,0.0034661840072,0.170955525995,0.029867993451,0.932039302625,0.359160830605,0.0376050365367
-0.137431278825,-0.0427089855075,0.150407880545,-2.58670592308,-0.0484100542963,2.63529539108,-0.681215524673,0.067592009902,-0.0002458030649,0.000649244757369,0.000144046702189,-9.82997676147e-07,4.93354600621e-05,2.94023939205e-05,0.00044335264829,0.460738831435,0.00346484070101,0.170949090547,0.0298644384916,0.93204050126,0.359158773676,0.0375977964867
-0.137431487441,-0.0427101738751,0.150406822562,-2.58670496941,-0.0484105609357,2.63529515266,-0.68121778965,0.067592009902,-0.000160875890288,-0.000303230510326,-0.000343742227415,0.000611167226452,-3.29074573528e-05,8.42155131977e-05,0.000158173119416,0.460739437265,0.00346422843093,0.170949983785,0.0298650261553,0.932040205165,0.359159412956,0.0375985629893
-0.137429922819,-0.0427123233676,0.150408402085,-2.58669924736,-0.0484105013311,2.63529586792,-0.68121689558,0.0622296743095,0.000166872021509,-7.74918444222e-05,0.000149641840835,-0.000316993886372,-0.000108902080683,-6.77636344335e-05,-7.05604688847e-05,0.460742673217,0.00346567982248,0.170953277026,0.0298665872808,0.932039635244,0.359160342471,0.0376025714454
-0.137429624796,-0.0427100472152,0.150408118963,-2.58670186996,-0.0484120436013,2.63529539108,-0.681220173836,0.0622296743095,0.000155934918439,0.000603207736276,-0.00038556943764,0.000247340823989,1.49814559336e-06,0.000144406760228,-3.66236890841e-05,0.460740948477,0.00346566446975,0.17095116329,0.0298659454886,0.932038912227,0.359162547517,0.0375999407063
-0.137426957488,-0.0427091605961,0.150408282876,-2.58670520782,-0.048412129283,2.63529515266,-0.681221604347,0.0622296743095,0.000175392779056,0.000147257640492,-8.2757731434e-05,-5.38688400411e-05,0.00010050254059,-0.000282878812868,-0.000373498885892,0.46073914017,0.003466952412,0.170949425824,0.0298651133566,0.932038223379,0.359164619145,0.0375978883021
-0.137426152825,-0.0427112095058,0.150407925248,-2.5867023468,-0.0484131164849,2.63530611992,-0.681224524975,0.0622296743095,0.000179810449481,-0.000413699541241,-5.24477800354e-05,0.000524603005033,-0.000454873283161,0.00178813003004,-1.49973093357e-05,0.460743146093,0.00346727293172,0.17095265896,0.0298680770595,0.932037101623,0.359166516683,0.0376052144017
-0.137429729104,-0.0427173748612,0.150407373905,-2.58667612076,-0.0484082885087,2.63530302048,-0.68122446537,0.0578910782933,-0.00107691145968,-0.000386223109672,-0.000298762577586,-0.000469538063044,-9.81096745818e-05,-0.000251682009548,0.000270106102107,0.460756112607,0.00346556139506,0.170965406038,0.029872513786,0.932038040158,0.359162259288,0.0376190883345
-0.137430682778,-0.0427135638893,0.150408297777,-2.58669066429,-0.0484102368355,2.63530135155,-0.681224882603,0.0578910782933,0.000127025166876,0.000221469672397,0.00015718411305,-0.00169446412474,-0.000138110102853,0.00104991556145,-0.000156493551913,0.460748155086,0.00346541779788,0.17095779253,0.0298693194752,0.932038070782,0.359163435929,0.037609631006
-0.137428835034,-0.042711339891,0.150408029556,-2.58668112755,-0.0484095290303,2.63530302048,-0.681225597858,0.0578910782933,-0.000307604379486,0.000652308284771,-0.000256284401985,-0.00066803797381,0.000113418675028,-0.00035348063102,0.000136296599521,0.460752730704,0.00346632494005,0.170960692837,0.0298704970845,0.932037587303,0.359164135473,0.0376139964948
-0.137432947755,-0.0427123233676,0.150407001376,-2.58669376373,-0.0484109260142,2.63530302048,-0.681226372719,0.0578910782933,-0.000536630745046,-0.000802522758022,-0.000409263040638,0.00023143333965,5.13799277542e-05,-0.000432810978964,-2.89777131002e-06,0.460746829188,0.00346379139638,0.170956196408,0.0298689798375,0.932038381864,0.359162795487,0.0376083075735
-0.137428388,-0.0427123568952,0.150408282876,-2.58668994904,-0.0484113879502,2.63530373573,-0.681226730347,0.0578910782933,2.18032291741e-05,-0.000520206231158,0.000557836494409,0.000707800965756,-2.29116667469e-05,0.000238711829297,0.000492292980198,0.460748799406,0.00346650285339,0.170957779303,0.029869794607,0.932037102455,0.359165820662,0.0376104768661
-0.137431532145,-0.0427138097584,0.150407463312,-2.58668589592,-0.0484112650156,2.63531422615,-0.681231379509,0.0578910782933,-6.80651355651e-05,0.000547602190636,-0.000299705396174,-0.000389030843507,-0.00086163362721,0.0019444526406,-1.33670537252e-05,0.460753197207,0.00346484343644,0.170961156763,0.0298725804495,0.93203663688,0.359166021339,0.037617884727
-0.137434437871,-0.042721670121,0.150404646993,-2.58667635918,-0.0484117604792,2.6353123188,-0.681232094765,0.0578910782933,-3.29071008309e-05,0.00184825225733,-1.23907084344e-05,0.00159213494044,-0.00030889743357,0.00137678731699,6.16952456767e-05,0.460758670969,0.00346209326243,0.170968279724,0.0298760319146,0.932037154021,0.359163671066,0.0376247699313
-0.137430176139,-0.0427350476384,0.150406241417,-2.58657097816,-0.0484110526741,2.6352994442,-0.681236803532,0.0578910782933,-0.000100803830719,-4.65230186819e-05,-0.000237025145907,0.00199324870482,-1.1319011719e-05,0.000178408517968,-0.00026466572308,0.460808799286,0.00346522958349,0.171014270736,0.0298953963171,0.932033315362,0.359166869011,0.0376739196827
-0.137431770563,-0.0427152961493,0.150405794382,-2.58655309677,-0.048411257565,2.63529706001,-0.681240797043,0.052806507796,-6.94792252034e-05,0.000189408252481,-0.000193921849132,0.000676086114254,1.23370791698e-05,0.000268949894235,-0.000344233587384,0.460813741085,0.00346484467695,0.171012014509,0.029893512235,0.932033045219,0.359167883442,0.0376724267274
-0.137434303761,-0.0427211821079,0.150406345725,-2.58653998375,-0.0484114401042,2.63529777527,-0.681243479252,0.052806507796,-6.03269363637e-05,0.000641856109723,0.000340521422913,0.000425895821536,-0.000262833549641,0.000262568210019,-0.00037415092811,0.460820737749,0.00346391726256,0.171019902496,0.0298971917249,0.932032815969,0.359167250242,0.0376812144393
-0.137434497476,-0.0427221879363,0.150407612324,-2.58654165268,-0.0484108813107,2.63529658318,-0.681245207787,0.052806507796,0.000155329049448,0.000279964355286,-3.82408979931e-05,-0.000545557471924,-0.000207580931601,-0.000179295690032,0.000289881281788,0.460820253833,0.00346436299135,0.171019583457,0.0298971312139,0.932032116979,0.359169143381,0.0376805067949
-0.137431740761,-0.0427191853523,0.150406822562,-2.58654713631,-0.0484103262424,2.63529658318,-0.681248128414,0.052806507796,0.000100592660601,-0.000187077559531,0.00382361584343,-0.000819388602395,-0.000201482340344,0.00541853997856,-0.000315152457915,0.460817126819,0.00346531035321,0.171016067857,0.0298953203571,0.932031497363,0.359171304606,0.0376766688606
-0.137431904674,-0.0427210889757,0.150406137109,-2.58654427528,-0.048410627991,2.63529658318,-0.681251108646,0.052806507796,1.72791842488e-05,0.000886847556103,0.000926741515286,6.811030471e-05,-0.000118744123029,-3.74593546439e-05,-0.000636137090623,0.460818812834,0.00346489773186,0.171018058909,0.0298964106483,0.932030971526,0.359172358572,0.0376787641582
-0.137432694435,-0.042718667537,0.150406643748,-2.58654618263,-0.0484115444124,2.6352956295,-0.681251168251,0.052806507796,-4.74647786177e-05,0.00124276056886,0.000137252995046,-0.000257957377471,-6.80399025441e-05,-2.14204846998e-05,0.000298247439787,0.46081730856,0.00346475997294,0.17101610469,0.0298955897477,0.932030978501,0.359172670572,0.0376762687496
-0.137436658144,-0.0427169837058,0.150403961539,-2.58654594421,-0.0484110787511,2.63529610634,-0.681253254414,0.052806507796,3.55503216269e-05,-0.000163842909387,-0.00162245717365,0.000185111784958,-0.000156453927048,-1.91067701962e-05,-0.000420458702138,0.46081739101,0.00346175180747,0.171015576031,0.0298953993426,0.932031880874,0.359170384208,0.0376758931478
-0.137429714203,-0.0427188910544,0.150406658649,-2.58654403687,-0.0484108775854,2.63529586792,-0.681252360344,0.052806507796,0.000683924590703,0.000294601166388,-0.00330480816774,-0.000527039170265,-0.00013413693523,-1.66535501194e-05,-0.000102299934952,0.460818415381,0.00346617672092,0.171017072067,0.0298958544001,0.932030278339,0.359174328915,0.0376775700196
-0.137440040708,-0.0427182093263,0.15040063858,-2.58654379845,-0.0484113767743,2.63529610634,-0.681256234646,0.0509369783103,-0.000293485471047,0.00094660121249,-0.00109445338603,0.000577163300477,-2.96134840028e-05,9.69332759269e-05,-0.000506817596033,0.46081877539,0.00345824185725,0.171016993491,0.0298961803453,0.932032612817,0.359168257474,0.037677440922
-0.137457787991,-0.042738545686,0.150388553739,-2.58650803566,-0.0484126992524,2.63529253006,-0.681260406971,0.0509369783103,-0.000266368413577,-0.000243446338573,-0.00037527049426,0.000797413056716,-9.49322493398e-05,0.000162114592968,4.61705749331e-05,0.460838369105,0.00344480183535,0.17103983318,0.0299074701262,0.932035807116,0.359156592597,0.0377006520292
-0.137456893921,-0.0427373051643,0.150387048721,-2.58647751808,-0.048412900418,2.63529372215,-0.681258320808,0.0509369783103,4.24078061769e-05,-0.000345038570231,0.000329007016262,-2.54146798397e-05,-5.39794418728e-05,-0.000253383477684,0.000139747615322,0.460853105859,0.00344483482694,0.171051355652,0.0299126416166,0.932035652896,0.359155056837,0.0377149895428
-0.137454271317,-0.0427388362586,0.150386705995,-2.58645248413,-0.048413105309,2.63529205322,-0.681260287762,0.0509369783103,0.000341809936799,0.000126141356304,-8.14472950879e-05,0.00097410735907,-7.83469440648e-05,3.25507353409e-05,-0.000171522115124,0.460865037816,0.00344604042989,0.171061683751,0.0299171358067,0.932034370571,0.359156792823,0.0377265809977
-0.13745161891,-0.0427385009825,0.15038689971,-2.58645343781,-0.04841273278,2.6352930069,-0.681261122227,0.0509369783103,0.000617091252934,0.000250958779361,0.000310969568091,-6.95766584613e-06,-5.07182739966e-05,0.000125964885228,-0.00022567230917,0.460864714645,0.00344737477073,0.171061258653,0.0299169098773,0.9320337709,0.359158376155,0.0377265016691
-0.137452095747,-0.0427374541759,0.150386691093,-2.58645415306,-0.0484120771289,2.63529229164,-0.681261956692,0.0509369783103,-9.98957184493e-05,0.00288260774687,0.0004629943287,-0.000140495307278,8.83996326593e-05,-4.27189625043e-05,-0.004728294909,0.460864263235,0.00344705725977,0.171060668682,0.0299164316815,0.932033915516,0.359158119509,0.0377257514006
-0.137453585863,-0.0427359491587,0.150387704372,-2.58644604683,-0.0484133400023,2.63529062271,-0.681261003017,0.0509369783103,0.000392241840018,0.00047013128642,0.000199951406103,-4.0360064304e-05,-7.24993806216e-05,-1.85349072126e-05,-0.000330167909851,0.460867333951,0.00344714610225,0.171062649372,0.029917331195,0.932033765553,0.359158242979,0.0377275674995
-0.137454524636,-0.0427314415574,0.150386944413,-2.58644914627,-0.048411782831,2.63529014587,-0.681261658669,0.0509369783103,0.000328913563862,-7.1777481935e-05,9.8721779068e-05,-0.000233414815739,1.50582491187e-05,-0.000106594219687,-0.000131471868372,0.46086505524,0.00344623538225,0.171059412461,0.0299153376308,0.93203446759,0.359156951492,0.0377240994397
-0.137453198433,-0.0427311472595,0.150385677814,-2.58645319939,-0.0484116151929,2.63528895378,-0.681261122227,0.0509369783103,0.000380528625101,-6.00472158112e-05,3.73239636247e-05,-0.000359995319741,-4.74771550216e-05,-9.26470529521e-05,-0.000230623714742,0.460862642276,0.00344639160369,0.171057444506,0.0299142514579,0.932034630063,0.359156913379,0.037721309365
-0.137453719974,-0.0427340641618,0.150386542082,-2.58646035194,-0.0484129153192,2.63528680801,-0.681266188622,0.0484974607825,-1.55045636347e-05,0.000364499981515,-0.000287674221909,0.000135424299515,1.12295047074e-05,7.84935691627e-05,0.000253887148574,0.46085938588,0.00344618630045,0.171055862324,0.0299138636174,0.932033652313,0.359159803822,0.0377182544994
-0.137452125549,-0.0427450872958,0.150387153029,-2.58642339706,-0.0484130680561,2.63529229164,-0.681265056133,0.0484974607825,0.000445625599241,-0.000212668208405,-0.000327995716361,0.000555558712222,5.51531520614e-05,1.54788667714e-05,-0.000242662310484,0.460880074154,0.00344735008629,0.171075955001,0.0299237697553,0.93203234235,0.359159776821,0.0377430154685
-0.137450158596,-0.0427429489791,0.150388404727,-2.58641910553,-0.0484142415226,2.63529229164,-0.681264042854,0.0484974607825,0.000118096300866,0.00229121255688,0.00042896537343,0.00023340905318,6.11597279203e-05,1.14206877697e-05,-0.000362141232472,0.46088117801,0.00344835777008,0.171076084497,0.029924002728,0.93203195769,0.359160719718,0.0377433570583
-0.137452691793,-0.0427427142859,0.150391787291,-2.58640813828,-0.0484120324254,2.63529229164,-0.681264996529,0.0484974607825,-0.000233644183027,-8.95138146007e-05,0.00145483552478,0.000979178003035,3.93792906834e-05,-1.80876133982e-06,0.00297964620404,0.460887014013,0.00344940638456,0.171080837047,0.0299255961557,0.932031530028,0.359161079551,0.0377492297934
-0.13745264709,-0.042741663754,0.15039537847,-2.58640146255,-0.0484125353396,2.63529205322,-0.681265234947,0.0482328236103,-0.000171702224179,0.000134355810587,-0.000508773780894,-0.000716417038348,0.000110619672341,8.3183957031e-05,-0.000259732274571,0.460889991801,0.00345111899434,0.171082938239,0.0299265907131,0.932030649218,0.359163017121,0.0377517536435
-0.137454718351,-0.0427457392216,0.150410071015,-2.58640384674,-0.0484124086797,2.63529086113,-0.681265771389,0.0482328236103,-0.00017448431754,0.000810333294794,0.00306222611107,0.000470236409456,-1.90553837456e-05,5.5428732594e-05,0.000270908960374,0.460889190892,0.00345670419584,0.171083692902,0.029926994004,0.932028292356,0.35916908503,0.0377518916347
-0.13745585084,-0.0427444726229,0.150426730514,-2.58640313148,-0.048413477838,2.63529086113,-0.681265771389,0.0482328236103,-0.00066217139829,0.000704132835381,0.00349752046168,-6.87604988343e-05,7.21831456758e-05,-5.54424404982e-05,5.06120850332e-05,0.460889511176,0.00346314893282,0.171083806242,0.0299273757321,0.93202551189,0.359176249304,0.0377520726303
-0.137461721897,-0.0427440963686,0.150465905666,-2.5864007473,-0.0484130755067,2.63529157639,-0.681265830994,0.0482328236103,-0.00160292082001,0.000542274210602,0.000382013327908,0.000504755007569,-0.000115236696729,-5.57647126698e-06,-0.000289080780931,0.460890474381,0.00347978075674,0.171083991842,0.0299275044027,0.932018894986,0.359193308571,0.0377530214959
-0.137473121285,-0.0427426286042,0.150568425655,-2.58639931679,-0.0484141111374,2.63529157639,-0.681267738342,0.0482328236103,-0.000411363696912,-0.00111674587242,0.0034791873768,5.61402448511e-05,-4.01940133088e-06,7.18322553439e-05,-0.00018815837393,0.460890385929,0.00352012386972,0.171083676863,0.0299279133131,0.932002437057,0.359235949669,0.03775327106
-0.137472480536,-0.0427443981171,0.150833234191,-2.58638858795,-0.0484148226678,2.63529348373,-0.681269645691,0.0482328236103,-6.70464869472e-05,-9.59369062912e-05,0.0115928445011,0.000338180077961,-1.4908175217e-05,-1.23244117276e-05,-0.000317367375828,0.460895031321,0.0036406038862,0.171088138199,0.02993064474,0.931953904498,0.359360785427,0.037761117289
-0.13748036325,-0.042743165046,0.1514647156,-2.58637833595,-0.0484129711986,2.63529658318,-0.681271016598,0.0482328236103,-0.000108971136797,0.00102288415655,0.0205966383219,0.000334578071488,3.94878443331e-05,0.000149120212882,-0.000162134689162,0.460897457141,0.00392364470136,0.171090118241,0.029932193933,0.931841376177,0.359651436724,0.0377697916102
-0.137474998832,-0.0427434034646,0.151817157865,-2.58636975288,-0.0484130755067,2.63529777527,-0.681269884109,0.0482328236103,0.000174274216988,-0.000212925471715,0.0256207287312,-0.000292373762932,-0.000116891802463,1.31249216793e-05,0.000263755588094,0.460900108449,0.00408608281162,0.171092707083,0.0299337531629,0.931776875453,0.359817708657,0.0377761964092
-0.137459129095,-0.0427463725209,0.152775719762,-2.58633303642,-0.0484133698046,2.63529849052,-0.681272149086,0.0482328236103,0.000535707455128,0.000146330203279,0.0300926566124,0.000549947435502,0.000111788664071,-0.000103908372694,0.000232137812418,0.4609168681,0.00462194011991,0.171107853402,0.0299413947025,0.931562543605,0.360368692103,0.0378040430599
-0.137455955148,-0.0427408404648,0.1533934623,-2.5862891674,-0.048412784934,2.63529610634,-0.681273341179,0.0481093712151,-0.000252680911217,0.000215454318095,0.0260661877692,0.00148322980385,-5.27369593328e-06,-6.16734687355e-05,-0.000355727010174,0.460929525459,0.0048107643379,0.171118384793,0.0299461010672,0.931486913868,0.360562117747,0.0378195617945
-0.137438222766,-0.0427380613983,0.15386338532,-2.58626818657,-0.0484128519893,2.63529515266,-0.681274235249,0.0481093712151,0.000331360206474,0.000438736286014,0.0249129440635,0.000447682716185,8.46379625727e-05,-0.000143347380799,-8.8265791419e-05,0.460936128356,0.0050323840243,0.171123871115,0.0299484902553,0.931398295232,0.360789667347,0.0378301359983
-0.137419179082,-0.0427388250828,0.154928833246,-2.58626055717,-0.0484129935503,2.63529062271,-0.681274592876,0.0481093712151,-0.000304816756397,0.000657364435028,0.0177431516349,0.00133354612626,0.000108799955342,-0.000117223098641,-0.000123746576719,0.460932242297,0.00552450528511,0.171123610186,0.0299487151931,0.931201994926,0.361295275448,0.0378370549582
-0.137422516942,-0.0427349619567,0.155136555433,-2.58623790741,-0.0484137646854,2.63528847694,-0.681275010109,0.0481093712151,-0.000178545233211,0.00101987610105,0.00822798162699,0.00192242930643,-7.34191416996e-05,-0.000250565091847,0.000425828766311,0.460940733859,0.00561748140765,0.171129886013,0.0299515620819,0.93116447956,0.361390801398,0.0378457961205
-0.137429133058,-0.0427191592753,0.155291587114,-2.58616924286,-0.0484137460589,2.63527965546,-0.681275069714,0.0481093712151,0.00064723030664,0.00203541433439,0.00479204999283,0.00865498837084,9.81995326583e-05,-0.000613960262854,-0.000683858990669,0.460977826861,0.00569574074964,0.171154309601,0.0299605206817,0.931132439053,0.361469579642,0.0378746725685
-0.137419864535,-0.0426937267184,0.155397579074,-2.58600664139,-0.0484109930694,2.63525414467,-0.681275367737,0.0481093712151,0.000876437290572,0.00165659945924,0.00494500622153,0.0108245732263,9.17669058254e-06,-0.00316709955223,-0.000295241246931,0.461036402175,0.00574015875769,0.171197268669,0.0299753524137,0.931114199142,0.361510436883,0.0379213675053
-0.137419775128,-0.0426761135459,0.155625805259,-2.5851521492,-0.0484111867845,2.6339097023,-0.681274950504,0.0481093712151,-0.0030527333729,0.000347937340848,0.000743521435652,0.029698703438,-0.000149665531353,-0.0460531972349,-0.00420929212123,0.46116108616,0.0058325019548,0.171379225674,0.0299128586942,0.931088729751,0.361606847602,0.0376760622485
-0.137424558401,-0.0426760725677,0.155695810914,-2.58448648453,-0.0484119951725,2.63309788704,-0.681274294853,0.0481093712151,-0.000271880591754,-0.000323111074977,0.00531374663115,0.0436057858169,-5.55877668376e-05,-0.045433819294,-0.000203101997613,0.461310379665,0.0058567154664,0.171552956106,0.0299037582528,0.931083275702,0.361629320396,0.0376023039822
-0.13742145896,-0.0426915735006,0.155746266246,-2.58361029625,-0.0484118573368,2.63220047951,-0.681275248528,0.0481093712151,-0.000125474340166,-0.0019376904238,0.00141760276165,0.0615264587104,8.98120051716e-05,-0.0629179626703,0.0038869343698,0.461545284469,0.00587641991,0.171807394469,0.0299212608076,0.931077381218,0.361643972502,0.0375934192889
-0.1374219805,-0.0430697388947,0.155858293176,-2.57945919037,-0.0484135746956,2.62794876099,-0.681275308132,0.0481093712151,7.99154222477e-05,-0.0158453471959,0.00611327355728,0.110229164362,-0.000152247972437,-0.116203524172,-0.000175306719029,0.462704314799,0.00589848650139,0.173155545695,0.0300788760169,0.931069424597,0.36164202149,0.0376833620378
-0.137424126267,-0.0434656143188,0.155918866396,-2.5774679184,-0.0484137311578,2.6257174015,-0.681275427341,0.04882119596,-8.59159554238e-05,-0.0292033962905,0.00609387597069,0.127862751484,8.22248766781e-05,-0.153070792556,-0.000157082540682,0.463286356764,0.00590343775288,0.173930769581,0.0301839817867,0.931064875418,0.3616399666,0.0377314093004
-0.137420877814,-0.0441788099706,0.155972391367,-2.57492399216,-0.0484141819179,2.62257313728,-0.681274414062,0.04882119596,0.000122725017718,-0.0448232553899,0.00325995218009,0.155130133033,1.48465160237e-05,-0.194134280086,9.51439287746e-05,0.46391989024,0.00589331873524,0.174875555077,0.0303079314143,0.931065659008,0.361626877334,0.0377381661311
-0.137426108122,-0.0478554815054,0.156162902713,-2.56581568718,-0.0484123006463,2.60985183716,-0.681273877621,0.04882119596,0.000306358357193,-0.110674902797,0.00209857150912,0.215843766928,0.00033156882273,-0.329826027155,-3.61118472938e-05,0.466151836891,0.00580246327917,0.178815963873,0.0308243562478,0.931084048553,0.361553836688,0.0375656286025
-0.137420073152,-0.0501975417137,0.156233996153,-2.56112742424,-0.0484136641026,2.60287666321,-0.681272387505,0.04882119596,-0.000628867011983,-0.12744820118,0.00855904072523,0.248070001602,0.000687563209794,-0.370003730059,7.97618486104e-05,0.467201133965,0.00573565841287,0.180901921629,0.0311167558495,0.931097702848,0.361503156992,0.0374737565017
-0.137427166104,-0.0524191223085,0.156338840723,-2.55725598335,-0.0484167449176,2.59681272507,-0.681271851063,0.0495198890567,-0.000210036960198,-0.166636735201,0.00743846641853,0.267039388418,3.01240470435e-05,-0.431119561195,-7.54739230615e-05,0.468143176019,0.00568043843731,0.182951186492,0.0314134347976,0.931105229722,0.361468665588,0.0373717912578
-0.137276083231,-0.0657368823886,0.157010361552,-2.53528618813,-0.0484166294336,2.56045556068,-0.681246161461,0.0495198890567,0.00606541894376,-0.249900013208,0.0177128370851,0.391317456961,-0.00104196858592,-0.664289414883,0.00052416860126,0.472628752069,0.00548484592132,0.194177032888,0.0328624065098,0.931142487099,0.361362381227,0.0362071826652
-0.137144953012,-0.0704600811005,0.157308056951,-2.52773666382,-0.0484171621501,2.54792451859,-0.681228876114,0.0495198890567,0.00950313638896,-0.264546871185,0.0181216280907,0.429052710533,0.000104503858893,-0.719472944736,0.000124019396026,0.474092348917,0.00549122776753,0.198158318804,0.0333877714424,0.931130911633,0.361379122592,0.0358554257871
-0.136964768171,-0.0757204592228,0.157736212015,-2.51903772354,-0.0484156236053,2.53348231316,-0.681197345257,0.0495198890567,0.00265161064453,-0.295945972204,0.0270689204335,0.497521191835,0.000545529590454,-0.781337797642,0.00343933398835,0.475695335045,0.00556128236573,0.202696242261,0.0339475804006,0.931104722746,0.361442238119,0.0353704008006
-0.136503994465,-0.0851513370872,0.158670097589,-2.50349617004,-0.0484166406095,2.50864648819,-0.680926084518,0.0495231747627,0.0240697283298,-0.314143925905,0.03960294649,0.544811844826,0.00032365162042,-0.864322781563,0.0102798892185,0.478610217361,0.00586363631671,0.211015454865,0.0351001089182,0.931020522193,0.361586624104,0.0349840329748
-0.135961532593,-0.0909864678979,0.159320876002,-2.49336576462,-0.0484133735299,2.49262714386,-0.680641710758,0.0495231747627,0.0365197584033,-0.350494742393,0.0397267006338,0.593373179436,0.000789325567894,-0.909291446209,0.0173099320382,0.480400002154,0.00621719937989,0.216370486125,0.0357948997498,0.930939096795,0.361757062952,0.0346835739165
-0.135462850332,-0.0955043435097,0.15987958014,-2.48545503616,-0.0484168045223,2.48063254356,-0.680403709412,0.0495231747627,0.0395248048007,-0.344177752733,0.0462193191051,0.618919372559,-0.00259933364578,-0.929627358913,0.0189201198518,0.481842729135,0.00656958463673,0.220621045412,0.0364078588324,0.930844226237,0.361940494717,0.0346781237124
-0.134534984827,-0.102786123753,0.161025047302,-2.47207474709,-0.0484114587307,2.46048069,-0.679907023907,0.0495231747627,0.0523698367178,-0.346180737019,0.0603868849576,0.653424263,0.000706543796696,-0.98228007555,0.0293994899839,0.484155690843,0.00732446251995,0.227714272361,0.0373771774532,0.930656973695,0.362332324783,0.0345807752981
-0.130894392729,-0.11999976635,0.164383172989,-2.43817949295,-0.048392213881,2.41231989861,-0.677171826363,0.0495231747627,0.0936348736286,-0.374797791243,0.0841405242682,0.767555117607,0.000959821394645,-1.02134120464,0.0850407704711,0.489853243774,0.0102427281963,0.245720269766,0.0399397742528,0.93009744327,0.363431717331,0.0352270773381
-0.129714339972,-0.124347545207,0.165483891964,-2.42905330658,-0.0483610704541,2.39998960495,-0.676115810871,0.0495231747627,0.102504193783,-0.359425008297,0.0915222838521,0.763733148575,0.00682981824502,-1.03213882446,0.0940483361483,0.491338046931,0.0112621828848,0.250569538108,0.0406458233366,0.929927744909,0.363751908851,0.035592903574
-0.127303108573,-0.132008045912,0.167786762118,-2.41194939613,-0.0479267388582,2.37716794014,-0.673514246941,0.0495231747627,0.118209697306,-0.362118273973,0.119494594634,0.830860197544,0.0208713319153,-1.03346407413,0.130349427462,0.493708023197,0.0132371122833,0.258672168232,0.0416451579805,0.92972216784,0.364107982849,0.0361627979224
-0.124793432653,-0.138853669167,0.170441120863,-2.39593315125,-0.0474276319146,2.35662698746,-0.670293450356,0.0495231747627,0.130728080869,-0.328746587038,0.1499453336,0.781237363815,0.0327336937189,-1.02334678173,0.185132279992,0.496357104114,0.0159504461481,0.267916661515,0.0428114680662,0.929484831571,0.36447631505,0.0371771641371
-0.120651096106,-0.148644015193,0.175560563803,-2.37152528763,-0.0460994206369,2.32664728165,-0.66357666254,0.0495231747627,0.154911190271,-0.304854929447,0.192143648863,0.786635518074,0.0660546943545,-0.998886346817,0.24733529985,0.49983566275,0.020595864108,0.280663158755,0.044241886142,0.929283096544,0.364626001418,0.0390315354838
-0.11791138351,-0.153501331806,0.178700715303,-2.35851168633,-0.0450490862131,2.31085038185,-0.659272909164,0.0495231747627,0.187136352062,-0.291528880596,0.20276735723,0.816952943802,0.0669831261039,-0.958919763565,0.288718819618,0.501728843581,0.0240373952554,0.288224821067,0.0448833532972,0.929160558648,0.364732985835,0.0401993728488
-0.11375002563,-0.1594851017,0.183020815253,-2.34129953384,-0.0434439554811,2.29118967056,-0.652907788754,0.0495231747627,0.209854364395,-0.271303415298,0.207136526704,0.781317830086,0.0894244685769,-0.924681484699,0.319124549627,0.503711720249,0.0280924815272,0.296187156182,0.0454966311476,0.92902739259,0.364818402871,0.0417814909164
-0.110217869282,-0.163834422827,0.1864785254,-2.32852125168,-0.0416787229478,2.27713251114,-0.647653996944,0.0495231747627,0.224897637963,-0.252923697233,0.233387991786,0.831112504005,0.123326204717,-0.852459967136,0.338422745466,0.505282320059,0.0318748835469,0.302790509308,0.0458176333169,0.928935074195,0.364824541924,0.0433984527568
-0.102661579847,-0.171146601439,0.194406613708,-2.30470538139,-0.0370181240141,2.25229072571,-0.636312603951,0.0495231747627,0.268538951874,-0.233351960778,0.267736941576,0.775090456009,0.165522664785,-0.752885222435,0.399537116289,0.507995924845,0.0404580829059,0.314907474551,0.0458294695718,0.928713341693,0.364952089319,0.0469165308404
-0.0986733734608,-0.174378797412,0.198499068618,-2.29374408722,-0.0345659404993,2.24138498306,-0.630116581917,0.0495231747627,0.270229488611,-0.196718886495,0.286561727524,0.702194094658,0.168845400214,-0.712115764618,0.433333575726,0.509070218672,0.044684279401,0.320148190944,0.0457146578663,0.928627833899,0.364952949488,0.0486812130875
-0.093369372189,-0.177863553166,0.204424858093,-2.28064155579,-0.0310849063098,2.22867679596,-0.621429085732,0.0495231747627,0.295269936323,-0.179732978344,0.333651900291,0.69350284338,0.190874040127,-0.627745509148,0.476851612329,0.510322252065,0.0513342581029,0.327038429046,0.0452413716905,0.928510554855,0.364978300503,0.0511097608738
-0.0882340893149,-0.180715441704,0.210087493062,-2.26951599121,-0.0277389287949,2.21858549118,-0.613129556179,0.0495231747627,0.306824207306,-0.154378667474,0.328856796026,0.621740400791,0.206685751677,-0.564188838005,0.497846513987,0.511252139739,0.0574725561748,0.33261912128,0.0447059757077,0.928361808348,0.365090767477,0.0534271440794
-0.0817376300693,-0.183680951595,0.216891005635,-2.25778412819,-0.0234663411975,2.20817565918,-0.603044807911,0.0495231747627,0.340724885464,-0.144106209278,0.361531794071,0.569685995579,0.220186948776,-0.474703371525,0.516886472702,0.511984650396,0.0650667946509,0.338504568355,0.0437791698876,0.928157812371,0.365325387345,0.0560697838687
-0.0710758343339,-0.187266126275,0.228279009461,-2.24166703224,-0.0166944321245,2.19506835938,-0.586325109005,0.0495258010924,0.35687020421,-0.094244338572,0.393068045378,0.460803806782,0.203822299838,-0.377880215645,0.562570154667,0.512616475438,0.0776691632137,0.346455374816,0.0420145532616,0.927746337398,0.365923959831,0.0601761253745
-0.0653176829219,-0.188671410084,0.234852597117,-2.23477268219,-0.013336295262,2.18936467171,-0.576910614967,0.0495258010924,0.354294329882,-0.0806271806359,0.414034575224,0.405606240034,0.211549192667,-0.338744878769,0.607501506805,0.51247986129,0.0846238631558,0.349745489605,0.0409642369342,0.927496764173,0.366389657539,0.0618894358809
-0.0579984262586,-0.189967617393,0.243298307061,-2.22693276405,-0.00944689847529,2.18341803551,-0.564742803574,0.0495258010924,0.379926294088,-0.046801969409,0.432104438543,0.359509170055,0.174862489104,-0.267519801855,0.616256177425,0.512130887793,0.0934758618838,0.353374969391,0.0396628243115,0.927147957992,0.367057402291,0.0639717708492
-0.0405680947006,-0.190972059965,0.263721823692,-2.21406793594,-0.00268687657081,2.17318892479,-0.535274267197,0.0495258010924,0.377214193344,0.000657611119095,0.468521893024,0.199959218502,0.124788768589,-0.183216586709,0.675701022148,0.509689960471,0.114620619231,0.358599833122,0.0367699509918,0.926167698428,0.369327145695,0.0667744279502
-0.0263169649988,-0.190690919757,0.28149330616,-2.20893096924,0.0017254765844,2.16727113724,-0.509626507759,0.0495258010924,0.364776849747,0.0143787749112,0.460039258003,0.0810975953937,0.0843492522836,-0.144215688109,0.690322816372,0.506055289749,0.131087406616,0.359756101244,0.0344588484379,0.925508200195,0.371179146667,0.0668819848629
-0.0157992821187,-0.189740613103,0.295406550169,-2.20769047737,0.00389704736881,2.16324019432,-0.488631397486,0.049527771771,0.345846265554,0.0420924946666,0.475628495216,0.00735741155222,0.0726361200213,-0.127410545945,0.692190408707,0.502246962546,0.143516075208,0.359020462969,0.0328905016828,0.925232727105,0.372264392404,0.0654357503465
-0.0103968484327,-0.189046233892,0.302788943052,-2.2078359127,0.00499306665733,2.16121268272,-0.47770729661,0.049527771771,0.322236776352,0.053750384599,0.440861731768,-0.0149485347793,0.0663064196706,-0.131799250841,0.673202514648,0.499931771892,0.149889155862,0.358144528251,0.0320526215665,0.925103445207,0.372871906515,0.0642089256433
-0.00433384440839,-0.187810584903,0.31082367897,-2.20821166039,0.00602076482028,2.15846300125,-0.464948922396,0.049527771771,0.313447386026,0.0751192942262,0.409892350435,-0.0263791494071,0.0504660084844,-0.145789578557,0.665934383869,0.49714118935,0.156792779452,0.356781540982,0.0310882264694,0.92511296726,0.37325882137,0.062268546917
0.00081485073315,-0.186484590173,0.317436397076,-2.20875501633,0.00662018219009,2.15590763092,-0.453861147165,0.049527771771,0.28715339303,0.0845472365618,0.368955105543,-0.0367319360375,0.0211007688195,-0.155114471912,0.623045802116,0.494639136635,0.162435801168,0.355360243974,0.0303372151689,0.925199315061,0.373436760178,0.0602566727977
0.0135210668668,-0.181708812714,0.333174437284,-2.2116382122,0.00700618792325,2.14898848534,-0.424964219332,0.049527771771,0.201270774007,0.0996629223228,0.258472502232,-0.07440289855,0.01047822088,-0.132458776236,0.53552532196,0.487801206417,0.17552772057,0.350328779008,0.0287399738111,0.925782460321,0.37314929398,0.0534832137489
0.0164062939584,-0.179994493723,0.336864054203,-2.21283006668,0.00706792715937,2.14697408676,-0.416558176279,0.049527771771,0.165096029639,0.115639999509,0.207725316286,-0.0708273276687,0.000298798957374,-0.12149399519,0.493782222271,0.485947259713,0.178409974401,0.348570011797,0.028265526938,0.926272643716,0.372290994495,0.0511807052711
0.0188794042915,-0.177992463112,0.340108633041,-2.21428132057,0.00708912080154,2.14488053322,-0.408043712378,0.049527771771,0.115238547325,0.103350192308,0.149777799845,-0.0891421511769,0.000661250378471,-0.112205125391,0.45065292716,0.484141515396,0.180814759267,0.346555813709,0.0277645767666,0.92694772804,0.370995347615,0.0485745765825
0.0208672955632,-0.172639757395,0.343392312527,-2.21826934814,0.00714118732139,2.13939785957,-0.388663649559,0.0495290830731,-0.02177557908,0.106211520731,-0.0110827703029,-0.0839005410671,0.00248915981501,-0.106822021306,0.352781176567,0.481044776742,0.182377139638,0.341329707413,0.0264276051209,0.929918333152,0.364451387653,0.0415771701486
0.0198585484177,-0.170843571424,0.342777132988,-2.21966099739,0.00715042836964,2.13783764839,-0.382907837629,0.0495290830731,-0.092727124691,0.104655042291,-0.0609290413558,-0.0792878940701,9.87610983429e-05,-0.0874721258879,0.31145709753,0.480645339948,0.181287367704,0.33964115948,0.0259635410362,0.931364715819,0.361024303593,0.0393333518196
0.0180102884769,-0.169112041593,0.341365516186,-2.22084999084,0.00715694669634,2.13649249077,-0.378414392471,0.0495290830731,-0.140844970942,0.107299305499,-0.109875485301,-0.0718260407448,-0.000104321552499,-0.0807988345623,0.240482494235,0.480638777572,0.179324612077,0.338039174755,0.0254870450592,0.932943770773,0.357188270719,0.0371869608315
0.0152634559199,-0.167352437973,0.338964521885,-2.22204613686,0.00715755438432,2.13511776924,-0.374647080898,0.0495290830731,-0.190314665437,0.106944695115,-0.175604999065,-0.0637992396951,0.000490287900902,-0.0773193463683,0.185650676489,0.480928967649,0.176732919504,0.336630856082,0.0250368999701,0.934520035234,0.353274250259,0.0352528179639
0.000859561492689,-0.162054389715,0.325396180153,-2.22451329231,0.00717301806435,2.13148760796,-0.368733048439,0.0495290830731,-0.347378253937,0.105372413993,-0.342054992914,-0.0260225962847,0.000263710011495,-0.0465379394591,0.0320297814906,0.484198382814,0.162729056637,0.332884431585,0.023392675986,0.940576260488,0.337460224294,0.0298274642434
-0.00466954009607,-0.160533502698,0.319694072008,-2.22481656075,0.00718124303967,2.1307053566,-0.368534564972,0.0495290830731,-0.387365311384,0.0970551669598,-0.410157263279,-0.0178451314569,0.000390951405279,-0.0564659237862,0.00174653797876,0.485733002013,0.157227182212,0.332071170547,0.0228483361935,0.94253031406,0.332109548908,0.0285973394193
-0.0119953453541,-0.158906906843,0.311737328768,-2.22503829002,0.00718929711729,2.12974357605,-0.368548929691,0.0495290830731,-0.424941927195,0.0920673310757,-0.479379534721,-0.00590194296092,-0.000483037263621,-0.0456670634449,-0.00554975355044,0.487798255973,0.149748760622,0.331278745248,0.0221687012435,0.94507984062,0.324943509842,0.0272829367454
-0.0208121836185,-0.157119855285,0.302027285099,-2.22507715225,0.00720159616321,2.12906384468,-0.368630737066,0.0495290830731,-0.481347113848,0.0947843492031,-0.523817181587,0.0017056587385,0.0046839825809,-0.0287885386497,-0.01034623757,0.490180615583,0.141195476707,0.330592292454,0.0214191127362,0.947911247241,0.316732417307,0.0261928326117
-0.0360780805349,-0.154756292701,0.285131037235,-2.22500324249,0.00722312973812,2.12862563133,-0.369879513979,0.0495297387242,-0.561068356037,0.074416950345,-0.63216739893,0.00638587679714,0.00175546086393,-0.00867716316134,-0.0755538865924,0.494487294929,0.124959690417,0.329778907176,0.0201485695017,0.952879137039,0.301650981635,0.0249413373985
-0.0547629110515,-0.152092531323,0.263968884945,-2.22459840775,0.00725215580314,2.12860155106,-0.373456835747,0.0495297387242,-0.635067999363,0.0866396874189,-0.731208741665,0.0234331544489,0.00161336618476,-0.00419860193506,-0.172978758812,0.499160446365,0.105335872871,0.329105251377,0.0187079123938,0.95821665478,0.284419988427,0.0240026329789
-0.0699385628104,-0.150075778365,0.246238261461,-2.22382879257,0.0072756302543,2.1285867691,-0.378267556429,0.0495297387242,-0.687754631042,0.0986813008785,-0.813182830811,0.0463564172387,-0.00034634853364,-0.00065104814712,-0.253823310137,0.502573645834,0.0890291442069,0.328814895229,0.0175823627501,0.96212751554,0.271011776618,0.0235397745886
-0.10101313889,-0.144981265068,0.209699749947,-2.22033715248,0.00731974374503,2.12856698036,-0.393540501595,0.0495310537517,-0.746722579002,0.132652238011,-0.894455850124,0.121021352708,0.00364323682152,0.000262350804405,-0.437007427216,0.508530381466,0.0552804380515,0.32855151108,0.0153435825379,0.968894219667,0.24591613006,0.023104593478
-0.131971538067,-0.138336896896,0.172584742308,-2.21406030655,0.00745978346094,2.12855553627,-0.413460731506,0.0495310537517,-0.777049005032,0.187715530396,-0.950142383575,0.19887547195,0.000714003690518,0.000282208668068,-0.560632646084,0.51303529452,0.0218334236441,0.328688027418,0.0132565789552,0.974394604381,0.223235180971,0.0233553364098
-0.150346413255,-0.133878156543,0.149977207184,-2.20919799805,0.00747415842488,2.12855625153,-0.427130788565,0.0495310537517,-0.800000667572,0.201212644577,-0.996009647846,0.234068199992,-0.000251142453635,-0.000436146016,-0.609807133675,0.515143731719,8.95834481767e-05,0.328994493876,0.0121025056911,0.97745477423,0.209442893167,0.0238614309583
-0.163032278419,-0.13049980998,0.134119927883,-2.20512247086,0.00747885089368,2.12855958939,-0.437375485897,0.0495310537517,-0.795948684216,0.228529632092,-0.996493339539,0.270404368639,-0.00493038166314,2.20948586502e-05,-0.658286631107,0.516264557266,-0.0145343744085,0.329359877336,0.0114392668431,0.979310650496,0.200558367995,0.0244158497984
-0.203551441431,-0.118518590927,0.0825451165438,-2.18964743614,0.0075215306133,2.12855219841,-0.473237663507,0.0495310537517,-0.778730690479,0.232400283217,-1.00378394127,0.314947813749,-0.00199660053477,-0.000876086647622,-0.720997095108,0.517763869992,-0.0622286639462,0.330910390963,0.00991167640902,0.984486718592,0.17311862156,0.0267880972225
-0.215063840151,-0.114973351359,0.0676212832332,-2.18488454819,0.00755267916247,2.12855911255,-0.484007507563,0.0495310537517,-0.758682668209,0.232901856303,-0.979135751724,0.316112160683,-0.00590391643345,-0.000440717092715,-0.717871785164,0.517477481519,-0.0760406636196,0.331406360469,0.00965472520674,0.985788689023,0.16543230255,0.0275608390044
-0.229542657733,-0.110606200993,0.0488448664546,-2.17855334282,0.00756970932707,2.12854623795,-0.497675716877,0.0495310537517,-0.742956221104,0.216733619571,-0.979194104671,0.343414008617,0.00120109913405,-0.00731026008725,-0.72933703661,0.516691661656,-0.093486650333,0.332210486894,0.00951985005058,0.987324719241,0.155805812359,0.0287022605814
-0.24250036478,-0.107047483325,0.031617000699,-2.17248558998,0.00758755626157,2.12849378586,-0.510698676109,0.0495310537517,-0.717471897602,0.181758195162,-0.955104291439,0.328356534243,-0.00166734878439,-0.00445379689336,-0.72883695364,0.515555771734,-0.109379085565,0.333278526005,0.00963221022074,0.988581221478,0.147351426176,0.0300324153171
-0.254494935274,-0.104057580233,0.0155141046271,-2.16686630249,0.00760596292093,2.1283864975,-0.523063063622,0.0495310537517,-0.668466925621,0.165426760912,-0.913282454014,0.334603756666,0.000653599738143,-0.015991890803,-0.728223264217,0.513740624158,-0.126718928074,0.334614824725,0.00994414696259,0.98983644651,0.138301017309,0.0315872032894
-0.275308191776,-0.0990607365966,-0.0127439182252,-2.15629339218,0.00763390166685,2.12752270699,-0.546168863773,0.0495310537517,-0.609771251678,0.125729858875,-0.841874420643,0.335569083691,-0.00146058574319,-0.0429878756404,-0.707786560059,0.510172732766,-0.151636898905,0.336937205187,0.0106965525877,0.991394671351,0.125992769676,0.0338823120035
-0.283696174622,-0.0976435914636,-0.024494657293,-2.15149450302,0.00763026671484,2.12676405907,-0.555804789066,0.0495310537517,-0.572813034058,0.0946015194058,-0.820222377777,0.346418201923,0.00171910307836,-0.0658656433225,-0.680525779724,0.508611685142,-0.160738474719,0.338218323109,0.0111603377015,0.99190718626,0.121542557495,0.0349712328046
-0.294693112373,-0.096022695303,-0.0400589071214,-2.14453172684,0.00763434544206,2.12524962425,-0.568815767765,0.0495310537517,-0.526537358761,0.0721692591906,-0.735684275627,0.349638462067,0.000541270012036,-0.0842865854502,-0.623225867748,0.505956773091,-0.174789221958,0.340532129186,0.0120126697057,0.99263261061,0.114824823513,0.036762150698
-0.317948251963,-0.0953603312373,-0.0725880265236,-2.12682271004,0.00763597805053,2.11735725403,-0.597893774509,0.0495369620621,-0.404577195644,-0.0222814492881,-0.539378881454,0.386353731155,-0.00110973662231,-0.213650032878,-0.53557986021,0.49899505184,-0.204179207787,0.347847378736,0.0143159097332,0.993883046464,0.101578920038,0.0409055910822
-0.323756784201,-0.095887042582,-0.0800805836916,-2.1209397316,0.00764099089429,2.11390399933,-0.605619907379,0.0495369620621,-0.359369069338,-0.046516764909,-0.463934808969,0.395196735859,-0.000261450739345,-0.245812088251,-0.49288097024,0.497213815197,-0.2112227332,0.35060251455,0.0151054969496,0.99409564124,0.0988137615675,0.0422080591065
-0.330066561699,-0.0971567928791,-0.0881784260273,-2.11326003075,0.00763558596373,2.10871982574,-0.614650249481,0.0495369620621,-0.295543164015,-0.0781629011035,-0.392769992352,0.415760368109,0.000480791553855,-0.287451028824,-0.457174062729,0.495221698448,-0.218871413281,0.354451276233,0.0161161728659,0.994269321813,0.0961531729395,0.0438560338694
-0.334849447012,-0.0987638831139,-0.0942274481058,-2.1058819294,0.00763389840722,2.10307097435,-0.622426569462,0.0495369620621,-0.237089917064,-0.102161295712,-0.285503268242,0.418109387159,0.000416162743932,-0.332178473473,-0.412112802267,0.493710263369,-0.22465109251,0.358298987233,0.01701528071,0.994333584385,0.0946480088692,0.0453095718536
-0.3416634202,-0.10555652529,-0.10260758549,-2.08540940285,0.0076296357438,2.08612370491,-0.638668477535,0.0495369620621,-0.0457272715867,-0.190308541059,-0.0771084204316,0.440053582191,6.84617771185e-06,-0.406945943832,-0.2951823771,0.492208496397,-0.233226321571,0.370451315423,0.0197225170528,0.99400112684,0.095299455875,0.0499078708349
-0.341858386993,-0.108386442065,-0.103215627372,-2.07889771461,0.00763054424897,2.07984614372,-0.642863988876,0.0495369620621,0.0120655633509,-0.196805760264,-0.00755286263302,0.436666995287,0.000433546170825,-0.427612394094,-0.256693631411,0.492394013718,-0.23376091437,0.374242994456,0.0204153073912,0.993767369957,0.0969138707978,0.0511598571025
-0.336211740971,-0.120143800974,-0.0986902564764,-2.05607056618,0.00762758404016,2.05694079399,-0.653523206711,0.0495415590703,0.207814872265,-0.255397886038,0.187916219234,0.448735415936,-7.66882876633e-05,-0.48534733057,-0.156582713127,0.495547932606,-0.229242612313,0.389478833945,0.0231191446013,0.992357731328,0.107321596596,0.0563357153902
-0.33225351572,-0.124589562416,-0.0947509407997,-2.0483944416,0.00762964598835,2.04861426353,-0.6559933424,0.0495415590703,0.257293075323,-0.27491247654,0.26499080658,0.47166877985,-0.00010712860967,-0.491059422493,-0.118898257613,0.497369848434,-0.225373138336,0.394828029589,0.0239565377274,0.991667930571,0.112487928676,0.0580281429813
-0.327348530293,-0.129487037659,-0.0895144492388,-2.04035449028,0.00762579822913,2.04023218155,-0.657738745213,0.0495415590703,0.313397824764,-0.301274031401,0.333208560944,0.465825796127,-3.72381509806e-05,-0.504513859749,-0.0837579369545,0.499649153683,-0.220363711568,0.400613699903,0.0249653864629,0.990833815176,0.11840131217,0.0600517206818
-0.320800930262,-0.135254099965,-0.0823730826378,-2.03163123131,0.00762731069699,2.03068804741,-0.658815562725,0.0495415590703,0.377327471972,-0.297170192003,0.41069033742,0.448733508587,-0.000715279893484,-0.504557132721,-0.0308011472225,0.502455884889,-0.213463201077,0.407100389754,0.026028059576,0.989766022549,0.12573648629,0.0622583041496
-0.307794719934,-0.144781380892,-0.0676494166255,-2.0175921917,0.00762773165479,2.01535892487,-0.659028887749,0.0495415590703,0.467962801456,-0.317449271679,0.531160235405,0.445669472218,-0.000411167740822,-0.49020755291,0.000815165694803,0.507744872552,-0.199285834475,0.417701309388,0.0277917072285,0.987622689168,0.139583468856,0.0659204048101
-0.300083845854,-0.149777650833,-0.0586398988962,-2.0105407238,0.00763023877516,2.00769853592,-0.659021317959,0.0495415590703,0.506027936935,-0.312593489885,0.593832075596,0.440957903862,0.000509189500008,-0.474207162857,0.002378502395,0.51070100078,-0.190632625475,0.423152403232,0.0287512508868,0.986261313871,0.147843116576,0.0678557212987
-0.280480623245,-0.161017209291,-0.0353052318096,-1.99524533749,0.00763589842245,1.99161565304,-0.65869063139,0.0495415590703,0.578848063946,-0.307841092348,0.704648792744,0.42183175683,-0.000115079019452,-0.409888297319,0.026889340952,0.517629619616,-0.168149940319,0.435257286758,0.031093192978,0.982489325893,0.168825475586,0.072428560288
-0.249073460698,-0.175482526422,0.00350190908648,-1.97648847103,0.00773598160595,1.97376775742,-0.655120968819,0.0495422184467,0.676512002945,-0.26932567358,0.836046814919,0.310535728931,0.000324297812767,-0.297582030296,0.114567793906,0.527128103407,-0.130738655803,0.450643007133,0.0345195976583,0.975694939055,0.20140764398,0.0791375000969
-0.240228697658,-0.178921848536,0.0144376773387,-1.97254347801,0.00779004907236,1.97017836571,-0.653422832489,0.0495422184467,0.672567546368,-0.271441400051,0.847117006779,0.294756829739,0.000564301561099,-0.2610219419,0.149634867907,0.529340141658,-0.120063585644,0.454091789785,0.035329380418,0.97367345198,0.210196878845,0.080802943056
-0.227821439505,-0.183734372258,0.0299643743783,-1.96751713753,0.00785199087113,1.96587991714,-0.650014877319,0.0495422184467,0.704588830471,-0.271471470594,0.896251678467,0.256112605333,0.00640169717371,-0.223207131028,0.233980938792,0.532115767833,-0.104908012069,0.458729392749,0.0364765688007,0.970782361453,0.222082210116,0.0832499745642
-0.19318112731,-0.195057854056,0.0745965614915,-1.95838975906,0.00825734809041,1.95732212067,-0.634215593338,0.0495422184467,0.707692682743,-0.214182272553,0.935612261295,0.11810285598,0.0054767858237,-0.137213766575,0.399626255035,0.537529456294,-0.0614323151523,0.468253111286,0.0385709467984,0.962724552389,0.252630776958,0.0886081740968
-0.180563732982,-0.19863756001,0.0912118852139,-1.95681035519,0.00854907743633,1.9553000927,-0.626421749592,0.0495422184467,0.692495048046,-0.176156029105,0.897209227085,0.0563744492829,0.0223004259169,-0.0910931155086,0.469667166471,0.538581148102,-0.0452769503468,0.470589495796,0.0389497249202,0.959828674677,0.262867849141,0.0900684616045
-0.169529750943,-0.201194807887,0.105919383466,-1.95628154278,0.00900104083121,1.95397341251,-0.618541359901,0.0495422184467,0.685635507107,-0.148393049836,0.917639791965,0.0123132634908,0.0368500426412,-0.0851631611586,0.512791693211,0.539118264565,-0.0310107128654,0.471902757794,0.0389613854411,0.95738270843,0.271349150571,0.090939530562
-0.158048257232,-0.203556358814,0.121693454683,-1.9564204216,0.00954437535256,1.95264613628,-0.609678268433,0.0495448447764,0.649936318398,-0.124156095088,0.91272342205,-0.0213898047805,0.0291154235601,-0.076884649694,0.532935678959,0.539222011872,-0.0167642318904,0.47268477714,0.0387899205247,0.954979043999,0.279564729436,0.0913998322425
-0.138722985983,-0.206472918391,0.148609653115,-1.95807492733,0.0105979787186,1.95013713837,-0.593229532242,0.0495448447764,0.612915575504,-0.0683802217245,0.869974672794,-0.0874379351735,0.0336048305035,-0.0728330388665,0.564101219177,0.53826512701,0.00969968029663,0.47266264657,0.0379179282522,0.950682700997,0.294101144527,0.0909348625088
-0.127821236849,-0.207454502583,0.164037704468,-1.96012926102,0.0112269409001,1.94923734665,-0.582679927349,0.0495448447764,0.598295807838,-0.0362620279193,0.850521802902,-0.136310324073,0.0381909571588,-0.0318995751441,0.594218671322,0.537184706925,0.0241971547206,0.471715070076,0.03720135349,0.948469863893,0.301510178104,0.0900699104792
-0.117434561253,-0.207849264145,0.178753763437,-1.96308493614,0.0121017880738,1.94904458523,-0.571747660637,0.0495448447764,0.562126755714,-0.00851990934461,0.811866641045,-0.186764881015,0.0538334213197,-0.00401087244973,0.594395279884,0.535813522341,0.0379857450181,0.470064245238,0.0362440471935,0.946497767199,0.308108237675,0.0888687757053
-0.107732340693,-0.207838311791,0.192682772875,-1.96700155735,0.0130278551951,1.9490531683,-0.561035335064,0.0495448447764,0.526220202446,0.0100905131549,0.748257219791,-0.245099395514,0.0437826290727,-0.000615216500591,0.595398366451,0.534075798239,0.0508845063087,0.467720156859,0.0351422709387,0.944734178623,0.314095661987,0.0870991810712
-0.0858566537499,-0.206215843558,0.223644912243,-1.98237287998,0.0141369923949,1.94950723648,-0.534415543079,0.0495507530868,0.402698099613,0.0612902566791,0.571111679077,-0.408099234104,0.00523909693584,0.0167933572084,0.530549764633,0.528088640202,0.0789456558863,0.458230696258,0.0323085938837,0.941381294342,0.326307501857,0.0792516709159
-0.0781525745988,-0.204886928201,0.234156608582,-1.99114823341,0.014361532405,1.94982147217,-0.52440482378,0.0495507530868,0.360513925552,0.0700392201543,0.473444759846,-0.462088167667,0.0169699005783,0.0259838066995,0.482845067978,0.52523980404,0.0878321684416,0.453076813025,0.0311071675469,0.940514248783,0.329958485655,0.0747842857507
-0.072808817029,-0.203360691667,0.240972608328,-1.9988284111,0.0145133314654,1.95029938221,-0.517062425613,0.0495507530868,0.314737468958,0.112058363855,0.396869927645,-0.489568501711,0.00713084079325,0.043548528105,0.45019197464,0.522722177022,0.0943086246521,0.447944680443,0.0299600869023,0.940048794037,0.332359402393,0.0703412066302
-0.0668270140886,-0.200581818819,0.248633816838,-2.00926995277,0.0145945120603,1.95163333416,-0.507990658283,0.0495507530868,0.244323819876,0.152281433344,0.328658282757,-0.52005302906,-0.000592225755099,0.0768270790577,0.418709754944,0.519831565969,0.100918474693,0.441141459332,0.0285575883051,0.939751825475,0.334476636436,0.0646246859381
-0.0596924126148,-0.191787660122,0.2580550313,-2.03366470337,0.0145975118503,1.95669746399,-0.490946561098,0.0495507530868,0.0857857987285,0.261145144701,0.105559639633,-0.539651811123,0.000293485471047,0.183272495866,0.322261720896,0.514731126975,0.108117517511,0.424645863684,0.0252427281236,0.940775045929,0.334198832602,0.0511493656672
-0.058805514127,-0.18724180758,0.259177207947,-2.04241895676,0.014596581459,1.95986437798,-0.486136198044,0.0495507530868,0.0246060527861,0.304334491491,0.036602307111,-0.550178229809,0.000534788472578,0.210572600365,0.288012683392,0.513569761794,0.108662273004,0.418272596346,0.0239010133693,0.941529319787,0.332872099371,0.0463405512367
-0.0592352896929,-0.180513009429,0.259005367756,-2.05387163162,0.0145806735381,1.96490871906,-0.480627506971,0.0495507530868,-0.0616368129849,0.345164418221,-0.0433164723217,-0.518878221512,-0.00122901261784,0.272968828678,0.243788853288,0.512521616973,0.107729567746,0.409708421618,0.022053079801,0.942872940672,0.329990173374,0.040134331739
-0.0629081875086,-0.168124184012,0.256141394377,-2.06889677048,0.0145046636462,1.97483348846,-0.474154263735,0.0495507530868,-0.18253916502,0.452508926392,-0.148871392012,-0.480280816555,-0.0172732062638,0.37758988142,0.180584609509,0.512441383157,0.103668915548,0.39712728141,0.0191538865363,0.945361652747,0.323884855895,0.0319855272757
-0.0666825771332,-0.159587323666,0.252900451422,-2.07731962204,0.0143108414486,1.98204529285,-0.470977246761,0.0495566651225,-0.238465994596,0.491880565882,-0.205584079027,-0.45111784339,-0.010215414688,0.428254306316,0.165210366249,0.513015790569,0.0997143902717,0.389488313654,0.017359095506,0.947155452701,0.319122533619,0.0274957896301
-0.0703868344426,-0.152366116643,0.24967007339,-2.08334827423,0.0141123691574,1.98830032349,-0.468993902206,0.0495566651225,-0.284077584743,0.537478089333,-0.249883472919,-0.419704318047,-0.0175916105509,0.465161055326,0.126737043262,0.513805586676,0.0959324721741,0.38358781579,0.0159379993229,0.948660018194,0.314958941304,0.0243108008715
-0.0744247063994,-0.144953936338,0.246054500341,-2.08849310875,0.0138072790578,1.99455356598,-0.467596262693,0.0495566651225,-0.355622917414,0.604188203812,-0.335970014334,-0.368185847998,-0.0338797457516,0.487221240997,0.0645631328225,0.515577280937,0.088621885414,0.37410101701,0.013646656723,0.951192497809,0.30768149558,0.0194601603289
-0.0880217254162,-0.122587926686,0.232847169042,-2.10088992119,0.0123949507251,2.01239848137,-0.46588781476,0.0495566651225,-0.421147942543,0.666511833668,-0.43267711997,-0.291073143482,-0.0372935496271,0.5026871562,0.0154815269634,0.518472940124,0.0766357815458,0.361782493858,0.0106199725737,0.95480720538,0.296729610143,0.0134890656416
-0.0981431230903,-0.107433907688,0.222543597221,-2.10645365715,0.0113465432078,2.02411937714,-0.465806394815,0.0495566651225,-0.479075849056,0.703513979912,-0.487311512232,-0.216902077198,-0.0592822246253,0.545206308365,-0.00253043859266,0.520995452988,0.0667908628286,0.353474266237,0.00852749890845,0.957533523554,0.288023859984,0.00995433590567
-0.10562863946,-0.0967953205109,0.214855268598,-2.10954761505,0.010319814086,2.03237819672,-0.46581402421,0.0495566651225,-0.519536972046,0.707235395908,-0.54110711813,-0.192868933082,-0.0799375846982,0.549291729927,0.000490146456286,0.522994282622,0.0587645312796,0.347403166862,0.00712519729203,0.959647735488,0.281012365851,0.00758322265025
-0.114746853709,-0.0845717638731,0.205074936152,-2.1123547554,0.0087759187445,2.04171681404,-0.465893924236,0.0495566651225,-0.55446356535,0.728767693043,-0.60097527504,-0.141998171806,-0.100691623986,0.542178869247,-0.0167949199677,0.525320537919,0.0487048283951,0.340732928083,0.0057373312282,0.962168314357,0.272347233385,0.00511879260472
-0.143463179469,-0.0491431057453,0.173515096307,-2.1163289547,0.00497149396688,2.06769704819,-0.468678593636,0.0495566651225,-0.639956474304,0.719327747822,-0.711145341396,-0.0343549847603,-0.0399342402816,0.52505928278,-0.107779696584,0.531671452656,0.0165371853695,0.322981307942,0.00198277910069,0.969384353461,0.245539687631,-0.000552578650271
-0.155268415809,-0.0363315232098,0.160313531756,-2.11653161049,0.00411497429013,2.07702088356,-0.470950841904,0.0495566651225,-0.658343374729,0.696265757084,-0.741165101528,0.00174863857683,-0.0571718737483,0.512103736401,-0.148913890123,0.533732072806,0.0031572103545,0.317024084105,0.000651637900598,0.972058646019,0.234728491604,-0.00202459635935
-0.166585981846,-0.0246294047683,0.14747595787,-2.11637020111,0.00322267459705,2.08567976952,-0.473822623491,0.0495566651225,-0.671440184116,0.665213465691,-0.756503999233,0.00866014976054,-0.0449060946703,0.499804794788,-0.191640511155,0.535390419489,-0.00985856394984,0.311702226527,-0.000374620414495,0.974446518675,0.224596998569,-0.00316699079543
-0.179708048701,-0.0124884257093,0.132352024317,-2.11600208282,0.00239549390972,2.09529137611,-0.478256911039,0.0495638884604,-0.678951740265,0.615953743458,-0.800537347794,0.0287403482944,-0.0408640280366,0.505182266235,-0.268213957548,0.536841602409,-0.0251423682676,0.306274210777,-0.00128513319791,0.977002491734,0.213187095037,-0.00396759150647
-0.214865773916,0.0157071128488,0.0916963145137,-2.11225199699,0.000719970674254,2.11736631393,-0.49543979764,0.0495638884604,-0.711247503757,0.497167438269,-0.807690799236,0.117663674057,-0.0143997883424,0.374191969633,-0.404472380877,0.53858594095,-0.0665230228552,0.294752392795,-0.00257919563143,0.98274792455,0.184872279993,-0.00470152414125
-0.272339522839,0.0465960875154,0.0262900181115,-2.09564614296,0.000853753939737,2.13974022865,-0.531288802624,0.0495638884604,-0.669674694538,0.24749058485,-0.714762270451,0.283798784018,0.0101664969698,0.171818196774,-0.442333579063,0.535599589755,-0.134347330151,0.287310285017,-0.00137018756048,0.98988045387,0.141895022869,-0.000782185707113
-0.285260409117,0.0506544597447,0.0124229704961,-2.08967494965,0.00142157683149,2.14271688461,-0.5400198102,0.0495638884604,-0.61748790741,0.159959644079,-0.65867382288,0.311221629381,0.0434452295303,0.11726693064,-0.429998129606,0.534326826244,-0.149291116927,0.28804048157,-0.000365630511829,0.99114102049,0.132805176568,0.00145896946858
-0.30245000124,0.0538596026599,-0.00582063896582,-2.08059191704,0.00345179741271,2.14542961121,-0.551458775997,0.0495638884604,-0.570174098015,0.0567767694592,-0.605209469795,0.313011884689,0.107378073037,0.0784730166197,-0.363336503506,0.532280892102,-0.169006136227,0.290655365793,0.00110861058422,0.99271252906,0.120374481875,0.00553077226598
-0.311556845903,0.0542152673006,-0.0153724206612,-2.07507205009,0.00557945854962,2.14654874802,-0.557327330112,0.0495638884604,-0.514130830765,-0.00367187405936,-0.518328726292,0.345030248165,0.143994107842,0.0442493334413,-0.329635500908,0.531182602185,-0.179344446636,0.29310172989,0.00194393201802,0.993502490426,0.113465846432,0.00863273061476
-0.319992393255,0.0539360530674,-0.0236915554851,-2.06896734238,0.00809732452035,2.14689326286,-0.562772929668,0.0495638884604,-0.474447757006,-0.0326700732112,-0.453834474087,0.363944590092,0.135274425149,-0.0037003820762,-0.313015460968,0.530306566234,-0.188652218798,0.296118762946,0.00275381704117,0.994162189496,0.107190076675,0.0120101885474
-0.347648382187,0.0402844436467,-0.0484066680074,-2.03777933121,0.0255074352026,2.14539861679,-0.585698127747,0.0495711117983,-0.158632412553,-0.284925103188,-0.103127531707,0.329974383116,0.242757156491,-0.0447126328945,-0.203660368919,0.530385886787,-0.218027875163,0.31846491198,0.00709694468651,0.995489001513,0.0881338076004,0.0344051289809
-0.349456429482,0.0359214097261,-0.049369096756,-2.03295207024,0.0290388483554,2.14467954636,-0.588700950146,0.0495711117983,-0.0829390436411,-0.287673592567,-0.0322965160012,0.312845289707,0.221436545253,-0.0560355708003,-0.1928024441,0.531329318714,-0.219616709829,0.323220732548,0.00775815983984,0.99538500719,0.0873863801923,0.0388859701243
-0.349911659956,0.0294945128262,-0.0492263846099,-2.0265879631,0.0338829942048,2.14327931404,-0.592198610306,0.0495711117983,0.0294911954552,-0.335981816053,0.0380361787975,0.294217675924,0.242084696889,-0.0772779732943,-0.142285227776,0.533171995675,-0.219856189224,0.329861860753,0.00850922086496,0.995085384255,0.0878103600665,0.0449667829145
-0.344491899014,0.0120374383405,-0.0419239886105,-2.01361703873,0.044324208051,2.13875436783,-0.597005903721,0.0495711117983,0.195622816682,-0.376912474632,0.262667775154,0.26610788703,0.180854156613,-0.110302448273,-0.0433541573584,0.539421739694,-0.2125746639,0.346183616851,0.00989976905424,0.993733371191,0.0943549956051,0.0591025892563
-0.341114670038,0.0061937905848,-0.0374535322189,-2.009765625,0.0469566099346,2.1370112896,-0.597357809544,0.0495711117983,0.242297112942,-0.402219593525,0.324848026037,0.254091233015,0.160512775183,-0.12844851613,-0.0106169143692,0.541715127578,-0.208512328964,0.350957290991,0.0103139832904,0.993171702271,0.0976502964202,0.0629921492296
-0.335161954165,-0.00240535847843,-0.0294041968882,-2.00459599495,0.0499925352633,2.13425517082,-0.597387611866,0.0495711117983,0.325761526823,-0.397740274668,0.435828447342,0.240116938949,0.132378309965,-0.137584090233,-0.000100582670711,0.545462804694,-0.200775198026,0.358225879317,0.0110133739624,0.992142455167,0.104010884569,0.0686570450703
-0.313619911671,-0.0220366939902,-0.00162478839047,-1.99215495586,0.0553912036121,2.1273329258,-0.596900224686,0.0495783351362,0.506027758121,-0.373334735632,0.618972122669,0.254158675671,0.0766347572207,-0.142429485917,0.0383816808462,0.556347395342,-0.173316049614,0.375129847389,0.01247975306,0.988451722494,0.127263738588,0.0813104458318
-0.306616783142,-0.026728194207,0.00680995360017,-1.98885166645,0.0562865547836,2.12557554245,-0.596202731133,0.0495783351362,0.573000073433,-0.352995991707,0.680054545403,0.252751976252,0.0674977228045,-0.12500782311,0.0655230358243,0.55933033965,-0.164663576475,0.379333314542,0.012852623225,0.9872416678,0.134431410035,0.0843616923059
-0.296453177929,-0.0323403179646,0.0189060121775,-1.98447465897,0.0572662204504,2.12367367744,-0.594978570938,0.0495783351362,0.617499828339,-0.307956367731,0.734213471413,0.26101115346,0.0500676259398,-0.108220085502,0.0760880857706,0.563409710412,-0.152147625651,0.384606450575,0.0132919320878,0.985440129455,0.144696961575,0.0882828681506
-0.261745423079,-0.0469246655703,0.0594201683998,-1.9718991518,0.0588741563261,2.11857771873,-0.586936235428,0.0495783351362,0.742020845413,-0.244971647859,0.845232665539,0.237825289369,0.00437459629029,-0.0777611657977,0.247142001987,0.57471247531,-0.109266627954,0.398902583032,0.0139627266262,0.979018878654,0.177660108494,0.0988127676423
-0.24736662209,-0.0514375716448,0.0758161023259,-1.96741294861,0.058882471174,2.11705136299,-0.58182322979,0.0495783351362,0.767402291298,-0.245906159282,0.881117880344,0.225624591112,0.00111149868462,-0.0904565230012,0.292477726936,0.578333019576,-0.0915323162516,0.403624654682,0.013993799252,0.97627848601,0.190311967214,0.102302718275
-0.235730171204,-0.0550918728113,0.0891375094652,-1.96420228481,0.0588742345572,2.11562108994,-0.577227056026,0.0495783351362,0.775187015533,-0.234062626958,0.873167932034,0.202119514346,0.00258016772568,-0.0960701331496,0.309212297201,0.580700640778,-0.0770262387015,0.407197598473,0.0138516999067,0.97400401054,0.2003331372,0.104837739842
-0.221659734845,-0.0588358081877,0.105165548623,-1.96057856083,0.0588689409196,2.11380672455,-0.571648776531,0.0495816171169,0.783966779709,-0.184024572372,0.907232582569,0.201709806919,-0.000181668321602,-0.107536159456,0.31313174963,0.583019120309,-0.0594359059935,0.410968805792,0.0134406361467,0.971173833749,0.212366917723,0.107429166856
-0.189321145415,-0.0662146061659,0.141744926572,-1.95318984985,0.058293312788,2.10875272751,-0.558682918549,0.0495816171169,0.770153701305,-0.178163960576,0.836005926132,0.14294692874,-0.0490213744342,-0.146173641086,0.311120092869,0.586015861359,-0.015105659556,0.418870442506,0.0119600063764,0.963591534749,0.242436903758,0.112127872519
-0.170194908977,-0.0703213140368,0.162663087249,-1.94993710518,0.0564295873046,2.10504937172,-0.551118910313,0.0495816171169,0.767534911633,-0.155611529946,0.821150541306,0.115429572761,-0.106597043574,-0.148895725608,0.290916442871,0.585933520151,0.00446849866571,0.421691883314,0.0116062086119,0.959954185225,0.255992374836,0.113230569673
-0.157704651356,-0.0730785802007,0.176360756159,-1.94817149639,0.0541908927262,2.10239005089,-0.546158015728,0.0495816171169,0.711181819439,-0.177008911967,0.7812256217,0.0882127732038,-0.156155243516,-0.161103412509,0.286251217127,0.585162291904,0.0213153618772,0.4239680763,0.01174047265,0.956618897521,0.26793978581,0.113801217383
-0.140483871102,-0.0777161493897,0.194923967123,-1.94626152515,0.0496582575142,2.09790086746,-0.539577722549,0.0495816171169,0.656632304192,-0.188996642828,0.707972943783,0.0665685907006,-0.19262342155,-0.195921257138,0.231286123395,0.583388268367,0.0400744412141,0.426604247269,0.0125296698314,0.95260708462,0.281728497436,0.114069290903
-0.129252076149,-0.0809615775943,0.20690959692,-1.94520294666,0.0457232668996,2.09438252449,-0.53576874733,0.0495816171169,0.601556420326,-0.176559910178,0.626106321812,0.0556533485651,-0.240769386292,-0.207664579153,0.187927722931,0.58160402064,0.0531400785234,0.428403784592,0.0135364815828,0.949563623275,0.291839205523,0.113910345568
-0.104324541986,-0.0910311564803,0.233062192798,-1.94302308559,0.0309419948608,2.08298516273,-0.528094887733,0.0495908111334,0.401033073664,-0.225926935673,0.426820039749,0.0494140386581,-0.352335304022,-0.26586535573,0.122606426477,0.575720655014,0.080719882508,0.433380217036,0.0189218476616,0.94205257986,0.315453581701,0.112551934412
-0.098788022995,-0.0944085270166,0.23881675303,-1.94227719307,0.0253047402948,2.07889103889,-0.52642261982,0.0495908111334,0.339185446501,-0.229359775782,0.343795090914,0.0525680072606,-0.391711831093,-0.28251260519,0.0979719683528,0.57392556556,0.0863899956262,0.435042258663,0.0213449450524,0.940165818597,0.321090194363,0.111954069301
-0.0936895757914,-0.0984724238515,0.244173124433,-1.94133913517,0.0185073483735,2.07407593727,-0.524790942669,0.0495908111334,0.265832513571,-0.248649403453,0.285062521696,0.0615280233324,-0.399026960135,-0.290566027164,0.0883226245642,0.571896862509,0.0916184083458,0.437227214354,0.0246412895927,0.93818771552,0.326817608753,0.111296305375
-0.0882329046726,-0.106511883438,0.250144809484,-1.93925595284,0.00644024182111,2.06511902809,-0.522855937481,0.0495908111334,0.102260716259,-0.274822473526,0.116948194802,0.0787020474672,-0.408732235432,-0.308376073837,0.0270238351077,0.569098310309,0.0960403079082,0.441416730623,0.0305097600004,0.935858276128,0.33317241806,0.110610040581
-0.0871466323733,-0.111987948418,0.251347273588,-1.93734741211,-0.00170642090961,2.0588555336,-0.522627770901,0.0495908111334,0.0130588384345,-0.274099677801,0.0107138911262,0.110195145011,-0.40822699666,-0.315146327019,0.00277256336994,0.567626208153,0.0960043900247,0.444811052833,0.0351271355305,0.934869061799,0.335603183543,0.110256176798
-0.0875955447555,-0.116408102214,0.250901341438,-1.93530905247,-0.00841135624796,2.05373668671,-0.52260774374,0.0495908111334,-0.05954451859,-0.282195240259,-0.0573210418224,0.13437885046,-0.431529402733,-0.322499006987,0.000262609275524,0.566882624093,0.094501450361,0.447525356995,0.038649866384,0.934525753494,0.336199597707,0.110170931152
-0.0891503766179,-0.121035642922,0.249193131924,-1.93281233311,-0.0154222184792,2.04842352867,-0.522612035275,0.0495908111334,-0.130709141493,-0.284139424562,-0.153704568744,0.172036617994,-0.431220263243,-0.339585930109,3.49581023329e-05,0.566320159413,0.091547213345,0.450769010313,0.0426789563819,0.934496933614,0.335768145622,0.11024400128
-0.0928798615932,-0.126827254891,0.244713783264,-1.92868864536,-0.0243165362626,2.04145145416,-0.522621095181,0.0496000051498,-0.222145318985,-0.272927165031,-0.260823875666,0.214628353715,-0.40929043293,-0.327395141125,-0.000585542817134,0.56606272739,0.0851509091919,0.455594040022,0.0481915747371,0.93515240565,0.333061231862,0.110624436034
-0.100437760353,-0.134348317981,0.236267894506,-1.92251622677,-0.0346736349165,2.03298258781,-0.522688031197,0.0496000051498,-0.335611730814,-0.277768313885,-0.366328775883,0.241289302707,-0.356244206429,-0.290674567223,-0.00282926438376,0.566224683465,0.0747967730058,0.46189856537,0.0545095571638,0.93676305059,0.327142887091,0.111719408966
-0.107430577278,-0.139488905668,0.228244930506,-1.91751229763,-0.041132029146,2.02748918533,-0.522956728935,0.0496000051498,-0.396688222885,-0.261922985315,-0.46859806776,0.282858490944,-0.322764217854,-0.282429665327,-0.0242481809109,0.566632294966,0.0652685826453,0.466866157186,0.0589158686236,0.938477464757,0.320980766871,0.112961566705
-0.115132585168,-0.14422300458,0.219196349382,-1.91216981411,-0.0467035658658,2.02262091637,-0.523552596569,0.0496000051498,-0.461130410433,-0.259754776955,-0.550050675869,0.295854836702,-0.293049842119,-0.266616731882,-0.0378803834319,0.567150207499,0.0548885747192,0.471889545083,0.0629730639497,0.940399953151,0.313964067555,0.114494040466
-0.124428443611,-0.149012625217,0.207762166858,-1.90638935566,-0.0521209165454,2.01795625687,-0.52422195673,0.0496000051498,-0.503645718098,-0.241606533527,-0.63584458828,0.314522564411,-0.272785961628,-0.230713173747,-0.033044975251,0.567705725389,0.0422374645302,0.477250154741,0.067116463695,0.94284033435,0.305008225487,0.116264639066
-0.141074508429,-0.155902862549,0.187266647816,-1.89705407619,-0.059393953532,2.01199293137,-0.525623083115,0.0496124811471,-0.59754306078,-0.227355748415,-0.730509102345,0.301199585199,-0.221023544669,-0.177221238613,-0.0624132193625,0.568379255081,0.0198914859947,0.485675267502,0.0732240673887,0.947128983234,0.288642647086,0.119458557858
-0.151088044047,-0.159470379353,0.174879699945,-1.89213633537,-0.0624864548445,2.00936150551,-0.527054071426,0.0496124811471,-0.635556280613,-0.207208931446,-0.776912212372,0.309283256531,-0.181994199753,-0.158080473542,-0.107605554163,0.568447208086,0.00658076991437,0.490163657364,0.0762579875801,0.949589460736,0.278838540826,0.121299807205
-0.16359052062,-0.163107246161,0.159370735288,-1.88628387451,-0.06581813097,2.00672364235,-0.529495358467,0.0496124811471,-0.667490005493,-0.181034460664,-0.835527837276,0.29317510128,-0.169348165393,-0.124796822667,-0.158863142133,0.568250178314,-0.010014373269,0.495233823365,0.0797321176528,0.952492839987,0.266792096059,0.123378103235
-0.174564272165,-0.165920600295,0.145454376936,-1.88182854652,-0.0682555884123,2.00495958328,-0.532124996185,0.0496124811471,-0.694526135921,-0.171102315187,-0.882286310196,0.269952952862,-0.141141816974,-0.0949561744928,-0.171505823731,0.567594246614,-0.0265742607599,0.499655639021,0.0828426809358,0.955255382274,0.254873521957,0.125154833497
-0.210733890533,-0.173082023859,0.0986109897494,-1.87084710598,-0.0747323408723,2.00206494331,-0.541526317596,0.0496124811471,-0.740228652954,-0.10119073838,-0.962434709072,0.163134247065,-0.102269724011,-0.0196514036506,-0.209013774991,0.563285664565,-0.0734374097245,0.509286785721,0.0904941924002,0.962500700778,0.22100528658,0.128685139541
-0.222658813,-0.17467212677,0.083036929369,-1.8685874939,-0.0761710107327,2.00195765495,-0.544848203659,0.0496124811471,-0.758337497711,-0.101092450321,-0.993428468704,0.123326875269,-0.0871906206012,-0.0055370843038,-0.201882332563,0.560974930403,-0.0894239659567,0.51152677276,0.0926040828789,0.964818495811,0.209342786206,0.129326530656
-0.236745849252,-0.176293551922,0.0643083900213,-1.86666071415,-0.0778617933393,2.00192046165,-0.54869812727,0.0496124811471,-0.730924069881,-0.0660315155983,-0.978088200092,0.0787145867944,-0.0875848382711,-0.00144000176806,-0.206827819347,0.557572834152,-0.108423605028,0.513610395141,0.0949253174862,0.967483434394,0.195358753606,0.129614603172
-0.270452946424,-0.177859202027,0.0186074469239,-1.86571097374,-0.0814783647656,2.00164675713,-0.558732569218,0.0496124811471,-0.684749007225,0.00222209864296,-0.953974366188,-0.0236398745328,-0.0754798874259,-0.022904118523,-0.219551578164,0.546574614142,-0.153825408951,0.515116763334,0.0990885337725,0.973539386064,0.161830431681,0.127331996501
-0.282532602549,-0.177776664495,0.00150214973837,-1.86651873589,-0.0830077007413,2.00118136406,-0.562496960163,0.0496256127954,-0.64013260603,0.0174786411226,-0.928906679153,-0.0667412206531,-0.0924669131637,-0.0333799049258,-0.204377904534,0.541494441535,-0.170284412311,0.514560141584,0.100199525569,0.975631935442,0.149572474182,0.125421115779
-0.291889846325,-0.177443563938,-0.012214849703,-1.86787366867,-0.0843096002936,2.00088238716,-0.565481066704,0.0496256127954,-0.609428524971,0.0313502661884,-0.905438780785,-0.11390799284,-0.0876213312149,-0.00349831557833,-0.192957013845,0.537088712966,-0.183183853732,0.513568649651,0.100876646783,0.977242833084,0.139910285051,0.12347250363
-0.30442777276,-0.176684811711,-0.0306952893734,-1.87105870247,-0.0856257900596,2.00065398216,-0.569432318211,0.0496256127954,-0.583738207817,0.0340108498931,-0.84988874197,-0.181136906147,-0.03379182145,-0.00543225649744,-0.185641825199,0.530610715896,-0.200229142414,0.511310806609,0.10120539629,0.97938674294,0.12686641998,0.120266315702
-0.320229530334,-0.175494030118,-0.0538442246616,-1.87774384022,-0.086302511394,2.00015187263,-0.574432134628,0.0496256127954,-0.513095200062,0.05372351408,-0.746632874012,-0.272107899189,-0.0192007105798,-0.0252953600138,-0.159511163831,0.521408846988,-0.220982284788,0.506800308027,0.100375569681,0.982084064794,0.110428630871,0.115070204091
-0.329465925694,-0.174393996596,-0.0674362257123,-1.88358104229,-0.0866971686482,1.99957752228,-0.577578246593,0.0496256127954,-0.463365584612,0.0597917623818,-0.680476129055,-0.333507031202,-0.021068032831,-0.0351128093898,-0.158030435443,0.515382758239,-0.232814854973,0.502835034236,0.0992152906239,0.983700686619,0.100949715674,0.110898331163
-0.33751231432,-0.17323897779,-0.078838609159,-1.89017856121,-0.0869617387652,1.99891352654,-0.580292403698,0.0496256127954,-0.414278000593,0.0733622461557,-0.580975413322,-0.397531419992,-0.00199592253193,-0.0390916466713,-0.149652525783,0.509803813476,-0.242619587962,0.498430359368,0.097665895225,0.98513155611,0.0929245081151,0.106499885235
-0.343622475863,-0.172083184123,-0.0870921239257,-1.89633476734,-0.0869937837124,1.99837422371,-0.582330524921,0.0496256127954,-0.392719238997,0.078473366797,-0.522699117661,-0.413231700659,-0.00153780193068,-0.0287336949259,-0.125869482756,0.505126698291,-0.250089855431,0.494032144889,0.0959137109212,0.986316032851,0.0866566094994,0.102332180301
-0.357248067856,-0.168176651001,-0.105627775192,-1.91699314117,-0.0869660750031,1.99643921852,-0.587256669998,0.0496256127954,-0.231094181538,0.121870957315,-0.342670917511,-0.525629043579,-0.000617907964624,-0.0668959468603,-0.128305062652,0.493939617161,-0.264676991744,0.480251270253,0.0897694444109,0.989143809987,0.0739969293396,0.0897798650111
-0.362169861794,-0.164889484644,-0.112806707621,-1.93037557602,-0.0868882536888,1.9949477911,-0.590268969536,0.0496256127954,-0.154465049505,0.134440168738,-0.221613362432,-0.559675037861,0.0130237909034,-0.0494841113687,-0.0945854261518,0.488973255339,-0.269320241814,0.471408558545,0.0855456173993,0.990482076533,0.0701293203965,0.0819089832094
-0.364111512899,-0.162687957287,-0.115518644452,-1.93905007839,-0.0866089612246,1.99417495728,-0.591548502445,0.0496334917843,-0.105832062662,0.160011857748,-0.148378461599,-0.592185080051,0.0235963854939,-0.0553603470325,-0.0809267163277,0.48644420239,-0.270804673682,0.465481226698,0.0825740244077,0.991241719938,0.0687019528624,0.0768207297477
-0.363536298275,-0.148610711098,-0.116962328553,-1.97813558578,-0.0806567519903,1.99092423916,-0.596250414848,0.0496334917843,0.119305342436,0.252925395966,0.0887468010187,-0.601070940495,0.179408162832,-0.0299639813602,-0.0557506158948,0.480605851123,-0.266655905295,0.43694909778,0.0663125039157,0.993815733139,0.0709917204446,0.0537876911247
-0.360843747854,-0.143534690142,-0.114908628166,-1.98899817467,-0.0766254290938,1.99054539204,-0.596971333027,0.0496334917843,0.173799172044,0.312968611717,0.148729920387,-0.606295585632,0.255665749311,-0.0208628587425,-0.0278348959982,0.480436227134,-0.262709585943,0.428564734151,0.0607253144276,0.994305541311,0.0734060542566,0.0477543464304
-0.356798171997,-0.136881753802,-0.11119505018,-2.00111198425,-0.0708013549447,1.99012136459,-0.597440004349,0.0496334917843,0.234155923128,0.344663947821,0.218880012631,-0.580448389053,0.320171326399,-0.0125019457191,-0.0174984391779,0.480882237283,-0.256900486549,0.418742146897,0.0538041248706,0.994745568177,0.076902813333,0.0408941039771
-0.349605172873,-0.127373695374,-0.104595862329,-2.01613974571,-0.0613467507064,1.98983049393,-0.597914993763,0.0496334917843,0.312340825796,0.399122536182,0.273629665375,-0.570110023022,0.411461919546,-0.0118394615129,-0.0129673555493,0.482437223307,-0.247325527237,0.40600744595,0.044213731751,0.995057524408,0.0827984132068,0.032405115546
-0.342028349638,-0.118058100343,-0.0976369231939,-2.0284011364,-0.0516552738845,1.98979842663,-0.598104357719,0.0496334917843,0.370462596416,0.4184859097,0.359017670155,-0.529716074467,0.470113009214,0.00857939105481,-0.000188416830497,0.484412839243,-0.237609534091,0.394892606564,0.0354194816105,0.995107682442,0.0887068079579,0.0252440604511
-0.337117105722,-0.112568490207,-0.0928753092885,-2.03526353836,-0.0452956371009,1.98980343342,-0.598118782043,0.0496334917843,0.385791182518,0.436910957098,0.371009618044,-0.524848639965,0.510137677193,-0.00623049400747,-0.00207219994627,0.485780880606,-0.231258473225,0.388567164495,0.0301270519139,0.995028134284,0.0925113131593,0.0212844864194
-0.328149914742,-0.102234341204,-0.0837697982788,-2.04678297043,-0.0327914841473,1.98982274532,-0.598121345043,0.0496334917843,0.43328166008,0.484834641218,0.45241355896,-0.523245036602,0.618606328964,-0.00250387960114,0.000133474793984,0.488312621617,-0.219387745173,0.377422686136,0.0203731833741,0.994738161641,0.099361841089,0.0144273146378
-0.314750403166,-0.0881413295865,-0.0697615817189,-2.06082630157,-0.0145634561777,1.98992943764,-0.59811770916,0.0496341511607,0.487360417843,0.49812451005,0.507229149342,-0.464311331511,0.643391430378,-0.0053128991276,-0.000153049069922,0.492070083806,-0.201743252451,0.363195266061,0.00720248635757,0.993933424037,0.109593182816,0.00581435727843
-0.305903792381,-0.0788457617164,-0.0604521296918,-2.06907439232,-0.00267729209736,1.98997688293,-0.598107099533,0.0496341511607,0.505498766899,0.521816551685,0.538014650345,-0.447773396969,0.670098125935,0.00355009268969,-0.00106955971569,0.494187094837,-0.190791179549,0.354868220028,-0.000652855305833,0.993263755499,0.115871680261,0.000662724270657
-0.297017306089,-0.0701289400458,-0.0508186072111,-2.07658529282,0.00916333403438,1.98996162415,-0.598093152046,0.0496341511607,0.528573036194,0.510874152184,0.568069338799,-0.445323914289,0.696605980396,0.000662195612676,0.00218294770457,0.496411087682,-0.178367378909,0.346288814777,-0.00907456296872,0.992355699222,0.122987629115,-0.00467560823844
-0.287804603577,-0.0616040416062,-0.0408288948238,-2.08362150192,0.0213347673416,1.99007511139,-0.598052978516,0.0496341511607,0.547718346119,0.50174665451,0.582384943962,-0.396693229675,0.71674323082,-0.00344058149494,0.000909393595066,0.498430526743,-0.166234980529,0.338590601025,-0.0169275127469,0.991340731268,0.129877213147,-0.00942990161247
-0.262277245522,-0.0390839464962,-0.012451665476,-2.10093832016,0.0536660440266,1.99005675316,-0.597283124924,0.0496341511607,0.571395576,0.477065563202,0.63967615366,-0.353255182505,0.701904654503,-0.00516264885664,0.0354439765215,0.502692003911,-0.132523182171,0.319117540032,-0.0372179604817,0.987917975631,0.148788496778,-0.0222458932642
-0.238835632801,-0.0212948042899,0.0135577684268,-2.11354136467,0.081149160862,1.99003005028,-0.595825493336,0.0496341511607,0.590373814106,0.410714238882,0.652782320976,-0.296779483557,0.669083058834,0.00217160815373,0.0324141122401,0.505229169413,-0.102136075398,0.304562958724,-0.053393754074,0.984187681859,0.165747487407,-0.0324265943022
-0.228790640831,-0.0144881345332,0.0246506333351,-2.11837553978,0.0922834351659,1.99002707005,-0.595257937908,0.0496341511607,0.591904461384,0.392742961645,0.65895652771,-0.265292435884,0.647217214108,-0.00219312659465,0.0349907465279,0.505862899137,-0.0892857703966,0.299080483693,-0.059716853798,0.982425198576,0.173044162107,-0.0364738842561
-0.202422142029,0.000699689611793,0.0542276799679,-2.1285071373,0.118234597147,1.98984491825,-0.591726779938,0.0496341511607,0.5710054636,0.28871807456,0.645330131054,-0.185516566038,0.532395780087,-0.00984181649983,0.12833057344,0.506717076295,-0.0553412579798,0.287107286855,-0.0740613266516,0.977436819102,0.192367600763,-0.046118222323
-0.191561818123,0.00582132628188,0.0665507167578,-2.13176035881,0.128037914634,1.9897518158,-0.588824212551,0.0496190451086,0.554501593113,0.241877272725,0.63427323103,-0.154101863503,0.488681972027,0.000250049255555,0.171335846186,0.506747010161,-0.0425232039755,0.283511525513,-0.0787379661491,0.975528077757,0.199287688709,-0.0492921800914
-0.181118920445,0.00988153368235,0.078397333622,-2.13449931145,0.136637419462,1.98966908455,-0.585516393185,0.0496190451086,0.535381615162,0.184594884515,0.603973090649,-0.132497698069,0.416523396969,0.00129525316879,0.174493595958,0.506592639528,-0.0296880031091,0.280464086351,-0.0828847519655,0.973584187904,0.206251841389,-0.0521931468081
-0.15639410913,0.0157287269831,0.106821842492,-2.13911008835,0.153030872345,1.98946988583,-0.575172960758,0.0496190451086,0.478468507528,0.0672634541988,0.557523846626,-0.0654329806566,0.278298169374,-0.000481984752696,0.228816732764,0.505736521394,7.51879474772e-05,0.275940940522,-0.0898870260262,0.969027290733,0.222712834058,-0.0574928309072
-0.148316815495,0.0163885522634,0.116021327674,-2.14001703262,0.157746389508,1.98936736584,-0.571191370487,0.0496190451086,0.470430672169,0.0152439251542,0.538765370846,-0.0424220636487,0.272483855486,-0.00463530281559,0.244539007545,0.505353746044,0.00960326528204,0.275341534569,-0.0915577240621,0.967586441888,0.227951735352,-0.0585804291816
-0.141029253602,0.0163591466844,0.124490916729,-2.14053225517,0.161898463964,1.98933064938,-0.567145228386,0.0496190451086,0.436028927565,-0.0140373241156,0.51719379425,-0.0164703335613,0.244846358895,-0.000253403937677,0.260312944651,0.505013427079,0.0182488772942,0.275243322672,-0.0928355124292,0.966323014771,0.232593123048,-0.0591763260122
-0.132133170962,0.0158611591905,0.134784311056,-2.14053964615,0.166664540768,1.989341259,-0.561502695084,0.0496190451086,0.414077401161,-0.0503619462252,0.46818459034,0.00338083063252,0.199499100447,-0.000283177592792,0.274715304375,0.504668423381,0.0287133708238,0.275611837145,-0.0940771089704,0.964865515243,0.238006127047,-0.0594736768916
-0.120959758759,0.0131491813809,0.147616401315,-2.14035081863,0.172020867467,1.989346385,-0.553260207176,0.0496190451086,0.34672576189,-0.0967010036111,0.428351283073,0.0196154136211,0.157479837537,0.000823919835966,0.289977908134,0.504079887456,0.0425169969781,0.277301906108,-0.0949786452757,0.963097295597,0.244848395376,-0.058922993212
-0.115441329777,0.0114898690954,0.154536321759,-2.13989591599,0.174430444837,1.98935985565,-0.548340857029,0.0496190451086,0.322958052158,-0.109517939389,0.402469784021,0.0355068780482,0.134218558669,0.00489042606205,0.298972308636,0.503845448024,0.0483400489989,0.278259325704,-0.0951447617721,0.962408720448,0.247576077717,-0.0585065342327
-0.109757639468,0.0090419407934,0.161534041166,-2.1392583847,0.176909774542,1.98934578896,-0.542432248592,0.0496190451086,0.295724570751,-0.158966571093,0.362647026777,0.0339485406876,0.12916174531,0.00518899969757,0.323178946972,0.503573701354,0.0551296556982,0.279805330423,-0.0951884088943,0.961730171731,0.250378175392,-0.0576629219987
-0.104384973645,0.00581742543727,0.167999640107,-2.13845062256,0.178904339671,1.98935711384,-0.536418735981,0.0496190451086,0.262880593538,-0.161571145058,0.318578779697,0.0545159243047,0.0905179679394,0.000716187758371,0.301819235086,0.503363493519,0.0614146793286,0.281794634716,-0.0948984010243,0.961178857887,0.252882445853,-0.0563911775491
-0.0974888205528,0.000665675965138,0.176522806287,-2.13657522202,0.181624218822,1.98934412003,-0.527494072914,0.0496190451086,0.199869468808,-0.200545936823,0.2705989182,0.0600508488715,0.0935240983963,0.00370316463523,0.295139253139,0.503299047839,0.0696417324651,0.285204496605,-0.0943255491,0.96063666277,0.255674030779,-0.0539507424121
-0.0940586477518,-0.0033252267167,0.181317985058,-2.13541197777,0.183462172747,1.9893835783,-0.521911799908,0.0496190451086,0.159407004714,-0.205951109529,0.239215508103,0.0611459687352,0.0901243165135,-0.0115184932947,0.28637444973,0.503326719128,0.0740967464314,0.287719065183,-0.0939435352233,0.960499038062,0.256739426659,-0.0519718824154
-0.091410279274,-0.00689861131832,0.185115918517,-2.13415789604,0.18456029892,1.98942101002,-0.516638815403,0.0496190451086,0.135299235582,-0.194822713733,0.190227597952,0.0761508047581,0.033044744283,0.00119834509678,0.294002383947,0.503455044052,0.0775455402968,0.290048385459,-0.0933793168698,0.960512834758,0.257261465013,-0.0501192154461
