imanlab/tactile_prediction_flat_dataset/train/data_sample_2021-11-24-15-33-58/robot_state.csv
position_panda_joint1,position_panda_joint2,position_panda_joint3,position_panda_joint4,position_panda_joint5,position_panda_joint6,position_panda_joint7,position_panda_finger,velocity_panda_joint1,velocity_panda_joint2,velocity_panda_joint3,velocity_panda_joint4,velocity_panda_joint5,velocity_panda_joint6,velocity_panda_joint7,ee_state_position_x,ee_state_position_y,ee_state_position_z,ee_state_orientation_x,ee_state_orientation_y,ee_state_orientation_z,ee_state_orientation_w
0.247167691588,0.0614854805171,-0.257827579975,-2.52702331543,0.0722154900432,2.60110092163,-0.774562001228,0.0698076039553,-0.000118226038467,-0.000157937232871,-0.000314660865115,0.000387150037568,6.60449877614e-05,6.7321007009e-06,0.000242582027568,0.464873910532,-0.00502922722028,0.143022835458,-0.00725249467208,0.938802577754,0.344198188206,0.0111681800526
0.247161820531,0.0614911094308,-0.257828146219,-2.52702355385,0.0722134783864,2.60110044479,-0.774541497231,0.0697143599391,-0.00262467842549,0.000363151513739,-0.000102408768726,0.00037590356078,7.16973727322e-06,-1.72599484358e-05,2.83137887891e-05,0.464872614728,-0.00503255372561,0.143020177457,-0.00725250729029,0.938806962138,0.344186339151,0.0111647932162
0.24716347456,0.0614916794002,-0.257826864719,-2.5270242691,0.0722134113312,2.60109901428,-0.774532735348,0.0697143599391,-0.000299496634398,0.00154454028234,-0.000160041978233,4.05108912673e-05,0.000714018882718,-2.21532172873e-05,-3.74393457605e-05,0.464871852218,-0.00503117992378,0.143019521346,-0.00725304543377,0.938807966951,0.344183629716,0.0111634781086
0.247166514397,0.0614914149046,-0.257828056812,-2.52702498436,0.0722142234445,2.60109996796,-0.774527490139,0.0697143599391,0.000310796080157,0.000444321660325,0.000214937492274,-7.07180079189e-05,-0.000125578793813,0.000103080412373,0.000322738778777,0.464871860124,-0.0050304326887,0.143019713288,-0.00725310957928,0.938808610707,0.344181854794,0.0111640216901
0.247162878513,0.0614912770689,-0.257829338312,-2.52702403069,0.0722149983048,2.60109949112,-0.774505198002,0.0697143599391,0.00163223280106,-0.000215640786337,-0.000289602059638,-0.000202148512471,7.99299523351e-05,1.34409701786e-05,0.000197100118385,0.464872174469,-0.00503240759022,0.143020020435,-0.00725327595201,0.938813492911,0.34416852447,0.011164316714
0.247165754437,0.0614932775497,-0.257828116417,-2.52702331543,0.0722143352032,2.60109782219,-0.774497687817,0.0697143599391,0.000214962143218,-0.000528655538801,-2.90075913654e-05,0.000169421124156,-5.91976167925e-05,-4.42034906882e-05,0.000103524500446,0.464871900792,-0.00503055526824,0.143019223506,-0.00725355862941,0.938813984886,0.344167230557,0.0111626505372
0.247168451548,0.0614970363677,-0.257828533649,-2.52702116966,0.0722141489387,2.60109901428,-0.774489343166,0.0697143599391,-6.39269128442e-05,-0.00122428312898,-0.00032705036574,-0.000289192626951,-3.25152068399e-05,0.000135357666295,0.00250891689211,0.464872440184,-0.00502987928334,0.143018253424,-0.007253162451,0.938814979165,0.344164542485,0.0111621643376
0.247167095542,0.0614971593022,-0.257826447487,-2.52702283859,0.0722136795521,2.60109949112,-0.774483084679,0.0697143599391,0.000140230782563,-0.00028723385185,2.58609943558e-05,-0.000368327600881,-6.08229966019e-05,-9.36453216127e-05,-6.65509651299e-05,0.464871682104,-0.00502955060288,0.143017618993,-0.00725335632327,0.938815877035,0.344162111576,0.0111614735507
0.247164100409,0.0614967644215,-0.257828772068,-2.52702307701,0.0722134113312,2.60109615326,-0.774474143982,0.0697143599391,-0.000280385196675,-0.000259896158241,-0.000222786009545,9.36521100812e-05,-0.000110347304144,-4.36960363004e-05,-4.68106918561e-05,0.464870969616,-0.0050322172723,0.143017517783,-0.00725387235275,0.938818447285,0.34415513162,0.0111601720525
0.247166082263,0.0614980235696,-0.257825732231,-2.52702260017,0.0722137615085,2.60109829903,-0.774470031261,0.0697143599391,0.000339731370332,0.000873793207575,-0.000170265528141,1.77141555469e-05,-3.55589872925e-05,-1.84946311492e-05,-2.22232356464e-05,0.464871501127,-0.00502973935597,0.143017499925,-0.00725370458749,0.938818179523,0.34415584144,0.0111609164964
0.247165590525,0.0614962168038,-0.257827460766,-2.5270216465,0.0722154080868,2.60109782219,-0.774465084076,0.0697143599391,-0.000339940568665,7.44005737943e-05,-0.000119721255032,6.46097687422e-05,-0.000148216146044,1.61676998687e-05,-0.000334654352628,0.464872085071,-0.00503059379327,0.143018332998,-0.00725390839141,0.938819643633,0.344151812704,0.0111618565176
0.247165292501,0.0614977106452,-0.257826596498,-2.52702474594,0.0722139850259,2.60109734535,-0.774457871914,0.0697123929858,-0.000272877659881,-0.00052300770767,-0.000477881578263,-0.000346859451383,5.42476409464e-05,8.23514346848e-05,0.000166951111169,0.464870151622,-0.00503043726533,0.143016483237,-0.00725436094762,0.938820617823,0.344149229324,0.011159275965
0.247165188193,0.0615008100867,-0.257826179266,-2.5270190239,0.0722135975957,2.6010966301,-0.774438381195,0.0697123929858,9.85919759842e-05,0.000153926157509,-0.000140125339385,3.36080993293e-05,-2.78783863905e-05,-2.03304662136e-05,-0.000258549232967,0.464872288888,-0.00503042987623,0.143017102667,-0.00725368813448,0.938823835422,0.344140443318,0.0111599736719
0.247166678309,0.0615025386214,-0.257827341557,-2.52701973915,0.0722148194909,2.60109615326,-0.774432957172,0.0697123929858,5.16021609656e-05,-0.000366930355085,9.56277290243e-05,-0.00021225376986,9.89276231849e-05,9.97819079203e-05,0.00208506220952,0.464871517221,-0.00503031662799,0.143016031559,-0.00725429135714,0.938824905764,0.344137553165,0.0111586630698
0.247168436646,0.061506588012,-0.257827877998,-2.52702355385,0.0722150430083,2.60109567642,-0.77442663908,0.0697123929858,-0.000497216824442,0.000146778285853,-0.000590487092268,0.0001318865543,7.08403240424e-05,-0.000131637090817,0.000120536897157,0.464868766682,-0.00502992802168,0.143012784496,-0.00725535313822,0.938825872395,0.344135024095,0.0111546425506
0.247164726257,0.0615047365427,-0.257827997208,-2.52702045441,0.072214089334,2.6010966301,-0.774421453476,0.0697123929858,7.95954692876e-05,-0.00026400477509,0.000282049993984,0.000269735319307,8.52522716741e-05,-2.86456852336e-05,5.45354896531e-06,0.464870844623,-0.00503167381402,0.143014831036,-0.00725428899485,0.9388272475,0.344131207545,0.0111573439294
0.247168049216,0.0615055672824,-0.257826685905,-2.52702188492,0.0722147077322,2.60109710693,-0.774408519268,0.0697123929858,-0.000221255322685,-1.16412711577e-05,-0.00015186049859,5.78497383685e-05,-3.93300797441e-05,-0.00276235491037,0.00296473060735,0.464870100245,-0.00502953069142,0.143013971714,-0.00725477321361,0.938828781372,0.34412704064,0.0111564832982
0.247163414955,0.0615082010627,-0.257827669382,-2.5270190239,0.0722155496478,2.6010966301,-0.774399280548,0.0697123929858,3.40825936291e-05,0.00101677619386,0.000545315502677,-4.59545553895e-05,-8.18775079097e-05,1.96607361431e-05,0.00117512000725,0.464870762288,-0.00503202719794,0.143013610874,-0.00725478154167,0.938831154453,0.344120582396,0.0111559862905
0.247164413333,0.0615067593753,-0.257826834917,-2.52702069283,0.0722142830491,2.60109591484,-0.774389624596,0.0697123929858,0.000417670293245,0.000119614924188,-0.000361674145097,-0.00016010190302,-9.01649909792e-05,2.07022294489e-05,0.00308019155636,0.464870198897,-0.00503134121253,0.143013761545,-0.00725484727647,0.93883262179,0.344116583649,0.0111558055975
0.247164919972,0.0615091063082,-0.257827818394,-2.52702307701,0.0722144022584,2.60109567642,-0.774379849434,0.069472707808,-0.000541322981007,0.000433644367149,-0.000219384950469,0.000456002424471,-3.86048013752e-05,-0.000162209529663,0.000421622826252,0.464868522184,-0.00503167504242,0.143011824959,-0.00725548990294,0.938834437474,0.34411169472,0.0111533905813
0.247167661786,0.0615115016699,-0.257828295231,-2.52702116966,0.0722140744328,2.60109591484,-0.774359226227,0.069472707808,-0.000105490238639,0.000455328554381,-0.000659615034238,0.000732628046535,-9.30430614972e-05,0.000195754299057,0.000633671996184,0.464869099254,-0.00503075367438,0.143011466872,-0.00725526300429,0.938837547741,0.344103223706,0.0111530817583
0.247164532542,0.0615082681179,-0.257826864719,-2.52702021599,0.072215102613,2.601095438,-0.77434694767,0.069472707808,-0.000209693695069,-0.000366232154192,0.00137385900598,0.000465534772957,-7.94461448095e-05,0.000111553141323,0.0031812665984,0.464870058881,-0.00503133098116,0.143013214231,-0.00725537310313,0.938840073536,0.344096268179,0.0111549897102
0.247164204717,0.0615105368197,-0.257827609777,-2.52702045441,0.0722151845694,2.60109639168,-0.774335980415,0.069472707808,0.000196516804863,-7.07053914084e-05,0.00016381496971,-0.00163786369376,4.86183307657e-05,4.09404965467e-05,0.00229711597785,0.464869725528,-0.00503195685434,0.143012200106,-0.00725538944044,0.938842171538,0.344090570604,0.0111541550231
0.247168272734,0.0615100637078,-0.257827877998,-2.52702116966,0.0722142830491,2.60109591484,-0.774326503277,0.069472707808,8.46140101203e-05,-0.000945256033447,-0.000157039365149,-0.00097417057259,-0.000106462954136,3.78881995857e-05,-0.00034478266025,0.464869368678,-0.0050301967617,0.143012110383,-0.00725543917506,0.938843021866,0.344088264293,0.011153697062
0.247169241309,0.0615117251873,-0.257827937603,-2.52701973915,0.0722134560347,2.601095438,-0.774310827255,0.069472707808,0.000189963597222,0.00090135273058,9.6479030617e-05,-0.000504016934428,4.00680546591e-05,-3.45034277416e-05,-2.87648654194e-05,0.4648696777,-0.00502987351544,0.143011840121,-0.00725526330792,0.938845442547,0.344081679965,0.0111531771949
0.247165873647,0.0615127757192,-0.25782841444,-2.52702331543,0.0722134560347,2.60109519958,-0.774271726608,0.069472707808,-0.000450893450761,-0.000108858563181,0.000391338777263,-0.00033163986518,2.81366701529e-05,6.53794122627e-05,0.00216056127101,0.464867507368,-0.00503165719563,0.143009861402,-0.00725620026312,0.938852947226,0.344061265912,0.0111506066782
0.247164517641,0.0615142807364,-0.257827669382,-2.52702212334,0.0722136795521,2.60109615326,-0.77425968647,0.069472707808,1.68753213075e-05,0.00122040393762,0.000562790723052,-0.00296521116979,7.50729959691e-05,2.43397207669e-05,3.65302876162e-05,0.464868146178,-0.00503206642048,0.143009887623,-0.0072559926005,0.938855073963,0.34405545508,0.0111509722465
0.24716578424,0.0615125000477,-0.257827103138,-2.5270178318,0.0722135230899,2.60109448433,-0.774243474007,0.069472707808,0.000639699341264,0.000170068364241,-0.000176069341251,-1.83670581464e-05,6.53462120681e-05,-7.32218904886e-05,0.000357324315701,0.464870267298,-0.00503109956655,0.143012092613,-0.00725556478548,0.938857481059,0.344048829079,0.0111530235949
0.247167795897,0.0615154616535,-0.257827013731,-2.52701830864,0.0722148418427,2.60109424591,-0.774232804775,0.069472707808,-0.000133892419399,0.000813488091808,-0.000175548804691,0.000249938835623,-9.13614858291e-05,-8.26290633995e-05,-0.000331715593347,0.464869445136,-0.00503020669869,0.143010566629,-0.00725624141713,0.938859168026,0.344044266891,0.0111513084187
0.247169062495,0.0615186542273,-0.257826715708,-2.52701997757,0.0722151324153,2.6010928154,-0.774205505848,0.069472707808,3.60774174624e-06,-9.0810644906e-05,0.000133320674649,-0.000183433687198,2.38784086832e-05,-9.65631406871e-05,-0.000295877252938,0.464867719,-0.00502958967591,0.143008392254,-0.00725723525604,0.938863672669,0.344032053274,0.011148214462
0.247166484594,0.0615199245512,-0.257828503847,-2.5270216465,0.0722142681479,2.60109353065,-0.774193644524,0.0687549710274,0.000534514372703,0.000474004773423,-0.000344568368746,0.000141285578138,2.23657798415e-06,5.9013862483e-05,0.00389665691182,0.464866785695,-0.00503174271504,0.14300729172,-0.00725722957175,0.93886635977,0.344024759327,0.0111470070903
0.247167006135,0.0615192502737,-0.257827967405,-2.52701735497,0.0722140222788,2.60109472275,-0.774183809757,0.0687549710274,-1.23971431094e-05,0.000118149953778,0.000643363164272,0.00062781519955,9.04397893464e-06,-5.25714967807e-05,0.000149728148244,0.464869319823,-0.0050312414868,0.143009260184,-0.00725620995732,0.938867792837,0.344020778418,0.0111498293147
0.24716424942,0.0615196079016,-0.257829517126,-2.5270190239,0.0722157880664,2.601095438,-0.77417242527,0.0687549710274,-0.000188361256733,0.000714558293112,0.000286283233436,-0.000179602837306,9.18082077987e-05,2.29932447837e-06,-3.98860647692e-05,0.464868561264,-0.00503322425577,0.143008570366,-0.00725679138604,0.938870760999,0.344012681242,0.0111493475964
0.247166976333,0.0615226626396,-0.257827937603,-2.52702116966,0.0722144544125,2.60109305382,-0.77414804697,0.0687549710274,-7.53542481107e-05,0.000793327169959,4.9070607929e-05,-7.06909122528e-05,0.000120603450341,-3.47170534951e-05,-9.74399445113e-05,0.46486642068,-0.00503135665899,0.143006186934,-0.00725770727154,0.938874061845,0.344003777792,0.0111455027226
0.247165814042,0.0615229569376,-0.257827430964,-2.52702093124,0.0722142904997,2.6010928154,-0.77413970232,0.0687549710274,0.000518715532962,0.000228693359531,7.40001050872e-05,-0.000177244146471,-1.11936324174e-05,-9.39133824431e-05,-0.000191611616174,0.464866398959,-0.00503129641902,0.143006244134,-0.00725776446403,0.938875671994,0.343999390286,0.011145248409
0.247166246176,0.0615236312151,-0.257827043533,-2.52701759338,0.072214230895,2.60109329224,-0.774123311043,0.0687549710274,-0.000229493394727,-0.000584117253311,0.000344874832081,0.00018988508964,-7.00148957549e-05,4.48801665698e-06,-3.6316083424e-05,0.464868081734,-0.00503132649333,0.143007067284,-0.00725718941771,0.938878232473,0.34399236728,0.0111466914668
0.24716937542,0.0615227743983,-0.257826328278,-2.52701663971,0.0722141861916,2.6010928154,-0.774110615253,0.0687549710274,-0.000211657432374,0.000135177950142,0.000402090721764,6.66236373945e-05,4.73966683785e-05,8.87944679562e-06,-0.000307648791932,0.46486863062,-0.00502948470036,0.143007750589,-0.00725717764899,0.938879735995,0.343988244657,0.0111472837057
0.247166588902,0.0615251585841,-0.257826834917,-2.52701807022,0.0722150653601,2.60109305382,-0.774099051952,0.0687549710274,0.0013041846687,-0.000519600813277,-0.00038968885201,-0.000348716130247,-2.67183099822e-06,-2.79556352325e-05,0.00282282289118,0.464867514343,-0.00503110411589,0.143006184739,-0.00725774626448,0.938882444243,0.343980895365,0.0111455964847
0.247163489461,0.0615277402103,-0.257828354836,-2.52701997757,0.0722145214677,2.60109376907,-0.774087607861,0.0687549710274,-1.43546885738e-05,-2.63022120635e-05,-0.000250955112278,0.000210131867789,4.71588718938e-05,2.42336463998e-05,0.000103165155451,0.464866218926,-0.00503342131394,0.143004406366,-0.00725793184083,0.938885159193,0.343973543697,0.0111436617111
0.247167035937,0.0615266375244,-0.257827490568,-2.52701735497,0.0722142830491,2.60109233856,-0.774080514908,0.0687549710274,0.000155932473717,-0.000575190235395,-3.79694029107e-05,-0.00026801272179,-3.52858733095e-05,9.1045301815e-05,-0.000422699115006,0.46486744344,-0.00503129271804,0.143005719044,-0.0072577382764,0.938885559848,0.343972419871,0.0111447206291
0.247172892094,0.0615283101797,-0.257823288441,-2.52701950073,0.0722151324153,2.6010928154,-0.774073421955,0.0674698725343,-0.000431196007412,-0.00177617534064,-0.000614002055954,-0.000295755628031,2.01129169e-05,-6.29062014923e-07,-0.000289531133603,0.464866205523,-0.00502662895535,0.143004200253,-0.00725853362868,0.938885200574,0.343973434908,0.011143141264
0.247171252966,0.0615277290344,-0.257823914289,-2.52701926231,0.0722149312496,2.60109138489,-0.774068295956,0.0674698725343,8.09629200376e-05,-0.000508093682583,-0.000101871781226,0.000142724835314,1.98932666535e-05,6.4259278588e-05,-0.0002651992545,0.464866111359,-0.00502764353778,0.143004422253,-0.00725870352242,0.938886439055,0.343970060059,0.0111428565286
0.247168108821,0.0615288987756,-0.257827162743,-2.52702379227,0.072214089334,2.60108971596,-0.774053990841,0.0674698725343,-0.000531064637471,-0.00074527959805,-0.00124743336346,0.000244820315856,-8.35048413137e-05,-0.000107601168565,-0.000418073905166,0.464863241171,-0.00503070816218,0.14300211982,-0.00725965012811,0.938889923781,0.343960644318,0.0111392706127
0.247165128589,0.0615281946957,-0.257826417685,-2.52701830864,0.0722139626741,2.60109043121,-0.774050056934,0.0674698725343,-0.000292857119348,-0.000575348036364,0.0033433418721,0.000976833282039,-5.3094496252e-05,-0.000579840445425,0.000211495207623,0.464866716973,-0.00503188464753,0.143004899442,-0.00725827382706,0.938890993331,0.343957631005,0.0111430634464
0.247164353728,0.0615284740925,-0.257829219103,-2.52701187134,0.0722138509154,2.60109210014,-0.774042189121,0.0674698725343,-0.00206008506939,-0.000413313391618,-0.000395371287595,-0.000450782972621,1.41944601637e-05,0.000119750991871,5.61278247915e-05,0.464869779765,-0.00503345512335,0.143006878442,-0.00725694656043,0.938892813878,0.343952591422,0.0111460896973
0.247175216675,0.0615349598229,-0.257821619511,-2.52701568604,0.0722145587206,2.60108923912,-0.774019598961,0.0674698725343,-0.000170927873114,-0.000354151561623,-8.98339130799e-05,0.000524511677213,-5.9357171267e-05,-1.60916636105e-06,-0.000151866275701,0.464866127605,-0.00502502022557,0.1430022601,-0.0072591744239,0.938893703536,0.343950322099,0.0111397245115
0.247168660164,0.0615318268538,-0.257825016975,-2.52702140808,0.0722140669823,2.60108923912,-0.774011731148,0.0674698725343,0.000528323987965,0.00144676165655,-0.000230873789405,-0.000258998916252,-0.000198101173737,-7.31282307243e-06,-9.48365195654e-05,0.464863799019,-0.00502955906625,0.143001611648,-0.00725978939117,0.93889672426,0.343942101156,0.0111385533368
0.247161969543,0.0615323744714,-0.257828384638,-2.52701950073,0.0722137019038,2.6010890007,-0.774006187916,0.0674698725343,-6.58975041006e-05,-0.000463339383714,-0.0039878715761,0.00042749629938,2.91913420369e-05,-9.85819933703e-05,2.71754697678e-06,0.464864559186,-0.00503430365894,0.143002061731,-0.00725931433711,0.938899342073,0.343934949452,0.011139032339
0.247166067362,0.0615362599492,-0.257827401161,-2.52701377869,0.0722155943513,2.60108971596,-0.773995816708,0.0601152069867,0.00215086853132,-0.000108799322334,-0.000273303565336,-0.000278473627986,8.11005302239e-05,8.98087819223e-06,-0.000121235723782,0.464866890543,-0.0050320507675,0.143002455871,-0.00725892761625,0.938900500996,0.34393175468,0.0111402427081
0.247166782618,0.0615412928164,-0.257827013731,-2.52702188492,0.0722143352032,2.60108923912,-0.773987174034,0.0601152069867,0.000173726512003,-0.000307720445562,0.000163298711414,-0.000482845585793,6.97765935911e-05,-5.16012114531e-05,0.000202742638066,0.464861803411,-0.0050318113068,0.14299719802,-0.00726048310058,0.938901715249,0.343928623127,0.011133569397
0.24717323482,0.0615386143327,-0.257823854685,-2.52701401711,0.07221455127,2.6010890007,-0.773944914341,0.0601152069867,-0.000148882594658,-0.000137495211675,-0.000194566920982,0.000185249518836,1.59140290634e-05,0.000199845540919,0.0034157903865,0.46486614971,-0.00502714362994,0.143001143602,-0.00725948051334,0.938907010332,0.343914040433,0.0111381493853
0.247172921896,0.0615383759141,-0.257825523615,-2.52701449394,0.0722135454416,2.60109400749,-0.77391064167,0.0601152069867,-0.000473750435049,0.00047611122136,-0.00077779853018,0.000649863795843,-5.94315622493e-07,9.37500517466e-05,0.00153000862338,0.464867107106,-0.005028222296,0.143001620201,-0.00725837327796,0.938913363992,0.343896648793,0.0111402679765
0.247164130211,0.0615370050073,-0.257826834917,-2.52699923515,0.0722145363688,2.60109639168,-0.773870527744,0.0601152069867,-0.000152641820023,-0.00024158055021,-0.000749701343011,0.00380406761542,7.51719999244e-05,1.08456824819e-05,0.00124700937886,0.464875470296,-0.00503286483236,0.143008013785,-0.00725548260887,0.938922003271,0.343872833577,0.0111491596464
0.247164160013,0.0615389533341,-0.257828354836,-2.52700281143,0.072214923799,2.60109829903,-0.773845672607,0.0601152069867,0.000242796057137,-0.000318050122587,-0.000246066047112,-0.000316797086271,3.21792977047e-05,2.39121436607e-05,0.000900777406059,0.464873733107,-0.0050336853322,0.143006022458,-0.00725600046344,0.938926627358,0.34386025567,0.0111473383508
0.247168987989,0.0615416541696,-0.257828265429,-2.52700209618,0.0722142010927,2.60109877586,-0.77383762598,0.0601152069867,0.000902292900719,-0.000656746793538,0.00022890920809,2.63915239884e-06,3.35316472047e-05,1.52832217282e-05,-4.60859046143e-05,0.464873719618,-0.00503155877607,0.143005110731,-0.00725581834884,0.93892707167,0.343859075859,0.0111464263901
0.247172132134,0.0615398064256,-0.257826149464,-2.52699875832,0.0722139626741,2.6010992527,-0.77382850647,0.0601152069867,-0.000287989183562,-0.000461138872197,1.37213037306e-05,0.000531376805156,3.7566467654e-05,-4.81642928207e-05,-0.000250955461524,0.464875853979,-0.00502902071008,0.143007183143,-0.00725512305725,0.938927661474,0.343857394862,0.0111490534727
0.247170701623,0.0615406259894,-0.257827699184,-2.5270011425,0.0722144171596,2.60109853745,-0.773807585239,0.0492506548762,0.000525260751601,-0.00024341903918,0.000147531318362,0.000535694241989,6.71234920446e-06,0.00277853198349,-8.06714961072e-05,0.464874345066,-0.00503043241485,0.143005894097,-0.00725589471115,0.938931861758,0.343845969872,0.0111471815592
0.24717079103,0.0615415088832,-0.257827997208,-2.52699899673,0.0722158402205,2.60109829903,-0.773802876472,0.0492506548762,0.000156439768034,-0.00200475426391,-4.14196874772e-05,-0.000106248226075,8.15812745714e-05,-5.7487799495e-05,-1.00221623143e-05,0.464875208318,-0.00503051522273,0.143006259292,-0.00725596709957,0.938932900375,0.343843113271,0.0111477656306
0.247168302536,0.0615406259894,-0.257827281952,-2.52700185776,0.0722146332264,2.60109949112,-0.773797154427,0.0492506548762,2.48742362601e-05,0.000100543686131,-1.68712558661e-05,-0.000209285150049,3.07880400214e-05,0.000173496620846,0.000215185747948,0.464874183414,-0.00503135856341,0.143005717985,-0.00725593696641,0.938934031477,0.343840041103,0.0111472747542
0.247165352106,0.061537694186,-0.257828712463,-2.52699232101,0.0722144842148,2.60111498833,-0.773791074753,0.0492506548762,-0.000242316105869,-8.24329836178e-05,-0.000314900884405,0.00237350608222,3.17003832606e-05,0.00329252681695,-1.25144097183e-05,0.464882841679,-0.00503354641663,0.143011926947,-0.00725085218935,0.938935688581,0.343835202924,0.0111602315729
0.24716681242,0.0615375079215,-0.25782725215,-2.52687978745,0.0722141936421,2.60113310814,-0.77378475666,0.0492506548762,0.000151339001604,0.000214879226405,1.49746847455e-05,0.00710925972089,3.18263009831e-05,-0.000473866180982,-0.000343969790265,0.464946659738,-0.00503229062551,0.143056929479,-0.00722610950755,0.938935146653,0.343835122911,0.0112241551865
0.247164592147,0.0615345649421,-0.257827997208,-2.52673792839,0.0722143948078,2.60111689568,-0.773778378963,0.0492506548762,0.000349411100615,0.000517630483955,-0.000212802406168,0.00682545127347,3.64113202522e-06,-0.00611578812823,-0.000236216917983,0.465011149978,-0.00503329809818,0.143106045917,-0.00720544824507,0.938935740101,0.343832057455,0.0112815526351
0.247162699699,0.0615432560444,-0.257833003998,-2.52664613724,0.0722139775753,2.60112452507,-0.773773491383,0.0492506548762,0.000146627353388,0.00152112159412,-0.000391382985981,0.00563472462818,-4.64349723188e-05,0.000679255463183,-0.000188018631889,0.465059045176,-0.00503731729111,0.143137393583,-0.0071870411307,0.938937130416,0.343827207606,0.0113253062889
0.247146695852,0.0615506544709,-0.257843285799,-2.52662205696,0.0722140446305,2.60111188889,-0.773765325546,0.0492506548762,-0.000812838494312,0.00133530050516,-0.000833777885418,-0.0011814229656,2.41357392952e-05,-9.56367221079e-05,-0.000112848218123,0.465064030305,-0.00505082197545,0.143139413316,-0.00718650923512,0.938943340616,0.343810306786,0.0113238612222
0.247127726674,0.0616327039897,-0.25785702467,-2.52664089203,0.0722133293748,2.60111308098,-0.773749649525,0.0492506548762,-2.66884380835e-05,0.00285312836058,0.000704181788024,0.00155217875727,-4.6891378588e-05,3.6442950659e-05,-0.000361163751222,0.465040792375,-0.00506866144027,0.143096218459,-0.00719280572079,0.938951668208,0.34378902699,0.011275323641
0.247134953737,0.061656396836,-0.25785318017,-2.52661156654,0.0722133889794,2.60111808777,-0.773740410805,0.0492506548762,0.000397722789785,-0.00109758693725,7.19784147805e-05,0.00183513585944,4.34347566625e-05,0.000339301244821,0.00090411741985,0.465052005318,-0.0050646979571,0.143097530747,-0.00718809808525,0.938951264119,0.343790060114,0.0112804746645
0.247142404318,0.0616530328989,-0.257850557566,-2.52654051781,0.0722134560347,2.60111737251,-0.773733437061,0.0426649451256,4.14659407397e-05,0.000195398228243,0.000195006316062,0.00113049370702,0.000154351801029,-0.000116112722026,-0.000570273667108,0.465088067697,-0.00505977242185,0.14312481167,-0.00717571696224,0.938950130676,0.343792279934,0.0113149960107
0.247138798237,0.061656832695,-0.257849723101,-2.52653837204,0.0722131803632,2.60111761093,-0.773730099201,0.0426649451256,-0.000315084849717,-0.000511475838721,0.0018494828837,2.25083385885e-05,-6.73951799399e-05,-0.000119327225548,0.000244665367063,0.465088476472,-0.00506124239698,0.14312389906,-0.00717544882259,0.938951147282,0.343789535505,0.0113141909237
0.247132852674,0.0616513974965,-0.257855594158,-2.52653765678,0.0722138285637,2.60111641884,-0.773729503155,0.0426649451256,-0.000272036937531,0.000296246143989,-5.91183452343e-05,-0.000291523960186,0.00021699021454,9.22768595046e-05,0.000246373732807,0.46508953514,-0.00506650165377,0.143126538404,-0.00717519727675,0.938953334438,0.343783482208,0.0113167724399
0.247131437063,0.0616504438221,-0.257853776217,-2.52653384209,0.0722126364708,2.60111689568,-0.773724198341,0.0426649451256,0.000452659121947,0.000600157480221,0.000637979363091,3.85777384508e-05,0.000112461886602,1.31323222377e-05,-0.000183525102329,0.465091716729,-0.00506630163634,0.143128384629,-0.00717417894856,0.938953967238,0.343781698144,0.0113191109288
0.247137904167,0.061652187258,-0.257851392031,-2.52653217316,0.0722131803632,2.60111713409,-0.773723065853,0.0426649451256,3.0765801057e-05,-5.48501520825e-05,-0.000692250265274,-0.000111855304567,-0.000163584467373,3.8414291339e-05,-0.000324884313159,0.465092322062,-0.00506222403735,0.143128212642,-0.00717418545004,0.938952716091,0.34378511355,0.0113191605873
0.24713742733,0.0616537109017,-0.257850259542,-2.52653026581,0.0722149834037,2.60111665726,-0.773720145226,0.0426649451256,-0.00011503114365,-0.000563498178963,0.000228925724514,-0.000120403135952,-8.64180856297e-06,0.000121623575978,1.86175147974e-05,0.465092897415,-0.00506190156362,0.143128171227,-0.00717451208359,0.938953359908,0.343783345282,0.0113192529013
0.247133180499,0.0616551227868,-0.257853925228,-2.52652788162,0.0722129866481,2.60111713409,-0.773720502853,0.0426649451256,-0.000510834157467,-0.000160429568496,-0.000200730661163,-0.000784534495324,-4.67816535092e-05,-3.53967516276e-05,-4.12533290728e-06,0.465093899151,-0.00506576666107,0.14312847249,-0.00717342922417,0.938954358607,0.343780625583,0.0113196963621
0.247135043144,0.0616558007896,-0.257852554321,-2.52653098106,0.0722120851278,2.60111641884,-0.77371609211,0.0426649451256,8.94449985935e-05,0.00104429363273,0.000211504753679,-0.00012848112965,0.000104049577203,0.000153489541844,5.49494325242e-05,0.465092078191,-0.00506430260873,0.143126963704,-0.00717402775365,0.938954462589,0.343780402444,0.0113174684693
0.247137337923,0.0616521649063,-0.257850915194,-2.52652525902,0.0722133219242,2.60111618042,-0.773714244366,0.0426649451256,6.02365762461e-05,0.00012437949772,-0.000755764776841,-6.32612573099e-05,-5.18697743246e-05,-0.00014742964413,7.54067295929e-05,0.465095577695,-0.0050622334566,0.143130648367,-0.00717325692222,0.938954212063,0.343780955068,0.0113219544836
0.247137770057,0.0616564750671,-0.25785112381,-2.52653217316,0.0722139626741,2.60111427307,-0.773712396622,0.0426649451256,0.000111369714432,-0.000129471431137,0.00052560766926,-0.000403330283007,3.17447302223e-05,-7.48380407458e-05,-0.000332664640155,0.465091196519,-0.00506272385396,0.143125686214,-0.00717515095341,0.938955107438,0.343778671351,0.0113158399955
0.24713948369,0.0616565681994,-0.257851004601,-2.52653002739,0.0722131431103,2.60111379623,-0.773708581924,0.0426649451256,0.000287283299258,0.000474212458357,-2.48804190051e-05,0.000502614479046,4.31330154242e-05,-8.37971601868e-05,8.63031164045e-05,0.465091873793,-0.00506144999774,0.143126715985,-0.00717481424636,0.938954877528,0.343779287828,0.011316401958
0.247136354446,0.0616627857089,-0.257852226496,-2.52653050423,0.0722130611539,2.60111498833,-0.773705124855,0.0426649451256,0.000598547107074,-0.000422889832407,0.000438712071627,0.000735253619496,5.73672004975e-05,0.00010988448048,3.05758803734e-05,0.465090730416,-0.00506379956963,0.143123863905,-0.0071749140019,0.93895624932,0.343775630495,0.0113136216921
0.247137263417,0.0616600438952,-0.257849603891,-2.5265288353,0.0722131356597,2.60111474991,-0.773702740669,0.040379088372,0.000207096760278,0.000507289078087,-0.000148234554217,-0.000302924891002,-3.83009246434e-05,-5.42817324458e-05,-4.62779098598e-05,0.465092029168,-0.00506199432244,0.143125663402,-0.00717465777626,0.938956032382,0.343776161558,0.0113156515474
0.247139200568,0.0616582520306,-0.257853418589,-2.52652931213,0.0722130015492,2.60111451149,-0.773699700832,0.040379088372,-0.000161609845236,-0.000224267336307,-2.30203768297e-05,-0.00021795243083,5.59331192562e-06,-3.73111033696e-05,0.000367344880942,0.465092069807,-0.0050628252917,0.14312630177,-0.00717455564488,0.938956850481,0.343773911786,0.0113161807936
0.247137352824,0.0616606324911,-0.257851302624,-2.52652716637,0.0722142681479,2.60111618042,-0.773698627949,0.040379088372,0.000165067060152,0.000313623633701,-0.000283718458377,6.26000255579e-05,-3.35345794156e-05,8.89352741069e-05,0.000159211325808,0.465093066084,-0.00506277007535,0.143126149833,-0.00717433348033,0.938957166362,0.343773030202,0.0113168930716
0.247135058045,0.0616662316024,-0.257852017879,-2.52652621269,0.0722134783864,2.60111403465,-0.773696064949,0.040379088372,0.0002777785121,-0.00055551470723,0.000124664657051,-0.000542596797459,1.47360378833e-05,-7.65498843975e-05,-0.000177039546543,0.465092031616,-0.00506442854513,0.1431237877,-0.00717468177044,0.938958041395,0.343770744775,0.0113134948036
0.24713665247,0.0616676844656,-0.257851988077,-2.5265288353,0.0722129121423,2.60111498833,-0.773696184158,0.040379088372,-0.000160556228366,0.000278263149085,-2.49506138061e-05,-5.13497252541e-05,8.71394877322e-05,-6.37028715573e-05,0.000246138806688,0.465090665304,-0.0050637796696,0.143122266266,-0.00717489837139,0.938957689767,0.343771752574,0.011311917575
0.247135922313,0.0616648867726,-0.257851064205,-2.52652907372,0.072212651372,2.60111308098,-0.773693859577,0.040379088372,-0.000261175853666,-0.000195362124941,-7.13558256393e-06,3.60938138328e-05,-4.08658488595e-05,-0.000160485302331,0.000151598724187,0.465090644862,-0.00506352619454,0.14312325677,-0.00717516682303,0.938958005777,0.343770871426,0.0113122948415
0.247137308121,0.0616664998233,-0.257850348949,-2.5265276432,0.0722122043371,2.60111451149,-0.77369081974,0.0405708365142,4.13135530835e-05,-0.000300976476865,-0.000174355518539,-0.000135652007884,2.33283735724e-05,-9.98091418296e-05,-0.000176822548383,0.465091381509,-0.00506265738784,0.143123176747,-0.00717464834584,0.938958099051,0.343770612442,0.0113127518861
0.247138053179,0.0616686157882,-0.257850944996,-2.52652549744,0.0722128301859,2.60111546516,-0.773689210415,0.0405708365142,3.51440903614e-05,0.000245057104621,-0.000505157397129,2.06986733247e-05,-7.30409083189e-05,-1.3712810869e-05,1.24177213365e-05,0.465092276767,-0.00506268489056,0.143123097823,-0.00717432503842,0.938958434222,0.343769689177,0.0113131937457
0.247137352824,0.0616663880646,-0.257851749659,-2.52652645111,0.0722136721015,2.60111451149,-0.773689448833,0.0405708365142,-0.00035376806045,0.000260938657448,-0.000371129193809,-0.000271732220426,-6.33700619801e-05,-1.37473753057e-05,0.000170436018379,0.465092022683,-0.00506293843963,0.143123719995,-0.00717477235947,0.938958613602,0.343769177273,0.0113135771538
0.247134566307,0.061669036746,-0.257851094007,-2.5265288353,0.0722136124969,2.60111427307,-0.773684442043,0.0405708365142,0.000100667784864,-0.000290859548841,-0.000296142447041,-0.000619022233877,8.25196693768e-05,-0.000129423831822,2.0698265871e-05,0.465090254405,-0.00506434896439,0.143121586931,-0.00717536990414,0.938960023706,0.343765399529,0.01131095579
0.247137650847,0.0616681054235,-0.257851570845,-2.52653121948,0.0722123980522,2.60111618042,-0.773683190346,0.0405708365142,0.000340142432833,-3.38281643053e-05,2.21593054448e-05,3.41617997037e-05,-2.61123545897e-06,-3.26100525854e-05,5.76475467824e-05,0.465089657979,-0.00506317795928,0.143121314616,-0.00717506784059,0.938959626597,0.343766487924,0.0113110339487
0.24713909626,0.0616714581847,-0.257851094007,-2.52652812004,0.0722134336829,2.60111379623,-0.773680686951,0.0405708365142,-0.000262621120783,-0.000677494041156,-0.000400503311539,-6.1749087763e-05,-0.000132268614834,-6.11025534454e-05,1.11957006084e-05,0.46509019189,-0.00506283736804,0.143120882717,-0.00717539914037,0.938960114125,0.343765180306,0.0113100939608
0.247132182121,0.0616700313985,-0.257851988077,-2.52652835846,0.0722135752439,2.6011133194,-0.773676156998,0.0405708365142,0.000307522364892,0.000942228653003,0.000228563600103,-0.000468259619083,9.39877936617e-05,0.000141090014949,-0.00442271586508,0.465090088836,-0.00506591351174,0.143121232666,-0.00717552485078,0.938962009508,0.343759996289,0.0113102246806
0.247136667371,0.061670627445,-0.257851779461,-2.52652907372,0.0722145289183,2.60111427307,-0.773675382137,0.0405708365142,0.000414427719079,0.0023942925036,0.00045169526129,0.000497673463542,-0.000142743927427,-9.82884012046e-05,-0.000245348695898,0.465089853812,-0.00506373775682,0.143120790581,-0.0071757521026,0.938961481578,0.343761437411,0.0113101074331
0.247137650847,0.0616690628231,-0.257851570845,-2.52652812004,0.072213165462,2.60111427307,-0.773672640324,0.0405708365142,-1.46240927279e-05,0.000208493234823,0.000325253378833,-0.000553684541956,3.57762814929e-06,2.47391017183e-05,-0.00026531147887,0.465089302566,-0.00506034701647,0.143119968492,-0.0071756542029,0.938960063876,0.343765343004,0.0113091585941
0.247140213847,0.0616716258228,-0.257850408554,-2.52652812004,0.0722129419446,2.60111522675,-0.773672103882,0.0405708365142,-0.000428361236118,0.000122584722703,-0.00026135155349,4.92816570841e-06,3.96582981921e-05,-7.42146357879e-06,0.000134176283609,0.465090370887,-0.00506155790289,0.143120764241,-0.00717514817434,0.938960968496,0.343762844993,0.0113103041056
0.247134447098,0.0616719648242,-0.257852256298,-2.52652788162,0.0722138807178,2.60111427307,-0.773670375347,0.0405708365142,-0.000748942897189,7.58351379773e-05,-0.00033383234404,-2.51993878919e-05,6.66014821036e-05,7.49687169446e-05,0.000557203951757,0.465090190111,-0.00506508262437,0.143120625867,-0.00717545414045,0.938962710862,0.343758091955,0.0113099235767
0.247134953737,0.0616729557514,-0.257851451635,-2.52652478218,0.0722137391567,2.60111403465,-0.773672223091,0.0406220555305,8.75160549185e-05,0.000631217437331,0.000270960677881,9.99472831609e-05,3.09537572321e-05,-2.04435036721e-06,8.4201725258e-05,0.465091510896,-0.00506450958215,0.143121280321,-0.0071749948305,0.938962128543,0.343759664554,0.0113107613537
0.24713562429,0.0616734176874,-0.257851958275,-2.52652382851,0.0722133517265,2.60111403465,-0.77366745472,0.0406220555305,0.000161131043569,9.10354865482e-05,0.000279720989056,-0.000212976869079,5.06841843162e-06,5.19659261045e-05,2.71543121926e-05,0.465091904334,-0.00506447392396,0.143121422991,-0.00717476997191,0.938962859059,0.343757668702,0.0113109185587
0.247136518359,0.0616744607687,-0.257850795984,-2.52652096748,0.0722137913108,2.60111618042,-0.773667871952,0.0406220555305,-7.90221893112e-05,-0.000514443439897,0.000113440226414,-0.000610720773693,-3.12290794682e-05,0.00501305516809,9.6877287433e-05,0.465093617807,-0.00506357358391,0.143122182534,-0.00717402888239,0.938962476972,0.343758667268,0.0113127588696
0.247134000063,0.0616752132773,-0.257853597403,-2.5265250206,0.0722129791975,2.60111427307,-0.773662567139,0.0406220555305,-0.000388613931136,-0.000474073982332,-0.000226393560297,0.000347264664015,0.000167780730408,4.17152477894e-05,4.93544866913e-05,0.465091016126,-0.00506611097044,0.143120215113,-0.00717489434649,0.938964227019,0.343753975306,0.0113095277423
0.247135564685,0.0616761893034,-0.257850915194,-2.52652144432,0.0722127482295,2.60111355782,-0.773659586906,0.0406351909041,0.000262285524514,0.000418445561081,0.00108599138912,-0.000216124230064,8.66860718816e-05,5.4925079894e-05,-0.000272200704785,0.465092484046,-0.00506414693847,0.143120992486,-0.00717452789411,0.938963954143,0.343754701343,0.0113103474758
0.247138991952,0.061677403748,-0.257850050926,-2.52651953697,0.0722141489387,2.60111403465,-0.773657798767,0.0406351909041,0.000450897932751,0.000796615437139,0.000582045584451,1.18089201351e-06,3.21751103911e-05,-8.83269458427e-05,0.000329713686369,0.465093062357,-0.00506186001383,0.14312069133,-0.0071747390811,0.938963708423,0.343755364473,0.0113104582415
0.247139081359,0.0616810619831,-0.257848918438,-2.52652072906,0.0722136124969,2.60111451149,-0.773656487465,0.0406351909041,0.000460632087197,0.000231460828218,0.000279622297967,-1.97174722416e-05,-7.77605055191e-06,-9.2946444056e-05,-0.000223203896894,0.46509217626,-0.00506177240878,0.143119134486,-0.00717477527997,0.938963687679,0.343755476325,0.0113087577796
0.247135326266,0.0616782382131,-0.257852256298,-2.52652645111,0.0722133740783,2.6011133194,-0.773653209209,0.0406351909041,-4.8778798373e-05,0.000437303533545,-0.000347921100911,0.000113833790238,0.000106631356175,-7.48348029447e-05,-0.000252041936619,0.46508963074,-0.0050648103076,0.143118333526,-0.00717564081151,0.938965421954,0.343750775372,0.0113071071433
0.247134923935,0.0616756863892,-0.257852256298,-2.52652335167,0.0722136646509,2.60111427307,-0.773653686047,0.0406351909041,0.000147771206684,1.82707099157e-05,0.000225368028623,0.000574871723074,0.000116587973025,1.37980414365e-05,4.0310449549e-05,0.465091773623,-0.00506503905884,0.143120600404,-0.00717489243173,0.938965452284,0.343750609444,0.0113101073781
0.247134134173,0.0616813115776,-0.257852435112,-2.52651810646,0.0722127854824,2.60111284256,-0.77365231514,0.0406351909041,0.00017195311375,-5.97422331339e-05,-0.0036730368156,-0.000203070128919,8.0514810179e-06,1.54609715537e-05,-4.74567568745e-05,0.465093029289,-0.00506652418409,0.143120034674,-0.00717436112824,0.938965963391,0.343749253413,0.0113092263685
0.247137010098,0.0616820454597,-0.257848083973,-2.52652192116,0.0722138732672,2.60111403465,-0.773650050163,0.0406351909041,0.00022499091574,-0.000538425636478,0.00114219391253,-8.64397588884e-05,-4.24492645834e-05,-2.56331404671e-05,0.000248242315138,0.465091287223,-0.0050623672167,0.143118209038,-0.00717525192596,0.938965061305,0.343751755535,0.0113075046471
0.247138246894,0.061680585146,-0.257851272821,-2.52652049065,0.0722134709358,2.60111522675,-0.773647725582,0.0406351909041,0.000317625963362,7.81943235779e-05,-0.000104478123831,0.000135554786539,-0.000151690954226,-1.82013991434e-05,-0.000249856471783,0.465092528795,-0.00506327571313,0.143119518022,-0.00717448725748,0.938965714757,0.343749924533,0.0113093904642
0.247141540051,0.0616794079542,-0.257848292589,-2.5265212059,0.0722132995725,2.60111427307,-0.773648619652,0.0406351909041,0.000409323372878,-0.000655279087368,-0.000407582119806,-0.0006801939453,0.000167218066053,-6.07210677117e-05,0.000279074825812,0.465092203418,-0.00506026213668,0.143119678245,-0.00717482886053,0.938964458683,0.343753355347,0.0113091792519
0.247137621045,0.061681445688,-0.257850259542,-2.52652096748,0.0722136050463,2.60111355782,-0.773646950722,0.040642414242,-0.000207900986425,-5.15970095876e-05,-0.000320216699038,0.000591485237237,-6.26855180599e-05,-8.33592857816e-05,0.00202631880529,0.465089450383,-0.0050624417441,0.143116593929,-0.00717618364029,0.93896565511,0.343750188068,0.0113052555007
0.247134163976,0.0616810582578,-0.257851451635,-2.52651429176,0.0722144693136,2.60111403465,-0.773644387722,0.040642414242,5.9699461417e-05,-0.000608601898421,0.000535202794708,0.000609520124272,6.91117093083e-05,3.56296841346e-05,0.000137896873639,0.465095266629,-0.00506521993302,0.143121454363,-0.00717389012212,0.938967117957,0.343746030878,0.0113116151947
0.247135967016,0.0616505220532,-0.257852941751,-2.5264582634,0.0722128450871,2.60111761093,-0.77364397049,0.040642414242,-0.000113727466669,0.00087863887893,-7.3578543379e-05,0.00140284548979,-7.80661794124e-05,-4.0658396756e-06,-4.44856304966e-05,0.465129702008,-0.00506376185066,0.143155912744,-0.00716125167576,0.938966234877,0.343747294223,0.011354454477
0.247135922313,0.0616502538323,-0.25785073638,-2.52642726898,0.0722131431103,2.60111451149,-0.773644149303,0.040642414242,-9.93358189589e-05,0.000495177169796,-0.000219127483433,0.00345221464522,0.00012953656551,6.91065943101e-05,7.99594417913e-05,0.465144593148,-0.00506263736192,0.143167014828,-0.00715655111269,0.938965620676,0.343748632144,0.0113676976244
0.247132286429,0.061661273241,-0.257854878902,-2.52638578415,0.0722130462527,2.60111379623,-0.773642957211,0.040642414242,-0.000639166915789,0.000559218693525,-0.00169254513457,0.00347516871989,-8.88801951078e-05,-0.000128700354253,0.000379321194487,0.465163139486,-0.00506677704115,0.14317712201,-0.00714975633481,0.938966872819,0.343744903465,0.0113812899277
0.247130379081,0.0616736076772,-0.257853299379,-2.52636647224,0.0722122713923,2.60111069679,-0.773644566536,0.040642414242,-0.000200762500754,0.000453384709544,-0.00243280245923,0.000989933148958,-9.65483486652e-05,3.22272790072e-05,0.000125506179756,0.465169851405,-0.00506744855617,0.1431783079,-0.00714747295889,0.938966463674,0.343746021682,0.0113827057577
0.247134163976,0.0616670064628,-0.257851779461,-2.52636742592,0.0722129121423,2.60110759735,-0.773643791676,0.040642414242,0.000475816137623,-0.000371460366296,9.81452612905e-05,-0.000662358710542,0.000106555431557,-4.56616799056e-05,0.000142244127346,0.465169940964,-0.00506458069303,0.143180636658,-0.00714816967875,0.93896574832,0.343747912475,0.011384177982
0.247132852674,0.0616661980748,-0.257852107286,-2.52636694908,0.0722127556801,2.60110664368,-0.773644030094,0.040642414242,0.000540960871149,0.000584707478993,0.000279758125544,0.00024018138356,9.85496444628e-06,7.41874555388e-06,0.00574455689639,0.46517011365,-0.0050652977912,0.143181089085,-0.00714818100167,0.938965958816,0.343747331304,0.0113843577264
0.247133269906,0.0616681315005,-0.257853150368,-2.52636408806,0.0722131803632,2.60110640526,-0.773643016815,0.040642414242,-0.000229440367548,-0.000341960520018,-0.000303798762616,0.000333280710038,-0.000117777250125,7.85371812526e-05,-0.000268438918283,0.465171138552,-0.00506566794647,0.143181246984,-0.00714789686052,0.938966290322,0.343746421535,0.0113846641566
0.247130811214,0.0616737790406,-0.25785368681,-2.52636051178,0.0722129568458,2.60110735893,-0.77364385128,0.040642414242,-0.000341248669429,-0.000485651340568,-0.0033117227722,0.00011705540237,-4.80338858324e-05,0.000196218199562,-0.000430374813732,0.465172081195,-0.00506735202562,0.143180099113,-0.00714727061822,0.938966634109,0.343745519064,0.0113839519392
0.247132390738,0.0616718456149,-0.257852375507,-2.52636289597,0.0722134411335,2.6011068821,-0.773642480373,0.0386198796332,0.000301405409118,6.93291076459e-05,0.000169946346432,-0.000148350838572,-9.97803454084e-06,-4.06043000112e-05,-0.000161790565471,0.465171152825,-0.00506587883621,0.143180048311,-0.00714786963672,0.938966451192,0.343746017262,0.0113836197337
0.247135937214,0.0616712793708,-0.257851541042,-2.52636647224,0.0722131505609,2.60110497475,-0.773642480373,0.0386198796332,7.20829848433e-05,-9.58292803261e-05,-0.000430497690104,-0.00044105379493,-0.000116318486107,-0.000132700515678,-3.29025206156e-05,0.465169072834,-0.00506378525498,0.143178821012,-0.00714884384678,0.938965685806,0.343748163964,0.0113813166809
0.247137755156,0.0616726130247,-0.25785189867,-2.52636790276,0.0722131431103,2.60110521317,-0.773642122746,0.0386198796332,0.00153515138663,9.35272764764e-05,-0.000389764783904,-0.00048640742898,-7.96129461378e-05,3.98524316552e-05,-1.70310268004e-05,0.465168171733,-0.00506317695772,0.143177724846,-0.00714911421652,0.938965515238,0.343748665035,0.0113800849211
0.247136101127,0.0616783834994,-0.257851034403,-2.52636575699,0.0722121298313,2.60110497475,-0.773641109467,0.0386198796332,0.00298016215675,0.00159185263328,-0.000389980414184,-0.00303027243353,-9.43278282648e-05,4.83242511109e-05,6.28729249001e-05,0.465168122387,-0.00506383539336,0.143175881368,-0.00714886825984,0.938965698711,0.34374823773,0.011378008229
0.24712869525,0.0616486147046,-0.257855594158,-2.52633023262,0.0722133591771,2.60110211372,-0.773639678955,0.0386198796332,0.000143566794577,1.11185790956e-05,1.0439165635e-05,-0.000712270091753,7.88944453234e-05,-0.000364112667739,0.000123120626085,0.465190710678,-0.00506794999272,0.14320197498,-0.00714173527389,0.938967694365,0.343741931838,0.0114082662894
0.247126862407,0.0616553761065,-0.257856190205,-2.52633953094,0.0722129046917,2.60110020638,-0.773640155792,0.0386198796332,-4.23134333687e-05,0.000894058437552,0.000182670322829,-0.00274603557773,-2.45298142545e-05,0.0001188238748,-7.58216992836e-05,0.465184388417,-0.00506938877713,0.143195379074,-0.00714397483714,0.938968088385,0.34374109489,0.011399648605
0.247126698494,0.0616640746593,-0.257854700089,-2.52633285522,0.0722119063139,2.60110044479,-0.773640096188,0.0379770025611,0.000366500433302,-3.76738826162e-05,0.000151164917042,0.000307951471768,7.26504149497e-05,-4.37373346358e-05,3.58432662324e-05,0.465186179195,-0.00506919748738,0.14319390623,-0.00714301228017,0.938967726685,0.343742142639,0.0113984507964
0.247122123837,0.0616646632552,-0.257855892181,-2.5263273716,0.0722137242556,2.60110068321,-0.773639500141,0.0379770025611,0.000193800209672,0.000157823582413,0.00161371263675,-0.000393394497223,-1.53453020175e-05,4.53728607681e-05,8.97185600479e-06,0.465188845302,-0.00507185339019,0.143195669415,-0.00714239504896,0.938969039348,0.34373848417,0.0114010318022
0.247123852372,0.0616601146758,-0.257856070995,-2.52633476257,0.0722122117877,2.60110044479,-0.773638188839,0.0379770025611,-0.00043933399138,3.75808194804e-05,-0.000471396895591,0.000530020566657,-9.11566758077e-07,5.90224262851e-05,-0.000108589287265,0.465185937031,-0.00507097944165,0.143195003522,-0.00714316191282,0.938968813607,0.34373913358,0.0113995632761
0.247124940157,0.0616616047919,-0.25785574317,-2.52633261681,0.0722122266889,2.60109972954,-0.773638367653,0.0379770025611,9.37178483582e-05,0.000609496550169,0.00039876185474,0.000224862626055,-5.6205837609e-05,0.000145358091686,-0.000245075352723,0.465186587503,-0.0050703722703,0.14319504663,-0.00714302759231,0.938968534509,0.343739900941,0.0113994976556
0.247126325965,0.0616644620895,-0.257855057716,-2.52633142471,0.0722136721015,2.60110044479,-0.773639082909,0.0379770025611,-4.9052923714e-05,0.000658921955619,5.73910147068e-05,0.000421565666329,-3.16291334457e-05,2.1924781322e-05,0.00482436874881,0.465186825665,-0.00506949247528,0.143194256729,-0.00714319333326,0.938968271062,0.343740630127,0.0113991058117
0.24712112546,0.0616628304124,-0.257858961821,-2.52633237839,0.0722129791975,2.60109996796,-0.773638129234,0.0379770025611,-0.000120443815831,0.000554503407329,0.000148714374518,-4.68803445983e-05,-4.60198934888e-05,1.4446064597e-05,4.93070037919e-05,0.465186508529,-0.00507371077206,0.143194628035,-0.00714304299119,0.938969897498,0.343736187311,0.011399199469
0.247126817703,0.0616631880403,-0.257855951786,-2.52632808685,0.0722127854824,2.60110068321,-0.773638308048,0.0379770025611,0.000200305061298,-0.00110781297553,0.000207088363823,0.000223177470616,5.68303858017e-06,0.00406875647604,0.000114742928417,0.465188780097,-0.00506966498715,0.143196072301,-0.00714225146837,0.938968309082,0.343740472619,0.0114013137361
0.247122317553,0.0616692714393,-0.257857888937,-2.52632904053,0.0722120404243,2.60110044479,-0.773638010025,0.0379770025611,-0.000292128650472,0.000424788246164,4.04293787142e-05,0.00167809531558,-0.000128940373543,0.000158164053573,-0.00016745890025,0.465187102556,-0.00507298627194,0.143192980573,-0.00714251112519,0.938969406287,0.343737590785,0.0113976734346
0.24712395668,0.0616659112275,-0.257857918739,-2.52633357048,0.0722123384476,2.60110068321,-0.773638248444,0.0379770025611,-0.000322543113725,-0.000387054256862,1.63465501828e-05,0.000112640525913,-0.000113370108011,-0.000529901706614,0.000322496256558,0.465185515215,-0.00507207771607,0.143192865436,-0.00714316627336,0.938969147629,0.34373829411,0.0113973604772
0.247120127082,0.0616640262306,-0.257858932018,-2.52634000778,0.0722120776772,2.60109877586,-0.773637115955,0.0379770025611,0.000647334207315,5.41649460502e-05,0.000229422439588,0.000291736796498,-8.30855242384e-06,8.77885904629e-05,-7.12264009053e-05,0.465182205104,-0.00507423346664,0.14319120345,-0.00714448180552,0.938970181628,0.343735540342,0.0113944014905
0.247126504779,0.0616662167013,-0.257857620716,-2.52633833885,0.0722134038806,2.60109686852,-0.773635745049,0.0379770025611,-4.52651438536e-05,-0.000349621899659,0.000281733955489,-0.000574491918087,0.000154704946908,1.32002633109e-05,-5.85736815992e-05,0.465182261958,-0.00507066086553,0.143190643106,-0.00714510120131,0.938969290064,0.343737998407,0.0113933306852
0.247121140361,0.0616655386984,-0.257861495018,-2.52633309364,0.0722126215696,2.60109639168,-0.773637354374,0.0374588929117,0.00047750477097,-0.00195528403856,-0.000171874635271,0.00166103697848,6.00766143179e-05,3.36842931574e-05,-0.000294454599498,0.465184869864,-0.00507498518761,0.143192841418,-0.00714386988938,0.938970440447,0.34373479806,0.0113958491733
0.247125163674,0.061665892601,-0.257858365774,-2.52633333206,0.0722130984068,2.60109424591,-0.773634433746,0.0374588929117,8.42574881972e-05,-3.18707898259e-05,0.000385946419556,0.00179544009734,-2.63464653472e-06,5.33272614121e-05,-0.000213636667468,0.465184724973,-0.00507139996657,0.143192929172,-0.00714448131726,0.93896959173,0.343737129061,0.0113950859747
0.247116684914,0.0616653636098,-0.257863730192,-2.526293993,0.0722128525376,2.60102558136,-0.773634254932,0.0374588929117,-5.71954260522e-05,-0.000305013702018,-5.5329346651e-05,0.00422958098352,-0.000152816210175,-0.00339810177684,0.000272155652056,0.46518907576,-0.00507683433056,0.143200708498,-0.0071514464003,0.938971939565,0.343731005498,0.0113819624649
0.247118487954,0.061662171036,-0.257862716913,-2.52622938156,0.0722133815289,2.60075068474,-0.773635447025,0.0374588929117,0.00034609346767,0.000681832432747,0.000268630916253,0.00613135145977,-2.09909030673e-05,-0.025776932016,-2.45429164352e-05,0.46516235907,-0.00507046624853,0.143200581935,-0.00719642058772,0.938971193991,0.343735186485,0.011288473945
0.247119903564,0.0616641715169,-0.257860809565,-2.52615094185,0.0722126290202,2.60047388077,-0.773635029793,0.0374588929117,-1.42563276313e-05,0.00123381766025,0.000153080283781,0.010779558681,6.13368392806e-05,-0.0395968593657,-0.000178790462087,0.465127890235,-0.00505988169894,0.143212016911,-0.00727920267501,0.938970314907,0.343741460554,0.0111161555484
0.247109428048,0.0616695508361,-0.25786614418,-2.52570700645,0.072212189436,2.59916710854,-0.773631691933,0.0374588929117,-0.00195746566169,0.00142400083132,6.35468386463e-05,0.0210537072271,8.02309950814e-05,-0.0610980205238,-4.15498907387e-05,0.465081971466,-0.00504925565926,0.143241396544,-0.00741942629998,0.938971728338,0.343743846285,0.0108265101441
0.247114390135,0.0615826509893,-0.257862895727,-2.52496862411,0.0722135826945,2.59673523903,-0.773628115654,0.037445101887,-0.000461814430309,-0.00638413662091,-0.000222112910706,0.0253827981651,-9.14055178214e-08,-0.0961793288589,0.000105127364805,0.464935930738,-0.00499729957727,0.143330107447,-0.0077932554724,0.938967478563,0.34376968788,0.0100866620795
0.247120156884,0.061473634094,-0.257859706879,-2.52450561523,0.0722139924765,2.59504437447,-0.77362626791,0.037445101887,0.000900260987692,-0.00777236931026,0.000583903747611,0.0331061258912,7.44707795093e-05,-0.126242116094,-6.78178112139e-05,0.464820220524,-0.00495797873622,0.143394510083,-0.00805284207009,0.938963453537,0.343789012787,0.00958639819395
0.247136056423,0.0613218136132,-0.257847726345,-2.52393651009,0.0722146853805,2.59246349335,-0.773622572422,0.037445101887,0.000871290219948,-0.00748409423977,8.25923707453e-05,0.0331869535148,1.77111564881e-06,-0.167175099254,7.05941929482e-05,0.464571757299,-0.00489204128801,0.143436889415,-0.00847438245296,0.938955467034,0.343822967043,0.00875115936463
0.247149169445,0.0610826052725,-0.257833898067,-2.52335619926,0.0722142159939,2.58933401108,-0.773617744446,0.037445101887,0.000245664385147,-0.0188052002341,0.000429901527241,0.0330105833709,-0.000115997041576,-0.200817614794,-0.000138345334562,0.464225062095,-0.00481285672605,0.143474369141,-0.00900160666754,0.938946133028,0.343859883421,0.00771431204237
0.24714744091,0.0582721196115,-0.257836163044,-2.52076435089,0.0722134634852,2.56948184967,-0.773606419563,0.037445101887,-0.00126524351072,-0.0722407102585,-0.000130752916448,0.0444417521358,-3.00976225844e-05,-0.360868692398,4.42644231953e-05,0.461702218,-0.00433306055397,0.143928179156,-0.0124671867731,0.93888384299,0.344005934923,0.00127084611672
0.247155368328,0.056782566011,-0.25783213973,-2.51996946335,0.0722131505609,2.56285762787,-0.77360188961,0.037445101887,-0.00153620203491,-0.0938854515553,-0.000105138380604,0.0528518371284,-5.66869130125e-05,-0.39885905385,0.000105703882582,0.460920486635,-0.0041412559539,0.144312041981,-0.0136068826669,0.938848419922,0.344061171984,-0.000637787362269
0.24714961648,0.053395640105,-0.257834404707,-2.51805734634,0.0722128376365,2.55015397072,-0.773594677448,0.037445101887,0.000944635365158,-0.144267052412,-0.000110151304398,0.0726322382689,6.6892884206e-05,-0.455280303955,-2.58559357462e-05,0.459702188099,-0.00376362939695,0.14543825997,-0.0156953035937,0.938771058137,0.344162331968,-0.0038531534033
0.247161105275,0.0506758950651,-0.257823169231,-2.51671671867,0.0722108706832,2.54205989838,-0.773591935635,0.037445101887,0.000482843315694,-0.169050484896,0.000253990961937,0.0853923484683,1.7079331883e-05,-0.499729543924,0.000174812870682,0.459081718484,-0.00348499498446,0.14645840617,-0.016974165306,0.938708500882,0.344248818711,-0.00556584104624
0.247158929706,0.0480092540383,-0.25782468915,-2.51528167725,0.0722113326192,2.53440642357,-0.7735876441,0.037445101887,-0.000571147422306,-0.192591905594,0.000603414606303,0.104339964688,0.000284869020106,-0.517607450485,0.000237527347053,0.458589314782,-0.00322947459623,0.147531506845,-0.0181485857253,0.938649688554,0.344321873908,-0.00705959261004
0.247150674462,0.0438614375889,-0.257831901312,-2.51312685013,0.0722118616104,2.5237364769,-0.77358096838,0.037445101887,-0.000372965121642,-0.228970274329,-0.00071904307697,0.112363226712,-6.54375035083e-05,-0.548643112183,1.42650997077e-05,0.458068815889,-0.00287985399177,0.149184140566,-0.0196554879368,0.938568000024,0.34442236278,-0.00877535344359
0.247147783637,0.0306751839817,-0.25783804059,-2.50585484505,0.0722093656659,2.4951941967,-0.773562252522,0.0373794361949,-0.000751175626647,-0.316467642784,-0.00067621038761,0.189039126039,0.000256286090007,-0.643932640553,-4.50220795756e-05,0.457620563471,-0.00180258226215,0.155339722667,-0.0235128857236,0.938309712684,0.344791368495,-0.0118717810199
0.247149094939,0.0245424266905,-0.257841914892,-2.50231003761,0.0722074210644,2.48326301575,-0.773553729057,0.0373794361949,0.000352369097527,-0.3616553545,-0.000932287075557,0.196115523577,-0.000238672175328,-0.66687387228,0.0025666996371,0.457760421377,-0.00130787317764,0.158578946441,-0.025082105935,0.938187903658,0.344984191037,-0.0126591079184
0.247171849012,0.0185179989785,-0.257827579975,-2.49897241592,0.0722069889307,2.47224855423,-0.773539960384,0.0373794361949,0.00109608797356,-0.381472140551,0.000972497218754,0.222526744008,0.000190686972928,-0.700636386871,0.00175581325311,0.457951207326,-0.000845137896032,0.161622522792,-0.0264227701501,0.938071417574,0.345183200342,-0.0131305231027
0.24715654552,0.00541752204299,-0.257842719555,-2.49064183235,0.0722065418959,2.44945120811,-0.77340233326,0.0373794361949,-0.00172721012495,-0.431238889694,-0.00100690650288,0.286943376064,1.51982758325e-05,-0.737624645233,0.0139663172886,0.459040938793,6.48350663321e-05,0.168777161522,-0.0289040419715,0.937863582995,0.345548909225,-0.0131303872871
0.247159838676,-0.0017813417362,-0.257844686508,-2.48587441444,0.0722020566463,2.43756103516,-0.773279309273,0.0373794361949,-0.00200588046573,-0.467048227787,0.00122728885617,0.313087195158,0.000109665008495,-0.746304750443,0.003700227011,0.45980979739,0.000547474101092,0.172858728968,-0.0300977685358,0.937756875536,0.345750638614,-0.0127539130944
0.247188091278,-0.0121743865311,-0.257827997208,-2.47855758667,0.0722008943558,2.42090654373,-0.773249149323,0.0373794361949,-3.47687564499e-05,-0.480979055166,0.000857722130604,0.358979046345,-0.000228726596106,-0.775063455105,0.000603754655458,0.461157455602,0.0012355743337,0.178993531365,-0.0316361728618,0.93757241899,0.346148068999,-0.011773942895
0.24717977643,-0.019539700821,-0.257835686207,-2.47301793098,0.0722011476755,2.40883421898,-0.773219406605,0.0373794361949,-0.00152088014875,-0.491357564926,-0.00106570427306,0.36733853817,0.00140262057539,-0.811201572418,0.000551073404495,0.462157395348,0.00169125584929,0.183484568818,-0.0327146023267,0.93744359493,0.346420890044,-0.011037560728
0.247162088752,-0.0287044625729,-0.257850080729,-2.46586847305,0.0722012743354,2.39417481422,-0.773161411285,0.0373794361949,-0.00164587271865,-0.516004860401,0.000317141355481,0.422357052565,-0.000362779799616,-0.813366770744,0.00474053993821,0.46309134797,0.00207638210416,0.187561580003,-0.0336193986851,0.937332495045,0.346658815584,-0.0102564628071
0.247178092599,-0.0434568375349,-0.257846266031,-2.45350027084,0.072201192379,2.37146735191,-0.773056030273,0.0373794361949,-0.000577556958888,-0.533831298351,-0.000464241602458,0.456670939922,-8.25250535854e-05,-0.814815461636,0.00116190395784,0.466230552793,0.00309192040034,0.199343305502,-0.0355990126819,0.937022610331,0.347379312205,-0.00699651074116
0.247166365385,-0.0525009222329,-0.25785562396,-2.44564938545,0.0721999332309,2.35751128197,-0.772972047329,0.0373774655163,0.000375387753593,-0.54506778717,0.00223629456013,0.470820486546,-0.000319352751831,-0.821159482002,0.00428423285484,0.467725322328,0.00353315343456,0.205117183487,-0.0364845328509,0.936873409508,0.34771939327,-0.0053213390285
0.247189179063,-0.0629622414708,-0.257848501205,-2.43617534637,0.0721981450915,2.34201526642,-0.772863447666,0.0373774655163,0.000999872223474,-0.544745206833,0.00066589366179,0.513616800308,0.000101358942629,-0.815671563148,0.00568687496707,0.469764410326,0.00406073711701,0.212475099433,-0.0373624327184,0.936683205758,0.348167878893,-0.00278360650379
0.247187510133,-0.0728591158986,-0.257851541042,-2.42673254013,0.0721999257803,2.32710170746,-0.772768259048,0.0373774655163,-0.0011884754058,-0.548182487488,-0.00119378173258,0.535886406898,-0.000274580670521,-0.833520174026,0.00278119021095,0.471831021929,0.00454242305217,0.220070073369,-0.0381955879168,0.936484842008,0.348621885718,-0.000135045153843
0.247196748853,-0.0988020673394,-0.257857233286,-2.40035939217,0.0721983388066,2.28819298744,-0.772359728813,0.0373774655163,0.00104669632856,-0.545957148075,-0.000382293976145,0.578662276268,-0.000234429564443,-0.814978718758,0.00723585253581,0.47674608051,0.00553642015423,0.238600598118,-0.0397952694367,0.936000792131,0.349675240104,0.00678821069168
0.247181460261,-0.107520140707,-0.257863610983,-2.39114832878,0.072197675705,2.27513766289,-0.772228121758,0.0373774655163,-0.00127726502251,-0.545785427094,-0.00107658782508,0.591161310673,0.000316695484798,-0.806711196899,0.00898216757923,0.478553351975,0.00585520414847,0.245912626965,-0.0403245483023,0.935799327259,0.350087612517,0.00960276800062
0.24717694521,-0.117292679846,-0.257871896029,-2.38025069237,0.0721985548735,2.26099157333,-0.772061169147,0.0373774655163,0.00031137058977,-0.535309314728,-9.84650760074e-05,0.609812498093,-0.000275227474049,-0.77519261837,0.0127774039283,0.480881857538,0.00617943390428,0.254859483623,-0.0407152132447,0.935555931275,0.350566479157,0.0134355589384
0.247169449925,-0.134250879288,-0.25788205862,-2.36074233055,0.072195418179,2.23569965363,-0.77161937952,0.0373774655163,0.000425394711783,-0.523707866669,0.00010164178093,0.63921546936,0.000131257387693,-0.774612367153,0.0185560584068,0.48412556145,0.00660461686885,0.268728433664,-0.0413206212941,0.935170459989,0.35125616309,0.0191813606814
0.247188001871,-0.143460869789,-0.2578779459,-2.34929823875,0.0721922069788,2.22197532654,-0.771333634853,0.0373774655163,0.000814303872176,-0.504501402378,0.000247244490311,0.637161791325,-2.00297654374e-05,-0.757961452007,0.0149632077664,0.486074471983,0.00680365786241,0.276953502497,-0.0414928345335,0.934934117418,0.351648369826,0.0228027291149
0.2471755445,-0.151366785169,-0.257889598608,-2.33939838409,0.072194494307,2.20975708961,-0.77097505331,0.0373774655163,-0.00205431389622,-0.490947276354,-0.00118053832557,0.6223051548,-0.000139257244882,-0.762540102005,0.0326919928193,0.487556980607,0.00693773702303,0.284050035634,-0.0417120387298,0.934744322796,0.351923861517,0.0257439741675
0.247162774205,-0.15923909843,-0.257897436619,-2.32926082611,0.0721911638975,2.19787669182,-0.770448803902,0.0373768098652,0.000907979672775,-0.478698045015,0.000223015013034,0.638205051422,-2.48945780186e-05,-0.730972111225,0.0335542708635,0.48927571666,0.00705082195576,0.292214035382,-0.041822402189,0.934552218223,0.352139741441,0.0293366711397
0.247189477086,-0.169533610344,-0.257888197899,-2.3154528141,0.0721916183829,2.18209218979,-0.769610345364,0.0373768098652,0.0029113269411,-0.453756451607,0.000289519492071,0.612467765808,-4.54314395029e-05,-0.713725030422,0.0361152999103,0.491038275168,0.00716054436941,0.301079090401,-0.0419016978007,0.934341906749,0.352342781188,0.0332266947547
0.247158631682,-0.181927025318,-0.257909178734,-2.29783153534,0.0721908509731,2.16213965416,-0.768642544746,0.0373768098652,0.00119545427151,-0.432784855366,-0.000277976912912,0.634444117546,-0.000361915444955,-0.695565700531,0.032460462302,0.49324660186,0.00720274802054,0.313300938802,-0.0420000589916,0.934033973359,0.35261827284,0.0384302615228
0.247168302536,-0.189511761069,-0.257907301188,-2.28684186935,0.0721918046474,2.14965200424,-0.768023967743,0.0373768098652,-0.00120213092305,-0.413092523813,-0.000855691207107,0.608544766903,0.00029427264235,-0.688492417336,0.0315330885351,0.494440810494,0.00722010801878,0.320894755377,-0.0420716632809,0.933825422902,0.35280478392,0.0415793075965
0.247160732746,-0.195179998875,-0.257912606001,-2.27829575539,0.0721925795078,2.14024972916,-0.767458319664,0.0373768098652,-0.000124091617181,-0.388436317444,-0.000229826458963,0.611680626869,0.000393562280806,-0.669656574726,0.0437798984349,0.49514939882,0.00720571462148,0.325495637121,-0.0420813498542,0.933708961638,0.352877562886,0.0435219513423
0.247151643038,-0.203440770507,-0.25792992115,-2.26541304588,0.0721902698278,2.12597465515,-0.766315996647,0.0373768098652,-0.000145094294567,-0.360716462135,0.00104940880556,0.561949789524,0.00017355530872,-0.63595277071,0.0510290972888,0.496539474798,0.00714267601516,0.335439971485,-0.0421242190828,0.933508521778,0.352878279591,0.047584760299
0.247156023979,-0.214031413198,-0.257920891047,-2.24872350693,0.072186768055,2.10754990578,-0.76524823904,0.0373781248927,0.0022454620339,-0.336210340261,0.000889301882125,0.536976218224,0.000109771899588,-0.58204472065,0.0256984177977,0.497849889761,0.00704604329114,0.346716819268,-0.0421557198552,0.933187970858,0.353078756713,0.052139213386
0.247160688043,-0.219117030501,-0.257918983698,-2.24041986465,0.0721885561943,2.09818816185,-0.764819562435,0.0373781248927,-0.00146543828305,-0.300980001688,-0.00110805244185,0.498787790537,-7.75112948759e-06,-0.583281695843,0.0286392923445,0.498357621454,0.00698471435666,0.35223891135,-0.042214613952,0.933008848269,0.353230815053,0.0542255143197
0.24712215364,-0.22470203042,-0.257938623428,-2.23129081726,0.0721869021654,2.08746290207,-0.764073014259,0.0373781248927,-0.00101272994652,-0.293955624104,0.000139713578392,0.476649075747,1.41267619256e-05,-0.551173150539,0.0524457246065,0.498745368976,0.00687939658533,0.358275421954,-0.0423673962759,0.932868708155,0.353256336316,0.056311078979
0.247140854597,-0.229076385498,-0.257937163115,-2.22388148308,0.0721842423081,2.07891774178,-0.763185322285,0.0373781248927,0.000428102910519,-0.258605748415,-4.25748366979e-05,0.448879659176,0.000395208830014,-0.530745983124,0.0558323189616,0.499036939408,0.00681459036213,0.363123747342,-0.0424742804885,0.93279333844,0.353171002759,0.0579893589768
0.247078374028,-0.240506246686,-0.257947981358,-2.20464396477,0.0721792727709,2.05438971519,-0.759984731674,0.0373781248927,0.000828255724628,-0.195742771029,-0.000430672836956,0.337312251329,0.000178843503818,-0.447618126869,0.084038734436,0.499049074535,0.00658790496728,0.375535468525,-0.0432189589635,0.932777440156,0.352565584562,0.0612852101955
0.247048765421,-0.243428260088,-0.257970750332,-2.19927382469,0.0721638426185,2.04681539536,-0.758668124676,0.0373781248927,-0.00215425412171,-0.160282179713,-0.00108881155029,0.290001809597,0.00059140950907,-0.444129496813,0.0698859468102,0.498885264684,0.00652217528316,0.378452434656,-0.0435348893669,0.9328552954,0.352246434548,0.0617102931881
0.246993646026,-0.246194124222,-0.257973700762,-2.19434642792,0.0721011757851,2.03903269768,-0.757630288601,0.0373781248927,-0.00100770301651,-0.141006559134,0.00110926653724,0.256762206554,-0.00767889712006,-0.419932812452,0.0572888068855,0.498459160876,0.00644386742969,0.381749508693,-0.04405354705,0.932916040071,0.352008165316,0.0617834800505
0.247002854943,-0.248648717999,-0.257957816124,-2.19019317627,0.0716686397791,2.03159880638,-0.756550908089,0.0373781248927,0.000431737658801,-0.122486107051,0.000402545440011,0.209215253592,-0.0390596799552,-0.415223032236,0.0632239580154,0.497921996775,0.0063759213392,0.384198694269,-0.0444496626623,0.932967180489,0.35188599179,0.0614224396121
0.247002482414,-0.250592499971,-0.257954865694,-2.18649506569,0.0703738555312,2.02355051041,-0.755244076252,0.0373781248927,-0.000586965063121,-0.0764301493764,-0.000394531380152,0.161691457033,-0.0977172404528,-0.390062689781,0.0663567855954,0.497094377853,0.00617637114856,0.386168172177,-0.0447119565397,0.933060053642,0.35183770683,0.0600833169602
0.247005224228,-0.252466499805,-0.257945418358,-2.18295288086,0.0665892511606,2.01315116882,-0.753205776215,0.0373768098652,0.00314136431552,-0.0571468360722,0.000505310832523,0.0974106267095,-0.17957739532,-0.361625909805,0.076883032918,0.495791631506,0.00565964613937,0.387591652372,-0.0443986796141,0.933184217076,0.352012790234,0.0572972027693
0.24702937901,-0.253069996834,-0.257927656174,-2.18163394928,0.0633399114013,2.0074326992,-0.752073526382,0.0373768098652,0.00147418119013,-0.0152102233842,0.000123176694615,0.0663084983826,-0.225134044886,-0.345961242914,0.0640859827399,0.494893314765,0.00521715191074,0.387879725448,-0.0438539790031,0.933225933977,0.352333612184,0.0550200880471
0.247014343739,-0.253190875053,-0.257928431034,-2.18064689636,0.0583496615291,2.00101804733,-0.750682711601,0.0373768098652,-0.000363914470654,0.000170120576513,-0.000691759865731,0.0347223393619,-0.298288404942,-0.327627152205,0.0837534740567,0.493773684464,0.00448768969075,0.387672808705,-0.0427788785672,0.93326999902,0.352845989822,0.0517376422924
0.24704952538,-0.25109654665,-0.25772100687,-2.18123149872,0.0280239265412,1.98025488853,-0.742446124554,0.0373768098652,0.000620450708084,0.075006455183,0.00378691148944,-0.0261674933136,-0.598860681057,-0.305750846863,0.132640689611,0.489187786394,-2.47652921333e-07,0.383826758663,-0.0339592413193,0.933422578265,0.355378263772,0.0357120377239
0.247070908546,-0.250017911196,-0.257611811161,-2.18173766136,0.0185066219419,1.97578728199,-0.740325391293,0.0373774655163,0.000636039476376,0.0749625787139,0.0076159434393,-0.0395507067442,-0.666085600853,-0.292488157749,0.154640182853,0.488120218941,-0.00143658279476,0.382511199668,-0.0308381968982,0.933341029333,0.356293362699,0.0312820708563
0.247070357203,-0.248247250915,-0.257432937622,-2.18267345428,0.00387683860026,1.96992480755,-0.736979007721,0.0373774655163,0.00150590948761,0.091969192028,0.00529224006459,-0.05117655918,-0.730227649212,-0.269505262375,0.166005864739,0.486659854106,-0.00368872492916,0.380496331385,-0.025863907874,0.933192008941,0.357586231008,0.024815716741
0.247097983956,-0.245184153318,-0.257236599922,-2.18440294266,-0.0198020264506,1.96224856377,-0.732232153416,0.0373774655163,-0.000442230229964,0.112154699862,0.00910526514053,-0.0617525912821,-0.841171383858,-0.24702231586,0.149492368102,0.484646363696,-0.00743187374634,0.377306329898,-0.017481143541,0.932727403201,0.359844631486,0.0150280342535
0.247102379799,-0.243127331138,-0.257097303867,-2.18565559387,-0.0361719019711,1.9578537941,-0.729511260986,0.0373774655163,0.00400216737762,0.102454796433,0.00867298059165,-0.070707090199,-0.880355596542,-0.223057836294,0.140818446875,0.483442424779,-0.0100647337668,0.37525589056,-0.0114935573696,0.932221527701,0.361600628459,0.00871244014933
0.247111350298,-0.241386964917,-0.256983727217,-2.18682408333,-0.0504692979157,1.95430910587,-0.727076768875,0.0373774655163,0.00280177081004,0.113904163241,0.0110694253817,-0.0703593716025,-0.908160746098,-0.216587334871,0.16374823451,0.482438614871,-0.0123853494501,0.373527527254,-0.00620661911035,0.931733003326,0.363075671826,0.00333835375802
0.24713370204,-0.239295274019,-0.256896287203,-2.18801808357,-0.066265784204,1.95060455799,-0.724435150623,0.0373774655163,0.000903512293007,0.124145172536,0.00209506158717,-0.0724951922894,-0.937876880169,-0.221082210541,0.154586181045,0.48141828179,-0.0149829965699,0.371652246916,-0.000308541759343,0.931128403887,0.364682641194,-0.00252411841081
0.247139677405,-0.236844971776,-0.256855547428,-2.18944406509,-0.0856066048145,1.94624662399,-0.721392273903,0.0373774655163,0.000665825617034,0.12962526083,0.00289622182027,-0.0686324313283,-0.998969435692,-0.22075688839,0.164557993412,0.480225785955,-0.0182336368423,0.369507736805,0.00697088582979,0.930281146506,0.36665740153,-0.00952600622734
0.247161865234,-0.233132898808,-0.256784141064,-2.19136548042,-0.115862034261,1.93995523453,-0.71677082777,0.0373774655163,0.00018680721405,0.125143587589,0.00323888030834,-0.0628307685256,-1.07192933559,-0.213934287429,0.15406832099,0.478539695687,-0.0235513892483,0.366454675106,0.0189714253772,0.928681102477,0.369834487372,-0.0203456765674
0.247164919972,-0.230821564794,-0.256768316031,-2.19246697426,-0.135430335999,1.93615925312,-0.713867843151,0.0373774655163,0.0011898574885,0.121236525476,0.00106270937249,-0.060519233346,-1.10881888866,-0.207580953836,0.163846477866,0.477609499851,-0.0269259811393,0.364775876119,0.0265781254871,0.927550634116,0.371783704578,-0.0268384256481
0.247174113989,-0.228876203299,-0.256751984358,-2.19351959229,-0.154484823346,1.93258523941,-0.711175560951,0.0373774655163,0.00202425871976,0.114348530769,0.00309827853926,-0.0576306544244,-1.15544450283,-0.209600314498,0.164046436548,0.476794582455,-0.0300333620484,0.363453166974,0.0335976554329,0.926411710193,0.373593667857,-0.0325624290801
0.247183263302,-0.226675257087,-0.256739526987,-2.19452881813,-0.176749169827,1.92839741707,-0.707986593246,0.0373774655163,0.000549088115804,0.111877851188,-0.000131541324663,-0.0462311320007,-1.23303294182,-0.217975363135,0.18299973011,0.47587023036,-0.0339171153151,0.362027110748,0.0423690686297,0.924909023858,0.375749002728,-0.0395075466454
0.247165620327,-0.223573610187,-0.256755053997,-2.19597911835,-0.214448079467,1.92154955864,-0.702238798141,0.0373774655163,0.00128295819741,0.0956483334303,0.000470558094094,-0.042846467346,-1.22994530201,-0.213315740228,0.191718712449,0.47448729083,-0.0405736720132,0.360248336725,0.0574047178688,0.922202827761,0.379054998013,-0.0506354717441
0.247157528996,-0.222453474998,-0.256772309542,-2.1964609623,-0.229045689106,1.91898691654,-0.699930489063,0.0373768098652,-8.42840818223e-05,0.0898611396551,-0.000894921889994,-0.0437483936548,-1.20583581924,-0.205194428563,0.189914286137,0.473942646796,-0.0436047348806,0.359631199635,0.0642703617327,0.920897729359,0.380445331903,-0.055480102548
0.247149139643,-0.220750927925,-0.256785899401,-2.19734477997,-0.257147699594,1.91431152821,-0.695880413055,0.0373768098652,0.00256473221816,0.0750339105725,0.00116213725414,-0.0392952300608,-1.33347630501,-0.214272618294,0.174146786332,0.473216305245,-0.0481598399023,0.359030890271,0.0746838025975,0.918755240316,0.3826456598,-0.0623974097087
0.247170686722,-0.219582691789,-0.256771504879,-2.19795417786,-0.280244916677,1.91064321995,-0.692853629589,0.0373768098652,-0.00153362576384,0.0727675482631,-0.000921366678085,-0.0336961485445,-1.36103093624,-0.218086972833,0.171262666583,0.472670516342,-0.0522434373991,0.358750135451,0.0841383796417,0.916651413851,0.384704729082,-0.0683607318517
0.24715051055,-0.217255711555,-0.256799131632,-2.19928479195,-0.351226955652,1.89939761162,-0.683421075344,0.0373768098652,0.000602401967626,0.0256583262235,-0.00233325734735,-0.025470810011,-1.41488707066,-0.210907176137,0.188822746277,0.471369327087,-0.0649014159567,0.359297216464,0.113491702501,0.909616197919,0.39038423174,-0.0855462286385
0.247123032808,-0.216857984662,-0.256836533546,-2.19962763786,-0.372660785913,1.89614808559,-0.680413007736,0.0373768098652,0.000762736191973,0.022474616766,-0.000282926572254,-0.0243454631418,-1.44229447842,-0.221170037985,0.201265662909,0.471089766261,-0.0687389412781,0.359808583847,0.122439871119,0.907347260609,0.391863288274,-0.0904023761117
0.247116580606,-0.216574758291,-0.256891578436,-2.19994831085,-0.398643702269,1.89202404022,-0.676702141762,0.0373768098652,-0.00179630855564,0.00510719325393,-0.00568416668102,-0.0125747844577,-1.44815397263,-0.243236899376,0.210759535432,0.470779863299,-0.0733880205331,0.360656386885,0.133315934733,0.904500096592,0.393517595127,-0.0961786817055
0.247087880969,-0.216532960534,-0.256933569908,-2.20011973381,-0.428163051605,1.88711929321,-0.672523736954,0.0373768098652,-0.00441529974341,-0.00142020231578,-0.00170752941631,-0.00573998410255,-1.5005222559,-0.246305137873,0.211866244674,0.47048898207,-0.0786759369622,0.361962930496,0.14572632767,0.901127185311,0.39524226102,-0.102553342694
0.246862709522,-0.216679051518,-0.257043391466,-2.20010209084,-0.49716308713,1.87596929073,-0.66158425808,0.0373761542141,-0.00766859203577,-0.010285067372,-0.00186282768846,0.00494698993862,-1.51663184166,-0.236994668841,0.257085710764,0.470226195262,-0.0910254530127,0.365928406929,0.175012445684,0.8928976773,0.398130893383,-0.116602629201
0.246713981032,-0.216876208782,-0.257081925869,-2.20007610321,-0.523177802563,1.87179136276,-0.657118678093,0.0373761542141,-0.0137489102781,-0.0110755097121,-0.00377766881138,0.00337662431411,-1.53685188293,-0.25215369463,0.266353726387,0.470215681196,-0.095668256843,0.367711500296,0.186116161415,0.889652201321,0.39884653322,-0.121660091058
0.246530532837,-0.217096984386,-0.257108479738,-2.20007419586,-0.550888955593,1.86732065678,-0.652500033379,0.0373761542141,-0.00905163027346,-0.00965193193406,0.00151589058805,-0.00236596236937,-1.54115056992,-0.249852746725,0.24520380795,0.470242517391,-0.100588212428,0.369732927017,0.197943192749,0.886028301218,0.399554755252,-0.126997398057
0.245641231537,-0.2175604105,-0.257168352604,-2.20004892349,-0.626867353916,1.85491430759,-0.640288054943,0.0373761542141,-0.0214065238833,-0.00685340771452,-0.000196963665076,-0.000957806361839,-1.54464101791,-0.259765982628,0.252399772406,0.47052096239,-0.11406351523,0.375899654203,0.230337954533,0.875323317325,0.400940863713,-0.141421145249
0.245210826397,-0.217697620392,-0.257164001465,-2.20000433922,-0.653115034103,1.850289464,-0.636006295681,0.0373761542141,-0.0247063115239,-0.00444017443806,-0.000685034145135,0.00400329800323,-1.54975497723,-0.278179734945,0.256422400475,0.470630884176,-0.11871456198,0.378256902454,0.241508082313,0.871408838935,0.401101941919,-0.146416233595
0.244729489088,-0.217769771814,-0.257187515497,-2.19989204407,-0.679481387138,1.84560954571,-0.63177382946,0.0373761542141,-0.031796682626,-0.0023706026841,-0.00253367330879,0.00764310965315,-1.54352295399,-0.274546146393,0.248935088515,0.470790350866,-0.123381190617,0.380745181731,0.2527211822,0.867347962854,0.401148786332,-0.15139077347
0.243995368481,-0.217809557915,-0.257195740938,-2.19979906082,-0.709999740124,1.84031128883,-0.626747965813,0.0373761542141,-0.0399843119085,9.81054763542e-05,0.000714145833626,0.00704955589026,-1.5153785944,-0.260170996189,0.25133356452,0.471013328458,-0.128515681076,0.383591674313,0.265054456457,0.862773613125,0.400992082037,-0.156758340824
0.241912454367,-0.217840060592,-0.257274955511,-2.19949603081,-0.781774163246,1.82764780521,-0.61570340395,0.0373761542141,-0.0444534234703,-0.00211546639912,-0.00547254271805,0.00663755647838,-1.45689046383,-0.262421756983,0.205224096775,0.471724678146,-0.141407864335,0.391420613534,0.296073848354,0.850446627724,0.400166748826,-0.17013930325
0.241173297167,-0.217824012041,-0.257372587919,-2.19933748245,-0.806483566761,1.82319712639,-0.612513959408,0.0373761542141,-0.0420340821147,-0.0031056785956,-0.00507897604257,0.0125680807978,-1.44848334789,-0.261289775372,0.179051980376,0.472015654857,-0.145702226926,0.394270780128,0.306445395491,0.845963564758,0.399916793666,-0.174652295976
0.24056892097,-0.217841297388,-0.25754147768,-2.19915318489,-0.828027009964,1.8192731142,-0.609881222248,0.0373761542141,-0.039831712842,0.0050456924364,-0.0117158759385,0.0195184405893,-1.42702972889,-0.268915832043,0.175268992782,0.472309095533,-0.14967160166,0.397041569391,0.316054916123,0.841683808343,0.399630886482,-0.178809426473
0.238555699587,-0.21779166162,-0.25802347064,-2.1977057457,-0.895864903927,1.80544090271,-0.602071940899,0.0373761542141,-0.0342782363296,-0.00174117810093,-0.0104113239795,0.0400745607913,-1.35251903534,-0.28164562583,0.154993310571,0.473231425382,-0.161271309806,0.406077173735,0.344329879249,0.828511290768,0.398053089878,-0.191205942953
0.237996697426,-0.217771962285,-0.258160740137,-2.19708299637,-0.914739072323,1.80143415928,-0.600015223026,0.0373761542141,-0.0391769893467,0.000467813864816,-0.00976857822388,0.0493844002485,-1.32513296604,-0.284585356712,0.136867746711,0.4735254066,-0.164211630043,0.408624072862,0.351633494119,0.82497128521,0.397503763299,-0.19433739272
0.237125441432,-0.217793896794,-0.258399218321,-2.19584655762,-0.944752931595,1.79478693008,-0.597043931484,0.0373761542141,-0.0375811196864,0.00261418451555,-0.0101084783673,0.0682627558708,-1.31889784336,-0.302957981825,0.125573590398,0.474053323347,-0.169205166763,0.413238709375,0.364125086315,0.818763478874,0.396441787717,-0.199682737815
0.236563533545,-0.217800915241,-0.258617967367,-2.19452095032,-0.968930363655,1.78901815414,-0.594749629498,0.0373761542141,-0.026729658246,0.000519311288372,-0.0163618810475,0.0752746090293,-1.23927640915,-0.302968651056,0.107358679175,0.474514401578,-0.173150647403,0.417211063147,0.374198457237,0.813650122605,0.395400748472,-0.203978529125
0.236004903913,-0.217807561159,-0.258932113647,-2.19268536568,-0.996298253536,1.78232836723,-0.592243134975,0.0373754948378,-0.0228345729411,-0.00119214842562,-0.0104320021346,0.0831945464015,-1.25687527657,-0.312184661627,0.118951536715,0.475106546535,-0.17755311976,0.421976523047,0.385614415611,0.807764066292,0.394022912236,-0.208721536887
0.235530689359,-0.217814698815,-0.259153872728,-2.19099783897,-1.01742708683,1.77678310871,-0.589987635612,0.0373754948378,-0.0235958136618,0.00400968873873,-0.0136989261955,0.107807412744,-1.1532946825,-0.315308600664,0.137742623687,0.475555251476,-0.1809468714,0.425871470469,0.394469678697,0.803239565064,0.392573516985,-0.212334422814
0.234873369336,-0.217811346054,-0.259520590305,-2.18770051003,-1.05099999905,1.76732242107,-0.58647274971,0.0373754948378,-0.018203843385,0.000258871586993,-0.0130654145032,0.114069014788,-1.09088385105,-0.301997452974,0.108630649745,0.476303988904,-0.186269034023,0.432502274254,0.408582709806,0.795952605814,0.389852720547,-0.21802402269
0.234541907907,-0.217786327004,-0.259731829166,-2.18572449684,-1.06966614723,1.76235163212,-0.584832489491,0.0373754948378,-0.0178931988776,-0.00634349649772,-0.0113917002454,0.109438993037,-1.07607150078,-0.286106228828,0.0938751846552,0.476825813823,-0.189121399629,0.436324209664,0.416416989046,0.79176292467,0.388405206354,-0.221019812845
0.234204366803,-0.217850938439,-0.259957671165,-2.18361520767,-1.08842468262,1.75736486912,-0.583041906357,0.0373754948378,-0.0217969436198,-0.00398412020877,-0.0144898388535,0.127506479621,-1.00736808777,-0.270771950483,0.0957362949848,0.477399732894,-0.19210369902,0.440539451566,0.424742107878,0.787333397897,0.386669388657,-0.224024654592
0.233888015151,-0.217864051461,-0.260183036327,-2.1813313961,-1.10506927967,1.75283157825,-0.58137267828,0.0373768098652,-0.0177817437798,-0.00612961826846,-0.0126984901726,0.135600998998,-0.957922041416,-0.256095230579,0.0975164994597,0.477910036193,-0.194464390457,0.44408247962,0.431382000145,0.783846468786,0.385084338062,-0.226283750056
0.233201578259,-0.217960625887,-0.260861098766,-2.17410063744,-1.147326231,1.74154019356,-0.57773244381,0.0373768098652,-0.0104823773727,-0.00156545592472,-0.0167241711169,0.152426227927,-0.796016156673,-0.203315749764,0.0651255548,0.479660473277,-0.200906617362,0.454942205135,0.450140004994,0.773937697479,0.380266815746,-0.231930086019
0.233023300767,-0.217969968915,-0.261143088341,-2.17148137093,-1.16030597687,1.73814153671,-0.576628804207,0.0373768098652,-0.00751525862142,-0.000232028920436,-0.0189273562282,0.159617111087,-0.723428726196,-0.198474124074,0.0593700818717,0.480215048059,-0.202654898253,0.458166584842,0.455359096757,0.771205334604,0.378760423626,-0.233304449177
0.232847452164,-0.218063399196,-0.261376947165,-2.16860818863,-1.17262589931,1.73466455936,-0.575664103031,0.0373768098652,-0.00820649694651,-0.0069608669728,-0.0111523400992,0.157971471548,-0.653710663319,-0.189515843987,0.0415201447904,0.480749240627,-0.204336406188,0.461483764565,0.460407664952,0.768603762658,0.377163029146,-0.234565741653
0.232681781054,-0.21823219955,-0.261621832848,-2.16529798508,-1.18559074402,1.73112356663,-0.574800848961,0.0373768098652,-0.00753374630585,-0.00246375449933,-0.0119780376554,0.156782329082,-0.594035208225,-0.153486087918,0.0468446873128,0.481375169945,-0.206095399564,0.465193260493,0.46582888285,0.765815499886,0.375429629152,-0.235759761665
0.232565417886,-0.218499884009,-0.261946052313,-2.16088891029,-1.20047950745,1.72709918022,-0.573480963707,0.0373768098652,-0.00566904153675,-0.0129558565095,-0.00624200282618,0.144467398524,-0.453236222267,-0.115143820643,0.0406053476036,0.482256879767,-0.208259382912,0.470183704052,0.47274939529,0.762448089934,0.372923866405,-0.23687276944
0.232519492507,-0.218707606196,-0.262138992548,-2.15842604637,-1.20780467987,1.72545647621,-0.572738230228,0.0373768098652,0.000574992969632,-0.0120250945911,-0.00738068064675,0.142189800739,-0.408894866705,-0.0942337214947,0.0461440458894,0.482771965032,-0.209256415642,0.472723866658,0.476104429121,0.760906335172,0.371662603477,-0.237092873089
0.232521042228,-0.218873158097,-0.262283921242,-2.15647006035,-1.213337183,1.72431409359,-0.572175204754,0.0373768098652,0.000275070720818,-0.0138287814334,-0.011890841648,0.13710449636,-0.376208305359,-0.0794114246964,0.0437569506466,0.483198861318,-0.209978265968,0.47469453555,0.478662802386,0.75974056276,0.370711674624,-0.237168827701
0.232509836555,-0.219173595309,-0.262442827225,-2.15361857414,-1.22084331512,1.72300243378,-0.571415424347,0.0373768098652,0.000123549980344,-0.0169389657676,-0.00547745497897,0.128508582711,-0.321826636791,-0.0504288859665,0.0404759906232,0.483846611891,-0.210919611339,0.477497756744,0.482189550406,0.75817490815,0.369411302386,-0.237063990152
0.232537835836,-0.219785764813,-0.262462079525,-2.14983391762,-1.2294895649,1.7214038372,-0.570125281811,0.0373768098652,-0.000345105829183,-0.0218505319208,6.79430959281e-05,0.114278487861,-0.257036238909,-0.0479348823428,0.0466081462801,0.484646962892,-0.211924266182,0.481102304561,0.486443750326,0.756502370069,0.367592140026,-0.236543146308
0.232537150383,-0.220154583454,-0.262455612421,-2.14800024033,-1.23337209225,1.72074615955,-0.569470882416,0.0373768098652,0.000428175233537,-0.0196123570204,0.002441348508,0.100615598261,-0.205283746123,-0.0306450631469,0.0256721433252,0.48502090635,-0.212370955766,0.482828223961,0.488397333683,0.755790840082,0.366698910563,-0.23617823591
0.23257176578,-0.22060418129,-0.262441456318,-2.14641666412,-1.23673629761,1.7202912569,-0.569061815739,0.0373768098652,0.00307725952007,-0.029025260359,-0.000438129442045,0.0854991152883,-0.193230375648,-0.0193776171654,0.0196415130049,0.485353992175,-0.212726354015,0.484375877845,0.490091934559,0.755152810153,0.366001222867,-0.235790656055
0.23257355392,-0.221143320203,-0.262444078922,-2.14498496056,-1.23979139328,1.71995818615,-0.568721473217,0.0373761542141,-0.000398955424316,-0.0268312077969,-0.000280781881884,0.0768292546272,-0.162146821618,-0.0227573793381,0.0108069367707,0.48563967578,-0.21306538875,0.485832257519,0.491633521073,0.754593945121,0.3653549418,-0.235372524034
0.232597023249,-0.222530081868,-0.262432217598,-2.14236831665,-1.24630713463,1.71928298473,-0.567591965199,0.0373761542141,0.000371699541574,-0.0276725254953,0.000582854205277,0.0441179685295,-0.113864220679,-0.00853458233178,0.0248361192644,0.48615363257,-0.213768120374,0.488888327443,0.494968935465,0.753431285461,0.363873662382,-0.234399250132
0.232605367899,-0.223034739494,-0.26243185997,-2.14172005653,-1.24840700626,1.7190489769,-0.567012786865,0.0373761542141,0.00070102897007,-0.03106758371,5.93132572249e-05,0.0295973829925,-0.109964556992,-0.0129064116627,0.0306466892362,0.4862631567,-0.213977168257,0.489738419751,0.495960109409,0.753104573659,0.363385880662,-0.23411059858
0.232590526342,-0.223437070847,-0.262438356876,-2.14134168625,-1.25022864342,1.7188423872,-0.566600322723,0.0373761542141,-0.0004294711689,-0.024776218459,0.00122744275723,0.0179924927652,-0.0869212821126,-0.0165099948645,0.0118738487363,0.486332999842,-0.214175633757,0.490417820989,0.496817197661,0.75276625048,0.363016352788,-0.233954635514
0.232586160302,-0.224212914705,-0.26244661212,-2.1408765316,-1.25264644623,1.71837460995,-0.565681755543,0.0373754948378,-0.000410961918533,-0.00711491284892,0.00136793754064,0.00106677715667,-0.0253386385739,-0.00438194908202,0.0190553627908,0.486344962513,-0.214459670279,0.491410686504,0.498004781516,0.752424357317,0.362296058328,-0.233645864175
0.232597023249,-0.22433552146,-0.26244482398,-2.14089012146,-1.25287389755,1.7182725668,-0.565350532532,0.0373754948378,0.000242379450356,-0.0063702701591,0.000463194068288,-0.00417250627652,-0.002724775346,-0.00457366136834,0.0233004372567,0.48632036424,-0.214485982951,0.491499611955,0.498138018461,0.752437413775,0.362130321897,-0.233576716525
0.232638671994,-0.224079400301,-0.262442499399,-2.14093661308,-1.25215172768,1.71824550629,-0.56191277504,0.0373754948378,8.35310129332e-05,0.0012230288703,-0.000166444951901,0.000386389088817,0.0496507175267,-0.000502125825733,0.0474538318813,0.486315436402,-0.214413232327,0.491271379928,0.498266997429,0.753151517326,0.360951471797,-0.232823593852
0.232634425163,-0.224057778716,-0.26244610548,-2.14093589783,-1.25115501881,1.7182585001,-0.561078071594,0.0373754948378,-1.66419958987e-05,0.00141257012729,0.00402434496209,0.000191921091755,0.100876957178,0.00118095602375,0.0742721185088,0.486243015162,-0.2143205995,0.49103840119,0.497900893148,0.753701233665,0.360538695522,-0.23246720119
0.232633531094,-0.224071368575,-0.262451589108,-2.14091873169,-1.2484742403,1.71837842464,-0.559268414974,0.0373754948378,-0.000292503624223,-0.0010463250801,-0.000187017503777,0.000332921772497,0.140121862292,0.0153509601951,0.0924277380109,0.486098322666,-0.214115080291,0.490590025574,0.497094015516,0.754780707264,0.359848870941,-0.231759386839
0.232609495521,-0.224103838205,-0.262504756451,-2.14090394974,-1.2423248291,1.71905767918,-0.555906772614,0.0373754948378,-0.00032211758662,-0.0013207414886,-0.00513710733503,0.00212877453305,0.287471264601,0.0345560871065,0.119261182845,0.485820760339,-0.21360726171,0.489499691822,0.495082229894,0.757199900319,0.358584749025,-0.230127951348
0.232613906264,-0.224134162068,-0.262640833855,-2.14087319374,-1.23624849319,1.72001826763,-0.55378651619,0.0373754948378,-0.000835904269479,-0.00256300554611,-0.0123806111515,0.00218688789755,0.38518884778,0.0675254687667,0.120815634727,0.485600051496,-0.213096047011,0.488419119579,0.492951872668,0.759372592794,0.357836899116,-0.228701704855
0.232601895928,-0.224160864949,-0.262835234404,-2.14085912704,-1.22931408882,1.72134613991,-0.551740527153,0.0373754948378,-0.000243209753535,0.00081253569806,-0.0170198790729,-0.000416207738454,0.479825824499,0.0861899629235,0.137565433979,0.485384613902,-0.21250620132,0.487168706501,0.490467542836,0.761777058486,0.35716358464,-0.227093540252
0.232614830136,-0.22417780757,-0.263180613518,-2.14088106155,-1.21989643574,1.72320461273,-0.549068272114,0.0373754948378,-0.000194657812244,0.000169360471773,-0.0242294091731,-0.00251615024172,0.565779924393,0.12010499835,0.144362583756,0.485093303258,-0.211710259738,0.485444884574,0.487050621317,0.765012287942,0.356282825949,-0.224945413678
0.232614442706,-0.224176168442,-0.263752788305,-2.1408894062,-1.20686841011,1.72602450848,-0.546183049679,0.0373754948378,0.00205057277344,0.000756537308916,-0.0306761264801,0.000618316757027,0.673411369324,0.148914083838,0.130801871419,0.484733574967,-0.210612186813,0.483065732332,0.482205492923,0.769331362259,0.355363128217,-0.222090441883
0.232631728053,-0.224175691605,-0.26468193531,-2.14086437225,-1.18760943413,1.730230093,-0.542903423309,0.0373761542141,-0.00182450411376,0.000631492352113,-0.0416254363954,0.000564897083677,0.817396402359,0.188992679119,0.111145429313,0.484176782227,-0.20882378737,0.479310640995,0.474265061932,0.776012850877,0.354208911663,-0.21774469646
0.232630491257,-0.22416973114,-0.26551347971,-2.14090704918,-1.17146718502,1.73403978348,-0.540952920914,0.0373761542141,0.000127076666104,0.00106971396599,-0.0502600856125,-0.00395406410098,0.885073065758,0.222656190395,0.0917112529278,0.483836957843,-0.20753490026,0.476694748418,0.468631020728,0.780482456882,0.353685053925,-0.214799867729
0.23264926672,-0.224157080054,-0.266507267952,-2.14092111588,-1.15479063988,1.73811650276,-0.539324581623,0.0373761542141,-0.000248184398515,-0.000236195250181,-0.0541590154171,0.00186997966375,0.97094386816,0.240239009261,0.0863123759627,0.483471301505,-0.206054656852,0.473730635443,0.462083885511,0.785532708126,0.353144174504,-0.211438026066
0.232641667128,-0.224156096578,-0.267743915319,-2.14088892937,-1.1355432272,1.7430460453,-0.537749230862,0.0373761542141,0.000785530311987,-0.000495019485243,-0.0719042569399,-0.000934287381824,1.05118644238,0.278227329254,0.0908975079656,0.483099506702,-0.204325245705,0.470380193682,0.454465163363,0.791271076285,0.352555586068,-0.207499536137
0.232682108879,-0.224152326584,-0.270108044147,-2.14093184471,-1.10364866257,1.75159430504,-0.535476386547,0.0373761542141,-0.000434906658484,-0.000725172867533,-0.0876502543688,0.00064873334486,1.16527736187,0.297476321459,0.0694752112031,0.482525321087,-0.201309699817,0.464689576403,0.441221612639,0.800940366651,0.35150434281,-0.200655710707
0.232708096504,-0.224150165915,-0.271609097719,-2.14091825485,-1.08371388912,1.75670015812,-0.534253776073,0.0373761542141,0.00140890746843,0.000513196282554,-0.0899172350764,-0.00040936662117,1.16480660439,0.301375955343,0.0789176151156,0.48218821435,-0.1995518949,0.461550000948,0.433629193987,0.806329302501,0.350791678765,-0.196834894787
0.232713699341,-0.224139377475,-0.273292481899,-2.14092421532,-1.06163072586,1.76224505901,-0.532977581024,0.0373761542141,0.00577513547614,0.000167063844856,-0.101896606386,-0.00323401717469,1.23403954506,0.31214043498,0.0690101906657,0.481810496333,-0.19757093784,0.458124575896,0.425161305523,0.812220543997,0.349898400868,-0.1926311525
0.23277002573,-0.224133729935,-0.275142222643,-2.14095187187,-1.03833544254,1.76779282093,-0.531859815121,0.0373761542141,-0.00130436185282,-0.000433749519289,-0.106270872056,-0.00101187534165,1.29407548904,0.308842509985,0.0582366399467,0.481381580348,-0.195450762308,0.454582866834,0.416168477957,0.818304111664,0.348877356848,-0.188326228437
0.232788264751,-0.224133208394,-0.280449360609,-2.14101099968,-0.974364995956,1.78170835972,-0.529569089413,0.0373754948378,-0.00022002744663,0.00420954404399,-0.119560107589,-0.00173833640292,1.39188158512,0.312949955463,0.0208886787295,0.479913135327,-0.188926471384,0.444301673371,0.388442045265,0.836182210354,0.344978614694,-0.175789202226
0.232791215181,-0.224145144224,-0.282576054335,-2.14112472534,-0.9503287673,1.78690350056,-0.529284000397,0.0373754948378,-0.000545592280105,-0.00445472449064,-0.125655710697,-0.00812530238181,1.42994177341,0.307183265686,0.0150043619797,0.479407783067,-0.186493978711,0.440724432738,0.378276396384,0.842336516523,0.343538465653,-0.171340255474
0.232768669724,-0.224133938551,-0.284811079502,-2.14128780365,-0.924430608749,1.79239630699,-0.529040932655,0.0373754948378,0.000710255699232,-0.00109383766539,-0.120712310076,-0.0149890324101,1.44063198566,0.302249878645,0.0126253804192,0.478916517204,-0.183939016133,0.437161491261,0.367892480506,0.848455986991,0.341974146635,-0.166826987087
0.232802942395,-0.224144056439,-0.287302583456,-2.14155316353,-0.895317435265,1.7985304594,-0.528760671616,0.0373754948378,0.000507496821228,0.00162710435688,-0.126165181398,-0.0171284731477,1.47378468513,0.312959492207,0.00760978180915,0.4783522866,-0.180600005779,0.432822379054,0.354868238342,0.855912551514,0.339884766128,-0.161122881659
0.232764288783,-0.224163115025,-0.291168302298,-2.14227414131,-0.849746525288,1.80807626247,-0.528464853764,0.0373754948378,-0.00238993950188,-0.00416601682082,-0.123571142554,-0.0290411412716,1.47081303596,0.280676156282,0.00302787148394,0.477553660279,-0.175442734011,0.42651300205,0.335297331467,0.866632658898,0.336493790273,-0.152628512462
0.232742518187,-0.22418692708,-0.293086707592,-2.14275527,-0.826212108135,1.81264054775,-0.528450727463,0.0373754948378,-8.59481224325e-06,-0.000305949302856,-0.119560360909,-0.0321658998728,1.4650053978,0.287389695644,0.000510722922627,0.477111921595,-0.172683206223,0.42334901704,0.325115049545,0.871959983457,0.334617880458,-0.148380812625
0.232753947377,-0.22417421639,-0.294900745153,-2.14324998856,-0.804006516933,1.81689620018,-0.528444707394,0.0373761542141,0.00321351084858,0.000384131155442,-0.12115482986,-0.0359765253961,1.4898724556,0.280221670866,0.00011482105765,0.476721731748,-0.170015899584,0.420417651812,0.31547626051,0.876867402308,0.332765523941,-0.144379339139
0.232656940818,-0.224183142185,-0.300306200981,-2.14578270912,-0.728056550026,1.83127212524,-0.528446674347,0.0373761542141,-0.00170118699316,0.000306249363348,-0.0970072895288,-0.0654558241367,1.53636109829,0.278843164444,0.000115499395179,0.475535203728,-0.160201750421,0.410728332056,0.282344553721,0.89267603728,0.326078543517,-0.130705120717
0.232601732016,-0.224224478006,-0.302154868841,-2.14723825455,-0.697288393974,1.83680856228,-0.528447687626,0.0373761542141,-0.00645286310464,-0.00582772586495,-0.0880289822817,-0.0759029239416,1.55599844456,0.263289749622,-6.50832589599e-05,0.475057107834,-0.155934910268,0.406923596041,0.268829505035,0.898649216709,0.323203095891,-0.125299804524
0.232538044453,-0.22430279851,-0.303528159857,-2.14860296249,-0.672287940979,1.84112894535,-0.528453290462,0.0373761542141,-0.00113474705722,-0.00644373288378,-0.0861051902175,-0.0929360985756,1.58508300781,0.264014571905,-0.00034864366171,0.474647446167,-0.15236778664,0.403892180747,0.257802732609,0.903327850435,0.320776825172,-0.120990800466
0.232476532459,-0.224351391196,-0.304840832949,-2.15024280548,-0.645257651806,1.8455722332,-0.528456330299,0.0373761542141,-0.00517125800252,0.000511184975039,-0.0655499994755,-0.101722948253,1.59581911564,0.248098835349,0.00014645193005,0.474163071972,-0.148143288668,0.400459737574,0.245131653453,0.908475594919,0.317929858053,-0.116203145176
0.232288122177,-0.224416255951,-0.307557553053,-2.15557193756,-0.565616309643,1.85713636875,-0.528511166573,0.0373761542141,0.0014212236274,-0.000230277582887,-0.0406352803111,-0.123546563089,1.6497528553,0.246293798089,0.00046115659643,0.472820420376,-0.135901715975,0.391580120246,0.210440355266,0.921399289561,0.309782537269,-0.103792992816
0.232289835811,-0.224445551634,-0.30824676156,-2.1578400135,-0.537267029285,1.86143600941,-0.528588533401,0.0373761542141,-0.00163116911426,-0.00271683279425,-0.0394434183836,-0.140006542206,1.68112397194,0.254779905081,-0.015319602564,0.472394768037,-0.130897698021,0.388299448021,0.197055633635,0.92593313688,0.30661973178,-0.0990012275012
0.232285246253,-0.224485233426,-0.308738172054,-2.16042160988,-0.506848990917,1.8659876585,-0.528768718243,0.0373761542141,0.00441289832816,-0.00286396895535,-0.0207770988345,-0.149357169867,1.70085299015,0.251104086637,-0.0108938384801,0.472015232953,-0.125955994225,0.385260268418,0.184238858984,0.930033941547,0.303593429794,-0.0944666051057
0.232308939099,-0.224555402994,-0.309028953314,-2.16336274147,-0.474109202623,1.87053751945,-0.529068291187,0.0373761542141,-0.00296857533976,-0.00729264225811,-0.0135084642097,-0.15577416122,1.73607480526,0.234249189496,-0.0198582708836,0.471548871251,-0.120177498859,0.381908419449,0.169594614856,0.934433575933,0.300106434402,-0.0894856776049
0.232712522149,-0.224547162652,-0.309136778116,-2.17165088654,-0.38902336359,1.88086295128,-0.530668139458,0.0373754948378,0.0222874376923,0.0014720762847,0.00322598149069,-0.183873340487,1.80184817314,0.216950565577,-0.0278174653649,0.47020940497,-0.1045671353,0.373647540588,0.131300227333,0.944506132599,0.290957253846,-0.0775389702437
0.234006881714,-0.22448591888,-0.309132367373,-2.18069219589,-0.299161434174,1.88968527317,-0.533542096615,0.0373754948378,0.0352504998446,-0.0013372754911,-0.00178219249938,-0.187698975205,1.86239695549,0.160611197352,-0.10642260313,0.468743668248,-0.0874969210968,0.366016526704,0.090576183772,0.953170641204,0.280906968214,-0.0659769549
0.234808564186,-0.224483177066,-0.309120416641,-2.18428611755,-0.263659775257,1.89274680614,-0.535878419876,0.0373754948378,0.0486720837653,-0.00135672779288,0.000838721811306,-0.18916721642,1.88249588013,0.146013781428,-0.14368082583,0.468198452802,-0.0805919072955,0.363358450695,0.074422355487,0.95591656933,0.277286599803,-0.0616195321585
0.235633864999,-0.224532574415,-0.309129446745,-2.18731832504,-0.233494713902,1.89506673813,-0.538456559181,0.0373754948378,0.0582110024989,-0.0010392103577,-0.00122903718147,-0.192321807146,1.88684523106,0.141593724489,-0.17209109664,0.467734779941,-0.0746663482548,0.361282363457,0.060665258282,0.957946731919,0.27439514218,-0.0580094033974
0.236789017916,-0.224515870214,-0.309124410152,-2.19110631943,-0.195498272777,1.8976483345,-0.542252779007,0.0373754948378,0.0611525028944,0.0022262679413,-0.00184399809223,-0.196116328239,1.90753149986,0.12262519449,-0.208766996861,0.467157771283,-0.0671427624976,0.358845079501,0.0433116495217,0.960140108729,0.270886699608,-0.0536233931575
