imanlab/tactile_prediction_flat_dataset/train/data_sample_2021-11-24-16-39-39/robot_state.csv
position_panda_joint1,position_panda_joint2,position_panda_joint3,position_panda_joint4,position_panda_joint5,position_panda_joint6,position_panda_joint7,position_panda_finger,velocity_panda_joint1,velocity_panda_joint2,velocity_panda_joint3,velocity_panda_joint4,velocity_panda_joint5,velocity_panda_joint6,velocity_panda_joint7,ee_state_position_x,ee_state_position_y,ee_state_position_z,ee_state_orientation_x,ee_state_orientation_y,ee_state_orientation_z,ee_state_orientation_w
-0.150746509433,0.14022089541,0.137157604098,-2.50837135315,0.0988325178623,2.65752792358,-0.857699215412,0.0753925591707,-0.000442701566499,0.00292314728722,-0.000164088298334,0.000638212659396,-0.00012530881213,8.66340487846e-05,0.00046164431842,0.470648227805,-0.00053455901497,0.117687729283,-0.0277013397346,0.9290052647,0.368584279272,0.0180964829081
-0.150753989816,0.140221625566,0.137154951692,-2.50837087631,0.0988317206502,2.65753078461,-0.85769879818,0.0753925591707,-0.000274013233138,-9.40528043429e-05,0.000262584275333,0.000256580126006,6.68378634145e-05,-4.88580153615e-05,0.00051072059432,0.470648919367,-0.000539477319484,0.117687782056,-0.0277003537574,0.929007101131,0.368579668786,0.0180976211674
-0.150752142072,0.140220031142,0.137154862285,-2.50837135315,0.098833180964,2.65752863884,-0.857700586319,0.0753919035196,0.000145369704114,-0.0001123564507,-0.00317074381746,0.000242711175815,-6.22400766588e-05,9.7825373814e-05,-0.000492647464853,0.47064866883,-0.000538421871316,0.11768823898,-0.0277007867078,0.929006550092,0.368581038094,0.0180973573522
-0.150745823979,0.140221342444,0.137157410383,-2.50836968422,0.0988319516182,2.65752959251,-0.857699751854,0.0753919035196,0.000123916644952,-0.000205945485504,-8.59215069795e-05,-5.36179904884e-05,9.52114260144e-06,-7.12270775693e-06,7.56222507334e-05,0.470649530274,-0.000534315724859,0.117688347193,-0.0277005678079,0.929005043904,0.368584820709,0.018097971464
-0.150744244456,0.140223011374,0.137157455087,-2.50837016106,0.0988316014409,2.65752983093,-0.857700943947,0.0753919035196,-4.25805119448e-05,-0.000218245200813,-6.83239704813e-05,0.000272779550869,3.01906366076e-05,2.69661650236e-05,-0.000149504558067,0.470648937362,-0.000533639747994,0.117687425902,-0.0277009342592,0.929004449343,0.368586339803,0.0180969924993
-0.150747060776,0.14022089541,0.137157335877,-2.50837230682,0.0988313406706,2.65752959251,-0.857698261738,0.0753919035196,0.000403229263611,-0.000196428096388,0.000161015152116,-0.000502821465489,3.76539828721e-05,6.04134365858e-05,0.000617777986918,0.470648092078,-0.000535012834421,0.117687544626,-0.0277008698831,0.92900542094,0.368583912149,0.0180966588572
-0.150746405125,0.140221461654,0.137158840895,-2.50837016106,0.0988321900368,2.65753054619,-0.857699215412,0.0753919035196,-0.000225999072427,-0.000113598180178,-1.50100122482e-05,0.000283021014184,-6.04107226536e-05,-2.0767793103e-05,-0.000373144692276,0.470649297084,-0.000533977034767,0.117688122758,-0.0277006654889,0.92900497563,0.36858498672,0.0180979455903
-0.150750264525,0.14021922648,0.137154787779,-2.50836896896,0.0988330319524,2.65753126144,-0.85769879818,0.0753919035196,-2.64480695478e-05,-0.00281341280788,-0.000627694709692,0.000447822734714,8.73276985658e-06,-3.55863230652e-05,-3.50350637746e-06,0.470650523428,-0.000537892279034,0.117689599778,-0.0276995776494,0.929006624597,0.368580820321,0.0180998184712
-0.150752946734,0.140220373869,0.137156248093,-2.50836968422,0.0988328680396,2.65753030777,-0.85769867897,0.0753919035196,-0.000254195969319,0.000993701163679,0.000181686584256,0.000121409138956,0.000123137317132,3.1146366382e-05,-0.000524994567968,0.470649768938,-0.000538201282076,0.117689162774,-0.027699947963,0.929006730837,0.368580565127,0.0180989954824
-0.150750920177,0.140224099159,0.137155309319,-2.50837135315,0.0988310873508,2.65752959251,-0.857700169086,0.0753919035196,0.000339954654919,0.000218837740249,0.000334944546921,7.7737342508e-05,-2.39872333623e-05,-0.000101557096059,7.4689865869e-05,0.470647890001,-0.000537750073544,0.117686362451,-0.0277012477706,0.929006132239,0.368582136588,0.0180957289394
-0.150747835636,0.140222534537,0.137155473232,-2.50837039948,0.098832346499,2.65753030777,-0.85770124197,0.0753919035196,-9.11313836696e-05,0.000410741078667,-5.9086298279e-05,-0.0002761160722,-0.00010190505418,-2.45140854531e-05,-0.000229002456763,0.470648876442,-0.000536271389863,0.117687487127,-0.0277008053975,0.929005519323,0.368583639649,0.0180972571379
-0.150749266148,0.140219569206,0.137156069279,-2.50837135315,0.0988296791911,2.65753030777,-0.857700407505,0.0753925591707,-0.00381103646941,-0.00195081077982,0.000185079930816,-7.08548177499e-05,-0.000125409758766,-2.42286969296e-05,0.000250246550422,0.470649010566,-0.000536795007874,0.117688539702,-0.0276997050481,0.929005396082,0.368584003186,0.0180978636876
-0.150748342276,0.140220910311,0.137156799436,-2.50836992264,0.0988325402141,2.65753078461,-0.857698500156,0.0753925591707,0.000413992907852,0.00217858608812,0.000159715651534,4.7430232371e-05,-0.000155866495334,-0.00497436197475,-0.00058145012008,0.470649844123,-0.000536144876315,0.117688860344,-0.0277000672535,0.929006125983,0.368582083082,0.0180989467935
-0.15074801445,0.140220567584,0.137157738209,-2.50837278366,0.0988315418363,2.65753102303,-0.85770046711,0.0753925591707,0.000158192866365,0.000140967356856,0.000142753080581,-8.64893518155e-05,-0.000175443143235,-2.14378360397e-06,0.000573931552935,0.470648227427,-0.000535301407484,0.117687664561,-0.0277005908096,0.929005154124,0.368584574845,0.0180972857139
-0.150746271014,0.140222191811,0.137157842517,-2.50837182999,0.0988316759467,2.65753173828,-0.857698202133,0.0753925591707,0.000173752268893,0.00192157493439,-0.000502248934936,-0.000307073321892,8.63304449013e-05,0.000123826597701,-0.000254081969615,0.47064853128,-0.000534407181813,0.117687302813,-0.0277007247557,0.929005261209,0.368584294086,0.0180973017744
-0.150745615363,0.140221521258,0.137156903744,-2.50836849213,0.0988326594234,2.65753293037,-0.857700705528,0.0753925591707,0.000105569502921,0.000576707941946,0.000586428097449,0.000438536255388,4.86682947667e-05,0.00437139021233,0.000272678356851,0.470650655254,-0.000534643516253,0.117688865435,-0.0276997710457,0.929004988526,0.368584932333,0.0180997602241
-0.150747522712,0.140221595764,0.137157961726,-2.50836873055,0.0988323241472,2.65753269196,-0.857699871063,0.0753925591707,-0.000378824741347,-0.000413949630456,-0.000136182643473,2.57445262832e-05,-8.40677821543e-05,-0.000638593162876,-0.000673456059303,0.47065058276,-0.000535240280975,0.117688893689,-0.0276997855746,0.929005223659,0.368584346297,0.0180996034021
-0.150748834014,0.140221506357,0.137156873941,-2.50837278366,0.0988323539495,2.6575319767,-0.857700765133,0.0753925591707,0.000502826471347,-0.000686521409079,0.00156567420345,-3.25199398503e-05,-1.68665865203e-05,4.56549969385e-05,-0.000740098010283,0.470648231416,-0.000536092706002,0.117687305576,-0.0277007113138,0.929005547023,0.368583570993,0.0180973774553
-0.150750696659,0.140222504735,0.137156486511,-2.50837087631,0.098831653595,2.65753221512,-0.85770046711,0.0753925591707,-5.83443215874e-05,0.00236621056683,7.40230680094e-05,0.000453691696748,-9.95894879452e-05,-9.52294521994e-06,-0.000661205791403,0.47064905155,-0.000537179852579,0.117687515492,-0.0277003518179,0.929005905472,0.368582669876,0.0180978799605
-0.15074826777,0.140221253037,0.137156561017,-2.50837230682,0.0988327711821,2.65753173828,-0.857698619366,0.0753925591707,0.000311209267238,-0.00465590879321,0.000533336715307,-8.70645890245e-05,8.31326615298e-05,-0.000277122977423,0.00040711753536,0.470648479838,-0.00053597970538,0.117687564331,-0.0277007035385,0.929005955487,0.368582531287,0.0180975967418
-0.150749698281,0.140220761299,0.137156501412,-2.50837206841,0.098832577467,2.65753269196,-0.857698619366,0.0753919035196,-0.000647970649879,0.000128640516778,-0.000368659821106,4.5513806981e-05,-5.8523255575e-06,-3.6530829675e-05,-0.000340808328474,0.470648912827,-0.000536733267796,0.117687959665,-0.0277002553644,0.929006199655,0.368581912958,0.0180983419007
-0.150749668479,0.140220105648,0.137156993151,-2.50836730003,0.0988319441676,2.65753293037,-0.857699513435,0.0753919035196,-2.80217809632e-05,0.000773799896706,0.00295618432574,7.26592115825e-05,5.38267704542e-05,2.25625153689e-05,0.000415192975197,0.470651569166,-0.000536586681408,0.117689935365,-0.0276990133026,0.929005811231,0.368582859932,0.0181008952509
-0.150745227933,0.140222370625,0.137156769633,-2.50837612152,0.0988315865397,2.65753316879,-0.85770046711,0.0753919035196,-0.000191930812434,-0.00047715078108,-0.000207070959732,-0.000741442723665,5.49258038518e-05,7.16879949323e-05,0.000727016711608,0.470646580356,-0.000534423343105,0.117685855677,-0.0277011563016,0.929004866242,0.368585327848,0.0180958618565
-0.150743186474,0.140223130584,0.137156456709,-2.5083758831,0.0988321229815,2.65753293037,-0.857701957226,0.0753919035196,-0.000128874511574,0.000290302443318,-6.10983479419e-05,0.000353175069904,1.09949735361e-06,-3.03899214487e-05,-0.000692736648489,0.47064649095,-0.000533577019579,0.117685560777,-0.0277014554433,0.929004359557,0.368586596527,0.0180955749987
-0.150748297572,0.140220955014,0.137156635523,-2.50836992264,0.0988327264786,2.65753221512,-0.857699751854,0.0753919035196,-0.000234354141867,3.33176285494e-05,-7.35141948098e-05,0.000281569344224,0.000130200016429,0.000108644991997,-0.000785716169048,0.470649878933,-0.000536015013595,0.11768856897,-0.0277000472877,0.929005719003,0.368583105232,0.0180990513759
-0.150752648711,0.140219718218,0.137156009674,-2.50837063789,0.098832629621,2.65753364563,-0.857700884342,0.0753919035196,0.000335302262101,-0.000496661406942,-3.4552616853e-05,-8.70733492775e-05,3.18514685205e-05,-3.2666248444e-05,0.000280205276795,0.470650076817,-0.000538445446698,0.11768901911,-0.0276994286752,0.92900641444,0.368581355144,0.0180999421201
-0.150752156973,0.140221789479,0.137154906988,-2.50836825371,0.0988309830427,2.65753340721,-0.8577003479,0.0753919035196,0.000226577147259,-0.000244317925535,-0.000212325176108,4.55873414467e-05,8.37970292196e-05,-0.000111222099804,0.0034220314119,0.470650806997,-0.000538760412604,0.117688843203,-0.0276991294458,0.929006370276,0.36858149351,0.0180998491884
-0.150747403502,0.140223294497,0.137155458331,-2.50837016106,0.0988330468535,2.65753412247,-0.857701957226,0.0753919035196,9.21531900531e-05,2.10378366319e-05,0.00194189196918,-0.00016727950424,6.31803268334e-05,-6.80865778122e-05,-0.000174556378624,0.470649666327,-0.000536144772751,0.117687557087,-0.0277002174516,0.929005441005,0.368583805455,0.0180988004025
-0.150744274259,0.140222862363,0.137157067657,-2.50837206841,0.0988322943449,2.65753316879,-0.857700705528,0.0753919035196,4.56872548966e-05,-0.000124173471704,-1.33236017064e-05,0.000234085076954,9.89636100712e-05,2.39353466895e-05,0.000835425918922,0.470648573965,-0.000533851945656,0.117687029503,-0.0277006834724,0.929004683579,0.36858573915,0.0180975855395
-0.150743633509,0.14022025466,0.137157171965,-2.50837016106,0.0988304316998,2.6575345993,-0.857701838017,0.0753919035196,-0.000549046497326,-9.12080649869e-05,1.88490666915e-05,0.000322552106809,8.16151384697e-07,0.000193989661057,-0.00458588963374,0.470650421019,-0.000533694905286,0.117689027022,-0.0276989350096,0.929004025946,0.368587406684,0.0181000578243
-0.150752365589,0.140222430229,0.13715647161,-2.50837445259,0.0988322347403,2.65753531456,-0.857699811459,0.0753919035196,6.09583548794e-05,0.000135812399094,0.00446840049699,6.32507144473e-05,8.29676428111e-05,-0.000227755241212,-0.000121152843349,0.470647891332,-0.000537997231595,0.117686593425,-0.0277004164285,0.929006459743,0.368581276669,0.0180977031391
-0.150751978159,0.140221625566,0.13715544343,-2.50837612152,0.0988329052925,2.65753483772,-0.857701599598,0.0753919035196,0.000290870608296,-7.67283199821e-05,4.29852334491e-05,-0.000128094136016,-8.80034276634e-05,0.000187894678675,0.000123422360048,0.470647093492,-0.000538297378048,0.117686340428,-0.0277007028457,0.929006354187,0.368581549374,0.0180971292752
-0.150750145316,0.140224277973,0.137155786157,-2.50836873055,0.0988313853741,2.65753531456,-0.857700526714,0.0753919035196,-0.000337803678121,0.00291735585779,-0.000692125002388,0.000514744082466,-0.00016431453696,-9.3847665994e-05,-0.000373022048734,0.470650090231,-0.000537317884388,0.117687472327,-0.0276997386974,0.929005935531,0.368582578431,0.0180991376986
-0.150746375322,0.140222385526,0.137156233191,-2.50836658478,0.0988326892257,2.65753650665,-0.857701003551,0.0753919035196,0.000579319894314,0.000149112180225,0.000107541920443,0.00040726683801,-2.7722942832e-05,-1.26681106849e-05,0.00026276166318,0.470652228141,-0.000535432811533,0.117689434005,-0.0276987489423,0.929005214151,0.368584337519,0.0181018564862
-0.150745198131,0.140221312642,0.137158453465,-2.50837039948,0.098831474781,2.65753602982,-0.8577003479,0.0753919035196,0.000346041051671,0.00410280842334,0.000283876579488,7.41236653994e-05,2.65476210188e-05,2.69670617854e-05,2.09631998587e-05,0.470650390748,-0.000533773667955,0.117688594239,-0.0276992287164,0.929004529841,0.368586104985,0.0181002530195
-0.150743827224,0.140222877264,0.137158334255,-2.50837039948,0.0988325104117,2.65753412247,-0.857699036598,0.0753919035196,0.000115574388474,0.00375360902399,-0.000332059687935,-9.23552361201e-05,-5.66544088088e-07,-6.91867535352e-05,0.000278523744782,0.470649689117,-0.000532887319041,0.117687878919,-0.0277003018537,0.929004681642,0.368585708666,0.0180988899147
-0.150749489665,0.140221878886,0.137156561017,-2.50837278366,0.0988312512636,2.65753412247,-0.8577003479,0.0753919035196,-0.000332308205543,0.000275602767942,-1.09620268631e-05,9.01466555661e-05,-2.66137594735e-05,-6.72923706588e-05,0.000789172190707,0.470648612442,-0.000536631007473,0.11768731887,-0.027700049884,0.929005643135,0.368583344967,0.0180980594823
-0.150752931833,0.140222460032,0.137154147029,-2.50837063789,0.0988325998187,2.65753555298,-0.857699394226,0.0753919035196,-0.000210131882341,0.000348681409378,-0.000648898479994,0.000175661160029,1.95806169359e-05,4.40741132479e-05,0.00110050826333,0.470649896821,-0.000539467839458,0.117687894984,-0.0276995548558,0.929007107923,0.368579617254,0.0180995447092
-0.150750696659,0.140221878886,0.137156546116,-2.50836658478,0.0988328754902,2.65753626823,-0.857701420784,0.0753919035196,1.91557364815e-06,-0.000404598715249,9.35395873967e-05,-0.00050870818086,1.01968153103e-05,-2.49866334343e-05,0.000113405985758,0.470652284045,-0.000537316752526,0.11768965188,-0.0276986950123,0.929005900322,0.368582602121,0.0181020595247
-0.150744915009,0.140221819282,0.137158021331,-2.50837492943,0.0988310053945,2.65753650665,-0.857701718807,0.0753919035196,-5.05631833221e-05,8.22685178719e-05,0.0014995232923,-0.000349625654053,-6.72292881063e-05,1.85858043551e-05,1.35337779739e-06,0.47064804209,-0.000533798076333,0.117686832835,-0.0276999727261,0.929004261434,0.368586830588,0.0180981145531
-0.150747045875,0.140223130584,0.137157306075,-2.5083732605,0.0988317728043,2.65753769875,-0.85769957304,0.0753919035196,-0.000421124801505,0.000646176398732,0.00020742318884,0.000191386585357,-1.5230363033e-06,1.37903052746e-05,0.000150631152792,0.470648880842,-0.00053515226032,0.117686899054,-0.0276998237316,0.929005306672,0.368584168475,0.0180989053197
-0.150748178363,0.140221476555,0.137157306075,-2.50836706161,0.0988316237926,2.65753650665,-0.857701838017,0.0751778259873,0.000443611643277,0.000195893269847,0.00112207001075,0.000371248024749,-0.00013376105926,-1.19861961139e-05,-0.000553628953639,0.470652177065,-0.000535797477537,0.117689701322,-0.0276984332996,0.929005024998,0.368584831594,0.0181019867564
-0.150752186775,0.140221700072,0.137156009674,-2.50836777687,0.0988329425454,2.65753698349,-0.857702076435,0.0751778259873,-0.000488020858029,-0.000433732871898,7.80252958066e-05,0.00387637363747,-3.48718676833e-05,0.000108606909635,-0.000113489222713,0.470651857706,-0.000538291271366,0.117689382404,-0.0276986707839,0.929006171939,0.368581925811,0.0181019276905
-0.150750890374,0.14022423327,0.137156516314,-2.5083694458,0.0988314822316,2.65753817558,-0.857702851295,0.0751778259873,0.000486822333187,-0.000415223155869,-7.68006939325e-05,0.000107746353024,-5.27277079527e-05,2.14190840779e-05,-9.15021228138e-05,0.470650714005,-0.000537392483117,0.11768773659,-0.0276990801839,0.929005501014,0.368583658336,0.0181004567698
-0.150749668479,0.140223056078,0.137155279517,-2.50837230682,0.0988318100572,2.65753793716,-0.857702374458,0.0751778259873,0.000387244217563,0.000311743351631,7.19471427146e-05,0.000102217112726,-4.5997298912e-06,-3.26785338984e-05,0.000768642465118,0.470649429646,-0.000537413185037,0.117687264286,-0.0276993859683,0.929005649097,0.368583308179,0.0180995187305
-0.150746658444,0.140221953392,0.137155383825,-2.50837278366,0.0988321825862,2.657538414,-0.85770213604,0.0751778259873,0.00037633057218,-0.000136594782816,-0.000537554791663,9.89186082734e-05,-2.91443648166e-05,0.000131927939947,7.99966583145e-05,0.470649593148,-0.000535786868077,0.117687806668,-0.0276991741371,0.92900510189,0.368584673222,0.0181001316226
-0.150747045875,0.140220656991,0.137156412005,-2.50837039948,0.0988327562809,2.65753865242,-0.857703566551,0.0751778259873,-0.000114997310448,0.000331726070726,0.00103463779669,0.000273536890745,0.000118558607937,0.000227808224736,-0.000250110024353,0.470651090426,-0.000535719794907,0.117689115418,-0.027698545653,0.929004861015,0.368585243344,0.0181018466392
-0.150745749474,0.140221044421,0.137156665325,-2.50836896896,0.0988315567374,2.65754103661,-0.857702672482,0.0751778259873,-0.000114769085485,-0.000413161702454,0.000426869519288,0.000142783130286,5.81694366701e-05,-0.000121899312944,0.000526994408574,0.470652262855,-0.00053508762272,0.117689642097,-0.0276975997015,0.929004559224,0.368586005766,0.0181032579651
-0.150748699903,0.14022180438,0.137158378959,-2.50837397575,0.0988319441676,2.65753984451,-0.857704818249,0.0751778259873,-0.000229597935686,-5.86050737184e-05,-2.84906873276e-05,0.000318940059515,0.00015055105905,-6.30362455922e-06,-0.000505638250615,0.47064926343,-0.000535487698787,0.117687471709,-0.0276991798862,0.929004477959,0.368586240388,0.0181002333347
-0.150752812624,0.140224143863,0.137154489756,-2.50837397575,0.0988326072693,2.65754127502,-0.857702314854,0.0751778259873,0.000242552312557,0.00105836638249,-0.000343148014508,-0.000342601182638,4.29227520726e-06,-7.66760695114e-06,0.00527976732701,0.470649055153,-0.000539300295752,0.117686473502,-0.0276992973302,0.929006540989,0.368581050105,0.0180998595412
-0.150750249624,0.140221655369,0.137156024575,-2.50837278366,0.0988310500979,2.65754103661,-0.857704281807,0.0751778259873,0.000512114667799,-0.000177804933628,-0.000216445143451,-0.000180901814019,-9.34955241974e-05,-4.60063456558e-05,6.62239472149e-05,0.47065015459,-0.00053746104546,0.117688034305,-0.0276982752893,0.929005155855,0.368584549585,0.0181012550038
-0.15074890852,0.140220165253,0.137157335877,-2.50836730003,0.0988308414817,2.65754151344,-0.857706010342,0.0751778259873,-0.000398002768634,0.00155635399278,1.20989477637e-06,-0.000254052196397,5.93060685787e-05,3.45492699125e-05,-0.000374131312128,0.470653415724,-0.000536324755472,0.117690675172,-0.0276967831883,0.929004278366,0.368586706347,0.0181046559323
-0.150750666857,0.140221253037,0.137155354023,-2.50836896896,0.0988328158855,2.65754199028,-0.857704341412,0.0751778259873,0.000137334791361,0.000224579824135,0.000256731262198,-0.000216610133066,-5.66099406569e-05,9.68993554125e-05,-0.000166035169968,0.470652418907,-0.00053804215976,0.117689619246,-0.0276975515502,0.929005601786,0.368583356323,0.0181037734585
-0.1507486552,0.140223920345,0.13715621829,-2.50837540627,0.0988323166966,2.65754079819,-0.857703566551,0.0698634237051,-0.000137683033245,-1.55497818923e-05,-0.00590138835832,0.000263479712885,-6.42734885332e-05,6.49291541777e-05,-0.000621818355285,0.470648270419,-0.000536466916291,0.117686057826,-0.0276997085442,0.929005183725,0.368584479755,0.0180990531953
-0.150747179985,0.140223190188,0.13715544343,-2.50837516785,0.0988325476646,2.65754055977,-0.85770368576,0.0698634237051,-0.000205355041544,1.45444710142e-05,0.000230205507251,0.000378555385396,9.52896698436e-06,1.73396147147e-05,0.00067240576027,0.470648494838,-0.000536171579685,0.1176864514,-0.0276995420574,0.929005061512,0.368584785271,0.0180993592728
-0.150746285915,0.140221491456,0.13715839386,-2.50836825371,0.0988314673305,2.65754294395,-0.857705831528,0.0698634237051,6.22158859187e-06,-0.000766005658079,-0.000983791076578,0.000710322870873,-2.19794255827e-05,1.27429129861e-05,0.000418832583819,0.470652958829,-0.000534534650798,0.117689867885,-0.0276972024752,0.929003750855,0.368588020871,0.0181043206877
-0.150748923421,0.140218958259,0.137155756354,-2.50836610794,0.0988319218159,2.65754342079,-0.857704401016,0.0698634237051,-3.98553638661e-05,-0.000194189778995,0.000659167009871,-0.000565342023037,6.91489549354e-05,3.57740173058e-05,-0.000183831012691,0.470654696631,-0.000537198814764,0.117691804707,-0.0276959473403,0.929005031533,0.36858477437,0.0181066195978
-0.150748237967,0.140220940113,0.137156620622,-2.50836920738,0.0988322049379,2.65754246712,-0.857704758644,0.0698634237051,-1.04857372207e-05,-0.000300895742839,0.0013256079983,3.65668965969e-05,-4.88382756885e-05,-4.28539060522e-05,-0.000286060560029,0.470652471843,-0.000536305720594,0.11768973661,-0.0276973833265,0.929004749625,0.36858550809,0.0181039509967
-0.150745362043,0.140225544572,0.137155354023,-2.50837254524,0.0988316982985,2.65754294395,-0.857703208923,0.0698634237051,3.96256109525e-05,-0.00272793183103,-0.000144048419315,0.000485063355882,1.88827107195e-05,-4.3970409024e-05,1.91771391655e-06,0.470649864009,-0.000535408970004,0.117686471226,-0.0276989158405,0.929004711676,0.368585658217,0.0181004968475
-0.150745138526,0.140223383904,0.137157261372,-2.5083732605,0.0988303348422,2.65754246712,-0.857704699039,0.0698634237051,-0.000649557332508,-0.00027107851929,-0.000231513709878,0.000177700218046,9.17992292671e-05,-0.000839502492454,0.000195404762053,0.470649857425,-0.000534436884594,0.11768720396,-0.0276984468357,0.929003818267,0.368587929559,0.0181008164238
-0.150746524334,0.140220120549,0.137157723308,-2.50836658478,0.0988315865397,2.65754365921,-0.857703626156,0.0698634237051,0.000284184148768,-1.00690413092e-05,0.00438277889043,0.000882081571035,6.52108064969e-05,0.000140288757393,-0.000375814008294,0.470654264865,-0.00053506478088,0.117691139262,-0.0276963695686,0.929004328525,0.368586546462,0.0181059698849
-0.150747716427,0.140221044421,0.137157842517,-2.50836706161,0.0988319218159,2.65754389763,-0.857704401016,0.0698634237051,0.000374733004719,-0.000443604687462,0.000534938822966,-0.000297166552627,-9.84429862001e-05,2.37279309658e-05,-0.000212249200558,0.470653874232,-0.000535528754211,0.117690567721,-0.0276967008662,0.929004445593,0.368586248686,0.0181055183163
-0.150748357177,0.140224024653,0.137157842517,-2.50837302208,0.0988312587142,2.65754365921,-0.857704520226,0.0698634237051,-0.000144488963997,-0.000163091739523,0.000360755249858,-7.70466649556e-05,-3.07372029056e-05,-1.72038153323e-06,0.000579538405873,0.470650056573,-0.000535444681433,0.117687082516,-0.0276986912011,0.929004569524,0.368585995712,0.0181012640216
-0.15075173974,0.140222489834,0.137155354023,-2.50836753845,0.0988326370716,2.65754532814,-0.857703864574,0.0698581710458,-0.000263412774075,9.37405638979e-05,-0.00059930793941,0.000206833152333,-9.40378413361e-06,9.81141274679e-05,0.000767920806538,0.470653617118,-0.0005386256998,0.117689834872,-0.0276967754856,0.929005875622,0.368582645963,0.0181053711987
-0.150746420026,0.140221700072,0.137156441808,-2.50837016106,0.0988310799003,2.65754413605,-0.857703745365,0.0698581710458,0.000264459551545,-0.000105705279566,-0.00247310427949,1.88173089555e-05,-1.4839852156e-05,0.00013803843467,5.67243296246e-05,0.470652176191,-0.000535574286513,0.117689199233,-0.0276971443134,0.929004477042,0.368586221865,0.0181037722268
-0.150746315718,0.140222296119,0.137156486511,-2.50837087631,0.098831191659,2.65754365921,-0.857704877853,0.0698581710458,-2.6904643164e-05,-0.000230053003179,-0.000194239561097,0.000315596815199,-0.000167450343724,-0.000139390685945,0.000681321194861,0.47065157692,-0.00053545745412,0.117688633078,-0.027697559126,0.929004263989,0.368586765656,0.0181029991065
-0.150747060776,0.140224531293,0.137155145407,-2.50837206841,0.0988320782781,2.65754461288,-0.857705295086,0.0698581710458,-0.000346005341271,0.000515112886205,-0.000223430281039,-0.00047622618149,2.22940852836e-05,-3.57253043148e-06,-0.000662442005705,0.470650686717,-0.000536389350862,0.11768725483,-0.0276982168853,0.929004736058,0.368585576539,0.0181019782198
-0.150749489665,0.140222251415,0.137155532837,-2.5083694458,0.0988317877054,2.65754580498,-0.8577054739,0.0649758502841,-0.000357909390004,0.00201683724299,-0.00153347582091,0.000870783696882,-0.000127788633108,0.000252589641605,-0.000114262409625,0.47065278557,-0.00053749211883,0.117689330601,-0.0276968065119,0.92900500978,0.368584858016,0.0181047186517
-0.150747701526,0.140220925212,0.137157037854,-2.50836515427,0.0988318100572,2.65754818916,-0.85770624876,0.0649758502841,2.73850728263e-05,7.24513156456e-05,0.00425453484058,7.40642935853e-05,1.63704244187e-05,-0.000137782510137,0.000783057126682,0.470655810835,-0.000536075137605,0.117691656304,-0.027695219259,0.929004242009,0.368586734011,0.0181083504199
-0.150747597218,0.140221834183,0.137157276273,-2.50837278366,0.0988310202956,2.65754723549,-0.857706129551,0.0649758502841,-0.000650447618682,0.000608699687291,-0.00352085125633,-0.000591367774177,2.91400519927e-05,-0.000162232419825,0.000234736624407,0.470651467389,-0.000535761317481,0.117688516483,-0.02769697748,0.929004120274,0.368587125453,0.018103938453
-0.150749698281,0.1402233392,0.137156873941,-2.50837445259,0.0988319739699,2.65754532814,-0.857705354691,0.0649758502841,0.000518560409546,-0.00024388928432,8.7928994617e-05,0.000803390576039,-0.000142810386023,8.66567861522e-05,-1.84097170859e-05,0.47064987044,-0.000536800745482,0.1176870675,-0.0276982806502,0.92900488359,0.36858520997,0.0181017731032
-0.150744229555,0.140222653747,0.137157827616,-2.50837349892,0.0988322272897,2.65754628181,-0.857705950737,0.0649758502841,-4.66308629257e-05,-0.000454525521491,9.90477474261e-06,-0.000431273743743,0.000158554350492,2.74765097856e-05,-0.000679506920278,0.470650714881,-0.000533928764659,0.117687886113,-0.0276977510273,0.929003615798,0.36858838377,0.0181030234288
-0.150746196508,0.140221610665,0.137156963348,-2.50837516785,0.0988319888711,2.65754747391,-0.857706487179,0.0649758502841,-0.000525123614352,-0.000410927954363,0.0024818200618,-6.30799040664e-05,9.51958572841e-05,-5.76131569687e-05,-0.0010441011982,0.470650336086,-0.000535213937308,0.117687817511,-0.027697517652,0.929004017048,0.36858738571,0.018103110351
-0.150751113892,0.140223041177,0.137153223157,-2.50837302208,0.0988307595253,2.65754723549,-0.85770624876,0.0649758502841,-0.000466973579023,-0.0004633932258,-6.838839181e-05,5.51239781998e-06,-6.46020271233e-05,3.10073373839e-05,-0.00162379501853,0.470651576195,-0.000541926178574,0.117688496515,-0.0276962345235,0.929006599896,0.368580922224,0.0181041265678
-0.150741964579,0.140222758055,0.137160032988,-2.5083770752,0.0988318100572,2.65754675865,-0.85770624876,0.0649758502841,-0.000211979640881,-0.000377603428205,3.43608007825e-05,8.05545496405e-05,6.82373211021e-05,5.4711363191e-05,-0.000101061719761,0.470648968504,-0.000531620082934,0.117686591326,-0.0276985515583,0.92900270137,0.368590707883,0.018101404258
-0.150744497776,0.140222728252,0.137159109116,-2.50837135315,0.098831653595,2.65754628181,-0.857707083225,0.0649758502841,-0.000269745418336,-0.000153728193254,6.59069992253e-05,-0.000212055529119,-2.86404410872e-05,0.000109969769255,0.00656802253798,0.470651822128,-0.000533343509639,0.117688527897,-0.027697431217,0.929003127792,0.368589596672,0.0181038605571
-0.150755882263,0.140221908689,0.13715416193,-2.50837039948,0.098832577467,2.65754699707,-0.857708394527,0.0649758502841,1.66082663782e-05,-0.000997095834464,3.88833286706e-05,0.00291380216368,3.57696335413e-05,0.000186141987797,-0.000256647123024,0.470652615553,-0.000541192602738,0.117689255197,-0.0276966174955,0.929006033814,0.368582271007,0.0181051291006
-0.150746271014,0.140221387148,0.137154683471,-2.50837445259,0.0988317728043,2.65754461288,-0.85770636797,0.0604146458209,0.00151517451741,-0.00312561355531,0.000344444066286,-0.000274429941783,9.53616108745e-06,-0.000243445465458,0.00419079465792,0.470650121276,-0.000536321507239,0.11768789035,-0.0276977808552,0.929004421573,0.368586391115,0.0181021988187
-0.150736495852,0.140217363834,0.137165173888,-2.5083656311,0.0988290831447,2.65755486488,-0.857707679272,0.0604146458209,-0.000118036332424,-0.00352836423554,-0.00123703794088,0.00204566167668,0.000322892068652,8.28232441563e-05,8.83238826646e-05,0.470659306393,-0.000527315675665,0.117695037989,-0.0276922498976,0.929000064524,0.368597204472,0.0181140815267
-0.150746107101,0.140192747116,0.137160986662,-2.50832915306,0.0988313704729,2.65756249428,-0.85771048069,0.0604146458209,-0.000365329615306,-0.00105442362837,-0.00162136659492,0.000916620250791,1.47150367411e-05,0.000968665175606,-0.000151669868501,0.470683531828,-0.000535205583042,0.117718509604,-0.027678085328,0.929002049979,0.368591814421,0.0181435595623
-0.150746181607,0.140152320266,0.137162923813,-2.50829863548,0.0988315418363,2.65757918358,-0.857710003853,0.0604146458209,0.00213848683052,-0.00593094481155,0.000171112580574,4.76237255498e-05,-4.38983515778e-05,-0.000381838995963,0.000545636401512,0.470711531323,-0.000536488623751,0.117749367815,-0.0276583833261,0.92900145386,0.368592874405,0.0181825515187
-0.15074506402,0.14008551836,0.137160614133,-2.50830864906,0.0988327786326,2.65773630142,-0.85770970583,0.0604146458209,0.000516560277902,-0.00481867417693,-2.98572213069e-05,-0.00216501345858,-0.000108536369225,0.0237288549542,-0.000231187194004,0.470754604664,-0.000543511063278,0.117791015738,-0.0276073287401,0.929002217372,0.36859013374,0.0182764468712
-0.150733694434,0.140095844865,0.137167111039,-2.50831913948,0.098830960691,2.65801692009,-0.857710957527,0.0604146458209,-0.00085330219008,0.00162280153017,0.0010197829688,0.000160684256116,0.000124979458633,0.000460015056888,2.98184222629e-05,0.470807814121,-0.000542384548356,0.117807721079,-0.0275473353701,0.928999782012,0.368595044689,0.0183913580277
-0.1507409513,0.140101775527,0.13716314733,-2.50831770897,0.0988322719932,2.65802097321,-0.857709348202,0.0604146458209,-0.00072847068077,2.89664967568e-06,-0.000302922941046,0.000200952752493,5.78018334636e-05,0.000183625437785,-0.000798532739282,0.470808148666,-0.000547678362417,0.117805779466,-0.027547574667,0.929002403548,0.368588418721,0.0183913729819
-0.150741502643,0.140100166202,0.137164860964,-2.50832414627,0.0988308414817,2.65802931786,-0.857709884644,0.0604146458209,0.000400176330004,-0.000718259601854,0.000334443640895,0.000392120156903,-5.46089540876e-05,-0.000204009746085,0.000539318134543,0.470806977634,-0.000547316653244,0.117805066442,-0.0275462776566,0.929001927833,0.368589648002,0.0183927088932
-0.150736123323,0.140093058348,0.137164980173,-2.50832390785,0.0988315045834,2.65804028511,-0.857711315155,0.0604146458209,-0.000173596170498,-3.20515609928e-05,5.89387818763e-05,0.000128454979858,1.82230305654e-05,0.00171632529236,-6.25879256404e-05,0.470810993947,-0.000545250560601,0.117809440328,-0.0275420969607,0.929000751083,0.368592524524,0.0184007589899
-0.150745764375,0.140097826719,0.137162655592,-2.50832176208,0.0988322123885,2.65805697441,-0.857710719109,0.0604146458209,-9.22768304008e-05,6.95338167134e-05,-1.06434727059e-05,-4.02704972657e-05,2.51433957601e-05,0.000218547458644,-1.59288083523e-05,0.470814688067,-0.000551271414859,0.117809431399,-0.0275389436737,0.929003272167,0.368586082745,0.0184072316151
-0.150743409991,0.140101894736,0.137162685394,-2.50832343102,0.0988324806094,2.65806555748,-0.857710421085,0.0604146458209,0.000260194472503,0.00074766331818,0.000382905913284,0.000227226526476,4.85617201775e-05,0.000192030245671,0.000327156594722,0.470814821682,-0.000550227759048,0.117807729184,-0.0275383912461,0.929003004921,0.368586734288,0.0184084992804
-0.150737583637,0.140101358294,0.1371666044,-2.50832605362,0.0988311842084,2.65807080269,-0.857710301876,0.0563465952873,0.000493477156851,0.00304914242588,0.000642178347334,-0.00054331345018,1.12905836431e-05,-3.30530638166e-05,0.00213542371057,0.470814736872,-0.000545699198645,0.117807578612,-0.0275375963915,0.929001061473,0.368591630837,0.0184097237256
-0.150734513998,0.140100121498,0.137167036533,-2.5083258152,0.0988318920135,2.65807676315,-0.857710242271,0.0563465952873,0.000131281616632,0.000532532983925,6.35707619949e-05,-0.000213636711123,0.000147460552398,0.000149269922986,0.000876162375789,0.470816419919,-0.000544233793165,0.117808774884,-0.0275360741154,0.929000553378,0.368592859362,0.0184130431329
-0.150732755661,0.140103965998,0.137165695429,-2.50833010674,0.0988313108683,2.65808463097,-0.85771048069,0.0563465952873,6.72979440424e-05,0.000609510927461,-4.06311555707e-05,-0.000708599342033,5.49052019778e-05,0.000138701347169,-0.000809938297607,0.470815081793,-0.000544120394301,0.117806192508,-0.0275358447536,0.929000427526,0.36859320663,0.0184127841758
-0.150732383132,0.140106484294,0.137165650725,-2.5083334446,0.0988317430019,2.65809488297,-0.857712209225,0.0563465952873,0.00218974775635,-0.000328437687131,7.13498957339e-06,0.000196440159925,-3.1967931136e-05,-8.79173749126e-05,5.1839666412e-05,0.470815043258,-0.000544116019449,0.117804784274,-0.0275348291186,0.929000196879,0.368593765181,0.0184147587247
-0.150734633207,0.140101134777,0.137166514993,-2.50832748413,0.0988311693072,2.65810012817,-0.857711434364,0.0563465952873,-0.000359600526281,-9.79581018328e-05,-0.000378318858566,0.00042255219887,0.000124122670968,0.000127634688397,0.000630721158814,0.470820398919,-0.00054516588689,0.117809809294,-0.0275310539084,0.929000458172,0.36859302029,0.0184221297354
-0.150742098689,0.140084773302,0.137164622545,-2.50831246376,0.0988329425454,2.65811419487,-0.857711970806,0.0563465952873,1.61613643286e-05,0.00222665816545,0.00023823932861,0.00216439948417,4.62325260742e-05,0.00264035235159,-0.000818659609649,0.470834677845,-0.000550716108721,0.117823854993,-0.0275209862574,0.929002224549,0.368588296392,0.0184426013706
-0.150741651654,0.140075609088,0.137162789702,-2.50830340385,0.0988309085369,2.65813612938,-0.857711732388,0.0563465952873,-7.77842433308e-05,0.00019375346892,8.80135994521e-05,5.19345558132e-05,-2.62275352725e-05,-0.000262519257376,9.36266078497e-05,0.470846045469,-0.000552505076066,0.117833190188,-0.0275113254601,0.929002189016,0.368588225122,0.0184602210443
-0.150733351707,0.140075713396,0.137167453766,-2.50831246376,0.0988311469555,2.65819072723,-0.857710778713,0.0563465952873,-3.54059156962e-05,-7.28722852728e-07,-9.16423741728e-05,-0.000473109132145,-4.44829529442e-05,0.00215097516775,0.000744766613934,0.470853197609,-0.00054768022123,0.117834941139,-0.0275009462577,0.929000300101,0.368592759967,0.0184801880857
-0.150735139847,0.140076190233,0.137165307999,-2.50831270218,0.0988317430019,2.65825128555,-0.857711076736,0.0563465952873,-0.000143774566823,0.000407647428801,-0.000294992147246,0.000239962857449,0.000115664435725,0.00121290166862,-0.000766042910982,0.47086607977,-0.000551255725675,0.117840032419,-0.0274870968579,0.929001331661,0.36858986017,0.018506753971
-0.150733247399,0.140072569251,0.137163668871,-2.50831270218,0.0988323539495,2.65827465057,-0.857711791992,0.0563465952873,0.00037312094355,6.20346036158e-05,1.33779067255e-05,-7.77724635554e-05,-0.0001378122397,0.00256912782788,-0.00496481359005,0.470871905112,-0.000551936893763,0.117843793046,-0.0274808206991,0.929001324487,0.36858974725,0.0185186798181
-0.150734364986,0.140076205134,0.137166216969,-2.50831222534,0.0988323688507,2.65828967094,-0.857711911201,0.0563465952873,-0.000367011962226,-1.95391985471e-05,-0.000200223148568,-0.00022650763276,4.21579534304e-05,0.00138224300463,-0.000341750128428,0.470874643736,-0.000551510602923,0.117843633248,-0.0274783480245,0.92900112872,0.36859015455,0.018524062169
-0.150738552213,0.140080288053,0.137164488435,-2.5083155632,0.0988324284554,2.65831160545,-0.857711493969,0.0563465952873,0.000232091755606,0.000625454296824,-2.51171277341e-05,-0.00359064317308,3.76766547561e-05,-3.48937646777e-05,-0.000603437714744,0.470876790801,-0.000554775128437,0.117842524559,-0.0274748115263,0.929002448084,0.368586769156,0.0185305011563
-0.15074031055,0.140078529716,0.13716429472,-2.50831794739,0.098832346499,2.6583237648,-0.85771125555,0.0563465952873,-0.000137980096042,-9.51389956754e-05,3.51100607077e-06,7.39411480026e-05,3.80921701435e-05,4.60852315882e-05,6.66409978294e-05,0.47087856458,-0.000556065662334,0.117843605517,-0.0274719736394,0.929002892415,0.368585606539,0.0185355573395
-0.150736659765,0.140076234937,0.137165650725,-2.50831651688,0.0988320186734,2.65833163261,-0.857711195946,0.0558665730059,-0.00121014285833,0.000221951268031,4.2243344069e-05,-0.000186250224942,6.62005186314e-05,9.86883896985e-05,-0.000772629515268,0.470881503982,-0.000553997573647,0.11784588461,-0.0274693644603,0.929001939037,0.368587948153,0.0185406429583
-0.15073530376,0.140077680349,0.137164995074,-2.50831508636,0.0988325178623,2.65834116936,-0.857712626457,0.0558665730059,-0.000483040028485,-0.000283282250166,-0.000541916349903,0.000248841417488,-5.73737343075e-05,0.000100403340184,-0.000589958101045,0.470883999811,-0.000553914260167,0.117846553083,-0.027467314889,0.92900166783,0.368588568208,0.0185449414255
-0.150734379888,0.140079542994,0.137164995074,-2.50831460953,0.0988312363625,2.65834951401,-0.857710659504,0.0558665730059,-4.03281665058e-05,0.000404634600272,-0.00398265011609,-0.000113441477879,5.33653219463e-05,0.00213328027166,0.000319540995406,0.470885654747,-0.00055369075759,0.117846594927,-0.0274655196565,0.929001707107,0.36858845437,0.0185478950905
-0.150732368231,0.140077352524,0.137166216969,-2.50832223892,0.0988320782781,2.65836215019,-0.857711017132,0.0558665730059,0.000191245169844,0.000277090788586,-0.00192381918896,0.000299021106912,-9.85232618405e-05,-7.16180802556e-05,0.000691622321028,0.470884925338,-0.000552434503304,0.117846123693,-0.0274637920492,0.929001257405,0.368589560221,0.0185510012488
-0.150733873248,0.14007614553,0.137165918946,-2.50831699371,0.0988320186734,2.65836787224,-0.857710242271,0.0558665730059,-0.000574451929424,-0.000454942142824,-0.00057567859767,0.000368793553207,8.15864259494e-05,0.00015288463328,0.000241631569224,0.470889128777,-0.000553567220148,0.11784900607,-0.027461123678,0.929001710301,0.368588341804,0.0185564790527
-0.150744572282,0.140079572797,0.13716006279,-2.50831484795,0.0988332107663,2.65837478638,-0.857710897923,0.0558665730059,-0.000481984869111,0.000119828844618,-4.6150842536e-05,0.000338601268595,9.48402739596e-05,2.86380472971e-05,8.90425653779e-05,0.470890973131,-0.000561595923286,0.117848714336,-0.0274597243703,0.929004870097,0.368580344979,0.0185591986177
-0.150739699602,0.140080526471,0.137161999941,-2.50831460953,0.0988323912024,2.65838360786,-0.85771214962,0.05565315485,0.000407080777222,0.000120884811622,-0.000339460733812,3.77637843485e-05,-4.08036976296e-05,3.92793590436e-05,1.4168996131e-05,0.470892795027,-0.000558179554272,0.117849119986,-0.0274577895369,0.929003191278,0.36858453968,0.0185627902242
-0.150727823377,0.140079677105,0.137166917324,-2.50832223892,0.0988316014409,2.65839219093,-0.857711791992,0.05565315485,0.000358463817975,-0.00034158420749,-0.00353902764618,-0.000546881055925,6.73355680192e-05,0.000269544107141,-0.00504106236622,0.470890942308,-0.000550727646864,0.117847734885,-0.0274574269376,0.929000219623,0.368592034312,0.0185632317436
-0.150731548667,0.140081003308,0.137164980173,-2.5083220005,0.0988319888711,2.65839266777,-0.857712090015,0.05565315485,7.99388362793e-05,0.000371286674635,0.000199854155653,-0.000891290197615,-0.00016433793644,0.00143119436689,-0.000218570246943,0.470890875744,-0.00055340743831,0.11784722399,-0.0274575165291,0.929001279325,0.368589366853,0.01856303114
-0.150738656521,0.140083923936,0.137163281441,-2.50831651688,0.0988327339292,2.65839290619,-0.857711136341,0.05565315485,9.03222971829e-05,-0.00045240088366,0.000199792426429,-2.96779217024e-05,0.000209925507079,0.000204656695132,-0.000289622403216,0.47089354923,-0.000557600947295,0.117848030769,-0.0274569683649,0.92900320541,0.368584455131,0.0185649763102
-0.150729060173,0.140083909035,0.137163281441,-2.50828289986,0.0988314002752,2.65838575363,-0.857711076736,0.05565315485,0.00078612100333,0.000964289240073,0.000318486825563,0.0069873156026,-0.000131706387037,-0.000449260987807,8.94638797035e-05,0.470907064951,-0.00055389998401,0.117857239377,-0.0274527879764,0.929001282412,0.368589105377,0.018575058291
-0.150725901127,0.139951512218,0.13716442883,-2.50806117058,0.0988306254148,2.65833568573,-0.857708752155,0.05565315485,-0.000985387479886,-0.0112267145887,-0.00127066881396,0.00665064249188,-8.34568425034e-07,-0.00112926703878,-0.000140318865306,0.471040802897,-0.00055736001189,0.117992527292,-0.0273878874214,0.928998113567,0.368594898996,0.0187138646353
-0.150742039084,0.139792472124,0.137150391936,-2.5078701973,0.0988306030631,2.65815329552,-0.857707440853,0.05565315485,-0.00312388082966,-0.0134636433795,-0.00101593753789,0.0115368040279,-0.00020055922505,-0.0262478664517,0.000702440331224,0.471133651007,-0.000574661391365,0.118116146275,-0.0273522453757,0.929000920038,0.368586611097,0.0187897590705
-0.150747209787,0.139488086104,0.137143716216,-2.50760102272,0.0988314971328,2.6575422287,-0.857705533504,0.05565315485,0.00334492116235,-0.0247234627604,0.000391626410419,0.0191433429718,-0.000231316706049,-0.0469250045717,0.000740453251638,0.47120491273,-0.000576874842548,0.118296240581,-0.0273647539126,0.928997298688,0.368595583821,0.01877457178
-0.150740876794,0.138739585876,0.137148931623,-2.50727319717,0.0988291949034,2.65630841255,-0.857699513435,0.05565315485,0.000212310173083,-0.052094515413,0.00011136863759,0.0187517702579,0.000132481509354,-0.0819704979658,0.000457472837297,0.471265698349,-0.000565477197686,0.118648013186,-0.0273981045551,0.928983453604,0.368631697473,0.0187018207665
-0.150744125247,0.137248545885,0.137138083577,-2.50680422783,0.0988295003772,2.65408349037,-0.857694983482,0.05565315485,8.11750796856e-05,-0.0919611975551,-0.000434588815551,0.0273190345615,-0.000183533731615,-0.146656006575,0.000110002067231,0.471341146715,-0.000564493693576,0.119306115842,-0.0274453096862,0.928964113824,0.368683311902,0.0185753980426
-0.150750041008,0.133980229497,0.13712194562,-2.50574851036,0.0988285988569,2.64829921722,-0.857686579227,0.05565315485,0.000532815931365,-0.148434624076,4.19534517277e-05,0.0473266765475,-0.000131500884891,-0.287867337465,0.000194761043531,0.471319848378,-0.000532580549206,0.120679085347,-0.0277525672596,0.928915226516,0.36881645186,0.0179086984223
-0.150747135282,0.130855619907,0.137086242437,-2.50477528572,0.0988266840577,2.64246416092,-0.857677578926,0.0562645122409,0.000272134755505,-0.212429374456,-0.00511238537729,0.060671761632,0.000192967505427,-0.39673486352,-0.000361839687685,0.471208828763,-0.000498625294323,0.121954404295,-0.0281215422115,0.92886885794,0.368942789602,0.0171184490565
-0.15073145926,0.127028882504,0.137005567551,-2.50364017487,0.0988239198923,2.6352596283,-0.857669353485,0.0562645122409,0.00217761751264,-0.261476904154,-0.00524050416425,0.0771306529641,0.000200191570912,-0.508477210999,-0.000414754525991,0.471023082003,-0.000466625162064,0.123494581109,-0.0285946809397,0.928815079603,0.369087751177,0.0160973208756
-0.150739908218,0.120446607471,0.13686992228,-2.50146746635,0.0988237783313,2.62241244316,-0.857650220394,0.0562645122409,-0.000506864918862,-0.346487492323,-0.0103107132018,0.112105458975,0.00023713381961,-0.661894083023,0.00139431108255,0.470697154237,-0.00041538434005,0.126190494354,-0.0294705675377,0.928723697116,0.369325023243,0.0142410306388
-0.150735139847,0.0992049872875,0.136173218489,-2.49526309967,0.0988157764077,2.58469104767,-0.857120931149,0.0562645122409,-0.00060048449086,-0.551272571087,-0.0146508645266,0.177372574806,-0.000281607965007,-0.938578188419,0.0123988380656,0.469872809227,-0.000440139753005,0.135004630011,-0.0315666131853,0.928565547826,0.36970121024,0.00951772842804
-0.150757730007,0.0896821990609,0.135863810778,-2.4920771122,0.0988155305386,2.56857633591,-0.85680770874,0.0562645122409,-0.00247980002314,-0.61806845665,-0.0239672157913,0.212477549911,0.000605718407314,-1.03204381466,0.0236806888133,0.469795767653,-0.000479939021679,0.139201439127,-0.0322419852349,0.928512898492,0.369812452149,0.00793735734747
-0.150755509734,0.078507386148,0.135371088982,-2.48816919327,0.0988117158413,2.55029678345,-0.856360912323,0.0562645122409,0.000698701536749,-0.694004774094,-0.035394616425,0.251522243023,0.000603799475357,-1.11204361916,0.0295361876488,0.469868612317,-0.000595931987281,0.14458675659,-0.032878239575,0.92848725587,0.369851331558,0.00635840218182
-0.150754451752,0.0623824521899,0.134699478745,-2.48203897476,0.0988092198968,2.52479290962,-0.855398535728,0.0562645122409,-0.00464688334614,-0.763998508453,-0.0288978349417,0.306068331003,0.00153826817404,-1.21352982521,0.0433445237577,0.470245389446,-0.000739696868695,0.151873584325,-0.0334262964578,0.928507376186,0.369774176532,0.00487781997234
-0.150774404407,0.0462281368673,0.133957013488,-2.47534513474,0.0988079160452,2.5001513958,-0.854190468788,0.0562645122409,0.00417499011382,-0.871409296989,-0.0435216277838,0.353002876043,0.00068616430508,-1.25845837593,0.0645311623812,0.47093476229,-0.000946204474485,0.159833338191,-0.0336841021462,0.92859717796,0.369536074824,0.00396880784025
-0.150773182511,0.024181548506,0.132859349251,-2.46554589272,0.0988028123975,2.46789979935,-0.852578163147,0.0562645122409,0.000306449830532,-0.927837252617,-0.0499015748501,0.448594480753,-6.34610914858e-05,-1.30089223385,0.0656694322824,0.472211649438,-0.00126522507223,0.171156038039,-0.0335832577617,0.928735832667,0.369199999027,0.0036439431527
-0.15077008307,0.00908179488033,0.131984964013,-2.45813202858,0.098802767694,2.44664049149,-0.851428389549,0.0562645122409,-0.00135844596662,-0.960552692413,-0.0604753568769,0.474730461836,-0.000195973043446,-1.34470963478,0.0777725353837,0.47340058369,-0.00154564831927,0.179314577061,-0.0331857326263,0.928868864544,0.368896209747,0.00411409159585
-0.150767281651,-0.0116666201502,0.130657061934,-2.44753289223,0.0987994596362,2.41842532158,-0.850013434887,0.0562783032656,-0.00240029813722,-1.00413990021,-0.0679593607783,0.518747866154,0.000480011833133,-1.36263012886,0.0551943965256,0.475161619027,-0.00198792234588,0.190860771905,-0.0323294023172,0.929050471254,0.368498162984,0.00539770053833
-0.150956004858,-0.0429059192538,0.128405064344,-2.43031358719,0.0987989827991,2.37777042389,-0.847912669182,0.0562783032656,-0.0114674326032,-1.05226075649,-0.0857254862785,0.613693237305,-0.00177251885179,-1.35313606262,0.0740755349398,0.478133834889,-0.00284554820863,0.209105760614,-0.0303831039318,0.929399913287,0.367717760933,0.00873591188486
-0.151174560189,-0.0599199719727,0.127131134272,-2.42042136192,0.0987976491451,2.35627365112,-0.846811234951,0.0562783032656,-0.0148241482675,-1.07239925861,-0.0767010897398,0.621260046959,0.000819848268293,-1.32934057713,0.068354614079,0.479771462801,-0.00337053524581,0.219412280338,-0.0290775831219,0.929603301611,0.367245636515,0.0110832278561
-0.151535287499,-0.0795607715845,0.12565818429,-2.40863895416,0.0988006368279,2.33269095421,-0.845704674721,0.0562783032656,-0.0237591154873,-1.09633469582,-0.0873992741108,0.670297682285,0.000300958461594,-1.29694724083,0.0549447126687,0.481764265553,-0.00402725279232,0.231659942337,-0.0272208143071,0.929819715382,0.36672010791,0.0145150367972
-0.15192630887,-0.0993071049452,0.123979486525,-2.39655041695,0.0987966507673,2.30973768234,-0.84466958046,0.0562783032656,-0.0244091767818,-1.10198736191,-0.0985257998109,0.664558291435,-0.00214013177902,-1.24861299992,0.0558360889554,0.483574194391,-0.00473399881361,0.243540428519,-0.0252582365684,0.930032398338,0.366156547951,0.0181972965975
-0.152406588197,-0.120127879083,0.122270159423,-2.38385725021,0.0988029912114,2.28677511215,-0.843909204006,0.0562783032656,-0.0289351698011,-1.09848308563,-0.0887421071529,0.671494662762,-0.00142728979699,-1.17251360416,0.0289664063603,0.485529876424,-0.00555502414114,0.257696085499,-0.0226716675794,0.930198896802,0.365627539281,0.0230761799409
-0.153550967574,-0.152290597558,0.119590356946,-2.36469459534,0.0988083481789,2.253708601,-0.843156516552,0.0562783032656,-0.0442814491689,-1.112652421,-0.0992447137833,0.646049201488,0.00520925410092,-1.10368418694,0.0287573337555,0.487921321053,-0.00694053143354,0.278683318401,-0.0183920162517,0.930379745871,0.364808720536,0.0311425643909
-0.15444342792,-0.174363404512,0.117572255433,-2.3519115448,0.0988040417433,2.23271036148,-0.842405796051,0.0562783032656,-0.0470688901842,-1.08454573154,-0.109115146101,0.616378843784,-0.000362757156836,-1.00450849533,0.039474606514,0.489262270734,-0.00806234737054,0.2939031116,-0.0149869687145,0.930551450117,0.363918970835,0.0375815354142
-0.1551361233,-0.190532162786,0.115840256214,-2.34306740761,0.09880489856,2.2181456089,-0.841722846031,0.0562783032656,-0.0453836806118,-1.07290267944,-0.119958825409,0.55888235569,0.000556500919629,-0.94760787487,0.0468956194818,0.489839465505,-0.0089095808893,0.303705682647,-0.0127151478601,0.930709201765,0.363129668344,0.0418992889857
-0.155996635556,-0.211220145226,0.113427549601,-2.33268332481,0.0988091081381,2.20096111298,-0.840938925743,0.0562783032656,-0.0464351437986,-1.0593354702,-0.129520833492,0.518553674221,-0.000662416103296,-0.835841536522,0.0373250767589,0.490273919934,-0.0101383811275,0.316913591534,-0.00947581664571,0.930902858923,0.361967652348,0.048057200144
-0.157406359911,-0.236470997334,0.110211886466,-2.3210132122,0.098807387054,2.18160557747,-0.840258300304,0.0563117936254,-0.0632832795382,-1.00246822834,-0.13022865355,0.429966330528,0.000472079147585,-0.73797750473,0.0174386296421,0.490286120716,-0.0119186910221,0.332770672296,-0.00537092673833,0.931136524663,0.360327248601,0.0558587431453
-0.159241393209,-0.25991538167,0.107201144099,-2.3120098114,0.0988125726581,2.16504883766,-0.839618682861,0.0563117936254,-0.0871244743466,-0.962067723274,-0.118962034583,0.340234100819,0.00108345516492,-0.653071045876,0.0290742814541,0.489560797748,-0.013724960271,0.346214261408,-0.00176760661394,0.931404289969,0.358555339774,0.0626178265231
-0.160468533635,-0.272949576378,0.105390511453,-2.30755829811,0.0988120958209,2.15662026405,-0.839179098606,0.0563117936254,-0.0866477265954,-0.912097334862,-0.133647918701,0.298317223787,0.000235446015722,-0.579512178898,0.0295850727707,0.48888832409,-0.0150163891061,0.354373691155,0.000527159064147,0.931623558115,0.357208618482,0.0669273534175
-0.162333711982,-0.291254460812,0.102348402143,-2.30241322517,0.0988045558333,2.14540910721,-0.838595509529,0.0563117936254,-0.0897119119763,-0.835434377193,-0.15295137465,0.208915278316,-9.8685210105e-05,-0.499909162521,0.0248589999974,0.487581914616,-0.0170014325408,0.364563886541,0.00340432500695,0.932006953308,0.355121878362,0.0723871587425
-0.164140179753,-0.306531429291,0.0992970168591,-2.29928636551,0.0987937748432,2.13685178757,-0.838348925114,0.0563117936254,-0.10173433274,-0.782577157021,-0.169503837824,0.129341080785,0.000559868814889,-0.421884506941,0.00999246351421,0.486127470887,-0.0190104042662,0.372567294204,0.00570726034921,0.932409353797,0.353101256568,0.0768096766486
-0.167136922479,-0.325509697199,0.0946003273129,-2.29689955711,0.09871712327,2.1265411377,-0.838263392448,0.0563117936254,-0.125262886286,-0.63379752636,-0.171231269836,0.0525540709496,-0.0146547770128,-0.353808939457,0.000927656772546,0.483729076572,-0.0222668797539,0.381771911184,0.0082835894638,0.933165104907,0.349911485386,0.0818304418323
-0.169619560242,-0.336732655764,0.0911331251264,-2.29638242722,0.0982004106045,2.12012529373,-0.838265776634,0.0563117936254,-0.136494874954,-0.548605442047,-0.194819182158,0.0115922261029,-0.0423543043435,-0.326945602894,-0.00502975471318,0.481864265447,-0.0248839385766,0.386706493732,0.00967986266039,0.933838842009,0.347503154186,0.0842192076082
-0.171908825636,-0.344663470984,0.087783433497,-2.29650783539,0.0973123833537,2.11504602432,-0.838270187378,0.0563117936254,-0.153134137392,-0.455820918083,-0.221986621618,-0.0202247202396,-0.0690114945173,-0.311564862728,0.000118204407045,0.480110312157,-0.0276214828675,0.390044432379,0.0106115495152,0.934599700863,0.345119114853,0.0854610461679
-0.175489574671,-0.352700054646,0.0831053704023,-2.29700350761,0.0951646864414,2.10840344429,-0.838287234306,0.0563117936254,-0.18699465692,-0.328020721674,-0.221980959177,-0.0258295126259,-0.133840784431,-0.311003744602,-0.00106910651084,0.478007662373,-0.0313598473392,0.392713638108,0.0114335684544,0.935672484694,0.342126551017,0.0856486875186
-0.181506127119,-0.359500974417,0.0763179585338,-2.2982199192,0.0896482020617,2.10023593903,-0.838496863842,0.0563117936254,-0.216855153441,-0.148671001196,-0.256102025509,-0.0560465343297,-0.220726892352,-0.250228285789,-0.0229118652642,0.475092517758,-0.0378115365783,0.39440322592,0.0126784184905,0.937425436994,0.337706367006,0.083828498447
-0.185516297817,-0.361042976379,0.0717244073749,-2.29916000366,0.085520491004,2.09639644623,-0.839013397694,0.0563117936254,-0.251619935036,-0.0428465679288,-0.289787709713,-0.0567417182028,-0.275424897671,-0.208654105663,-0.0425875112414,0.473549798935,-0.0422696372027,0.394232115418,0.0132700625685,0.938582606714,0.334936046538,0.0818806462369
-0.189927712083,-0.361002206802,0.066576808691,-2.30027413368,0.0806142389774,2.09317755699,-0.840032696724,0.0563117936254,-0.273234248161,0.0321931764483,-0.31510797143,-0.0715328678489,-0.308649420738,-0.176074698567,-0.0819179490209,0.472074324461,-0.0473041972852,0.393300474957,0.0138347942501,0.939803149041,0.332095534066,0.079317056559
-0.195072606206,-0.359661072493,0.0604658126831,-2.30181980133,0.0746846497059,2.09041786194,-0.841851174831,0.0563117936254,-0.30900862813,0.129674628377,-0.365440666676,-0.0908788070083,-0.351608276367,-0.133956253529,-0.118839286268,0.470483010596,-0.0532758840243,0.39159706559,0.0144121975522,0.941139479622,0.329037632684,0.076046067776
-0.201955273747,-0.355814933777,0.0524462014437,-2.30378007889,0.0664575770497,2.08789801598,-0.845006287098,0.0563117936254,-0.338180303574,0.223524019122,-0.387742102146,-0.0962855964899,-0.429960995913,-0.115140013397,-0.183188617229,0.46860998988,-0.0612647380664,0.3885402505,0.0150775106866,0.94277272197,0.325386484152,0.0712453436984
-0.212199211121,-0.347997933626,0.0405509360135,-2.30658364296,0.0539714880288,2.08543610573,-0.851432263851,0.0563951916993,-0.385442376137,0.342321485281,-0.455844402313,-0.0987639129162,-0.456274300814,-0.0610365346074,-0.288282245398,0.465940303905,-0.0731639403461,0.383211407618,0.0159094908273,0.944864129128,0.320814095437,0.063694438112
-0.218338757753,-0.34231364727,0.0333700887859,-2.30790162086,0.0469522066414,2.08467578888,-0.856277763844,0.0563951916993,-0.420428067446,0.415216982365,-0.49962207675,-0.0856506228447,-0.477717220783,-0.0387209132314,-0.363316178322,0.46427430046,-0.0812477739016,0.379333047436,0.0162130627814,0.946099960226,0.318103748183,0.0586686196873
-0.226714044809,-0.333841770887,0.0233291350305,-2.30937814713,0.0377226211131,2.08413624763,-0.863765358925,0.0563951916993,-0.458110183477,0.477357447147,-0.558227539062,-0.0674401447177,-0.483323454857,-0.00948561728001,-0.428477525711,0.462487384406,-0.0899907384014,0.375051143966,0.0163563928011,0.947320502198,0.315387182074,0.0533597189103
-0.235053822398,-0.324785798788,0.0130708897486,-2.31043434143,0.0290226694196,2.08410096169,-0.872051656246,0.0563951916993,-0.476086139679,0.529462099075,-0.589741051197,-0.0509552657604,-0.490761637688,-0.00160770304501,-0.493480443954,0.460386909776,-0.100267223701,0.369997994396,0.0162956465515,0.948630242177,0.312397495165,0.0473594788206
-0.260950148106,-0.29443398118,-0.0210927687585,-2.31125068665,0.00521862553433,2.08450341225,-0.901982903481,0.0564011000097,-0.535782575607,0.638124465942,-0.723066687584,0.0100901499391,-0.412161707878,0.0388661921024,-0.687171339989,0.453531948874,-0.130315337224,0.355552798243,0.0143898347558,0.95204510302,0.304037286416,0.0310545106297
-0.271340459585,-0.281874209642,-0.0354940332472,-2.31098794937,-0.00196552253328,2.08550620079,-0.91563886404,0.0564011000097,-0.55324202776,0.677511572838,-0.780052900314,0.0211191121489,-0.346447199583,0.0655855312943,-0.751326262951,0.450422556792,-0.142496186487,0.349791297987,0.0127853557921,0.953335089214,0.300575274732,0.0253622999816
-0.278627902269,-0.273074299097,-0.0458680279553,-2.31064653397,-0.00636348268017,2.0864584446,-0.925609886646,0.0564011000097,-0.572121560574,0.677630603313,-0.829602897167,0.0298845730722,-0.336159169674,0.0784824714065,-0.785486519337,0.448098134305,-0.151042713827,0.345834401899,0.0114703130946,0.954230525573,0.298063068967,0.021701211724
-0.29037925601,-0.258643746376,-0.0630335062742,-2.30955457687,-0.0130950687453,2.08785295486,-0.94276958704,0.0564011000097,-0.556316018105,0.700423359871,-0.838326275349,0.0688177794218,-0.302573770285,0.0539467036724,-0.84034627676,0.444031064146,-0.164910211607,0.339546937203,0.00916183509568,0.955555227049,0.294237791467,0.0159496269827
-0.30696618557,-0.238297656178,-0.088375158608,-2.30675506592,-0.020471861586,2.08933615685,-0.967701077461,0.0564011000097,-0.563397228718,0.70087915659,-0.871082007885,0.120250299573,-0.214925915003,0.0647847577929,-0.879702627659,0.437631778853,-0.18456105678,0.331150951618,0.00516901345409,0.957533704053,0.288142631475,0.00873558929815
-0.318200618029,-0.22439558804,-0.105987660587,-2.30421948433,-0.0239219311625,2.0909280777,-0.985527455807,0.0564011000097,-0.561381697655,0.693407714367,-0.899194657803,0.137527659535,-0.154466494918,0.0903208330274,-0.904199063778,0.433035430115,-0.197835605749,0.325708742735,0.00220343975946,0.958851137083,0.283861799941,0.00470318981003
-0.326456546783,-0.214217931032,-0.119702428579,-2.30196452141,-0.0261590834707,2.09241962433,-0.999225437641,0.0564089789987,-0.541996240616,0.663981795311,-0.920004427433,0.161597028375,-0.130583509803,0.106661744416,-0.912325620651,0.429404844627,-0.207885078222,0.32190454055,9.73436738916e-05,0.959837191484,0.280549377881,0.00214537406086
-0.33717367053,-0.201258987188,-0.137977614999,-2.29848527908,-0.0285575632006,2.09436845779,-1.01773786545,0.0564089789987,-0.512363135815,0.637324333191,-0.906644403934,0.190480977297,-0.0934586301446,0.0934567824006,-0.940940737724,0.424398757257,-0.221051055529,0.317304227672,-0.00256185321527,0.961088363316,0.276228322732,-0.00071289479967
-0.348270088434,-0.187470674515,-0.15774294734,-2.29391765594,-0.0304775480181,2.09616374969,-1.03789567947,0.0564089789987,-0.494039416313,0.606865286827,-0.89473927021,0.220297589898,-0.0899020507932,0.0727031379938,-0.897378206253,0.419079311833,-0.2343490306,0.312934141867,-0.00525358514138,0.962314246339,0.271869534664,-0.00326296635126
-0.356822550297,-0.177132338285,-0.173649162054,-2.28988862038,-0.0319233313203,2.09728336334,-1.05375254154,0.0564089789987,-0.464729249477,0.557413160801,-0.866452038288,0.23919659853,-0.0733609870076,0.0585393756628,-0.867445468903,0.414116714044,-0.245956986529,0.309537767462,-0.00739034262674,0.963396193843,0.267929198856,-0.00520582525591
-0.365903556347,-0.166346907616,-0.190549701452,-2.2848906517,-0.0329442583025,2.09839940071,-1.07109391689,0.0564089789987,-0.435839116573,0.511500179768,-0.820261240005,0.265007764101,-0.0271402914077,0.0529789887369,-0.870381772518,0.409014502778,-0.257598929347,0.306527504261,-0.00935041259912,0.964438926494,0.264054668385,-0.00672745448879
-0.377773463726,-0.153470486403,-0.212075948715,-2.27759218216,-0.0336116030812,2.09966278076,-1.09478271008,0.0564089789987,-0.405460238457,0.42057800293,-0.737713813782,0.254457205534,-0.0235708095133,0.0431933626533,-0.825680494308,0.402231032806,-0.27252379372,0.303483859296,-0.0114031193342,0.965630260359,0.259548567594,-0.00791895834976
-0.384376138449,-0.146736577153,-0.224062204361,-2.27315306664,-0.0340471044183,2.1003100872,-1.10847997665,0.0564089789987,-0.374623328447,0.360565155745,-0.668580830097,0.263465434313,-0.0302674584091,0.0330823548138,-0.787389159203,0.39830774367,-0.280854604702,0.302149558543,-0.0122252672964,0.966221594437,0.257286804935,-0.00835900604157
-0.395704954863,-0.137359425426,-0.242973387241,-2.2654504776,-0.0353424623609,2.10082435608,-1.13215184212,0.0564089789987,-0.328700661659,0.23650059104,-0.529824614525,0.218174278736,-0.043690610677,0.0168214254081,-0.703900039196,0.391571918743,-0.294439313035,0.300897218278,-0.0128323883435,0.966972833744,0.254405860559,-0.00874793790857
-0.405463665724,-0.131817564368,-0.258151143789,-2.25873708725,-0.0363637283444,2.10103034973,-1.15460956097,0.0564089789987,-0.265107274055,0.100552305579,-0.397045642138,0.187056586146,-0.0198281016201,0.00562022114173,-0.647452354431,0.38578601364,-0.305619914888,0.301049126736,-0.0125370547075,0.967237875643,0.253428752384,-0.00822078705191
-0.409711927176,-0.130484193563,-0.264567017555,-2.25557231903,-0.0367059595883,2.10112500191,-1.16597163677,0.0564089789987,-0.214578479528,0.0491453893483,-0.322011679411,0.164482176304,-0.0228901747614,0.00427632359788,-0.61842751503,0.383330663736,-0.310444187892,0.301739665224,-0.0119758818641,0.967144614263,0.253834331438,-0.00748366432395
-0.412871301174,-0.130311876535,-0.269096165895,-2.25318598747,-0.0370331034064,2.10115146637,-1.17568135262,0.0564089789987,-0.18194052577,-0.0109803406522,-0.251299381256,0.13653947413,-0.0275650452822,0.00282891001552,-0.58640307188,0.381557324681,-0.313950257975,0.302658063259,-0.0112678519268,0.966883914352,0.254880701511,-0.00666028303842
-0.415987640619,-0.1308722049,-0.273135334253,-2.25037288666,-0.0374950654805,2.10118722916,-1.18741226196,0.0564089789987,-0.125679656863,-0.0514252372086,-0.147814527154,0.125901088119,-0.0261376220733,-0.00729182781652,-0.521245181561,0.380038711366,-0.317373759737,0.30412796491,-0.010085486542,0.966293267057,0.257187467081,-0.00549649626425
-0.418252110481,-0.133470669389,-0.276264816523,-2.24713802338,-0.0381188690662,2.10119318962,-1.20173847675,0.0564089789987,-0.0359254144132,-0.111192375422,-0.0630854070187,0.101688429713,-0.017780482769,0.000265118986135,-0.477123677731,0.379186224691,-0.320264508285,0.306776488157,-0.00799553581176,0.965128762681,0.261629503012,-0.00354199088937
-0.418508023024,-0.135245874524,-0.276851326227,-2.24576926231,-0.0382767394185,2.10120272636,-1.20873451233,0.0564089789987,-0.000375055067707,-0.123801521957,-0.0151530615985,0.0832246020436,-0.00689631141722,-0.000357111071935,-0.464021682739,0.379300846011,-0.320940523581,0.308235767383,-0.00687275405448,0.964324306603,0.264623031422,-0.00245924377872
-0.418138474226,-0.137778386474,-0.276645869017,-2.2443985939,-0.0384287126362,2.1011941433,-1.21679580212,0.0564148910344,0.041552439332,-0.156980320811,0.0338392816484,0.0666234642267,-0.00510280486196,-0.000686751038302,-0.440841466188,0.379876521729,-0.321086381069,0.310073075275,-0.00546735519631,0.96317835969,0.268805275438,-0.00113094703993
-0.416975915432,-0.141018792987,-0.275698810816,-2.24329090118,-0.0385002307594,2.10117912292,-1.22488725185,0.0564148910344,0.0754010677338,-0.173675775528,0.0782496407628,0.0531143397093,-0.00532367965207,0.000228176941164,-0.407281666994,0.380954128086,-0.320540084836,0.312255305207,-0.00383358056828,0.96172622173,0.273984986351,0.00045281702913
-0.413950711489,-0.146318405867,-0.272093951702,-2.24166584015,-0.038536131382,2.10104632378,-1.23667669296,0.0564148910344,0.115142486989,-0.160628318787,0.153273031116,0.0485435761511,-0.000404361577239,-0.0104961376637,-0.360361456871,0.383470813617,-0.31847640887,0.315488627643,-0.0013890206006,0.959252725788,0.282533589007,0.00265508276316
-0.411978542805,-0.149016797543,-0.269307851791,-2.24092721939,-0.0385494381189,2.10087871552,-1.24233472347,0.0564148910344,0.132505863905,-0.172168821096,0.190990239382,0.0384574830532,8.68462884682e-05,-0.0124240601435,-0.344028860331,0.385168324716,-0.316831557356,0.317164481062,-0.000120234920079,0.957771991115,0.28750486092,0.00370853294744
-0.409061133862,-0.152491852641,-0.26503559947,-2.24020409584,-0.0385537147522,2.10069680214,-1.24932038784,0.0564148910344,0.162021264434,-0.165579751134,0.22745269537,0.0345562882721,-0.00026666544727,-0.0128118945286,-0.346797913313,0.387616432698,-0.314241260676,0.319238258747,0.00147558870755,0.955713012141,0.294254533577,0.00497294899033
-0.406118243933,-0.155155852437,-0.261002004147,-2.23964166641,-0.0385584458709,2.10050225258,-1.25492560863,0.0564148910344,0.178664118052,-0.15252572298,0.239591389894,0.0276876892895,-8.521075506e-05,-0.0105030611157,-0.31611007452,0.389921828711,-0.311669068732,0.320845277189,0.00272788194267,0.953844271372,0.300231640356,0.00588442437983
-0.402394503355,-0.158158928156,-0.256277680397,-2.2391667366,-0.0385602973402,2.10025572777,-1.26059818268,0.0564148910344,0.20852227509,-0.151410922408,0.251829892397,0.0162437781692,-0.00054538337281,-0.00897528044879,-0.284395426512,0.392628831508,-0.308479895455,0.322587005639,0.00407568079698,0.951700348132,0.306925018354,0.00684609307167
-0.396344512701,-0.161975383759,-0.249011307955,-2.23869252205,-0.0385617651045,2.09994387627,-1.26801335812,0.0564168617129,0.218253880739,-0.124408766627,0.26919734478,0.0133708417416,0.000298661121633,-0.00866995751858,-0.24576997757,0.396768774448,-0.303347129534,0.324770025103,0.00581277959913,0.948466657146,0.316723562628,0.00796218816978
-0.392227768898,-0.164086014032,-0.243721991777,-2.23849844933,-0.0385602340102,2.09982299805,-1.27266204357,0.0564168617129,0.214878544211,-0.103849597275,0.283258587122,0.00346574862488,0.000237076004851,-0.00464587565511,-0.237807571888,0.399624479963,-0.299667625419,0.325977663525,0.0068423153297,0.946217984953,0.323345521745,0.00850769815412
-0.388950496912,-0.165600240231,-0.239530086517,-2.23845505714,-0.0385598987341,2.09975004196,-1.27622783184,0.0564168617129,0.221727415919,-0.100923858583,0.282168895006,0.00141013949178,0.000402473699069,-0.00410354929045,-0.231970578432,0.401840509893,-0.29670521605,0.326808934921,0.00757245617061,0.944419965496,0.328534944737,0.00885304772778
-0.384346723557,-0.167181283236,-0.233486101031,-2.23841142654,-0.038558434695,2.09969377518,-1.28094100952,0.0564168617129,0.220433577895,-0.0614992491901,0.293918401003,0.00220384262502,0.000244483351707,-1.64813754964e-05,-0.222000807524,0.404960156449,-0.292454212777,0.327711327857,0.00843975468203,0.941872283111,0.335740927835,0.00913246471864
-0.378620326519,-0.1684615165,-0.225780650973,-2.23844718933,-0.0385595411062,2.09964728355,-1.28657758236,0.0564168617129,0.221545368433,-0.0411899723113,0.279213875532,-0.00190087873489,0.000159180577612,-0.00284640840255,-0.205000966787,0.408806318821,-0.287028448327,0.328462915626,0.00927779100198,0.938636637792,0.34466027925,0.00919110342776
-0.374749720097,-0.168922960758,-0.220956236124,-2.23843622208,-0.0385593734682,2.0995182991,-1.2901622057,0.0564168617129,0.212004333735,-0.0136755825952,0.256097078323,0.00168143643532,-0.000468947313493,-0.0089235054329,-0.186902374029,0.41124719437,-0.283482217757,0.328773029475,0.00966280634063,0.936510588778,0.350388475002,0.00908094446341
-0.371037125587,-0.169020652771,-0.216352835298,-2.238458395,-0.0385604314506,2.0994348526,-1.29341101646,0.0564168617129,0.206177160144,0.000347819062881,0.255700737238,-0.0031185883563,-9.76593146333e-05,-0.000545749266166,-0.185675665736,0.413550032351,-0.28006887399,0.328889176548,0.0099183239393,0.934478060975,0.355772460731,0.00885077832094
-0.366977363825,-0.168964296579,-0.211553379893,-2.23854398727,-0.0385623276234,2.0993335247,-1.29712224007,0.0564168617129,0.200150802732,0.00430345954373,0.22240434587,-0.00392599869519,0.000111211498734,-0.00515058543533,-0.17224535346,0.415953048959,-0.276397729714,0.328900736629,0.0101016896141,0.932234114262,0.361614128011,0.00852843370274
-0.358399480581,-0.168247401714,-0.20266930759,-2.23876929283,-0.0385611578822,2.09882640839,-1.30411350727,0.0564168617129,0.170909866691,0.0279363878071,0.174490690231,-0.00814771000296,0.000127535982756,-0.00928775314242,-0.130593657494,0.420521701794,-0.269051476952,0.328556682397,0.0100757873728,0.927768776713,0.372942201385,0.00759536535925
-0.355633080006,-0.167858436704,-0.199791699648,-2.23890256882,-0.0385601595044,2.09866762161,-1.30634689331,0.0564168617129,0.156147301197,0.0267432369292,0.156189590693,-0.00393219199032,-4.81418574054e-05,-0.00957809109241,-0.129219055176,0.421954450683,-0.266649843156,0.328339304811,0.00999226323444,0.926301642676,0.376581068932,0.00721939443854
-0.352812498808,-0.167282164097,-0.197112426162,-2.23903465271,-0.0385588742793,2.0985250473,-1.3088041544,0.0564168617129,0.14076654613,0.0353081971407,0.121562108397,-0.010155370459,-0.0001325745543,-0.00843774434179,-0.127076685429,0.423338579645,-0.264301936627,0.328028291456,0.00984133582129,0.924805383954,0.380252622217,0.00678917513411
-0.35009637475,-0.166546344757,-0.19472913444,-2.23922014236,-0.0385621152818,2.09842252731,-1.31108593941,0.0564181730151,0.11927651614,0.0328302234411,0.10344979912,-0.0132603636011,9.84240759863e-05,-0.00651000253856,-0.0926595702767,0.424544610735,-0.262204506394,0.327631729692,0.00962617172903,0.923463619779,0.383512945334,0.00633247237775
-0.347149908543,-0.165770947933,-0.192607551813,-2.23959803581,-0.0385623984039,2.09823298454,-1.31357848644,0.0564181730151,0.0980110913515,0.027272850275,0.0651039779186,-0.0148314684629,2.98821341858e-05,-0.00969873089343,-0.0905414149165,0.425767668801,-0.25987818544,0.327073723266,0.00924601910545,0.92195581696,0.387142004502,0.00574897696948
-0.34577268362,-0.165377676487,-0.191677674651,-2.2399392128,-0.0385595411062,2.09814500809,-1.31496405602,0.0564181730151,0.0776874795556,0.0210213605314,0.0521651059389,-0.0229778476059,-5.34848077223e-05,-0.00572464289144,-0.0941240787506,0.426249196109,-0.258829011577,0.326728824607,0.00899371316763,0.921243304253,0.388844965304,0.0054295609524
-0.344490587711,-0.165043160319,-0.190931901336,-2.24044251442,-0.0385612398386,2.09810471535,-1.31635725498,0.0564181730151,0.065985865891,0.0147907650098,0.0300206542015,-0.0336801335216,-2.620237683e-05,-0.000427789811511,-0.0623348467052,0.426620568281,-0.257873272066,0.326338220895,0.00870588599059,0.920578968059,0.390426055126,0.00510551432707
-0.343199431896,-0.164762794971,-0.190591961145,-2.24116158485,-0.0385609865189,2.09808111191,-1.31719636917,0.0564181730151,0.0612273328006,0.0128212030977,0.00574358412996,-0.0367518663406,-0.000233479295275,-0.000568111194298,-0.0271385665983,0.426827001875,-0.257080033248,0.325891587245,0.00835066317953,0.920114312627,0.391531666931,0.00478242573988
-0.342001140118,-0.16447879374,-0.190602362156,-2.24221658707,-0.0385559611022,2.09798693657,-1.31773519516,0.0564181730151,0.0241953190416,0.0089206462726,-0.00158699019812,-0.0445951111615,6.24494350632e-05,-0.00155785540119,-0.00979898124933,0.426823301613,-0.256337106623,0.325227829545,0.0077701408078,0.919757920409,0.39238538616,0.00432448464407
-0.341685056686,-0.164389491081,-0.190629601479,-2.24295830727,-0.0385481379926,2.09798192978,-1.31790471077,0.0564181730151,0.00999448820949,0.00114502175711,-0.00171709130518,-0.0536839589477,-1.09062721094e-05,0.000297891383525,-0.00552593683824,0.426688694736,-0.256077785295,0.3248370495,0.00743600443935,0.919667238816,0.392607024448,0.00407427563185
-0.341533631086,-0.164386168122,-0.190696656704,-2.24405121803,-0.0385312698781,2.09797906876,-1.3179526329,0.0564181730151,0.00539171136916,-0.000735134177376,-0.00719734746963,-0.058725990355,0.000166810583323,0.000360538077075,-0.000734924629796,0.426404741035,-0.255841093763,0.324324161841,0.00698621441518,0.919639974147,0.392682309618,0.00375688086518
-0.341490387917,-0.164430677891,-0.190815523267,-2.2453558445,-0.0384354293346,2.0979847908,-1.31794989109,0.0564181730151,0.00226858747192,-0.00150777341332,-0.00800100155175,-0.0714388117194,0.00756311276928,6.57966011204e-05,0.00225161667913,0.426005402463,-0.255612637776,0.323701945546,0.00641452085723,0.919662763903,0.392641867961,0.00340849209825
-0.341484516859,-0.164501205087,-0.191069439054,-2.24781394005,-0.0378900170326,2.09798526764,-1.3179346323,0.0564181730151,0.000804491573945,0.000509768316988,-0.00986783299595,-0.0878219231963,0.021667227149,-2.27622094826e-05,0.00247946497984,0.425312651437,-0.255213007948,0.32262195217,0.00532485128786,0.919757057298,0.392441154992,0.00292250923509
-0.341455429792,-0.164503589272,-0.191192835569,-2.24928450584,-0.0372991710901,2.09798550606,-1.31790518761,0.0564181730151,0.000882017891854,-0.00142711040098,-0.00827319547534,-0.100186869502,0.0466043166816,0.00149578554556,0.000471450708574,0.424915922633,-0.254909550904,0.321937329882,0.00457162928674,0.919833622503,0.3922727865,0.00269588048321
-0.341330677271,-0.164519265294,-0.191304340959,-2.25131869316,-0.0361646339297,2.0979924202,-1.31774508953,0.0564181730151,0.00980542693287,-0.00119317194913,-0.00559492874891,-0.113306939602,0.0685972869396,-0.000279518426396,0.0100107230246,0.424426090919,-0.254388958668,0.320999123219,0.00345614480978,0.919965196772,0.391976870908,0.0024948239242
-0.341076433659,-0.164558649063,-0.191343605518,-2.25343942642,-0.0347882583737,2.09800672531,-1.31738436222,0.0564181730151,0.0204001124948,-0.000911282608286,-0.00175913504791,-0.131252363324,0.086099550128,-0.000383160280762,0.0285224150866,0.423979857669,-0.253736969303,0.320035701324,0.00225724663784,0.920119057933,0.391625158694,0.00235771625154
-0.339021444321,-0.16470426321,-0.191373154521,-2.26116085052,-0.0294350162148,2.09803390503,-1.31538188457,0.0564181730151,0.0640190541744,-0.0079479990527,-0.000464960583486,-0.17730858922,0.129726290703,0.000239992907154,0.0343312621117,0.422670214396,-0.250787000451,0.316543388719,-0.00219822991637,0.920596352149,0.390504448231,0.00194930480217
-0.338192343712,-0.164763912559,-0.191356867552,-2.26339697838,-0.0276356078684,2.09805321693,-1.31495714188,0.0564181730151,0.0721751749516,-0.00504389870912,0.00547997653484,-0.190346106887,0.165074795485,0.00458798464388,0.0368679091334,0.422346508879,-0.249703255654,0.315462166525,-0.00365930724296,0.92068357212,0.390287933511,0.00192305381543
-0.336776465178,-0.164923653007,-0.191308498383,-2.26683664322,-0.02445567213,2.09809136391,-1.31403267384,0.0564181730151,0.100270465016,-0.00608629873022,0.00831810384989,-0.221629336476,0.202163234353,-0.000381636869861,0.089505597949,0.421925672274,-0.247930771255,0.313862964505,-0.00595596845737,0.920883839464,0.389786224923,0.00204430802039
-0.334055751562,-0.165059670806,-0.191011056304,-2.27282357216,-0.0186964403838,2.09810948372,-1.31125605106,0.0564181730151,0.120063968003,-0.000279795844108,0.0179732721299,-0.242013379931,0.247227519751,0.00405993917957,0.131393477321,0.421405925024,-0.245172615707,0.311501979173,-0.009374213379,0.921301920524,0.388728786596,0.00219670589594
-0.330774635077,-0.165056705475,-0.190223127604,-2.27930665016,-0.0119114713743,2.09812998772,-1.30747425556,0.0564201436937,0.137277051806,0.000531519704964,0.0402704514563,-0.259011745453,0.277485221624,0.00255744950846,0.137031987309,0.420945022355,-0.241275420406,0.308467919201,-0.0138657664184,0.921864983806,0.387255320488,0.00245124232372
-0.328101068735,-0.165024459362,-0.189373910427,-2.28411602974,-0.00675880722702,2.09815907478,-1.30476033688,0.0564201436937,0.158620014787,-0.00156362471171,0.0592854134738,-0.276904582977,0.309809505939,0.001831552363,0.158936053514,0.420723021444,-0.238260806313,0.306302754854,-0.0170956991162,0.922157178337,0.38642852668,0.00262087063145
-0.32552793622,-0.165035843849,-0.18834066391,-2.28858089447,-0.00176770507824,2.09824419022,-1.30189442635,0.0564201436937,0.158019557595,-0.000776912725996,0.0768631547689,-0.277057379484,0.334725469351,0.0131617151201,0.189455896616,0.420600448414,-0.235305021971,0.304331390785,-0.0200964397295,0.922446203332,0.385591852769,0.00283863164567
-0.321856021881,-0.165023490787,-0.186350867152,-2.29481482506,0.00589196011424,2.09856295586,-1.2971483469,0.0564201436937,0.174613088369,0.000573599769268,0.101841680706,-0.289930611849,0.361999005079,0.0140990251675,0.243170589209,0.420620421657,-0.230857659623,0.301608802415,-0.0243668270624,0.922932607846,0.384175113681,0.00333778735012
-0.318203836679,-0.164997965097,-0.184091225266,-2.30078697205,0.0131924906746,2.09875249863,-1.29203498363,0.0564201436937,0.19052541256,0.00534357409924,0.123049922287,-0.297962576151,0.379839479923,0.00675502978265,0.261810719967,0.420676861237,-0.226391543595,0.29900721957,-0.0284746880409,0.923400728601,0.382762017969,0.00367747782649
-0.312579452991,-0.16473275423,-0.180054977536,-2.30915331841,0.0236183963716,2.09911060333,-1.28415620327,0.0564201436937,0.208058610559,0.0135398795828,0.165642395616,-0.299084186554,0.372368097305,0.0141937918961,0.289320707321,0.420995391268,-0.219555435509,0.295304309817,-0.0342648588839,0.923937124718,0.380985840976,0.00398718851149
-0.309369415045,-0.164559498429,-0.177354618907,-2.3136343956,0.0290929339826,2.09945774078,-1.27982294559,0.0564201436937,0.220113992691,0.00593695556745,0.188866525888,-0.294735759497,0.360513657331,0.0306435488164,0.29200309515,0.421295727823,-0.21562561395,0.293338248097,-0.0372501980072,0.924094650311,0.380322239233,0.00406128588071
-0.304949790239,-0.164431750774,-0.173508897424,-2.31911158562,0.0360817201436,2.10016202927,-1.27391719818,0.0564201436937,0.239351406693,0.0066503197886,0.220612302423,-0.285505861044,0.381121426821,0.0359141379595,0.325868904591,0.421905133278,-0.210389020402,0.29101662964,-0.0408104665478,0.924235533742,0.379611708503,0.00425845516014
-0.299650102854,-0.164140820503,-0.16862757504,-2.32517123222,0.0441904738545,2.10082864761,-1.26690983772,0.0564214549959,0.261281371117,0.0195244438946,0.24490442872,-0.284966796637,0.377113521099,0.0336037836969,0.339561223984,0.422706496185,-0.204109670862,0.288395613061,-0.0449039302861,0.924313886198,0.378956972822,0.00436912556267
-0.287037104368,-0.162977948785,-0.157267510891,-2.33693861961,0.0601293109357,2.10314750671,-1.25101864338,0.0564214549959,0.307283222675,0.0408095680177,0.274940013885,-0.253441810608,0.346025496721,0.0869606360793,0.391184329987,0.424967537508,-0.190256754233,0.283169501107,-0.052583305673,0.924139065743,0.378396528355,0.00424854600664
-0.281427890062,-0.162141397595,-0.15208876133,-2.34127831459,0.066136226058,2.10521197319,-1.24386823177,0.0564214549959,0.320717573166,0.0488818958402,0.307747960091,-0.234546288848,0.3274487257,0.139360994101,0.388214170933,0.426264695968,-0.184444653775,0.281164068864,-0.0550599665897,0.923994270356,0.378397787041,0.00425474721194
