imanlab/tactile_prediction_flat_dataset/train/data_sample_2021-11-24-15-23-04/robot_state.csv
position_panda_joint1,position_panda_joint2,position_panda_joint3,position_panda_joint4,position_panda_joint5,position_panda_joint6,position_panda_joint7,position_panda_finger,velocity_panda_joint1,velocity_panda_joint2,velocity_panda_joint3,velocity_panda_joint4,velocity_panda_joint5,velocity_panda_joint6,velocity_panda_joint7,ee_state_position_x,ee_state_position_y,ee_state_position_z,ee_state_orientation_x,ee_state_orientation_y,ee_state_orientation_z,ee_state_orientation_w
-0.312517642975,-0.00858666375279,0.327636867762,-2.49205231667,-0.035512380302,2.49501919746,-0.700206518173,0.062052372843,-0.00276276888326,0.000372582668206,0.000168679354829,-0.000353516632458,7.35348585295e-05,0.000137590934173,-9.78389834927e-07,0.470391085321,0.00448910665937,0.178205923311,0.013306990757,0.931599447365,0.363241147157,0.00112354922632
-0.312505543232,-0.00858489330858,0.32764673233,-2.49205470085,-0.0355120673776,2.49503016472,-0.700206577778,0.062052372843,0.000504414434545,0.000162520766025,1.75299755938e-05,-0.000192480350961,3.46632464243e-06,7.53793501644e-05,0.000504897965584,0.470392053407,0.00449903991749,0.178205393771,0.013307804906,0.931595665755,0.363250804809,0.00112710465342
-0.312504380941,-0.00858450494707,0.327647298574,-2.49205470085,-0.0355126000941,2.49503779411,-0.700206160545,0.062052372843,0.000562086235732,0.000795947038569,-4.87440374854e-05,-4.64529548481e-05,-8.053026977e-05,-9.59054978011e-06,0.000259125081357,0.470393650871,0.00449992669722,0.178205909614,0.0133090652581,0.931595313817,0.363251650593,0.00113052285892
-0.312507033348,-0.00858686026186,0.327645599842,-2.49205112457,-0.0355123355985,2.49504518509,-0.700205385685,0.062052372843,-0.00017265000497,-0.000430492655141,-0.00063464557752,7.15934002073e-05,-8.32323803479e-06,0.00280327885412,-0.000174994376721,0.470397312517,0.00449790167755,0.178209026405,0.0133115465833,0.931596239552,0.363249166506,0.00113661639841
-0.312512278557,-0.00858614500612,0.327640891075,-2.49205470085,-0.035511482507,2.49505138397,-0.700205802917,0.062052372843,-0.000239545814111,-0.000360348873073,-0.000668736523949,0.000267346476903,-0.00010855931032,-0.000169298771652,0.00391770666465,0.470396915509,0.0044933547483,0.178207875383,0.0133114425415,0.931598074,0.363244462452,0.00113762847601
-0.312514156103,-0.00858289841563,0.327639460564,-2.4920592308,-0.0355121791363,2.49506688118,-0.700207829475,0.062052372843,-1.0696147001e-05,0.00127977284137,0.00030483561568,-0.00306467339396,3.33676398441e-05,-2.18041477638e-05,0.000274902122328,0.47039769363,0.00449205513965,0.178206060401,0.0133123220644,0.931598143428,0.363244240081,0.00114147923436
-0.312508106232,-0.00858738366514,0.327641576529,-2.49205780029,-0.0355118587613,2.49507260323,-0.700203895569,0.062052372843,0.00236267899163,0.000149177460116,-0.000122019708215,0.000445996382041,-1.96501878236e-05,0.00011463372357,0.000108301443106,0.470400236125,0.0044957782032,0.178209134107,0.0133148206445,0.931597382011,0.363246084822,0.0011467025125
-0.312506079674,-0.00858621299267,0.327644616365,-2.49206089973,-0.0355114340782,2.49507808685,-0.70020544529,0.062052372843,0.000241621703026,0.000127535007778,0.000339450401952,-0.000388347747503,3.30850671162e-05,-5.80505111429e-05,-0.00228478386998,0.470399567512,0.0044983564725,0.178207932963,0.0133146080879,0.931596195769,0.363249133339,0.00114719379023
-0.312505692244,-0.00858586281538,0.327644824982,-2.49206185341,-0.0355128385127,2.49508166313,-0.700205504894,0.062052372843,-0.00031547958497,9.65574963629e-06,-0.00010636580555,9.05855631572e-05,-1.73545834059e-06,-5.11086291226e-05,0.000342454819474,0.470400247603,0.00449839658167,0.178207899748,0.0133155648494,0.931595991185,0.363249618135,0.0011487170506
-0.312506616116,-0.00858587212861,0.327643483877,-2.49206185341,-0.0355116128922,2.49509119987,-0.700203955173,0.062052372843,-0.000454325549072,-0.000444138364401,-0.000449053099146,0.00010509488493,7.38973321859e-05,-2.70238160738e-05,9.96502494672e-05,0.470402135424,0.00449764406188,0.178208553878,0.0133165685469,0.9315967103,0.363247723319,0.00115306083992
-0.312508076429,-0.00858780369163,0.327644556761,-2.49206161499,-0.0355128012598,2.49509453773,-0.700206160545,0.0620517171919,-0.000212762301089,0.000171807187144,-0.000330980314175,-0.000844155671075,-9.0312481916e-05,9.43742270465e-05,-0.00589215755463,0.470403263574,0.00449733608937,0.178209810836,0.0133181032507,0.931596183366,0.363249011141,0.00115535848331
-0.31251052022,-0.00858642533422,0.327643275261,-2.49206113815,-0.0355127640069,2.49510025978,-0.700205504894,0.0620517171919,-0.000119515119877,-0.00120172009338,-5.06083815708e-05,0.000366324704373,5.4227464716e-05,3.92762194679e-05,1.83060055861e-05,0.470404548414,0.00449572370803,0.178209900412,0.0133186604836,0.931596960646,0.363246989685,0.00115774263562
-0.312508314848,-0.00858644675463,0.327639937401,-2.49206161499,-0.0355114638805,2.49510526657,-0.700204670429,0.0620517171919,-0.000442023359938,-0.000189562604646,-0.000394916336518,-0.000416773400502,4.597644147e-05,7.63811040088e-05,0.000123349949718,0.470405419956,0.00449532865857,0.178210178342,0.0133190092519,0.931597486931,0.363245619843,0.00116003719629
-0.312508523464,-0.00858539901674,0.327642768621,-2.49206542969,-0.0355125106871,2.4951107502,-0.700203418732,0.0620517171919,-5.12331389473e-05,-0.000613995885942,-0.000127424820676,4.1689901991e-05,-6.56326619719e-06,-0.000140825650305,0.000335424148943,0.47040465127,0.00449657656462,0.178208714504,0.0133192026021,0.93159706358,0.363246697499,0.0011603499944
-0.312503993511,-0.00858043413609,0.327643692493,-2.49206280708,-0.0355107448995,2.49511575699,-0.700204849243,0.0620517171919,-1.63345903275e-05,-7.87845128798e-05,-8.01897767815e-05,4.30490836152e-05,7.92307109805e-05,-2.25704970944e-05,7.12386754458e-05,0.47040621679,0.00449956571677,0.178207971504,0.0133183952563,0.931596060815,0.363249292812,0.00116222990597
-0.312503427267,-0.00858398992568,0.327643573284,-2.49206185341,-0.0355120785534,2.49512052536,-0.700204312801,0.0620517171919,-0.000442849006504,-0.000120749878988,-0.000419795775088,-0.000350434886059,-1.88179637917e-05,0.000100113429653,-5.2107800002e-05,0.470408229931,0.00449958808737,0.178210363546,0.0133208342419,0.931595847149,0.363249738687,0.00116618101433
-0.312506347895,-0.00858281832188,0.327643245459,-2.49206209183,-0.0355125106871,2.49512577057,-0.700204610825,0.0620517171919,-0.000298036204185,-0.00103748415131,0.000229862052947,-0.000689559441525,0.00203424971551,-0.000118551448395,-1.65610235854e-05,0.470409102951,0.00449814860384,0.178210222519,0.0133213925556,0.93159629759,0.36324855706,0.00116803064487
-0.312505096197,-0.00858430191875,0.327642530203,-2.49206614494,-0.0355125516653,2.49512982368,-0.700203955173,0.0620517171919,-0.000361873680959,0.00119767186698,0.000410567445215,-0.000121254524856,5.72937169636e-05,0.000318103877362,-0.000484611809952,0.470408291391,0.00449834261558,0.178209668965,0.0133218161518,0.93159629414,0.363248548445,0.00116863022585
-0.312506616116,-0.00858473498374,0.327642381191,-2.49206638336,-0.0355125851929,2.49513530731,-0.700206160545,0.0620517171919,-0.000319881306496,-1.74072956725e-05,-0.000287516333628,-0.000423478370067,-9.4146860647e-05,2.7163174309e-05,-0.000217832232011,0.470409444434,0.00449759688559,0.178210264724,0.0133228070229,0.931596164877,0.36324883517,0.00117125249758
-0.312504261732,-0.00858717504889,0.327641844749,-2.4920668602,-0.0355129502714,2.49513721466,-0.700204074383,0.062052372843,-0.000321028317558,-0.000189704442164,0.000547889445443,-3.35517761414e-05,9.51627589529e-06,-3.44386608049e-05,0.000587005866691,0.470409987376,0.00449833241616,0.178211340924,0.0133239026757,0.931596144722,0.363248841463,0.00117286705631
-0.312502801418,-0.00858781673014,0.32764261961,-2.49206495285,-0.0355125293136,2.49514508247,-0.700202584267,0.062052372843,0.000324210850522,-8.02841313998e-05,-0.000383456645068,0.000195283952053,-3.24966131302e-05,0.000113733876788,-0.00021854879742,0.470412682591,0.00449948545731,0.17821308122,0.0133255873446,0.931596030719,0.363249056085,0.00117779842093
-0.312500476837,-0.00858554430306,0.327643036842,-2.49206781387,-0.0355129502714,2.49514961243,-0.700204253197,0.062052372843,-0.000243987538852,0.000418302690377,0.000381204328733,-0.000208433426451,-1.17799527288e-05,-2.32663223869e-05,0.00015412105131,0.470411974184,0.00450088612405,0.178211359272,0.0133252212125,0.931595154644,0.363251316677,0.00117768429044
-0.312498569489,-0.00858247186989,0.327645212412,-2.49206972122,-0.0355125032365,2.49515032768,-0.700202703476,0.062052372843,0.000120376738778,2.65752005362e-05,-8.68501811055e-05,-0.000108573687612,-2.49299191637e-05,-4.13082998421e-05,0.000171165971551,0.470410757814,0.00450297038987,0.178209304566,0.0133239089067,0.931594767038,0.363252364272,0.00117601632867
-0.312502086163,-0.00858229957521,0.327642709017,-2.49206876755,-0.0355118103325,2.49515342712,-0.700204193592,0.062052372843,-0.000186192672118,-0.000295800389722,4.82022405777e-05,3.64107399946e-05,0.00317229470238,0.00011720686598,9.24408232095e-05,0.470411883118,0.00450023645875,0.178209882238,0.0133243189851,0.93159567714,0.363250009107,0.00117789089779
-0.312503188848,-0.00858524255455,0.327639579773,-2.49206709862,-0.03551254794,2.49516415596,-0.700202047825,0.062052372843,0.00351515272632,-0.000409631553339,0.000217403401621,-0.000493595260195,2.78672559944e-05,1.57124995894e-05,-6.88000500304e-06,0.470415461623,0.00449820274194,0.178212821609,0.0133274719197,0.93159666635,0.36324733399,0.001184809195
-0.312497526407,-0.00858407467604,0.327641904354,-2.49206924438,-0.0355130843818,2.49516654015,-0.700201749802,0.0620517171919,-0.000167955542565,-0.00113018043339,0.000528618285898,-0.000482839852339,1.11170884338e-05,-4.59050970676e-05,0.000315008655889,0.470414761779,0.00450198963324,0.178211675756,0.0133272687328,0.931595184299,0.363251143435,0.00118447367148
-0.312493860722,-0.00858503766358,0.327647477388,-2.49206900597,-0.0355131812394,2.49516940117,-0.700202465057,0.0620517171919,-8.80182633409e-05,0.0032751057297,0.000478475994896,-0.000295080477372,-1.69869576894e-06,-5.74947516725e-05,0.000222450762521,0.470415595316,0.00450631198158,0.178212450083,0.0133281171747,0.931593345481,0.363255822006,0.0011863441282
-0.312495529652,-0.00858594849706,0.327645748854,-2.49206733704,-0.0355123318732,2.49517345428,-0.700202822685,0.0620517171919,-0.000373165123165,0.000388745043892,-0.000473495922051,0.000213442457607,-5.18508059031e-05,3.07954796881e-05,-0.000182906995178,0.470417412425,0.00450478581872,0.178213875362,0.013329103895,0.931593999946,0.363254097175,0.00118946365724
-0.312499403954,-0.00858453568071,0.327642828226,-2.49206542969,-0.0355128645897,2.49517893791,-0.700201392174,0.0620517171919,-0.000171878928086,-0.00116967083886,-0.000177893351065,-0.000157083719387,-4.99351554026e-05,8.32238511066e-05,5.20314788446e-05,0.470419330597,0.00450170699535,0.178214489672,0.0133300201773,0.931595391038,0.363250486595,0.00119232258753
-0.31249794364,-0.00858169514686,0.327643573284,-2.49206566811,-0.0355128161609,2.49518322945,-0.700202524662,0.0620517171919,0.000355894182576,-0.00234580249526,-4.4817723392e-05,-0.000537592277396,-0.000238153967075,2.93084649456e-05,0.000234895152971,0.470419723872,0.00450292961808,0.178213515672,0.0133297609032,0.931594779203,0.3632520625,0.00119315146166
-0.312497198582,-0.00858562905341,0.32764518261,-2.49206852913,-0.0355121158063,2.4951839447,-0.700201272964,0.0620517171919,-0.000519011169672,-0.00271960371174,0.00030014992808,1.61138468684e-05,0.000135808615596,-1.17575882541e-05,4.81514107378e-05,0.470419097267,0.0045038758551,0.178214215454,0.0133304233205,0.931594671541,0.363252312286,0.00119376494283
-0.312498182058,-0.0085797579959,0.327644348145,-2.49207282066,-0.0355133451521,2.49518752098,-0.700200557709,0.0620517171919,-0.000169298960827,-0.000234921943047,-0.000212073224247,0.000505540869199,-4.062406515e-05,0.000140147662023,-0.00018375851505,0.470417102645,0.00450307967903,0.178210304294,0.0133287788042,0.93159494863,0.363251670716,0.00119111272841
-0.312497198582,-0.00858728867024,0.327642500401,-2.49206423759,-0.0355126075447,2.49519371986,-0.700200796127,0.0620517171919,0.000314567150781,-0.00295570981689,-0.000101003148302,-2.47954085353e-05,2.80202057183e-05,0.00131987698842,-0.00286542763934,0.470423507497,0.00450265725377,0.178217519272,0.0133334060047,0.93159511764,0.363251034946,0.0012009866595
-0.312494814396,-0.00858479458839,0.327643930912,-2.49206638336,-0.0355128757656,2.49519753456,-0.700201034546,0.0620517171919,-0.000162480020663,0.000774925749283,0.000380757526727,0.000179566603038,-0.000548384326976,1.86138768186e-05,-4.45481491624e-05,0.470422942206,0.00450457886578,0.178215911568,0.0133329375753,0.93159433232,0.363253066742,0.0012008128712
-0.312496185303,-0.00858157686889,0.327645629644,-2.49206638336,-0.0355127342045,2.49519848824,-0.700201928616,0.0620517171919,0.000600986764766,0.000623642990831,0.000184606586117,2.85921614704e-05,-2.03617873922e-05,0.000592123484239,-5.33779275429e-05,0.47042267337,0.00450490383878,0.178214559424,0.0133320400266,0.931594135137,0.363253607986,0.0012000237591
-0.312495976686,-0.00858273357153,0.327643334866,-2.49206757545,-0.0355127714574,2.4952018261,-0.700200200081,0.0620517171919,-0.000573217694182,0.000567186507396,-0.000181187788257,0.000436611560872,-6.90580272931e-05,-0.00011815133621,0.000279641273664,0.470423018995,0.00450389710843,0.178214914651,0.0133327389653,0.931594804877,0.363251859866,0.00120149297783
-0.312498301268,-0.00857902877033,0.327641874552,-2.49206805229,-0.0355134829879,2.49520802498,-0.70019954443,0.0620517171919,-0.000504647381604,-0.000564991147257,0.000280764332274,2.13840958168e-05,6.98565563653e-05,4.4309275836e-05,-7.71278282627e-05,0.470423617766,0.00450231916557,0.178213638164,0.0133326846733,0.931595486993,0.36325010858,0.00120267807335
-0.312495797873,-0.00858542695642,0.327642291784,-2.49206328392,-0.0355136357248,2.49521350861,-0.700200259686,0.0620517171919,-7.71470367908e-05,2.07351013159e-06,0.000284970825305,-0.000402597681386,-8.15870735096e-05,-0.000165104982443,-0.000377019168809,0.470427988886,0.0045034816638,0.178218850654,0.0133364669661,0.931594756365,0.363251819246,0.0012099837328
-0.312496811152,-0.00858457013965,0.327642500401,-2.49206542969,-0.0355138331652,2.4952147007,-0.700200796127,0.0620517171919,-0.000461310701212,0.000354445888661,6.90687302267e-05,-0.000331142626237,1.75775421667e-05,-3.52322713297e-05,0.000288245995762,0.470427018632,0.00450313598616,0.178217422185,0.0133358984165,0.93159473103,0.363251908141,0.00120906874868
-0.312498122454,-0.00858377479017,0.327643811703,-2.49206829071,-0.0355127677321,2.49521899223,-0.700202226639,0.0620517171919,-0.00016524415696,0.000336609315127,0.000617846904788,-4.07027218898e-05,0.00240000011399,0.000157274713274,-5.52621022507e-05,0.470426580084,0.00450325592855,0.178216650366,0.0133357140474,0.931594656778,0.363252103371,0.00120965932105
-0.312492102385,-0.00858222600073,0.327645719051,-2.49206876755,-0.0355132222176,2.49522280693,-0.700201392174,0.0620517171919,0.00314927031286,0.000467708450742,-3.64454390365e-05,1.09538370907e-06,0.00250750314444,-1.28872543428e-05,-0.000429406936746,0.470426922483,0.00450706893764,0.178216115916,0.0133358872833,0.931593287625,0.36325560502,0.00121064785852
-0.312494516373,-0.0085835782811,0.327644973993,-2.49206757545,-0.0355136990547,2.49522686005,-0.700199723244,0.0620517171919,-0.000284870504402,0.00086610391736,-0.000332870840793,8.5217106971e-05,9.10513626877e-05,-0.000156376336236,-0.000133823268698,0.470428581873,0.0045055470372,0.1782175528,0.0133373108748,0.931594070017,0.363253536429,0.00121359155621
-0.312496900558,-0.00858353823423,0.327640533447,-2.49206471443,-0.035513497889,2.49523186684,-0.700200080872,0.0620530284941,-0.000652796181384,2.40857989411e-05,-0.000458571274066,-3.30886832671e-05,-0.00493204034865,-8.96150086191e-05,-8.471088222e-05,0.47043104673,0.00450243822034,0.178219109964,0.013338537149,0.931595247931,0.363250458218,0.00121727060778
-0.312500029802,-0.00858005322516,0.327640384436,-2.49206399918,-0.0355129912496,2.4952340126,-0.70019954443,0.0620530284941,0.000389684631955,0.000328518683091,0.000222940827371,-0.000612808100414,-0.000334914657287,-2.90877542284e-05,0.00388777302578,0.470431351257,0.00450112408792,0.178218027361,0.0133377631662,0.931596013897,0.363248522115,0.00121730509293
-0.312492698431,-0.00857986882329,0.327643454075,-2.49206757545,-0.0355132780969,2.49524044991,-0.700199246407,0.0620530284941,-0.000195852902834,0.000903226435184,0.000197043133085,-0.000388423271943,0.000133938694489,4.30770778621e-05,-0.000165188495885,0.470430992562,0.0045060497537,0.178217126652,0.0133382042675,0.931594109826,0.363253384636,0.00121863813845
-0.312494933605,-0.00858235079795,0.32764351368,-2.49206781387,-0.0355136394501,2.49524378777,-0.700199365616,0.0620530284941,-0.0016885244986,-0.000260869157501,0.000151988875587,0.000108560758235,3.03310735035e-05,5.55881670152e-05,0.000377822725568,0.470431983219,0.00450492274681,0.178218443233,0.0133395900411,0.931594407706,0.36325256183,0.00122101506676
-0.312496304512,-0.00857728812844,0.327643990517,-2.49206733704,-0.03551312536,2.49524784088,-0.700200498104,0.0604304075241,0.00348446820863,-0.000417722651036,0.000218599205255,-3.35944278049e-05,-0.000117326897453,-9.97445822577e-05,0.000282285822323,0.47043253128,0.00450488289223,0.178217047072,0.0133388022033,0.931594442452,0.363252499919,0.00122152972863
-0.312496572733,-0.00858008861542,0.32764223218,-2.49206662178,-0.0355134755373,2.49525523186,-0.700199902058,0.0604304075241,-0.000355394091457,2.67525174422e-05,0.00132502510678,-0.000390743429307,-0.00282891048118,-1.05332519524e-05,0.000323449727148,0.470434716879,0.00450381111542,0.178218934711,0.0133408796664,0.931594815234,0.363251452163,0.00122611016726
-0.312495470047,-0.00857599172741,0.327643245459,-2.49207043648,-0.0355140157044,2.49525856972,-0.700199246407,0.0604304075241,0.00102777406573,-0.000230660210946,0.000197746136109,-0.000394521077396,-0.000108394706331,-7.51769548515e-05,-0.00251363799907,0.470433419015,0.0045050024052,0.178216233951,0.0133396278942,0.931594547415,0.36325219003,0.00122461311192
-0.312492907047,-0.00858055148274,0.327643454075,-2.49207162857,-0.0355134829879,2.49526000023,-0.700201153755,0.0604304075241,-0.000527133292053,-0.000770784216002,0.000212996063055,-0.000203667194,-2.35831503232e-05,0.00023440226505,0.00128776452038,0.470433440662,0.00450610070681,0.178217615363,0.0133409248767,0.931593680145,0.363254361166,0.00122622049411
-0.312492519617,-0.00858315359801,0.3276437819,-2.49206662178,-0.0355135202408,2.49526381493,-0.700198948383,0.0604304075241,1.66100417118e-05,-0.000459417962702,-0.000182948526344,0.000480544316815,5.8814125623e-06,0.00013593674521,0.000543577712961,0.470437011297,0.0045063961775,0.178221076187,0.0133432462365,0.931593915138,0.363253655743,0.00123139431644
-0.312497526407,-0.00858254451305,0.327643483877,-2.49206900597,-0.0355138629675,2.49527478218,-0.700199604034,0.0604304075241,-8.83382526808e-05,4.68785692647e-05,0.00044252871885,-9.274371223e-06,-1.56835285452e-05,-1.8315971829e-05,6.55119220028e-05,0.470438210514,0.00450401688613,0.178220865246,0.0133445066232,0.931594660608,0.363251684842,0.00123515737422
-0.312495648861,-0.00857873633504,0.327640712261,-2.49206829071,-0.0355142131448,2.49527668953,-0.700198352337,0.0604304075241,-0.000340417696862,-0.00071946735261,-3.81463069061e-05,0.000426137528848,3.71196438209e-05,-4.23888413934e-05,-6.92232106303e-07,0.470438408152,0.00450378755133,0.178219621521,0.0133438260771,0.931594998917,0.36325084311,0.00123489384481
-0.312494456768,-0.00857696402818,0.327641487122,-2.49206733704,-0.0355144403875,2.49528026581,-0.700199961662,0.0604304075241,-4.03826816182e-05,0.000607164693065,0.000485016789753,-6.14097734797e-05,-0.000116231640277,1.51765307237e-05,-0.000414100650232,0.47043936673,0.00450483167846,0.178219525548,0.0133440763599,0.931594302386,0.363252615376,0.00123632348741
-0.31249320507,-0.00858408212662,0.32764211297,-2.49206662178,-0.0355136916041,2.49528861046,-0.700196027756,0.0604304075241,-0.000442176824436,0.00038297980791,-0.00107811018825,0.000164991157362,-3.23360982293e-05,0.000182729156222,0.000318172504194,0.470442558367,0.00450552451393,0.17822373364,0.0133475810537,0.931594727167,0.363251372797,0.00124347892735
-0.312493085861,-0.00858294032514,0.327644497156,-2.49206519127,-0.0355138033628,2.49529457092,-0.700198173523,0.0604304075241,0.000542583700735,0.000204673284316,0.0039498177357,-0.000271383236395,-4.77180365124e-05,-1.40804459079e-05,5.09132478328e-05,0.470444350274,0.00450682772474,0.178224318505,0.0133484706599,0.931593839211,0.363253606957,0.00124651198008
-0.312490403652,-0.00857918057591,0.327644258738,-2.49206447601,-0.0355144590139,2.4953019619,-0.700197696686,0.0604304075241,0.000260511355009,-1.35560103445e-05,0.000149220984895,-8.30421413411e-05,-0.000176630172064,-0.000274455174804,8.24940216262e-05,0.470445696956,0.00450831304057,0.178223592799,0.0133488335963,0.931593357606,0.363254820496,0.0012489107426
-0.312496632338,-0.00858057383448,0.327642410994,-2.49207139015,-0.0355144999921,2.4953083992,-0.700198709965,0.0604304075241,-0.00017501268303,-0.000820412300527,-0.000489014550112,-0.000155179310241,-2.94875117106e-05,0.000453748623841,0.000140678195748,0.470444118547,0.0045043602617,0.178222094961,0.0133490663951,0.931594608471,0.363251603242,0.00124912812653
-0.31249576807,-0.00858114566654,0.327642470598,-2.49206495285,-0.0355138368905,2.49533390999,-0.700196623802,0.0604304075241,0.000332024443196,-0.00214033597149,-0.000525254174136,0.000156278911163,-1.08410949906e-05,-9.15028431336e-06,0.00021389646281,0.470452785378,0.0045051581293,0.178227168597,0.0133542934622,0.931594787458,0.363250898811,0.00126452607545
-0.31248947978,-0.00857873726636,0.327645659447,-2.49206829071,-0.0355141982436,2.49534654617,-0.700197935104,0.0604304075241,0.000435501831817,0.000841376895551,3.53466784873e-05,-0.000218830085942,0.000164263372426,-0.000260286295088,-0.000150614127051,0.470453477014,0.00451024342034,0.178225512506,0.013354863549,0.931592587858,0.36325650706,0.00126792426771
-0.312491059303,-0.00858134403825,0.327644765377,-2.49206733704,-0.035514652729,2.49537086487,-0.700196266174,0.0604304075241,-0.000313047115924,-0.000221766938921,-0.000421589269536,0.000339694292052,0.00240266812034,0.00327946967445,-0.000305810419377,0.470459706131,0.00450880083514,0.17822966439,0.0133601348988,0.931593284598,0.363254480745,0.00128093367346
-0.312494874001,-0.00858085136861,0.327642709017,-2.49206709862,-0.0355144478381,2.49541735649,-0.700195252895,0.0604304075241,0.000155869376613,-7.71171016822e-06,-0.00029790221015,-7.52912746975e-05,7.61263845561e-06,0.00214968901128,0.000203760879231,0.470469894545,0.00450662036047,0.178233742397,0.0133674554776,0.931594343286,0.363251418383,0.0013028501554
-0.312497347593,-0.00858196243644,0.327641904354,-2.49206638336,-0.0355139747262,2.49546074867,-0.700197219849,0.05859830603,0.000152217777213,0.000273214653134,-6.3097650127e-06,0.000219982423005,5.69792100578e-05,0.00048605009215,0.000143825047417,0.47047985602,0.00450556607173,0.178238440655,0.0133747942803,0.931594438973,0.363250825769,0.00132416601113
-0.312493920326,-0.00857882574201,0.327643483877,-2.49206280708,-0.0355140194297,2.49547386169,-0.7001953125,0.05859830603,4.79823538626e-05,0.00201114010997,0.000127851701109,-0.00245077512227,-6.09528296991e-06,-0.000110235567263,-2.24604791583e-05,0.470483911492,0.00450824809717,0.178239621053,0.0133765551645,0.931593810812,0.363252347411,0.00133086930936
-0.312492012978,-0.00858043786138,0.32764339447,-2.49206519127,-0.0355136580765,2.49548602104,-0.700195908546,0.05859830603,-0.000411635905039,-0.000562800385524,-0.000176416651811,0.000443576456746,7.91875499999e-05,8.56415208546e-05,-0.00055930216331,0.47048566313,0.00450917096058,0.178240508282,0.01337850493,0.931593365393,0.363253398441,0.00133617650596
-0.312494367361,-0.00857708416879,0.327642560005,-2.49206876755,-0.0355162136257,2.49549746513,-0.700197815895,0.05859830603,0.000106029721792,-0.00266451062635,-0.000304449669784,-4.00348108087e-05,3.08646049234e-05,9.09474401851e-05,-3.97941148549e-05,0.470485996496,0.00450777786863,0.178238654306,0.0133793963287,0.93159317805,0.36325383816,0.00133832393896
-0.312493294477,-0.00857975520194,0.327643692493,-2.49206542969,-0.0355140641332,2.49551224709,-0.700197339058,0.05859830603,-0.000131378954393,-0.00317315827124,0.000131655819132,0.000111788038339,3.57474746124e-05,-6.59525030642e-05,5.99610502832e-05,0.470491334407,0.00450908744926,0.178242477745,0.0133825936314,0.931593103614,0.363253874104,0.00134837682531
-0.312493473291,-0.00858301948756,0.327642500401,-2.49206519127,-0.0355145633221,2.49552154541,-0.700195491314,0.048951216042,0.000451884465292,0.000407309009461,-9.88905521808e-05,0.00291305314749,-0.000217103763134,5.44625545444e-05,0.000211550461245,0.470493790453,0.00450829926451,0.178244874987,0.0133853059012,0.93159355661,0.363252591938,0.00135388479735
-0.312493175268,-0.00858076103032,0.327643156052,-2.49206566811,-0.0355141125619,2.49552893639,-0.700195431709,0.048951216042,0.000198117646505,-0.00117741618305,-0.00032942488906,-0.000114488480904,2.95217960229e-05,-6.0578891862e-05,-0.00031594990287,0.470494836369,0.00450896438719,0.178244347526,0.0133855735537,0.931593431746,0.363252893157,0.00135633531885
-0.312494128942,-0.00857966858894,0.327643156052,-2.49206423759,-0.0355148129165,2.49553513527,-0.700197398663,0.048951216042,-0.000257973180851,0.00370674137957,-0.000351333321305,-0.000353505893145,3.61025195161e-05,0.00188429362606,-0.000732399174012,0.470496705432,0.00450860847003,0.178244980241,0.0133866794876,0.931593115625,0.363253651575,0.00135942456994
-0.312492668629,-0.0085750259459,0.327642709017,-2.49206972122,-0.0355143360794,2.49554038048,-0.700195133686,0.048951216042,8.0035017163e-05,-0.000403570418712,-0.000191073908354,-0.00058906734921,1.17685613077e-06,-0.000137604540214,7.04807389411e-05,0.470494573252,0.00450935199033,0.178241240476,0.0133849610603,0.931593406609,0.363252975428,0.00135761109451
-0.312494009733,-0.00857966113836,0.327643454075,-2.49206614494,-0.0355159565806,2.49554634094,-0.700195074081,0.048951216042,0.000126789745991,1.23323943626e-05,0.000287863600533,-4.74374683108e-05,5.17559274158e-05,8.03852744866e-05,-0.000395671086153,0.4704983042,0.00450903158319,0.178245294161,0.0133884673372,0.931593187641,0.363253384243,0.00136389256069
-0.312496364117,-0.00858255289495,0.32764133811,-2.49206328392,-0.0355147197843,2.4955534935,-0.700196564198,0.048951216042,7.12711771484e-05,-0.00197764649056,0.000427781342296,-4.62348507426e-05,-8.41526561999e-05,3.82818252547e-05,0.000208323137485,0.47050159502,0.00450679376564,0.178248302299,0.0133906873615,0.931593919581,0.363251403552,0.00136966945513
-0.312492996454,-0.00858080666512,0.327641218901,-2.49206709862,-0.035514652729,2.49555873871,-0.700197041035,0.048951216042,0.000410537875723,-0.000371260452084,-0.000347355380654,0.000278107996564,-5.08631092089e-06,6.05413151789e-05,0.000433242646977,0.470500666921,0.00450843922404,0.178246507308,0.013390293998,0.931593236385,0.363253170003,0.00136971371554
-0.312492758036,-0.00858125742525,0.327643454075,-2.49206781387,-0.0355153083801,2.49556350708,-0.700194239616,0.0489676333964,0.00038694543764,-0.000372620153939,-0.000278182589682,-0.00353126367554,-0.000194429769181,0.0002137512638,3.9251641283e-05,0.470501212919,0.00450945078053,0.178246622522,0.0133910020463,0.931593235379,0.36325314052,0.00137129386562
-0.312492102385,-0.00857808813453,0.327642530203,-2.49206852913,-0.0355150587857,2.49557137489,-0.70019441843,0.0489676333964,-0.000192098174011,0.00343746063299,-0.000674388837069,0.000717008020729,7.70066981204e-05,-0.000121384015074,-6.26941036899e-05,0.470502333791,0.00450971483207,0.178245876819,0.0133913397147,0.931593199852,0.36325320912,0.00137395743043
-0.312494039536,-0.0085765067488,0.327642828226,-2.49206733704,-0.0355146303773,2.49557828903,-0.700196146965,0.0489676333964,-0.000201205155463,-0.000298900122289,0.00011036790238,0.000270627322607,-3.41781269526e-05,-1.28753590616e-05,4.56828202005e-05,0.470504174128,0.00450913506763,0.178246260832,0.0133920439631,0.931593216462,0.363253128296,0.00137719585145
-0.312496721745,-0.00858184229583,0.327641576529,-2.49206352234,-0.0355140604079,2.49558472633,-0.700194895267,0.0489676333964,9.89482869045e-05,0.000173916996573,0.000723766861483,0.000452993961517,-9.55991563387e-05,0.00063608790515,-4.12860572396e-05,0.470508175975,0.00450717318577,0.178250715123,0.0133952690551,0.931594192799,0.363250479078,0.00138414023607
-0.31249409914,-0.00858071167022,0.327642470598,-2.49206590652,-0.0355160348117,2.49558854103,-0.700194776058,0.0489676333964,0.00045334076276,0.000178940274054,-4.28936691605e-05,4.50987499789e-05,-0.000166068362887,7.7675031207e-05,-0.000177335736225,0.470507644651,0.0045087985188,0.178249777759,0.0133960128711,0.93159318139,0.363253044132,0.00138449999528
-0.31249165535,-0.0085814781487,0.327641874552,-2.49206757545,-0.0355146564543,2.49559378624,-0.700196325779,0.0489676333964,-0.000110764762212,0.000282571389107,0.000297890335787,-1.25669575937e-05,-6.70298322802e-05,0.000162468844792,-0.00106029794551,0.47050816151,0.00450974960898,0.178249789325,0.0133960758199,0.931592832047,0.363253930665,0.00138635221143
-0.312494516373,-0.00858111213893,0.327641874552,-2.49206590652,-0.0355160944164,2.49559903145,-0.700194835663,0.0489676333964,9.71807457972e-05,-5.81521126151e-05,-0.000147594037117,0.000534025661182,-4.43862409156e-05,0.000121339697216,0.000437637820141,0.470510334501,0.00450834371581,0.178251087,0.013397803249,0.931593409154,0.363252373694,0.00138981298914
-0.312495321035,-0.00858053471893,0.32764083147,-2.49206352234,-0.0355150513351,2.49560308456,-0.700193464756,0.0489676333964,0.000104349172034,-2.67723153229e-05,-0.000615750672296,3.87422805943e-05,3.08799171762e-05,0.000150234714965,0.000680537428707,0.470511974096,0.0045077719583,0.17825180196,0.0133980779958,0.93159404722,0.363250718538,0.00139206892456
-0.312490105629,-0.00858078058809,0.32764428854,-2.49206662178,-0.0355159156024,2.49560785294,-0.700196444988,0.0489676333964,-5.86809183005e-05,0.000178601592779,0.000698041345458,0.000130723259645,-5.31275873072e-05,7.66498269513e-05,0.000637030578218,0.470511421434,0.00451123706574,0.178251084541,0.0133986879042,0.931591936372,0.36325610634,0.00139288932582
-0.31249037385,-0.00858042761683,0.327642560005,-2.49206638336,-0.0355144888163,2.49561047554,-0.700195848942,0.0489676333964,-2.91507076327e-05,-7.27613296476e-05,0.000131591252284,-0.000114863105409,-4.58801259811e-05,6.56702177366e-05,-0.000206895158044,0.470512165449,0.00451106862935,0.178251215082,0.0133986249086,0.93159244156,0.363254807524,0.00139433668267
-0.312497258186,-0.00858054216951,0.327640026808,-2.49206757545,-0.0355152450502,2.49562311172,-0.700194954872,0.0489676333964,0.000267758994596,0.000763702322729,8.73992830748e-05,0.000445603625849,4.76297354908e-05,3.75056151825e-05,-0.00024886985193,0.470514443564,0.00450659596513,0.178252026953,0.0134006749093,0.931594207661,0.363250181677,0.00139977149144
-0.31249499321,-0.00858221855015,0.327642440796,-2.49206590652,-0.0355150476098,2.49562692642,-0.700195372105,0.0489676333964,-0.000365044281352,0.000470460334327,0.000341436942108,4.99709422002e-05,-0.000105248422187,-4.83682815684e-05,0.000105439401523,0.470516284882,0.00450878487805,0.1782537687,0.0134020598257,0.931593286217,0.363252481069,0.00140305031314
-0.312492311001,-0.00858147628605,0.327644050121,-2.49206590652,-0.0355141460896,2.49563288689,-0.700194001198,0.0489676333964,-0.000161900388775,0.000524530943949,3.09018687403e-05,-0.000332466443069,3.33420975949e-05,-0.000178792746738,4.843667557e-05,0.470517450715,0.00451096215898,0.178253973065,0.0134025304273,0.931592862052,0.363253541233,0.00140570938154
-0.312491387129,-0.0085799023509,0.327643543482,-2.49206542969,-0.0355149284005,2.4956433773,-0.700194835663,0.0489676333964,0.000547396135516,-0.000198742709472,9.73215283011e-05,0.00195230299141,-2.22131366172e-05,0.000159097500728,-0.000329883623635,0.470519727777,0.00451131189964,0.178254407432,0.0134040297362,0.931592471894,0.363254469073,0.0014102059469
-0.312491446733,-0.00858189258724,0.327644616365,-2.49206638336,-0.0355159156024,2.49564862251,-0.700194060802,0.0453677885234,0.000174431013875,0.000377827207558,-0.000661699217744,0.00162177463062,2.3059967134e-05,5.82988395763e-05,3.15462166327e-05,0.470520710783,0.00451168512328,0.178255397786,0.0134056221193,0.93159225272,0.36325496185,0.00141292035372
-0.312492340803,-0.00857834424824,0.327642500401,-2.49206614494,-0.035515692085,2.49565267563,-0.700193762779,0.0453677885234,0.000318859587424,-0.000295383128105,4.0995200834e-05,0.000107209627458,0.000159463976161,0.000395580253098,-0.000285598012852,0.470521196832,0.00451050322435,0.178254276084,0.0134051269993,0.931592876435,0.363253377968,0.00141358596348
-0.312493413687,-0.00857970491052,0.327642977238,-2.49206614494,-0.0355146452785,2.49565696716,-0.700194716454,0.0453677885234,-5.61062588531e-05,0.000390423607314,-0.000480380491354,0.000213039078517,2.5775285394e-05,0.00015250974684,0.000176757384907,0.470522331121,0.00451027172664,0.178255269388,0.0134059529158,0.931592941648,0.363253169909,0.00141623952551
-0.312494695187,-0.00858020689338,0.327643543482,-2.49206519127,-0.035514999181,2.49566817284,-0.700192093849,0.0453677885234,-8.65885976964e-06,-0.000521978363395,0.000307044043439,0.000707884202711,-7.82434726716e-05,-0.000344286847394,-0.000175312467036,0.470525297828,0.0045100270498,0.178256879324,0.0134081864864,0.931593438626,0.363251789801,0.00142215873812
-0.312495827675,-0.00858199317008,0.327642738819,-2.4920604229,-0.0355159007013,2.49567508698,-0.700193166733,0.0453677885234,-0.000206575394259,0.000467812176794,0.000184039527085,-0.000411987537518,-4.76549685118e-05,0.000756346969865,-0.000359567609848,0.470529276752,0.00450911016055,0.178259997776,0.0134108499357,0.931593440964,0.363251661479,0.00142827677001
-0.312493234873,-0.0085813254118,0.327643036842,-2.49206662178,-0.0355150811374,2.49568343163,-0.700191736221,0.0453677885234,0.000350479618646,0.00108109624125,7.50027902541e-05,1.45127578435e-05,-7.66115335864e-05,5.01518770761e-05,0.000319041108014,0.470528106042,0.00451058399204,0.178258200783,0.0134107715291,0.931593242562,0.36325216978,0.00142914463543
-0.312488287687,-0.00858101248741,0.327644199133,-2.49206280708,-0.0355165861547,2.49568963051,-0.700192272663,0.0453677885234,0.000351647933712,0.000125172911794,-0.000409213098465,0.000520300061908,-5.35412582394e-05,0.00278242165223,-2.16229855141e-05,0.470531183348,0.00451348304638,0.178260112682,0.0134127675007,0.93159177934,0.363255830978,0.00143362425591
-0.312492311001,-0.00857954286039,0.32764339447,-2.49206423759,-0.0355176106095,2.4956972599,-0.700192093849,0.0453677885234,-0.000104823884612,0.000730528205168,-0.000194809806999,-0.000799308530986,-1.09285138024e-05,-0.000111664048745,-0.000440564443124,0.470531978348,0.00451129633956,0.178259590632,0.0134135766487,0.931592505759,0.363253929314,0.00143586130987
-0.312494665384,-0.00858157966286,0.327641785145,-2.49206447601,-0.0355166308582,2.49570727348,-0.700191318989,0.0453677885234,-0.000273832527455,-0.000265548500465,9.67767919064e-05,-6.16519027972e-05,7.04468184267e-05,0.00114259822294,0.000427996361395,0.470534361616,0.00450951124627,0.178261313048,0.0134155107141,0.931593457224,0.363251395997,0.00144136077688
-0.312490850687,-0.00857951305807,0.327643990517,-2.49206066132,-0.0355168059468,2.49571585655,-0.700193047523,0.0453677885234,-0.000258461106569,-0.000915842014365,0.00326683418825,0.000320016057231,-5.11047946929e-05,-0.000118106421723,0.000205392978387,0.470537696122,0.00451255985227,0.178262654572,0.0134169616868,0.931591983446,0.363255101945,0.00144641409481
-0.312490493059,-0.00858125742525,0.327643960714,-2.49206209183,-0.0355163440108,2.49572300911,-0.700192570686,0.0413870736957,-0.000312314077746,-0.000192431369214,0.000331039802404,0.000488915655296,-6.32745359326e-05,-0.000108142136014,0.000276807899354,0.470538833015,0.00451273104579,0.178263520794,0.0134182840789,0.931592040737,0.363254892446,0.00144985729686
-0.312493771315,-0.00858008861542,0.327642738819,-2.49206662178,-0.0355172529817,2.49573469162,-0.700193047523,0.0413870736957,-0.000382000871468,0.000805068586487,2.48135529546e-05,0.000355124619091,-8.32456935314e-05,-0.00011905219435,-9.0852183348e-05,0.470539092096,0.00451071359142,0.17826228937,0.0134192667683,0.931592588471,0.363253440132,0.00145268760107
-0.312490344048,-0.00857996102422,0.327643096447,-2.49206185341,-0.0355178713799,2.49576830864,-0.70019286871,0.0413870736957,-6.73696922604e-05,-0.000598324579187,0.000279990490526,0.000414935755543,-0.000159872608492,0.00245293648914,-0.000186836070498,0.470548622982,0.00451289255915,0.17826713687,0.0134256542817,0.931591672857,0.363255479614,0.00147074331117
-0.312492519617,-0.00858382415026,0.327642977238,-2.49205470085,-0.0355172343552,2.49579524994,-0.700191676617,0.0413870736957,0.000195154832909,-0.000730086700059,-0.000396635616198,-0.000333768693963,-0.000145783938933,0.00643182871863,-9.55896466621e-05,0.470559141326,0.00451194414289,0.178274436457,0.0134329579152,0.931592245344,0.363253662711,0.00149005640967
-0.31249409914,-0.00858529377729,0.327641785145,-2.49205207825,-0.0355172120035,2.49586462975,-0.700194835663,0.0413870736957,0.000394501315895,0.000177439826075,0.000362459773896,0.000374921917683,-0.000122045741591,0.000954103132244,-7.51961415517e-05,0.47057422976,0.00451137328977,0.178281740465,0.0134438130685,0.931591900474,0.363254016007,0.00152131573423
-0.312489211559,-0.00858423672616,0.327644824982,-2.4920566082,-0.0355175882578,2.4959192276,-0.700192630291,0.0413870736957,-0.000116449358757,-0.000171509658685,-0.000152207634528,0.000161043644766,3.18413294735e-05,5.00959031342e-05,4.68587495561e-05,0.470584561035,0.00451585027434,0.178284748783,0.01345217909,0.931590479848,0.363257243981,0.00154632272731
-0.31248909235,-0.00858599599451,0.327646911144,-2.49205541611,-0.0355166085064,2.49593544006,-0.700193345547,0.0407166182995,2.886997936e-05,-0.000559932668693,0.00261769373901,-0.000364084437024,1.85931658052e-05,-3.92011133954e-05,0.00011561276915,0.470588705194,0.0045172002091,0.178287315644,0.0134550510085,0.931589932508,0.363258505241,0.00155476895269
-0.31248870492,-0.00858168955892,0.327645897865,-2.49205684662,-0.0355170629919,2.49594855309,-0.700191259384,0.0407166182995,-0.00211535720155,-0.000455643079476,0.00264736707322,-0.000219774636207,-7.52517589717e-05,-6.2629020249e-05,0.000317940604873,0.470590447769,0.00451708498601,0.178286170703,0.0134559125167,0.931590382478,0.363257300487,0.00155917289091
-0.312493413687,-0.00858413614333,0.327642470598,-2.49205994606,-0.0355165414512,2.49598312378,-0.700193703175,0.0407166182995,0.000262738671154,0.000115569346235,0.000296761805657,0.000161403077072,-0.000108000218461,0.000248984782957,-2.20213205466e-05,0.470596908574,0.00451355315652,0.178289184896,0.013461567218,0.931591319787,0.363254618832,0.00157502021507
-0.312493890524,-0.00858003366739,0.327642023563,-2.49205970764,-0.0355169847608,2.49599766731,-0.700191140175,0.0407166182995,-0.000175067485543,0.000684782920871,-0.00016434887948,-0.000120492484712,3.48884932464e-05,0.00128278334159,-0.000149726023665,0.470599588032,0.00451345807256,0.178288764383,0.0134627811795,0.931591827001,0.363253249723,0.00158039200408
-0.312491357327,-0.00858245510608,0.327644824982,-2.4920592308,-0.0355170555413,2.49600744247,-0.700194239616,0.0407166182995,0.000507112010382,-0.000197059387574,0.000162473428645,-0.000204700903851,1.63377735589e-05,0.000984800397418,0.000213050559978,0.470602271842,0.00451596312535,0.178290913089,0.0134652336349,0.931590228823,0.363257232225,0.00158617963674
-0.312489360571,-0.00857776310295,0.327644735575,-2.4920592308,-0.0355175472796,2.49602985382,-0.700192391872,0.0407166182995,-0.000475841487059,0.0009504048503,0.000200630383915,0.000366780092008,0.000142124932609,0.000131065884489,0.000579795509111,0.470606451786,0.00451731466144,0.178290848197,0.0134675016293,0.931590047688,0.363257574304,0.00159494301224
-0.312487930059,-0.00858135614544,0.327645599842,-2.49206352234,-0.0355159789324,2.49603629112,-0.700192093849,0.0407166182995,0.000455610046629,-0.000501571572386,0.0012559951283,-0.00024963618489,-3.17988160532e-05,-3.82060061384e-05,0.000216471977183,0.470606344341,0.00451835854718,0.178291354889,0.0134684793086,0.931589879998,0.363257956666,0.00159754640576
-0.312484830618,-0.00858096126467,0.327647089958,-2.49206614494,-0.0355164073408,2.49604296684,-0.7001927495,0.0407166182995,0.000113861111458,-0.000573936325964,-0.000562078726944,-0.0003036071721,-1.03902648334e-05,0.002450812608,7.18222290743e-05,0.470606482948,0.00452056514386,0.17829075709,0.0134690972321,0.931588835108,0.363260605678,0.00159930250071
-0.312490046024,-0.00858475361019,0.327644318342,-2.49206352234,-0.0355175696313,2.4960474968,-0.70019453764,0.0398537553847,-0.00037887840881,-0.00065147515852,-0.000150292675244,0.000725049700122,-2.84767775156e-05,-7.86044984125e-05,-0.000343496270943,0.470609303554,0.0045166324979,0.178293890137,0.0134718142294,0.931589752947,0.363258130537,0.00160396678058
-0.312494397163,-0.00858224090189,0.327640801668,-2.49206423759,-0.0355170220137,2.4960565567,-0.7001927495,0.0398537553847,0.000552973244339,0.000224031246034,0.000807937409263,0.000268484116532,7.21244941815e-05,0.000279562576907,-0.000170097599039,0.470610651376,0.00451382311315,0.178293226836,0.0134721149416,0.93159130004,0.363254138673,0.00160693206209
-0.312487512827,-0.00857904553413,0.327645659447,-2.49206066132,-0.0355166569352,2.49605894089,-0.7001927495,0.0398537553847,0.00046724054846,0.000144396894029,9.44968196563e-05,0.00018966877542,6.02896252531e-05,-5.59235832043e-06,-5.96652398599e-06,0.470612282013,0.00451893829272,0.17829349268,0.0134720944892,0.931589464977,0.363258837989,0.00160863961692
-0.312483668327,-0.00858015753329,0.327647775412,-2.49205708504,-0.0355176627636,2.49606513977,-0.700192928314,0.0398537553847,-7.56129011279e-05,0.000201323389774,0.000276322622085,-0.000173204869498,-6.4081441451e-06,-0.000184081523912,8.83526008693e-05,0.470615455282,0.00452172758245,0.1782959464,0.0134743590911,0.931588162878,0.363262071213,0.00161360969299
-0.312482595444,-0.00857847277075,0.327647179365,-2.49206471443,-0.0355158373713,2.49607110023,-0.700194716454,0.0398537553847,-0.00294344592839,2.96212365356e-05,-0.000795048894361,-0.000483509385958,-5.38339845662e-05,6.37063276372e-05,5.47346498934e-05,0.470612902055,0.00452215159574,0.17829275116,0.0134729342413,0.931588005869,0.363262532159,0.00161238297164
-0.312488734722,-0.00858236476779,0.32764595747,-2.4920630455,-0.0355178639293,2.49607515335,-0.700192391872,0.0398537553847,-0.000311579293339,0.000186377379578,0.000346366839949,0.000411148619605,-1.70739895111e-05,1.63963250088e-05,-0.000192777748452,0.470615182904,0.00451844028255,0.178295512303,0.0134756873784,0.931589432322,0.36325875423,0.00161635260755
-0.31248909235,-0.00858267117292,0.327646225691,-2.49206471443,-0.0355162471533,2.49607920647,-0.70019108057,0.0398537553847,-0.000726021185983,0.000453675689641,-9.58307937253e-05,-2.65208600467e-05,-2.78493771475e-05,0.0025578327477,-7.87234821473e-05,0.470615319605,0.0045185159944,0.178295361245,0.013475685006,0.931589906834,0.363257531056,0.00161778053181
-0.312487870455,-0.00858169049025,0.327645540237,-2.49206519127,-0.0355164222419,2.49608135223,-0.700192391872,0.0398537553847,-0.000394712958951,0.000413559784647,0.00210246071219,0.000438919552835,-8.37246407173e-05,0.000236546417,0.000582828361075,0.47061541585,0.00451882628144,0.178294932555,0.0134756861543,0.931589538091,0.363258474931,0.0016181713816
-0.312491863966,-0.00857969373465,0.327643990517,-2.49205946922,-0.0355176329613,2.49608588219,-0.700191795826,0.0398537553847,0.000317732075928,0.000359575060429,0.000104132741399,0.000402030535042,6.76477720845e-05,0.000123426769278,-0.000308382121148,0.47061883354,0.00451633991778,0.178296690689,0.0134771286826,0.931590450482,0.363256064159,0.00162206931366
-0.312482088804,-0.00858297757804,0.327648311853,-2.49205517769,-0.0355172678828,2.49609708786,-0.700192451477,0.0398537553847,0.000328441296006,-2.86555587081e-05,0.00034430847154,0.000627855130006,-2.5992353585e-06,0.00016502381186,-2.26048778131e-05,0.470623711998,0.00452300043473,0.178300842004,0.0134806216988,0.931587754659,0.363262809104,0.00163077128291
-0.312483817339,-0.00858476944268,0.3276476264,-2.49204540253,-0.0355178713799,2.49610829353,-0.70019364357,0.0398537553847,-0.000405902334023,-0.0017157549737,-0.000435632711742,6.82518584654e-05,-3.76810967282e-05,-0.000179897644557,0.000210827754927,0.47063103441,0.00452195378792,0.178306477701,0.0134848739638,0.931587814689,0.363262450076,0.00164126391377
-0.312489509583,-0.00858933478594,0.327643811703,-2.49204826355,-0.035517513752,2.49612092972,-0.700192034245,0.0398537553847,-0.00359657476656,8.59851934365e-05,-0.000144250472658,0.00038996283547,0.000128855652292,-7.19054733054e-05,-0.000102958700154,0.470633151845,0.00451741281612,0.178308546654,0.0134877466516,0.931589814404,0.363257186124,0.00164766573877
-0.312491714954,-0.00858749821782,0.32764095068,-2.49205303192,-0.0355176180601,2.49612689018,-0.700190782547,0.0398537553847,-0.000684508588165,0.000280743843177,6.9809058914e-05,3.13779673888e-05,1.96136697923e-05,0.00279659940861,0.000359318364644,0.470631955808,0.00451514320765,0.178306407199,0.013487318407,0.93159092808,0.363254346635,0.00164751230297
-0.312489449978,-0.00858685281128,0.327643096447,-2.49205422401,-0.0355176590383,2.49614620209,-0.700193226337,0.0398537553847,5.06554306412e-06,0.000988622778095,-0.000307386828354,-0.000493908708449,-3.0373390473e-05,0.00117735087406,8.83959546627e-06,0.470635481414,0.0045174594538,0.178307399437,0.0134900375603,0.93158958413,0.363257654406,0.00165584611766
-0.312492758036,-0.00858816690743,0.327640622854,-2.49205613136,-0.035519067198,2.49615216255,-0.700193107128,0.0398537553847,-0.000211206526728,-0.000112697234727,0.00057863665279,0.000374593160814,6.02237305429e-05,5.40943583474e-05,-0.000319684419082,0.47063610405,0.00451464636548,0.178307785943,0.0134914792995,0.931590416678,0.363255455441,0.00165810663948
-0.312490344048,-0.00858622789383,0.327642589808,-2.4920501709,-0.0355183333158,2.49615979195,-0.700194954872,0.0398682020605,-0.000730481173377,-0.000828681048006,-0.000713508168701,4.98961380799e-05,-2.6565952794e-05,0.00205258280039,-0.000346992717823,0.470639919773,0.00451747630274,0.178309556902,0.0134925907961,0.931589276704,0.363258314289,0.00166322252095
-0.31249627471,-0.00858322251588,0.327640324831,-2.49205446243,-0.0355180464685,2.49617028236,-0.700195133686,0.0398682020605,-9.57825250225e-05,0.000465075427201,-0.000411829765653,-0.000925126369111,5.81591211812e-06,-7.54125067033e-05,-0.000713694607839,0.470640121044,0.00451337376526,0.178307870389,0.0134928424469,0.931590814235,0.363254350903,0.00166561396114
-0.312497377396,-0.00858300272375,0.32763928175,-2.49205303192,-0.0355188772082,2.49617648125,-0.700190842152,0.0398682020605,-0.000573647383135,-0.000358208548278,3.68135806639e-05,0.00017421868688,3.2887513953e-05,-0.000103601429146,0.000391710840631,0.47064212432,0.00451240857519,0.17830889518,0.0134942540354,0.93159182859,0.363251681235,0.00166906480433
-0.312496393919,-0.00858864560723,0.327640712261,-2.49205589294,-0.0355185233057,2.49618124962,-0.700192153454,0.0398682020605,0.000766569224652,-4.11441651522e-05,0.000418331241235,-0.000561176799238,8.63626064529e-06,-6.48058921797e-05,0.000248115189606,0.470642747718,0.00451369108354,0.178310816039,0.0134963293271,0.931591073554,0.363253524797,0.00167247638328
-0.312502652407,-0.00859554111958,0.327639430761,-2.49205970764,-0.0355198942125,2.49618506432,-0.70019286871,0.0398682020605,-7.51744373702e-05,-0.000110368615424,-0.000263694324531,0.000223188006203,-9.83257268672e-05,-3.8252412196e-05,0.00041355760186,0.47064230203,0.00450989415148,0.178312160651,0.0134984334368,0.931591970057,0.363251139577,0.00167418636856
-0.312518715858,-0.00860177725554,0.327636003494,-2.49204111099,-0.0355188176036,2.49618673325,-0.700193762779,0.0398682020605,-0.00177902530413,-0.00475611444563,7.09515952622e-05,-0.000126386774355,0.000126828977955,-0.000108952175651,0.000180181508767,0.470653502379,0.00449984457344,0.178323987869,0.0135045663607,0.931595789304,0.363241054525,0.00168761105037
-0.31252142787,-0.00861559249461,0.327638596296,-2.49203419685,-0.0355197452009,2.49618554115,-0.700192034245,0.0398682020605,0.000675174989738,-0.00274974503554,0.000621438142844,0.00101943057962,-3.63395156455e-05,-1.5832047211e-05,0.000879827304743,0.470657883503,0.00449942438117,0.178331627834,0.0135095694427,0.931595814039,0.363240772792,0.00169453973037
-0.312618374825,-0.00896209850907,0.32765224576,-2.49174976349,-0.035519875586,2.49613952637,-0.700190663338,0.0398682020605,-0.00437632529065,-0.0175743680447,0.000532164413016,0.0085859997198,6.17173864157e-05,-0.00511333625764,0.000149585277541,0.470827460394,0.00444773856871,0.17858291214,0.0136550425439,0.931609512364,0.363199021645,0.00193045243077
-0.312716186047,-0.00939587131143,0.327642768621,-2.49155211449,-0.0355209670961,2.49604272842,-0.700191497803,0.0389061868191,-0.00436105532572,-0.0343452468514,-0.00114667112939,0.0175874885172,1.66558002093e-05,-0.00956996995956,-2.39145865635e-05,0.470969374636,0.00437485465185,0.178855672477,0.0138178555019,0.931628052268,0.363144049406,0.00215363933514
-0.312854975462,-0.0100325988606,0.327646613121,-2.4912879467,-0.035521004349,2.49572348595,-0.700190424919,0.0389061868191,-0.00537378294393,-0.0538199171424,0.000564780202694,0.0207253620028,-0.00029237466515,-0.032529130578,0.000432970031397,0.471118123796,0.00427957968791,0.17921459606,0.0140139186228,0.93165197852,0.363073786179,0.00237201999711
-0.313041597605,-0.0112434979528,0.327644944191,-2.49083709717,-0.0355231948197,2.49469137192,-0.700190901756,0.0389061868191,-0.0112642319873,-0.083964496851,-0.000212168859434,0.0320501886308,-0.000691148743499,-0.0852110460401,0.00142154679634,0.471283287255,0.00412525946785,0.179838675366,0.0143097446792,0.931686578123,0.36297215548,0.00256230028772
-0.313788861036,-0.0173465963453,0.327629476786,-2.48792171478,-0.0355294682086,2.48585987091,-0.700189948082,0.0389061868191,-0.0181894581765,-0.18694601953,-0.00111970421858,0.0941844880581,1.99673959287e-05,-0.310608327389,-0.000468482234282,0.471612365965,0.0034023426064,0.182911332111,0.0153251423934,0.931847965557,0.362519062046,0.00210675974368
-0.31418466568,-0.021162841469,0.327618151903,-2.48583960533,-0.0355324037373,2.47906064987,-0.700190007687,0.0389554351568,-0.0205666869879,-0.229909807444,0.000344626896549,0.132666930556,0.004661351908,-0.436923205853,-0.000335080025252,0.471647410846,0.00297392901828,0.184823816539,0.0157978898532,0.931943654577,0.36225634033,0.00133975551334
-0.314579635859,-0.0255005564541,0.327611207962,-2.48315858841,-0.035536300391,2.47050142288,-0.700186610222,0.0389554351568,-0.0214969180524,-0.279969125986,-0.00224998034537,0.175144791603,4.70035338367e-05,-0.560675084591,-9.90333592199e-06,0.471638270335,0.0025120287564,0.187052743987,0.0162550125995,0.93204645487,0.361973936412,0.000222651908156
-0.315598666668,-0.0417320244014,0.327527910471,-2.47163844109,-0.0355480462313,2.43633723259,-0.700136959553,0.0389554351568,-0.016563013196,-0.399306595325,-0.00294686132111,0.305330812931,0.000404066435294,-0.846138179302,0.00315734674223,0.471673613762,0.000996649235732,0.195863917117,0.0178683172909,0.932377415908,0.361019245508,-0.00426398880928
-0.315915137529,-0.0485291108489,0.327450692654,-2.46612811089,-0.0355483107269,2.42217803001,-0.700047552586,0.0389554351568,-0.0247157998383,-0.439571648836,-0.00230437051505,0.381144285202,-1.0257296708e-05,-0.92876791954,0.0055247345008,0.471956823016,0.000421067085263,0.199878536149,0.0186811119504,0.932517626838,0.360595137978,-0.00574785556127
-0.31623595953,-0.0573088601232,0.327378511429,-2.45830059052,-0.03555155918,2.40335607529,-0.699840188026,0.0389554351568,-0.010841421783,-0.481924504042,-0.00158288201783,0.443946421146,-0.000302213156829,-1.03217542171,0.0126336272806,0.472451503454,-0.000249239360692,0.205339367134,0.0197664255773,0.932698407191,0.360035415406,-0.00758082985259
-0.316432148218,-0.0667076706886,0.327284544706,-2.44907593727,-0.0355569086969,2.382822752,-0.699567735195,0.0389554351568,-0.0102798426524,-0.50655913353,-0.00916880369186,0.512054979801,5.40008768439e-05,-1.1256736517,0.0235284548253,0.473171887754,-0.000875810295599,0.21154428371,0.021009257729,0.932882145184,0.359447594442,-0.00932420622105
-0.31669574976,-0.0916751921177,0.327172189951,-2.42037510872,-0.03555842489,2.32781124115,-0.697669744492,0.0389554351568,-0.000716853421181,-0.548549294472,0.000350322166923,0.715846657753,-0.000423067860538,-1.26235878468,0.0702709928155,0.476221137782,-0.002164021612,0.229992183013,0.0249499164647,0.933534533735,0.35741082053,-0.0121770704463
-0.316700935364,-0.102030910552,0.327186614275,-2.4063615799,-0.0355651415884,2.30492067337,-0.696265459061,0.0389554351568,-0.000367388187442,-0.580574631691,0.00172463443596,0.81680393219,8.09184784885e-05,-1.27372586727,0.0826412960887,0.47807193655,-0.00252127454095,0.238653576298,0.0269378789803,0.933893934789,0.356318605448,-0.0123903323908
-0.316690206528,-0.113125152886,0.327212393284,-2.39029788971,-0.0355674102902,2.28032875061,-0.694448411465,0.0389554351568,0.000485494208988,-0.588054716587,0.000702465651557,0.89547765255,-0.000599292805418,-1.28993213177,0.109140045941,0.480247830716,-0.00282271341165,0.248471322619,0.0292315112503,0.934333698913,0.35499088754,-0.0121460805803
-0.316680729389,-0.130587369204,0.327231496572,-2.36168837547,-0.0355713292956,2.24132394791,-0.690827786922,0.0389554351568,-0.00187381124124,-0.593803465366,0.000282625696855,1.00567662716,-0.00120324001182,-1.29564607143,0.130886480212,0.484403565104,-0.00313194550845,0.265561854123,0.0333509282156,0.935164320185,0.352489849121,-0.0103109549443
-0.316664606333,-0.140663400292,0.327243626118,-2.34414458275,-0.0355877503753,2.21936392784,-0.688489615917,0.0389554351568,-0.00121186638717,-0.569204807281,-0.00127521983813,1.03607833385,5.55566475668e-05,-1.3148034811,0.142391905189,0.486981490967,-0.00320538634444,0.276060726958,0.0359863276615,0.93567240517,0.350927361561,-0.00849240951018
-0.316685169935,-0.149812415242,0.327229768038,-2.32718229294,-0.0355930402875,2.1990673542,-0.686224758625,0.0389554351568,0.00308804865927,-0.569091141224,-0.000192793333554,1.08538138866,0.00849884748459,-1.25678884983,0.143618836999,0.489395188625,-0.00323164390592,0.286111408111,0.0384826640716,0.936162567362,0.349394228093,-0.00651191966633
-0.31668651104,-0.159504428506,0.327237337828,-2.3083524704,-0.0355980247259,2.17787218094,-0.683844983578,0.0389567501843,0.00519771268591,-0.572818279266,-0.00246761995368,1.11189031601,-0.000127021688968,-1.2202732563,0.149476245046,0.49206362087,-0.00315952942752,0.297269607811,0.0413112431209,0.936653169757,0.347792120177,-0.00385507527066
-0.316654056311,-0.171551987529,0.327256053686,-2.284106493,-0.0355969443917,2.1517264843,-0.68040138483,0.0389567501843,-0.00184920767788,-0.552909553051,-0.000919051002711,1.12974119186,0.00118037278298,-1.17144989967,0.162408143282,0.49530397652,-0.00294097521171,0.311678762993,0.0449787272207,0.937311701225,0.345577324619,-3.5221288983e-05
-0.316652417183,-0.186914816499,0.327269822359,-2.25201249123,-0.0356171652675,2.11920499802,-0.675805926323,0.0389567501843,0.0113733951002,-0.526262521744,0.00321464729495,1.09325993061,0.000677586882375,-1.06943464279,0.157819435,0.499293802769,-0.00250724661725,0.330890783327,0.0499519869448,0.938125419596,0.342624856408,0.00580547717248
-0.316562712193,-0.19552347064,0.32728266716,-2.23374128342,-0.0356123633683,2.10139489174,-0.673194110394,0.0389567501843,-0.000345621607266,-0.494785785675,-0.00280717178248,1.06945919991,0.00219368818216,-1.03704833984,0.14712010324,0.501340338265,-0.00213022658247,0.341930378197,0.0528239714841,0.938535647559,0.340986158412,0.00942898487859
-0.316553175449,-0.203774094582,0.327288269997,-2.21645903587,-0.0356297045946,2.08491253853,-0.670738399029,0.0389567501843,0.000373472954379,-0.47894141078,0.00406634947285,1.00632822514,-0.00185181642883,-0.952955961227,0.150921911001,0.503099151382,-0.00176437513813,0.352520468117,0.0556246607468,0.938903792214,0.339403308016,0.0130751779333
-0.316482722759,-0.213557571173,0.327320635319,-2.19641232491,-0.0356410592794,2.06588983536,-0.667596042156,0.0389495268464,0.00629825051874,-0.471773147583,-9.67263331404e-05,0.9572057724,-0.00031592749292,-0.902984142303,0.159909233451,0.504840570358,-0.00123326563845,0.364981631292,0.0589294477811,0.939334447313,0.337451309573,0.0174565068037
-0.316248804331,-0.227307215333,0.327329993248,-2.16884112358,-0.0356450527906,2.04010510445,-0.663444459438,0.0389495268464,0.00902338977903,-0.426615744829,4.78531110275e-05,0.855369448662,0.00117532140575,-0.7780418396,0.125083133578,0.506740233683,-0.000331814098485,0.382402131012,0.0635785502841,0.93981560599,0.3348699307,0.0238017621435
-0.316114455462,-0.233913600445,0.327336788177,-2.15621948242,-0.0356597602367,2.02811169624,-0.66127628088,0.0389495268464,0.0073431963101,-0.401041030884,0.000800649926532,0.756752669811,-0.000156203081133,-0.724201261997,0.139971137047,0.507331396628,0.000139507462435,0.390540198558,0.065758556917,0.940052389643,0.333558719012,0.0267562623694
-0.315939247608,-0.240071967244,0.327367424965,-2.14496874809,-0.0356558971107,2.01730394363,-0.659221827984,0.0389495268464,0.0101185115054,-0.374720811844,0.00530784158036,0.685327708721,0.000599519407842,-0.671955645084,0.121079824865,0.50769561613,0.000630538961851,0.397924664526,0.0677483460455,0.94025749671,0.332352928507,0.0294538976695
-0.315661460161,-0.24710097909,0.327403366566,-2.13261961937,-0.0356635525823,2.00460863113,-0.656973540783,0.0389495268464,0.014189299196,-0.34207290411,0.00256243976764,0.574576079845,1.51930726133e-06,-0.62468546629,0.102372415364,0.507766667222,0.00123301365008,0.406081343371,0.0698775454875,0.94047411135,0.331048268272,0.0321343784438
-0.315259754658,-0.254171729088,0.32746258378,-2.1212656498,-0.0356633774936,1.99220454693,-0.654961585999,0.0389495268464,0.0197429489344,-0.312558591366,0.0013133311877,0.487136781216,0.000314952223562,-0.558392763138,0.0917529389262,0.507504114328,0.00190571362241,0.4137988483,0.0718930331408,0.940635255511,0.329918609132,0.0345024479079
-0.314646810293,-0.262679904699,0.327524065971,-2.10935211182,-0.0356632061303,1.97718882561,-0.652828931808,0.0389495268464,0.0220549982041,-0.271297365427,0.00492923008278,0.333984047174,-0.00442138453946,-0.476424664259,0.0724472999573,0.506666156097,0.002673157041,0.421651267846,0.0738744319402,0.940796318484,0.328818259731,0.0363786638954
-0.31419724226,-0.267059504986,0.327594488859,-2.10446834564,-0.0356620773673,1.96939492226,-0.651509106159,0.0389495268464,0.0264665018767,-0.234016090631,0.00467168679461,0.254260480404,8.56648039189e-05,-0.442637771368,0.067849189043,0.505736437878,0.00320927397778,0.425883268983,0.0748838526753,0.940947105147,0.328099365176,0.0369020349319
-0.313756942749,-0.270592361689,0.327643454075,-2.10065722466,-0.0356666520238,1.96238076687,-0.650265574455,0.0389495268464,0.0268232952803,-0.195794716477,0.00637136399746,0.201704844832,-0.000519846682437,-0.401088178158,0.0754465833306,0.504906041518,0.0035894026907,0.428562545128,0.0754237718692,0.941097104968,0.327549847303,0.0368590677698
-0.313257128,-0.273688316345,0.327764719725,-2.09792423248,-0.0356684662402,1.955758214,-0.648933470249,0.0389495268464,0.0280989184976,-0.154017657042,0.00912174861878,0.11697909981,0.000254748738371,-0.351329863071,0.0774884447455,0.503822729558,0.0040327677232,0.430816105747,0.0757743822853,0.941292583175,0.326970184798,0.0362906846125
-0.312479943037,-0.277195483446,0.327958375216,-2.09612512589,-0.035669952631,1.94593548775,-0.647302865982,0.0389501824975,0.0189080853015,-0.0682664290071,0.0135941877961,0.00769401434809,9.84063517535e-05,-0.309361308813,0.0294573716819,0.501864918394,0.00454862474491,0.432290007651,0.0755783507801,0.94160528822,0.326364675294,0.0339631049416
-0.312112182379,-0.278000533581,0.328281790018,-2.09630465508,-0.0356812104583,1.94042026997,-0.646695435047,0.0389501824975,0.0213633235544,-0.00886299274862,0.02044473961,-0.0263533461839,-0.00137220008764,-0.30778798461,0.035743419081,0.50046253268,0.00484905635816,0.431875753854,0.0748714522712,0.94179152186,0.32625610323,0.0313041495715
-0.311816424131,-0.277956277132,0.328649818897,-2.09691023827,-0.0356829315424,1.93488550186,-0.645943284035,0.0389501824975,0.0144936488941,0.0145240137354,0.020067922771,-0.0488418005407,-0.000103818376374,-0.310986787081,0.0516592562199,0.499313220174,0.00503487566782,0.431013504875,0.0740242762799,0.941994019766,0.326104493738,0.0286972489696
-0.311652064323,-0.27736261487,0.328963220119,-2.09785580635,-0.0356883518398,1.9296554327,-0.645153462887,0.0389501824975,0.0105268331245,0.061316575855,0.0187860745937,-0.0634611994028,-0.00233639287762,-0.305623292923,0.0469160526991,0.498057684984,0.00512735948812,0.42968188654,0.0729146802908,0.942256603498,0.325857392974,0.0255519410921
-0.311543107033,-0.275482684374,0.329447239637,-2.09935522079,-0.0356908626854,1.92384493351,-0.644336700439,0.0389501824975,0.000604161992669,0.120274752378,0.0241380799562,-0.0874969214201,0.000246297277045,-0.274163097143,0.0354282036424,0.496662835552,0.00520642047193,0.427409687241,0.0712625273544,0.942552607474,0.325669452015,0.0213457735877
-0.3114977777,-0.271625488997,0.329935699701,-2.10223770142,-0.0356964953244,1.91693246365,-0.643369793892,0.0389501824975,-0.00115270749666,0.161816507578,0.0142555860803,-0.112693808973,-0.000304777029669,-0.221300587058,0.0358032919466,0.494808634541,0.00511319439417,0.42327321688,0.0685379425728,0.942974222733,0.325390053537,0.0149491951456
-0.31150123477,-0.268715232611,0.330128669739,-2.10429573059,-0.03569842875,1.91333460808,-0.642649531364,0.0389501824975,0.000788487610407,0.184850648046,0.0121097555384,-0.124266289175,-0.00117874355055,-0.20238558948,0.0425995662808,0.49386289459,0.00498705955351,0.420675091144,0.0669073865828,0.943227202362,0.325141828076,0.0113418546747
-0.311517834663,-0.264773219824,0.330343097448,-2.10674977303,-0.0357016026974,1.90964698792,-0.641748845577,0.0389501824975,-0.00200913893059,0.224926635623,0.0101171638817,-0.133615627885,-0.00239149900153,-0.183072045445,0.0448845252395,0.492809227134,0.0048148085613,0.417248719063,0.0647974970527,0.943528331413,0.324820491533,0.00687169291859
-0.311542600393,-0.261194705963,0.330420583487,-2.10895204544,-0.0357038900256,1.90681064129,-0.641193687916,0.0389501824975,0.000365146872355,0.229591831565,0.000732061162125,-0.14918038249,0.000171330408193,-0.176077783108,0.0233084466308,0.491946977079,0.00461004656476,0.414219825411,0.0629554503696,0.943747933357,0.324602932249,0.00306359547509
-0.311589390039,-0.252903491259,0.330438822508,-2.11399078369,-0.0357171110809,1.90109944344,-0.640569984913,0.0389501824975,-0.00326908752322,0.257883608341,0.00056065589888,-0.154260605574,0.000884583976585,-0.158659353852,0.0197970848531,0.490077280523,0.00409521425498,0.407366156056,0.0588205170034,0.944090190302,0.32435375812,-0.00533841133993
-0.311669111252,-0.248567000031,0.33040985465,-2.11666059494,-0.0357171408832,1.89850628376,-0.640184164047,0.0389501824975,-0.00613135006279,0.257691472769,-0.00314192264341,-0.155320987105,-0.000295881007332,-0.148448348045,0.0255710147321,0.489137143425,0.00379647745102,0.40382543245,0.0567067599332,0.944254680649,0.324154342222,-0.00956052070288
-0.311870187521,-0.24434402585,0.330399274826,-2.11913847923,-0.0357221849263,1.89617729187,-0.639695763588,0.0389501824975,-0.00803304091096,0.27257463336,-0.00163716985844,-0.150512292981,-0.000515805382747,-0.136885240674,0.0258477181196,0.488271294495,0.00346795077711,0.400466990941,0.0547023766461,0.944425441897,0.323860070644,-0.0135236465848
-0.312120765448,-0.238883823156,0.330411165953,-2.12204575539,-0.0357268191874,1.89340686798,-0.639045476913,0.0389501824975,-0.0104888537899,0.262783646584,-0.0028860620223,-0.143528982997,-0.00145603041165,-0.136168599129,0.0292300730944,0.487247540675,0.00308589483988,0.396305013186,0.0521975340634,0.944611363157,0.323491045945,-0.0183938281542
-0.312348157167,-0.233986005187,0.330353617668,-2.12478995323,-0.035731613636,1.89068078995,-0.638480782509,0.0389501824975,-0.0178908742964,0.257257342339,-0.00099924323149,-0.139680624008,-0.000281598593574,-0.141371324658,0.0292180050164,0.486208855055,0.00270917477268,0.392505511267,0.0498870896633,0.944762317908,0.323124106122,-0.0229401978131
-0.312830746174,-0.226815894246,0.330363065004,-2.12862110138,-0.0357377938926,1.88718163967,-0.637836396694,0.0389508381486,-0.0128415664658,0.239805191755,-0.00219038850628,-0.129868850112,0.000350308837369,-0.117762163281,0.0258033238351,0.484793340365,0.00216070816161,0.387099043212,0.046615668663,0.944915004179,0.322652908745,-0.0292867628673
-0.312996268272,-0.223546162248,0.330317854881,-2.13046240807,-0.0357390753925,1.88557171822,-0.637543261051,0.0389508381486,-0.013690774329,0.218032032251,-0.00580407353118,-0.128057077527,-2.35020252148e-05,-0.110617011786,0.0220224484801,0.48409813981,0.00191596936681,0.38460107459,0.0451021658305,0.944966428663,0.32243688726,-0.0322288187794
-0.31331372261,-0.219169065356,0.330211549997,-2.13308763504,-0.0357419811189,1.88339865208,-0.63713312149,0.0389508381486,-0.018880808726,0.205106779933,-0.00402532471344,-0.118466049433,3.26403605868e-05,-0.0849143713713,0.0139508089051,0.483098379445,0.00152012748921,0.38119406019,0.0430430366919,0.945042516696,0.32206791797,-0.0362518210787
-0.313634008169,-0.215301334858,0.330199539661,-2.13548541069,-0.0357433967292,1.88178527355,-0.636684119701,0.0389508381486,-0.0118515836075,0.17752020061,-0.00065094413003,-0.115666456521,0.000245557981543,-0.0758358538151,0.0233084484935,0.48224110767,0.00119841521738,0.378179854086,0.0412670722399,0.945100125459,0.321724538778,-0.0397001567098
-0.314430177212,-0.208555936813,0.330131918192,-2.14025783539,-0.0357506684959,1.87815272808,-0.635459959507,0.0389508381486,-0.013356026262,0.11937957257,-0.000467711302917,-0.0862612575293,0.000299926759908,-0.0725396424532,0.0215828940272,0.480347532215,0.000484146883446,0.372617905453,0.0379559131594,0.945267059153,0.320746924982,-0.0463782852004
-0.314648538828,-0.206671595573,0.330101549625,-2.14167356491,-0.0357532538474,1.87697434425,-0.635180473328,0.0389508381486,-0.0135396225378,0.101072452962,-0.000725239166059,-0.0712628439069,-0.000203703864827,-0.0651164278388,0.0103631634265,0.479746181268,0.000280043060899,0.371022345838,0.0369913591181,0.945292185401,0.320492575368,-0.0483614763345
-0.314881324768,-0.205110445619,0.330067187548,-2.14279127121,-0.035755943507,1.87593257427,-0.635017514229,0.0389508381486,-0.0134447673336,0.0793350413442,-0.00159931962844,-0.0547227375209,1.49625129779e-05,-0.0623019002378,0.00701776798815,0.479245045292,8.39717363686e-05,0.369724256138,0.0361873760659,0.945308215298,0.320283814241,-0.050011297995
-0.31529635191,-0.203385204077,0.330033928156,-2.14415168762,-0.0357588417828,1.87374198437,-0.634685695171,0.0389508381486,-0.012088354677,0.0379688702524,-0.000148095394252,-0.0249957162887,-0.000128600673634,-0.0552476383746,0.00875439308584,0.478416670961,-0.000220889657082,0.368162361263,0.0351219614147,0.945357802334,0.319875835714,-0.0523881933845
-0.315505445004,-0.202834039927,0.330037653446,-2.14454579353,-0.0357613600791,1.87272357941,-0.634519934654,0.0389508381486,-0.00418001925573,0.0114932172,-0.000748299586121,-0.0131915872917,0.000106948107714,-0.0469318144023,0.00524197192863,0.478090930439,-0.000350310808929,0.367660449822,0.0347414690104,0.945388641188,0.319678736233,-0.0532808852491
-0.315639525652,-0.202822610736,0.330013304949,-2.1446788311,-0.0357626602054,1.87198162079,-0.634464323521,0.0389508381486,-0.0098385931924,-0.00556075293571,-0.00092944590142,-0.00310334283859,-7.05687443769e-06,-0.0442728884518,0.000960052711889,0.477896900491,-0.000433335999046,0.36754594902,0.0346069491165,0.945410119881,0.319562994003,-0.0536801345986
-0.315783947706,-0.202915176749,0.33000510931,-2.14463710785,-0.0357628986239,1.8714222908,-0.634367465973,0.0389508381486,-0.00630148733035,-0.00714498059824,0.000682137731928,0.00608368776739,0.000198340567295,-0.0255247764289,0.00907566770911,0.477768358724,-0.000516454636726,0.367566134718,0.034548008275,0.945448041818,0.31941821253,-0.053911413811
-0.315859347582,-0.203338027,0.330003380775,-2.14455080032,-0.0357623174787,1.87121427059,-0.634217441082,0.0389508381486,-0.00132222298998,-0.0330622531474,-0.000920865277294,0.0072444579564,-1.82649746421e-05,-0.0013307929039,0.00319429324009,0.477732662253,-0.000548284756869,0.367783200234,0.0346579038891,0.945491961909,0.31929525164,-0.0537988999196
-0.31590783596,-0.204336971045,0.330004692078,-2.14448428154,-0.035764016211,1.87118756771,-0.634075462818,0.0389508381486,0.00126998370979,-0.0389906093478,0.00129508180544,-0.000725685211364,0.000113737296488,-0.0023748583626,0.00301130674779,0.477712735254,-0.000558432159892,0.368265471032,0.0349660011215,0.945542854014,0.319181345151,-0.0533793835199
-0.315875589848,-0.205086156726,0.330027461052,-2.14441919327,-0.0357634201646,1.8711616993,-0.633978545666,0.0389508381486,-6.87255815137e-05,-0.038816139102,0.000319592974847,0.00714830262586,0.000167616512044,-0.00247321766801,0.00172489683609,0.477700662056,-0.000522056908088,0.368633001145,0.0352016148053,0.945565179824,0.31914257121,-0.0530599279084
-0.315869569778,-0.205719068646,0.330038428307,-2.14430546761,-0.0357636027038,1.87113857269,-0.633916914463,0.0389508381486,0.000574886798859,-0.0463831797242,-0.000210203943425,0.01036898233,9.26603825064e-05,-0.00234009698033,0.00820256676525,0.47770696643,-0.000503544757563,0.368970498629,0.0354080009095,0.945586282333,0.319106400097,-0.0527632565466
-0.315862327814,-0.206653758883,0.330041110516,-2.1440975666,-0.0357630960643,1.87111842632,-0.633761525154,0.0389501824975,6.43004095764e-05,-0.0510370247066,0.000148545528646,0.0114588662982,3.09421338898e-05,-0.00107083376497,0.0127754146233,0.477730521441,-0.000481655273676,0.369488598298,0.0357210007374,0.945630756269,0.319016358082,-0.0522976659897
-0.315876334906,-0.207619041204,0.330032944679,-2.14381551743,-0.0357645042241,1.87110924721,-0.633597671986,0.0389501824975,0.000112547815661,-0.0505597144365,-0.000244417606154,0.0150571577251,-4.87213037559e-05,0.000231075420743,0.00957464147359,0.47777906744,-0.000471520452322,0.370085311598,0.036073197608,0.945685537089,0.31890325788,-0.0517523058185
-0.315866619349,-0.208664670587,0.330039054155,-2.14349913597,-0.035763848573,1.87110686302,-0.633456170559,0.0389501824975,0.000118982374261,-0.0457465611398,0.000412073393818,0.0102247335017,0.000167223479366,-7.32702828827e-05,0.00385934300721,0.477830020974,-0.000442142563417,0.370675233861,0.0364214257167,0.945727641191,0.318826385552,-0.0512098037443
-0.315870642662,-0.209777921438,0.330038398504,-2.14319753647,-0.0357657857239,1.87110090256,-0.633309721947,0.0389501824975,4.81477291032e-05,-0.0557783320546,0.000145297512063,0.0154491150752,-0.000144829871715,0.000168464423041,0.0112557876855,0.477875391709,-0.000421688280652,0.371318843333,0.0368045521058,0.945776600281,0.318731014406,-0.0506220055878
-0.315849781036,-0.211253061891,0.330053150654,-2.14275312424,-0.0357654131949,1.87109744549,-0.633023023605,0.0389501824975,0.00018521308084,-0.0515980273485,0.000313380907755,0.0164613500237,0.000141666125273,-0.0001624324359,0.00572490645573,0.477948066321,-0.000372144648973,0.372192228839,0.0373231306056,0.945849689896,0.318580514289,-0.0498177041759
-0.315856635571,-0.212079003453,0.330048263073,-2.14253354073,-0.0357655882835,1.87109768391,-0.632867872715,0.0389501824975,0.000640333164483,-0.05080935359,-0.000234456107137,0.0127863930538,-5.07416152686e-05,-6.39932186459e-05,0.00752441724762,0.477980121566,-0.000360315501974,0.372668522693,0.0376072675198,0.945894013292,0.318483625302,-0.0493800481145
