imanlab/tactile_prediction_flat_dataset/train/data_sample_2021-11-24-15-31-09/robot_state.csv
position_panda_joint1,position_panda_joint2,position_panda_joint3,position_panda_joint4,position_panda_joint5,position_panda_joint6,position_panda_joint7,position_panda_finger,velocity_panda_joint1,velocity_panda_joint2,velocity_panda_joint3,velocity_panda_joint4,velocity_panda_joint5,velocity_panda_joint6,velocity_panda_joint7,ee_state_position_x,ee_state_position_y,ee_state_position_z,ee_state_orientation_x,ee_state_orientation_y,ee_state_orientation_z,ee_state_orientation_w
0.100045382977,0.110193200409,-0.113649770617,-2.50406813622,-0.0223545692861,2.62789130211,-0.73969990015,0.068879082799,-0.000301565800328,-0.000303633045405,-0.000282720953692,0.000509626057465,0.000138220973895,-0.000143053403008,0.000265417678747,0.472328242544,-0.00932442248076,0.13027359327,0.0135832384769,0.931102650093,0.364497160308,0.00227385892872
0.100046001375,0.110194079578,-0.113650895655,-2.50407099724,-0.022354464978,2.62789082527,-0.739692091942,0.0688784196973,-0.000251537596341,-0.000974976981524,0.000211495236726,-0.000353870418621,-3.6855358303e-06,-0.000122388315503,0.00271248980425,0.472326506208,-0.00932469370273,0.13027212633,0.0135825232191,0.93110419312,0.364493257322,0.00227193062507
0.100044354796,0.110191076994,-0.113650538027,-2.5040769577,-0.0223541576415,2.62788939476,-0.739679336548,0.0688784196973,-5.80127125431e-05,-0.000625326298177,-0.00358944199979,0.000338632904459,5.79732004553e-05,9.10903399927e-05,0.000180347808055,0.472323760424,-0.00932521770299,0.130271280984,0.0135814471383,0.931106829949,0.364486573182,0.00227005958035
0.100042439997,0.11019218713,-0.113650515676,-2.50407028198,-0.0223531089723,2.62789058685,-0.739671349525,0.0688784196973,-0.00086525536608,-5.62913510294e-06,-1.64439770742e-05,0.000290984666208,3.2228051623e-06,0.000148915190948,0.0022949220147,0.472327168475,-0.00932611108017,0.130273243413,0.0135825178655,0.931108769786,0.364481557508,0.00227331403556
0.100039951503,0.110193960369,-0.113650694489,-2.50406956673,-0.0223520435393,2.62789058685,-0.739660620689,0.0688784196973,-0.000132144035888,-0.000257219857303,3.10025789076e-05,0.000409353844589,-0.000125704609673,-4.74826010759e-05,-0.000228094620979,0.472327149359,-0.0093273788079,0.130272666552,0.0135821682814,0.931111380385,0.364474903709,0.00227294388008
0.10004478693,0.110194727778,-0.113649636507,-2.50406980515,-0.0223538465798,2.62789034843,-0.73965036869,0.0688784196973,0.0031059992034,0.000302428175928,0.000387927517295,-0.000153650951688,-0.000103917045635,-0.00020297615265,0.000295695906971,0.472326874471,-0.00932464646526,0.130272194825,0.0135823181948,0.931111889185,0.364473602266,0.00227230857482
0.100049957633,0.110194541514,-0.113649316132,-2.50406980515,-0.0223543923348,2.62789034843,-0.73964291811,0.068879082799,-0.000297252438031,-0.000245731323957,-8.483138663e-05,-7.6232397987e-05,2.86023418994e-06,-9.42395126913e-05,-0.000290497671813,0.472326962615,-0.00932205982082,0.130272280602,0.0135824373583,0.93111215903,0.364472907641,0.00227243959327
0.10004863888,0.110192030668,-0.113649621606,-2.50407528877,-0.0223539657891,2.62789058685,-0.739631414413,0.068879082799,-0.000497312517837,-0.000304620887619,0.000169979335624,0.000367552711396,7.76904198574e-05,0.000213572799112,-0.000266252900474,0.472324721553,-0.00932275635331,0.13027153024,0.0135816932479,0.931114636163,0.364466613988,0.00227132223993
0.100043125451,0.110189385712,-0.113649860024,-2.50407004356,-0.0223539918661,2.62789106369,-0.739624738693,0.068879082799,4.63092364953e-05,-0.000728197628632,0.000546401133761,0.000454891793197,4.19768002757e-05,3.42300045304e-05,-0.000206308905035,0.472327969645,-0.00932543440553,0.1302746822,0.0135831400216,0.931116874103,0.364460818194,0.00227524811357
0.100040957332,0.110191039741,-0.113651916385,-2.5040678978,-0.0223535131663,2.62789130211,-0.739619731903,0.068879082799,0.000711339002009,8.42481458676e-05,0.00025390094379,0.000173472304596,-3.00073497783e-05,-5.5397998949e-05,0.000106759624032,0.472328742865,-0.00932749185128,0.130274704085,0.0135833612765,0.931118621411,0.364456343877,0.00227557693073
0.100044608116,0.110195316374,-0.113649994135,-2.50407147408,-0.0223531965166,2.62789106369,-0.739590644836,0.068879082799,0.00032983237179,-0.000399916520109,-0.000288061128231,0.000731078558601,6.54089890304e-05,0.000163293196238,0.000210449448787,0.472326059577,-0.00932489245149,0.130271391725,0.0135818548479,0.931122976493,0.364445295439,0.00227204371297
0.100049048662,0.110192656517,-0.113649308681,-2.50407123566,-0.0223538670689,2.62789368629,-0.739584505558,0.068879082799,0.000423323363066,-0.00025284854928,-0.000123981153592,0.000653981696814,-6.97676150594e-05,-7.24880783309e-06,-0.000592270633206,0.472327334572,-0.00932241615797,0.130272959095,0.0135828335437,0.931123038347,0.364445084473,0.00227468242596
0.10004734993,0.110192000866,-0.113650158048,-2.50406956673,-0.0223539210856,2.62789416313,-0.739573299885,0.068879082799,-0.000751395593397,0.000271030236036,-0.000656380609144,-0.000442687916802,-2.42254154728e-05,-1.49488223542e-05,-0.000109372820589,0.472328396422,-0.00932362634808,0.130273909219,0.0135833689953,0.931125525588,0.36443870134,0.0022760348868
0.100039646029,0.110194250941,-0.113652378321,-2.50407266617,-0.0223529413342,2.62789320946,-0.739567101002,0.068879082799,0.00281760585494,-0.00020945018332,-0.000140615025884,0.000144062520121,-8.31941069919e-05,-7.33115739422e-05,0.00217475066893,0.472326073149,-0.00932836871587,0.130271677187,0.0135822076055,0.931128633916,0.364430821168,0.00227310470727
0.100039757788,0.110194444656,-0.113651871681,-2.50407528877,-0.0223540738225,2.62789177895,-0.739561736584,0.068879082799,0.000257189560216,-0.000566775095649,-0.000164977594977,-0.000759232207201,-0.000157987189596,-0.000275062193396,0.000274948542938,0.472324395525,-0.00932810533329,0.130270520564,0.0135816589042,0.931129334571,0.364429064106,0.00227107063497
0.100043453276,0.110194094479,-0.113650672138,-2.50407075882,-0.0223536323756,2.62789201736,-0.739556193352,0.068879082799,-0.000552611600142,-5.71379059693e-05,-0.00129620195366,0.00014233791444,2.50305492955e-05,-6.47095075692e-05,1.99876922125e-06,0.472326861487,-0.00932575813753,0.130272310695,0.0135824242604,0.931129508605,0.364428575278,0.00227357896129
0.100047715008,0.110192060471,-0.113648019731,-2.50406527519,-0.0223537553102,2.62789392471,-0.739549636841,0.068879082799,-0.000417560397182,0.000123078250908,0.000197064291569,0.000158250099048,9.26164375414e-06,0.00012015736138,0.00236596679315,0.472330530402,-0.00932240864345,0.130275373297,0.0135839446836,0.931129398172,0.364428772488,0.00227810773699
0.100043445826,0.110195308924,-0.113651178777,-2.50407385826,-0.0223547741771,2.62789392471,-0.739531993866,0.068879082799,0.000400915858336,0.000884583394509,0.000511362508405,-5.07418844791e-05,-3.65794767276e-05,0.000112953683129,-0.000279161409708,0.472325454307,-0.00932605732721,0.130270815769,0.0135822819147,0.931133828235,0.364417550327,0.0022724949008
0.100046575069,0.110192731023,-0.113648660481,-2.50407171249,-0.0223537757993,2.62789416313,-0.73952704668,0.068879082799,3.52010210918e-05,-5.96360259806e-05,-0.000285365240416,-0.000384441431379,4.96438333357e-05,8.79543658812e-05,0.00268378970213,0.472327162682,-0.0093232617948,0.130272793783,0.0135827005778,0.931133855867,0.364417448212,0.00227504422505
0.10004542768,0.110190249979,-0.113650813699,-2.50406932831,-0.0223544500768,2.62789440155,-0.739521980286,0.068879082799,-0.000435449794168,-0.000519025546964,-3.32777308358e-05,0.000128647021484,-5.23503076693e-05,-9.73407368292e-05,-0.000163158896612,0.472328900155,-0.00932483721746,0.13027484145,0.0135837936752,0.931135257226,0.36441381226,0.00227737120104
0.10004285723,0.110190555453,-0.11365108937,-2.50406694412,-0.0223543345928,2.62789416313,-0.739516913891,0.068879082799,5.75511949137e-05,-0.00041121779941,-0.000116271505249,0.000235595842241,-2.33767968894e-05,-8.19375709398e-05,-8.91396939551e-06,0.472329971518,-0.0093261953724,0.130275526504,0.0135841439006,0.931136710077,0.364410081492,0.00227823911654
0.100043833256,0.110194094479,-0.113650105894,-2.50406956673,-0.0223543662578,2.62789463997,-0.739510834217,0.068879082799,-0.00270196190104,0.000866952061187,-0.000303121400066,-6.9297692562e-07,5.30147954123e-05,-0.000117134812172,-4.20034757553e-06,0.472328045599,-0.00932531621368,0.130272970651,0.0135832048505,0.931137465729,0.364408202088,0.00227560916961
0.100047506392,0.110194608569,-0.113649994135,-2.50407481194,-0.0223537702113,2.62789440155,-0.739509224892,0.068879082799,-7.95364685473e-05,-0.000295251375064,5.73730212636e-05,-0.000567436101846,0.000158089649631,-0.000193586907699,0.00027503882302,0.472325261073,-0.00932350800777,0.130270840212,0.0135819564705,0.931137185237,0.364408982148,0.00227291495862
0.100045226514,0.110194921494,-0.113649755716,-2.50407218933,-0.0223532319069,2.62789368629,-0.739503622055,0.068879082799,-0.000252029538387,-0.000711459841114,-0.00355344358832,4.12055705965e-05,-0.000115406095574,-0.000174130735104,0.00145696219988,0.472326354452,-0.00932446541305,0.130271559693,0.0135821389934,0.93113865989,0.364405202246,0.00227372359302
0.100044541061,0.110193639994,-0.113650985062,-2.50406813622,-0.022354086861,2.62789463997,-0.739498138428,0.0680923908949,-0.000295942329103,-0.00108442013152,-4.1196562961e-05,0.000280342850601,4.62503180643e-07,0.000165681718499,-4.94398118462e-05,0.472328864127,-0.00932539932262,0.130273698116,0.0135835032248,0.931139848232,0.364402097007,0.0022765889395
0.100046887994,0.110192559659,-0.11365134269,-2.50406885147,-0.0223538856953,2.62789535522,-0.739491701126,0.0680923908949,9.9267825135e-05,0.000303320994135,-0.000564246380236,-0.000654309173115,0.000103940175904,5.24821334693e-05,-0.000128574014525,0.472328893854,-0.00932443446071,0.130274017491,0.0135836053826,0.931140688471,0.364399942457,0.00227718242425
0.100045926869,0.110193498433,-0.113648146391,-2.50407004356,-0.0223541539162,2.62789416313,-0.739487290382,0.0680923908949,-0.00048799245269,-0.000126780971186,-0.00052830245113,0.000368185981642,6.76010176903e-06,-0.000316409481457,0.00203384179622,0.472327853118,-0.00932334599787,0.13027302481,0.013582925996,0.931141058739,0.364399030975,0.00227568902031
0.100043348968,0.110192507505,-0.113650344312,-2.5040678978,-0.0223532430828,2.62789583206,-0.739474654198,0.0680923908949,8.44572132337e-05,-3.34523465426e-05,-0.00382323353551,0.000222552582272,-1.62827600434e-05,6.20738137513e-05,0.000298561528325,0.472329466428,-0.00932559457425,0.130274418052,0.0135836598851,0.931144356508,0.364390562063,0.00227804551886
0.100046798587,0.110192902386,-0.113650619984,-2.5040667057,-0.0223529916257,2.62789559364,-0.739468812943,0.0680923908949,0.000157925227541,0.000342898885719,0.000336397293722,-0.000527736963704,-5.8013414673e-05,-0.000102041383798,-9.18500154512e-05,0.472329763627,-0.00932377374039,0.130274534096,0.0135836891364,0.931144753695,0.36438954493,0.0022782201535
0.10004927218,0.110193386674,-0.113648548722,-2.50407099724,-0.0223537757993,2.62789440155,-0.739467084408,0.0680923908949,-0.000198740148335,0.00250335712917,0.000130045766127,-9.94217916741e-05,1.21594002849e-05,8.80179286469e-05,0.000402200035751,0.47232747152,-0.00932194687697,0.13027276179,0.0135827121764,0.931144266048,0.364390843833,0.00227559912949
0.100046589971,0.110192917287,-0.113649480045,-2.50407290459,-0.0223546233028,2.62789463997,-0.739462375641,0.0680923908949,3.2402746001e-05,0.000257557432633,-0.000356744771125,-0.000503501505591,-4.85924192617e-06,4.22487355536e-05,0.00187037896831,0.472326708389,-0.00932368862906,0.130272344784,0.0135827087731,0.931145645232,0.364387323321,0.00227501108271
0.100044317544,0.110192246735,-0.113650411367,-2.50407028198,-0.0223538316786,2.62789535522,-0.739457368851,0.0680923908949,0.000267316150712,0.00036845554132,0.000448922568467,-3.73944894818e-05,2.96473062917e-05,-2.13087369048e-05,0.000406088191085,0.472328213055,-0.00932517962915,0.130273649399,0.0135832794174,0.931147257588,0.364383169981,0.00227691130978
0.100042156875,0.110192812979,-0.113651573658,-2.50407099724,-0.022352732718,2.62789559364,-0.739454507828,0.0680923908949,0.000308723916532,-0.000186697143363,-0.00133037066553,-0.000384263315937,6.69077708153e-05,-3.25539485857e-06,1.99866681214e-05,0.472327470441,-0.00932653463426,0.130272870101,0.0135827675673,0.93114848949,0.364380045637,0.00227617472352
0.100043468177,0.110190950334,-0.113649599254,-2.50406908989,-0.0223528705537,2.62789416313,-0.739451229572,0.063290849328,0.000291629170533,0.000370045861928,0.000205267991987,0.000195439759409,-6.73131871736e-05,-0.00436756107956,-0.000110742315883,0.472328747117,-0.00932533477177,0.130274706922,0.0135832304709,0.931148617462,0.364379690848,0.00227785668694
0.100046411157,0.110192544758,-0.113650627434,-2.50406837463,-0.0223528072238,2.62789487839,-0.739450335503,0.063290849328,0.0035107457079,0.000292877695756,0.00245998590253,-0.000671644113027,-0.000174243396032,2.20115125558e-05,-7.30342799216e-05,0.472329434743,-0.00932417063744,0.130274676035,0.0135834817175,0.931148272804,0.364380560277,0.00227816914524
0.100046299398,0.110194295645,-0.113650947809,-2.50407290459,-0.0223536770791,2.62789416313,-0.739443957806,0.063290849328,0.00153291306924,-0.000275044789305,0.000601253705099,-7.14957568562e-05,-1.37814049594e-05,-0.000602007785346,9.7348158306e-05,0.472326222965,-0.00932454264724,0.130271649851,0.0135822721323,0.931149478025,0.36437754991,0.00227426107825
0.10004619509,0.11019346863,-0.113648436964,-2.50406765938,-0.0223536938429,2.62789535522,-0.739440619946,0.063290849328,-0.000160254799994,-0.00395114626735,-0.000163875651197,0.000474808795843,-9.88020547084e-05,-4.74283478979e-06,-0.000186868666788,0.472329329877,-0.00932334814403,0.130273997174,0.0135834484769,0.931149624499,0.364377110147,0.00227771995131
0.100045204163,0.110191695392,-0.113649748266,-2.5040667057,-0.0223533324897,2.62789559364,-0.739440143108,0.063290849328,-0.000143912460771,-0.000721191463526,0.000595969555434,-0.000118515119539,-0.000198737310711,-6.21751969447e-05,-0.000257464271272,0.472330205259,-0.00932441497059,0.130275197829,0.0135838978731,0.931150181028,0.364375662394,0.00227912888787
0.100042261183,0.110193364322,-0.113650850952,-2.50407242775,-0.0223537944257,2.62789511681,-0.739435553551,0.063290849328,-0.00019867462106,-0.000156291527674,-0.000147249331349,0.00022123468807,0.000146733334986,0.000136736824061,1.51221740907e-06,0.472326881326,-0.00932634908281,0.130272475529,0.0135826699841,0.9311517339,0.364371762192,0.00227555108508
0.100045211613,0.11019731313,-0.113648563623,-2.50407075882,-0.0223542656749,2.62789535522,-0.739426970482,0.063290849328,0.000315566750942,0.0023068075534,9.72886191448e-05,-0.000414757872932,6.83586040395e-05,0.000131698339828,0.00239900662564,0.472326970359,-0.00932396391058,0.130271092252,0.0135824713128,0.931152233927,0.364370498572,0.00227446285197
0.100046113133,0.110193811357,-0.11364903301,-2.50407004356,-0.0223528649658,2.62789535522,-0.739420354366,0.063290849328,0.000298136292258,0.000986220431514,0.00024649745319,0.00032733369153,-6.85065970174e-05,0.0003082769108,9.06312779989e-05,0.47232804479,-0.00932365611025,0.130272991109,0.0135827719984,0.931153580765,0.364367031811,0.00227665260032
0.100045159459,0.1101956442,-0.113649211824,-2.50406646729,-0.0223532635719,2.62789678574,-0.739414870739,0.063290849328,0.00123626552522,0.000516561733093,0.00319426925853,0.00026802753564,3.12278098136e-05,2.96282651107e-05,6.24164240435e-05,0.47232979272,-0.00932424643737,0.130273535668,0.01358355045,0.931154702268,0.364364127789,0.00227808401069
0.100043147802,0.110194578767,-0.113650456071,-2.50407004356,-0.0223527662456,2.62789535522,-0.739412665367,0.063290849328,0.000213123086723,-0.0005460146931,5.46132614545e-05,-0.000226817486691,3.2919278965e-06,0.000119069009088,0.000354171497747,0.472327831995,-0.00932572126757,0.130272688945,0.0135826661966,0.931155841844,0.364361258736,0.00227644361119
0.100049935281,0.110182121396,-0.113647244871,-2.50402450562,-0.0223539508879,2.62794995308,-0.739407002926,0.0563643276691,0.00198234175332,-0.000526482588612,0.000329726171913,0.000122951969388,-1.25235128507e-05,0.00790587347001,-0.000277979677776,0.472365464672,-0.00932067108803,0.130299640099,0.0136028289079,0.931154357998,0.364363967039,0.00232891292508
0.100036978722,0.110185436904,-0.113653369248,-2.50403809547,-0.022354952991,2.62854743004,-0.739405572414,0.0563643276691,-0.00150844024029,-0.000100696102891,-0.000212134589674,0.00307878432795,0.000100165350887,0.0264338012785,7.82418355811e-05,0.472487797721,-0.00932774946191,0.130347726077,0.0137074228451,0.931154680096,0.364357393336,0.00259959619138
0.100032888353,0.110186830163,-0.113654837012,-2.5039768219,-0.0223537683487,2.62912130356,-0.739403605461,0.0563643276691,-2.36024898186e-05,0.000442256656243,1.04665732579e-05,0.00431543821469,6.63081882522e-05,0.0330974757671,-0.00018085881311,0.472651531542,-0.00932837137774,0.130424780552,0.013827498288,0.931152528966,0.364355998933,0.00291098211661
0.100046738982,0.110186927021,-0.113650538027,-2.50396442413,-0.0223536752164,2.62974476814,-0.739401221275,0.0563643276691,0.00334763643332,0.000603155582212,0.000161176780239,0.000517909356859,6.17247587797e-06,0.0154399033636,-3.99868940804e-06,0.472785563163,-0.00931763128927,0.130482584839,0.013935080409,0.931146253547,0.364365582708,0.00319215633203
0.100050836802,0.110180914402,-0.113648623228,-2.50396180153,-0.0223548207432,2.62989854813,-0.739400684834,0.0563643276691,-4.27796549047e-05,0.000659738201648,-7.54242864787e-05,-2.50416596828e-05,0.000174444852746,0.0072695617564,6.92604007781e-05,0.472823209656,-0.00931415945363,0.130500855814,0.0139654143278,0.931144193696,0.36436898231,0.00327141618338
0.100047670305,0.110182352364,-0.113648384809,-2.50396776199,-0.0223529879004,2.63000607491,-0.739396035671,0.0563643276691,-0.00394803471863,0.000895847682841,-0.00029941694811,-0.000627406581771,-0.000103227459476,0.00319355190732,0.000169181890669,0.472841658431,-0.00931507990235,0.130507434918,0.0139815869427,0.931145217051,0.36436535357,0.00331493471642
0.100040964782,0.110187128186,-0.113651201129,-2.50397825241,-0.0223550125957,2.63007760048,-0.739396095276,0.0563643276691,-5.46199080418e-05,0.000301475869492,-0.000132122790092,0.000233053942793,3.93037371396e-05,0.002136050025,0.000181529510883,0.472850847606,-0.00931951784673,0.130508018892,0.0139924112776,0.93114623173,0.364362108187,0.00334086288862
0.100043475628,0.11018551141,-0.113648951054,-2.50397634506,-0.0223544277251,2.63015699387,-0.739392578602,0.0563643276691,-4.65018783871e-05,0.000411856366554,1.1910388821e-05,0.000304653978674,8.97252684808e-05,0.00367319304496,-0.000115966307931,0.472868988366,-0.00931690374218,0.130516623584,0.0140066560225,0.931145628499,0.364362750236,0.00337905891058
0.100041329861,0.110186092556,-0.113650485873,-2.50396895409,-0.0223534144461,2.63020086288,-0.739388525486,0.0488875210285,-8.2357408246e-05,2.30183068197e-05,0.000124168000184,-0.000550690339878,3.74861338059e-05,3.63446961273e-05,8.01147543825e-05,0.472882595809,-0.00931850419903,0.130523096786,0.0140159582365,0.931146898582,0.364358919976,0.0034034239739
0.100039578974,0.110185191035,-0.113652944565,-2.50397229195,-0.0223541632295,2.63024735451,-0.739383816719,0.0488875210285,-6.82027093717e-05,0.00107375427615,-0.000329994654749,0.000212190410821,-9.13047915674e-05,-5.91613788856e-05,-0.000223445764277,0.472891195398,-0.00932069102584,0.130526299661,0.0140241128066,0.931148234686,0.364355000905,0.00342378470202
0.100043132901,0.110186778009,-0.113651849329,-2.50397586823,-0.0223552230746,2.63026857376,-0.739382088184,0.0488875210285,-3.67159591406e-05,-8.39632848511e-05,0.000398590229452,0.000776211789344,-3.24826869473e-05,0.00311085232534,-0.000153329252498,0.472893683134,-0.00931813561953,0.130526520075,0.0140271689402,0.931147321223,0.364357146493,0.00343135451659
0.10004299134,0.110184304416,-0.113650552928,-2.50394868851,-0.0223542880267,2.6304268837,-0.739378988743,0.0488875210285,0.000608197355177,-0.000204862139071,0.000101504454506,0.00242111692205,-2.88411065412e-05,0.0110999364406,-0.000286756345304,0.472942416918,-0.00931697936098,0.130551860128,0.0140606796915,0.931146762049,0.364356446312,0.00351916584922
0.100031532347,0.110184445977,-0.113656520844,-2.50387239456,-0.0223539341241,2.63111209869,-0.739373862743,0.0488875210285,-6.72016249155e-05,-0.000540332344826,-0.000387992156902,0.0011377716437,8.71034644661e-05,0.00146434502676,-0.000458876631455,0.473129962412,-0.00932304956562,0.130641861536,0.0141979996588,0.931146397447,0.364348451527,0.00387412994806
0.100038923323,0.110182069242,-0.113652423024,-2.50387716293,-0.0223538670689,2.63112449646,-0.739372313023,0.0488875210285,0.000637930526864,0.00096068601124,0.000253803125815,6.73241156619e-05,0.000110153072455,0.00186980131548,0.00252691400237,0.473130814251,-0.00931743054896,0.130642389843,0.0141993857862,0.931144545926,0.36435307737,0.0038790115516
0.100051246583,0.110183008015,-0.113648705184,-2.50387620926,-0.022354895249,2.6311340332,-0.739371776581,0.0488875210285,-0.000469635037007,0.000631784496363,-0.000393001915654,-3.43774590874e-05,-2.31090398302e-05,0.000396467570681,2.71981080004e-05,0.473133323772,-0.00930978736236,0.130643141787,0.0142011540294,0.931141500716,0.36436074261,0.00388352905709
0.100033067167,0.110183909535,-0.113656274974,-2.5038766861,-0.0223537310958,2.63115644455,-0.739366948605,0.0488875210285,-0.00112150982022,-0.000440185453044,-7.89936602814e-05,0.000339754740708,0.000179904993274,-6.57977361698e-05,0.000198297639145,0.473137549947,-0.00932201820679,0.130644651281,0.0142051306448,0.931147107768,0.364346155139,0.00389318358872
0.100031048059,0.110183335841,-0.113655738533,-2.50387477875,-0.0223538391292,2.63116598129,-0.739364862442,0.0488875210285,0.000412259716541,-0.000169619903318,-9.66781371972e-05,2.41598154389e-05,-4.94687737955e-05,0.000395522307372,-0.00025969822309,0.473140904764,-0.00932238488818,0.130646660095,0.0142074257439,0.931147495444,0.364345009905,0.00389925937196
0.100042968988,0.110183022916,-0.113652512431,-2.50387310982,-0.0223550591618,2.63117980957,-0.739363253117,0.0488875210285,0.00221672002226,-0.000502054637764,0.000371779111447,-0.00011059751705,-7.41426629247e-05,0.000995897687972,-7.01137905708e-05,0.473144442833,-0.00931591162122,0.130648085608,0.0142099762349,0.931145081476,0.364351012232,0.00390555864949
0.10004606843,0.110184974968,-0.113650813699,-2.50387477875,-0.0223546084017,2.63118696213,-0.73936098814,0.0488875210285,0.000185353361303,-0.000740891147871,0.000600878323894,-0.000320620456478,0.00439021736383,0.00111809873488,0.00235940678976,0.473145098,-0.00931312079331,0.130647598736,0.0142106765654,0.931144502489,0.364352438725,0.00390797066379
0.100032024086,0.110182225704,-0.11365775764,-2.50387072563,-0.0223527979106,2.63120508194,-0.739358007908,0.0488875210285,0.000111235465738,-0.000188107835129,0.000127678373246,-0.00017812664737,-1.38242112371e-05,2.80830699921e-05,0.000173839769559,0.473151467731,-0.00932301890282,0.130652041221,0.014215041759,0.931149013081,0.364340616311,0.00391956852453
0.100038088858,0.110186621547,-0.113653548062,-2.50387382507,-0.0223539602011,2.63121032715,-0.739355504513,0.0462569147348,-0.000232764476095,-0.000825064489618,0.000211247330299,-0.000618909602053,-6.06369576417e-05,4.90324891871e-05,4.58495960629e-05,0.473150236512,-0.00931817512728,0.13064932648,0.0142148248285,0.931147404601,0.364344746954,0.00391850881933
0.100043222308,0.110185675323,-0.113653801382,-2.50387954712,-0.0223533716053,2.63121414185,-0.739356219769,0.0462569147348,0.000276667560684,0.000993478111923,-0.000116389921459,-0.000390560919186,-2.03982253879e-05,0.000116454881208,8.30688950373e-05,0.473148398452,-0.00931580838837,0.130648081506,0.0142144290566,0.931146479253,0.364347130864,0.00391817530439
0.100044369698,0.110185146332,-0.113650664687,-2.50387978554,-0.0223543532193,2.63121771812,-0.739353358746,0.0462569147348,-0.000119688818813,-3.75229792553e-05,0.00012954363774,-1.15227157949e-05,-5.93960976403e-05,0.000307682610583,0.000334665935952,0.473149194421,-0.00931372661317,0.130648554506,0.0142151414811,0.93114604613,0.364348190419,0.00391999397829
0.100034184754,0.110176868737,-0.113655544817,-2.50383877754,-0.0223533287644,2.63133955002,-0.739347696304,0.0462569147348,-0.00209284340963,0.000250973680522,0.000291252683382,0.00257726432756,-0.000132099172333,0.0156372450292,-9.19396043173e-05,0.473198028013,-0.00932040296236,0.13067828672,0.0142458337275,0.931149026736,0.36433850678,0.00399979909827
0.100036799908,0.110177390277,-0.113652847707,-2.50380587578,-0.022353393957,2.6315112114,-0.739347875118,0.0462569147348,-0.000326706591295,-0.000277383602224,-0.000592460506596,0.000446949416073,6.35560718365e-05,0.00548788020387,-0.00024672129075,0.473251978305,-0.00931730696714,0.130705530363,0.0142825598232,0.931146795777,0.364341713208,0.00409498479664
0.100030697882,0.110180966556,-0.113655477762,-2.50380682945,-0.0223545972258,2.63154888153,-0.739346027374,0.0462569147348,6.93931651767e-05,-0.000485637458041,-0.000192834064364,-0.000492911378387,-2.06382210308e-05,0.000108653192001,-0.000317777885357,0.4732588878,-0.0093214622386,0.130706987748,0.0142890748275,0.931148295052,0.364337454667,0.00411020356088
0.10002964735,0.110183469951,-0.113657735288,-2.50381183624,-0.0223539825529,2.63154768944,-0.739345312119,0.0462569147348,-5.24139541085e-05,0.000390040164348,-0.00011543805158,-9.26323555177e-05,6.08828522672e-05,-6.31003349554e-05,-1.30321459437e-05,0.473255558382,-0.00932309699906,0.130703928997,0.0142875656205,0.931149155552,0.364335360594,0.00410612830542
0.100032024086,0.110181458294,-0.113654762506,-2.50381112099,-0.0223540998995,2.63155269623,-0.73934429884,0.0462569147348,0.000499374757055,0.000544663635083,0.000273470504908,0.000129719177494,3.01228737953e-05,-5.00404603372e-05,0.000267628900474,0.473257457684,-0.00932045459442,0.130705571222,0.0142887245442,0.931148314886,0.364337421776,0.0041098434974
0.100034326315,0.110178731382,-0.113655976951,-2.50381135941,-0.0223535913974,2.63155317307,-0.739340603352,0.0462569147348,-0.000611010938883,-0.000995436566882,-4.84106967633e-05,-0.000307672773488,-0.00013891805429,2.7554301596e-06,-0.000185033582966,0.47325800204,-0.0093198905795,0.130706818701,0.0142890702296,0.931148863822,0.364335988486,0.00411133233135
0.100029155612,0.110179953277,-0.113656148314,-2.50381040573,-0.0223547052592,2.631554842,-0.739339232445,0.0444234982133,-0.000221870112,-0.00080345425522,0.000402737001423,0.000268573669018,-5.73268880544e-06,7.54914144636e-05,-0.000141994038131,0.4732585536,-0.00932247634715,0.13070673992,0.014289656946,0.931149894021,0.364333326929,0.00411182958741
0.100029341877,0.110182128847,-0.113657809794,-2.50380754471,-0.0223546493798,2.63155817986,-0.739338457584,0.0444234982133,1.61025091074e-05,0.00158536667004,0.000109733191493,0.000382906844607,-4.57894748251e-05,-6.8150307925e-05,0.000452621578006,0.473260283026,-0.00932324293893,0.13070705523,0.0142905763747,0.931150278839,0.364332286912,0.00411364117151
0.100031286478,0.110184006393,-0.113656625152,-2.50380802155,-0.0223539508879,2.63156223297,-0.739339292049,0.0444234982133,-7.70518236095e-05,3.96652103518e-06,0.000375800591428,-0.000192094827071,-1.69573322637e-05,-8.9078939709e-06,-0.000233370927162,0.473260570512,-0.00932174060906,0.130706367283,0.0142907317066,0.931149650357,0.364333877287,0.00411450753809
0.10003529489,0.1101789698,-0.113655149937,-2.50381302834,-0.0223542172462,2.63156628609,-0.739334285259,0.0444234982133,-0.000248361146078,1.44209461723e-05,-0.000264861009782,-0.000131170163513,-9.56241055974e-05,4.93259576615e-05,-5.31957484782e-05,0.473260129299,-0.00931892731618,0.130707378358,0.0142911457556,0.931149505662,0.364334207012,0.00411661792434
0.100035920739,0.110181845725,-0.113654881716,-2.5038125515,-0.0223546549678,2.63156723976,-0.739332258701,0.0444234982133,0.000140856471262,0.000784056959674,0.00341928983107,-0.000333650910761,-4.76862260257e-05,-5.43706519238e-05,4.94013074785e-05,0.473259107045,-0.00931894356108,0.130705679603,0.0142905833727,0.931149641352,0.364333897854,0.00411523950267
0.100032165647,0.110182143748,-0.113655686378,-2.50381159782,-0.0223541241139,2.63156843185,-0.73933172226,0.0444234982133,0.000158776630997,0.000354039744707,9.22670587897e-05,0.000219964291318,0.000105988481664,6.59309953335e-05,9.79218093562e-05,0.473261235434,-0.00932073599038,0.13070737216,0.0142919368401,0.931150492885,0.364331640921,0.00411767528474
0.100046627223,0.110176004469,-0.113650023937,-2.50381565094,-0.0223570074886,2.6315677166,-0.73933082819,0.0444234982133,0.00198986683972,0.000404198362958,5.28650271008e-05,-0.000411091838032,-0.000132479850436,3.00680494547e-05,1.42258807045e-06,0.473259691732,-0.00931112387194,0.13070787088,0.014291646859,0.931146704227,0.364341338067,0.00411741384961
0.100051961839,0.1101654917,-0.113648355007,-2.50380730629,-0.0223573893309,2.63156890869,-0.739330649376,0.0444234982133,0.000352652976289,-0.000310455041472,-0.000504509138409,0.00123670743778,-7.42127085687e-05,1.79355956789e-05,-0.000126314960653,0.473266362567,-0.00930758960203,0.130715888238,0.0142948314787,0.931145344176,0.364344581248,0.00412693729865
0.10005530715,0.110164791346,-0.1136476174,-2.50380253792,-0.0223570279777,2.63156914711,-0.739329695702,0.0444234982133,0.00137807067949,-0.000489161640871,-0.000191604805877,-0.000209692821954,-6.24493259238e-05,0.000115236864076,8.63366130943e-06,0.473269011162,-0.00930562722735,0.130717935777,0.0142957331953,0.931144810097,0.364345879772,0.00412967538304
0.100049600005,0.11016356945,-0.113650463521,-2.50380754471,-0.0223561450839,2.63157081604,-0.739329457283,0.040566239506,-0.000389471737435,0.000286099821096,-0.000269661453785,1.55378002091e-05,-4.61090130557e-05,-8.1857710029e-05,0.000176700326847,0.473267794498,-0.00930841052273,0.130717095823,0.0142956269092,0.931145878325,0.364343161117,0.00412903891357
0.100046016276,0.110168211162,-0.113650262356,-2.5038061142,-0.0223574321717,2.6315703392,-0.739331305027,0.040566239506,0.000392605696106,-0.00059224216966,0.000136821792694,0.000256733619608,-6.37754492345e-05,-2.09435547731e-05,-5.36181005373e-06,0.473266662296,-0.00931139649288,0.130715178839,0.0142950737991,0.931146634073,0.364341277236,0.00412675496931
0.100048221648,0.110167637467,-0.113649070263,-2.50380921364,-0.0223573502153,2.63156962395,-0.739330232143,0.040566239506,-3.41408704116e-05,9.98640607577e-05,0.000249000848271,-0.000303982465994,5.48722891835e-05,-0.000116298760986,2.80205003946e-05,0.473265078474,-0.00930974759584,0.130714269411,0.0142943487846,0.931146243549,0.364342320005,0.0041253187832
0.100042633712,0.110164687037,-0.113649964333,-2.50380992889,-0.0223569888622,2.63156938553,-0.739331126213,0.040566239506,-0.000646016618703,0.000448021193733,-0.00115759042092,-0.000511014834046,0.000258367654169,-7.33009292162e-05,-0.000273496087175,0.473265199169,-0.0093127613773,0.130715384214,0.0142945486563,0.931147318664,0.364339553781,0.00412626454411
0.100041374564,0.110163897276,-0.113649711013,-2.50381302834,-0.0223563667387,2.63156867027,-0.739331185818,0.040566239506,0.000267709576292,-0.000706166552845,2.45823648584e-05,0.00045882127597,-3.01077197946e-05,0.000132144763484,0.000463318603579,0.47326386914,-0.00931298441347,0.130714858716,0.0142938482177,0.931147597294,0.364338881376,0.00412518605627
0.100048877299,0.110166594386,-0.113649882376,-2.50381326675,-0.022356685251,2.63156819344,-0.739330768585,0.040566239506,-0.000288543349598,0.000891526695341,0.000797889428213,-3.52519091393e-05,0.000137568582431,0.000134815214551,0.000150089588715,0.4732629211,-0.00930979276472,0.130713186637,0.0142933623263,0.931146305371,0.364342223321,0.00412332104476
0.100043319166,0.110167421401,-0.113652318716,-2.50381374359,-0.0223567709327,2.63156986237,-0.739330589771,0.040566239506,-4.31234275311e-06,-0.00116614624858,4.91382961627e-05,1.50115283759e-06,0.000125300546642,-7.53457134124e-05,-0.000438911287347,0.473262806579,-0.00931363550006,0.1307127964,0.0142936247838,0.931147768502,0.364338473012,0.00412338112687
0.100044734776,0.110169075429,-0.113650128245,-2.50381422043,-0.0223570093513,2.63156938553,-0.739330291748,0.040566239506,0.000664932769723,-0.00078354368452,-0.000307305454044,-0.000624794454779,-3.86981664633e-05,-2.58780255535e-05,-0.00234001595527,0.473262156695,-0.00931192798054,0.130711791672,0.0142931575752,0.931147139042,0.364340113662,0.00412217928034
0.100046984851,0.110168427229,-0.113650381565,-2.50381493568,-0.0223572682589,2.63157010078,-0.739330589771,0.040566239506,0.000145135942148,0.000906072906218,0.00163651851472,-0.000121053613839,0.000118171032227,0.000241102461587,-5.75649210077e-05,0.473262098918,-0.00931097850718,0.130711908593,0.0142933078285,0.931146676627,0.364341286182,0.00412247802344
0.100048333406,0.110165223479,-0.113649226725,-2.50381231308,-0.0223572645336,2.63156962395,-0.739331185818,0.040566239506,-6.65300176479e-05,0.000413508794736,-0.000188803198398,-0.00019964465173,6.38461206108e-05,-0.00016199266247,0.000194743348402,0.473263991549,-0.00930971388562,0.130714298968,0.0142940816524,0.931146101934,0.364342695523,0.00412504378635
0.100042484701,0.110166832805,-0.113649785519,-2.50380897522,-0.0223568696529,2.6315703392,-0.739331185818,0.040566239506,-4.15818249166e-06,-0.000838631065562,0.000119102194731,-0.000236991123529,-0.000147571947309,-2.41922916757e-05,0.000321281462675,0.473265458342,-0.0093127821983,0.13071480247,0.0142945729248,0.931147314502,0.364339564967,0.00412613199752
0.100049331784,0.110167257488,-0.113648854196,-2.50381278992,-0.0223576314747,2.63156867027,-0.739329755306,0.040566239506,4.83956573589e-05,0.00129909743555,0.000256353814621,-8.38842461235e-05,-7.00360687915e-05,-0.000117792442325,0.000321033498039,0.473263144884,-0.00930911245672,0.130713083234,0.0142936058391,0.931146065345,0.364342826425,0.00412338965508
0.100048646331,0.110165216029,-0.113650761545,-2.50381159782,-0.0223574638367,2.63156914711,-0.73933160305,0.040566239506,-0.000315865239827,0.00110827817116,-0.000460533599835,2.69412976195e-05,4.9099973694e-05,-1.70524447185e-06,0.000129531108541,0.473264469687,-0.00930999395727,0.130714935381,0.0142944386987,0.931146016214,0.364342894206,0.0041256075361
0.100043162704,0.110166825354,-0.113652534783,-2.50380778313,-0.0223569292575,2.63156843185,-0.739331483841,0.040566239506,-0.000795039231889,0.00119091174565,0.000146946505993,0.000862448127009,-7.12782348273e-05,5.1533585065e-05,-7.88544348325e-05,0.473265637122,-0.00931382637352,0.130715073164,0.0142946206736,0.931147629501,0.364338762548,0.00412573438497
0.100040189922,0.110168382525,-0.113651797175,-2.50380134583,-0.0223576612771,2.63156986237,-0.739330887794,0.040566239506,5.02802140545e-05,-0.000374505034415,0.000206723590964,-6.09401577094e-05,-6.37320554233e-05,-9.46899599512e-05,-0.000375503994292,0.473269010908,-0.00931489029781,0.130716874818,0.0142960764308,0.931147942699,0.364337871451,0.00412869430345
0.100045286119,0.110167495906,-0.1136514768,-2.50379824638,-0.0223568417132,2.63156962395,-0.739331126213,0.040566239506,-5.29831668246e-05,0.00166151334997,0.000203832358238,0.00135045708157,-1.68183159985e-05,-0.000140999894938,-4.24778081651e-05,0.473270627604,-0.00931232711326,0.130718263581,0.0142964545665,0.931147082315,0.364340035785,0.00413043484723
0.100045613945,0.110164001584,-0.113651625812,-2.50378656387,-0.022356890142,2.63156652451,-0.739330053329,0.040566239506,0.000114906637464,-0.000174673623405,-3.62453902198e-05,0.000743111828342,-3.88951957575e-05,-0.00010744658357,1.31693523144e-05,0.473276587075,-0.00931221191321,0.130723790291,0.0142985846323,0.93114720033,0.364339586493,0.00413608438309
0.100042812526,0.110161073506,-0.113649047911,-2.50376486778,-0.0223568715155,2.63156056404,-0.739329755306,0.0400592945516,0.000195047090529,-0.00188257859554,0.000371415371774,-0.000538171560038,-1.87588625522e-06,-0.000182840885827,-5.5418262491e-05,0.473286881602,-0.00931227536522,0.130732344016,0.0143018525985,0.93114724096,0.364339255311,0.00414480265293
0.100040905178,0.110114037991,-0.113650545478,-2.5036251545,-0.0223572924733,2.63153481483,-0.739330053329,0.0400592945516,-0.000359309866326,-0.00344673241489,-0.000292155134957,0.0053479205817,0.000197763307369,-0.0038379014004,0.000254824699368,0.47336160777,-0.00931336510318,0.130801952777,0.0143300476222,0.931147213792,0.364337352955,0.0042200603814
0.100032866001,0.110091105103,-0.113655529916,-2.50358271599,-0.0223571769893,2.63152098656,-0.739330768585,0.0400592945516,7.29892926756e-05,-0.00649116234854,6.18941921857e-05,8.78139617271e-05,-0.000108581472887,-0.000267214054475,-0.000160627707373,0.473386059598,-0.00931947713829,0.130828297835,0.0143395000538,0.931149351523,0.364331218516,0.00424579745578
0.10002721101,0.110022708774,-0.113657288253,-2.50356626511,-0.0223562363535,2.63149309158,-0.739330232143,0.0400592945516,0.000367155880667,-0.00695050694048,0.000279932864942,-0.000379118777346,-4.74145708722e-05,-0.00238646799698,0.000440705189249,0.473400611196,-0.00932156698929,0.130862109825,0.0143461193638,0.931150936516,0.364326604392,0.00427168603482
0.100033938885,0.10986481607,-0.113656394184,-2.50357985497,-0.0223572738469,2.63139748573,-0.739330172539,0.0400592945516,-0.000289578194497,-0.00918976403773,0.000136364295031,-0.000310035742586,-3.03934193653e-05,-0.00724434666336,6.0513313656e-05,0.473404759852,-0.00931509797578,0.130922687519,0.0143478921646,0.931149844939,0.364329029677,0.0042967522816
0.100034825504,0.109061695635,-0.113654710352,-2.5036585331,-0.0223544184119,2.63055634499,-0.739328205585,0.0399529151618,-0.000564389280044,-0.0241704471409,4.84723532281e-05,-0.00147482031025,3.22014930134e-05,-0.0266814157367,5.03823794133e-05,0.473348680026,-0.00930089958409,0.131179508401,0.0142950227797,0.931154203619,0.364320382622,0.00426144316922
0.100033529103,0.108658313751,-0.113655127585,-2.50368881226,-0.0223545935005,2.63006496429,-0.739327073097,0.0399529151618,0.000114564871183,-0.0334402360022,0.000362339866115,-0.00137701956555,-4.62702446384e-05,-0.0370033271611,2.63783795162e-06,0.473302237949,-0.0092947668297,0.13132837383,0.0142506289421,0.931157995817,0.364313079833,0.00420546643724
0.100045651197,0.107949718833,-0.113651163876,-2.5037651062,-0.0223535597324,2.62927055359,-0.739327728748,0.0399529151618,0.000402230944019,-0.0438718050718,9.22871695366e-05,-0.00730669358745,-0.000149555984535,-0.047715716064,-1.72900563484e-05,0.473237821895,-0.00927642516146,0.131547230025,0.0141926688691,0.931159364556,0.364312539813,0.00414475203923
0.1000366956,0.106656193733,-0.11365314573,-2.50387597084,-0.0223553925753,2.62764716148,-0.739324867725,0.0399529151618,-0.000667373067699,-0.0655713379383,-0.000391606095945,-0.00397474132478,0.000143569181091,-0.089204005897,0.000312228105031,0.47309200585,-0.00926062411349,0.131958812477,0.0140608349358,0.931169863321,0.364292788161,0.00396771257561
0.100051358342,0.099035538733,-0.11364749819,-2.50400996208,-0.0223567727953,2.61625933647,-0.739322602749,0.0399529151618,0.000459483533632,-0.175965130329,-0.000411189859733,-0.000644060550258,-3.26533881889e-05,-0.252704739571,-0.000149117709952,0.472052253367,-0.00913754998768,0.134468054851,0.0130135694222,0.931226036643,0.364202788702,0.00224590185917
0.100044816732,0.0958092063665,-0.113649606705,-2.50401735306,-0.0223587304354,2.61157369614,-0.739322185516,0.0399529151618,-0.000443980010459,-0.209075421095,-8.07560063549e-05,-0.000382928177714,-0.000120259093819,-0.294890910387,-0.000788947276305,0.471663314293,-0.0090937324649,0.135551921598,0.0126076895903,0.931249924643,0.36415935535,0.00160860548057
0.100016459823,0.0865489840508,-0.113663934171,-2.50401091576,-0.0223570764065,2.59872555733,-0.739322006702,0.0399529151618,-0.00046254938934,-0.285527437925,0.00018524749612,0.00592822022736,0.000777869892772,-0.411236703396,-2.95281570288e-05,0.470669011047,-0.0089750046062,0.138728187775,0.0115532134808,0.931315949804,0.364029008734,7.33751355391e-05
0.100060552359,0.0709140598774,-0.113640375435,-2.50308346748,-0.0223609227687,2.57705950737,-0.73931992054,0.0400487855077,-0.000510469544679,-0.385368436575,2.15120307985e-05,0.0382760874927,0.000582411128562,-0.555713355541,-0.000171468724147,0.469349142015,-0.00870879826072,0.14457727616,0.00990732359196,0.931391031099,0.36387916319,-0.00213223084617
0.100051261485,0.0634265691042,-0.11364620924,-2.50227069855,-0.0223615057766,2.56669378281,-0.739319324493,0.0400487855077,-0.00112619018182,-0.43831345439,-0.000591205665842,0.0488092005253,0.000121146855236,-0.602038383484,-0.00401163147762,0.468907877771,-0.00861525246757,0.147298405117,0.00924794867455,0.93142841421,0.363795224907,-0.00293575681381
0.100037999451,0.0575786754489,-0.113655693829,-2.50153303146,-0.0223648715764,2.55875730515,-0.739316880703,0.0400487855077,-0.000776036991738,-0.460309326649,-0.000272306235274,0.0662296414375,-0.000833292782772,-0.63312882185,-0.00047093493049,0.46862895861,-0.00854995604267,0.149408570317,0.00878768795911,0.931457212927,0.363728440987,-0.00344353442741
0.100046247244,0.0391388125718,-0.11365506798,-2.49815917015,-0.0223659388721,2.53373646736,-0.739314436913,0.0400487855077,0.000147984101204,-0.532688677311,-2.47438056249e-05,0.116431266069,-0.000114733367809,-0.738605320454,-0.000468068930786,0.46807821502,-0.00829180945729,0.157230644012,0.00737292583704,0.931536431533,0.363542683343,-0.00471526926911
0.100040793419,0.0304346363991,-0.11365852505,-2.49601340294,-0.0223646629602,2.52167439461,-0.739312767982,0.0400487855077,-0.000732513552066,-0.552954375744,-0.000376601470634,0.14843557775,-0.00113450293429,-0.771179676056,-0.000228884993703,0.467982710914,-0.00818602897731,0.161030660857,0.00677974946367,0.93157340968,0.36345345614,-0.00515773978783
0.100037969649,0.0213498715311,-0.113660156727,-2.4932308197,-0.0223685540259,2.5090034008,-0.739312767982,0.0400487855077,0.000984123675153,-0.57974755764,0.000157904956723,0.191407725215,0.000378973054467,-0.809961438179,0.000214752770262,0.468083480029,-0.00807976940711,0.16520394926,0.00624845780412,0.931609284837,0.363367403062,-0.00540622398987
0.100038424134,0.0102621251717,-0.113661371171,-2.48909044266,-0.0223672371358,2.4929997921,-0.73931312561,0.0400487855077,0.000327667337842,-0.594522356987,-4.86729477416e-05,0.237535715103,0.00447071529925,-0.874128580093,-0.00135796808172,0.468378478474,-0.00795776322862,0.170550624477,0.00564005682239,0.93165259864,0.363263123495,-0.00561498002596
0.100054211915,-0.0192380100489,-0.113659054041,-2.47492837906,-0.0223699118942,2.44883084297,-0.739308774471,0.0400487855077,-0.00172291754279,-0.631382644176,-0.000592269469053,0.339573025703,-0.00120013591368,-0.96960067749,0.000249529373832,0.469893513198,-0.00767669533415,0.185975586084,0.00432058067184,0.931762096357,0.363002755816,-0.00545227748998
0.10003605485,-0.0281755719334,-0.113669455051,-2.46997666359,-0.022374259308,2.43502378464,-0.73930978775,0.0400487855077,0.000860185245983,-0.646954655647,0.000825292721856,0.394883364439,-0.000746545672882,-1.00078940392,0.000360849691788,0.470636326563,-0.00760449317042,0.192396070228,0.00388715208291,0.931810154631,0.362888152652,-0.00518788243358
0.100047327578,-0.0410823374987,-0.113668978214,-2.46175479889,-0.022378705442,2.41479372978,-0.73930811882,0.0400487855077,-0.000394093978684,-0.648210942745,-9.01395978872e-05,0.431090086699,0.000938336714171,-1.03832900524,0.000724177574739,0.471526806766,-0.00753676145702,0.198485610462,0.00360257470297,0.931846390617,0.362804604527,-0.00470578028973
0.100013710558,-0.0547507926822,-0.113685742021,-2.45230460167,-0.0223740190268,2.39312195778,-0.739305913448,0.0400487855077,-0.000664585095365,-0.654552340508,-0.000249625532888,0.468073964119,-0.00040595466271,-1.02913558483,0.000201230170205,0.47279359062,-0.00749317575543,0.206842052563,0.00330517720128,0.931908281232,0.362658516346,-0.0038511533558
0.100059747696,-0.0738906562328,-0.113670565188,-2.43811583519,-0.0223708227277,2.36288309097,-0.739304184914,0.0400954112411,0.000528418982867,-0.659049153328,-0.000337379548,0.526749372482,-0.00477012153715,-1.0486689806,-0.00014473948977,0.474701023226,-0.00740099468559,0.219052758455,0.00308434740924,0.931968340457,0.36252011575,-0.00215975667968
0.100037589669,-0.0844706892967,-0.113674797118,-2.42943310738,-0.0223731230944,2.3460252285,-0.739302992821,0.0400954112411,1.02654348666e-06,-0.652363717556,-0.000189057624084,0.555620491505,0.000642523227725,-1.0562428236,0.000714656780474,0.475995527677,-0.0073985505135,0.226647314057,0.00309383116369,0.932013845975,0.362408535221,-0.000820002144347
0.100054778159,-0.096242249012,-0.113672494888,-2.41934561729,-0.0223733074963,2.32700967789,-0.739304602146,0.0400954112411,-9.36086726142e-05,-0.658759832382,0.000348660309101,0.562018990517,0.00105159881059,-1.06247532368,0.000369578367099,0.477245911752,-0.00738851545857,0.234353583607,0.00313096853952,0.932048368839,0.362319890353,0.000576125757019
0.100029714406,-0.109578169882,-0.113683909178,-2.40748667717,-0.0223705917597,2.30608773232,-0.739298641682,0.0400954112411,-4.05406790378e-05,-0.661594986916,-0.000487762416014,0.615421772003,0.00418515177444,-1.03520572186,0.000310095376335,0.478859097648,-0.00742256511051,0.243900313554,0.00336260198503,0.932098192859,0.362179702837,0.0027412251243
0.100040234625,-0.128335148096,-0.113684430718,-2.389731884,-0.0223693288863,2.27655220032,-0.739294528961,0.0400954112411,-0.00109873979818,-0.660027265549,-0.000678012089338,0.638589978218,0.00131771946326,-0.997076690197,0.000441608572146,0.48115174253,-0.00748091164071,0.257906029839,0.00386539466576,0.932146748347,0.362006371752,0.00623576515158
0.100018195808,-0.138778015971,-0.113690450788,-2.37945842743,-0.0223790165037,2.26095223427,-0.739290058613,0.0400954112411,-0.00138738728128,-0.643281161785,0.00033876587986,0.642967522144,-0.000356794596883,-0.957646846771,0.000721271790098,0.482469706512,-0.00754541363834,0.265510649604,0.00433788577862,0.932167906452,0.361898155061,0.00859662587728
0.100026458502,-0.149487122893,-0.113693602383,-2.36859750748,-0.0223752483726,2.24477171898,-0.739287018776,0.0401407182217,-0.00170638831332,-0.620550334454,-0.000350743823219,0.634358227253,-0.00195279845502,-0.948556423187,0.000130059124785,0.483917522555,-0.00761736360648,0.274505179583,0.0049087574711,0.9321802315,0.361781454002,0.0114061091796
0.0999901369214,-0.161907285452,-0.113702110946,-2.35547041893,-0.0223750974983,2.22632098198,-0.739280700684,0.0401407182217,-0.00453095370904,-0.613358616829,0.000302761007333,0.666139304638,0.000135810652864,-0.899678468704,-5.2915289416e-05,0.485548619678,-0.00774289750098,0.284681115646,0.0056873173904,0.932189196745,0.361620935233,0.0148746354369
0.099967494607,-0.189773842692,-0.113705329597,-2.3249976635,-0.0223754961044,2.18695688248,-0.739271104336,0.0401407182217,0.0018091526581,-0.566349565983,7.80660338933e-05,0.639931678772,0.000820402405225,-0.779417276382,0.000426177255576,0.489115184136,-0.00806485170147,0.308408809518,0.00797923600309,0.932120320841,0.361259123118,0.0240807997514
0.0999897122383,-0.19925545156,-0.113700963557,-2.31440639496,-0.0223701987416,2.17405653,-0.739266395569,0.0401407182217,-0.000372103997506,-0.556132435799,1.77607416845e-05,0.606926739216,0.00101928028744,-0.739954292774,7.0337075158e-05,0.490215582211,-0.00818023921135,0.316705356883,0.0088833011607,0.932063575958,0.361136638891,0.0275482316617
0.0999384522438,-0.208624139428,-0.113717347383,-2.30396127701,-0.02237454243,2.16176748276,-0.739261269569,0.0401407182217,-0.00425931811333,-0.543489933014,-0.000407108222134,0.611971259117,-0.000721772084944,-0.696261644363,0.000449357234174,0.491240109144,-0.00835177088047,0.324972624904,0.00985640640892,0.932005364754,0.360966510671,0.0311773825174
0.0998712778091,-0.241837948561,-0.113726347685,-2.26801466942,-0.0223738644272,2.12105894089,-0.739247620106,0.0401512272656,-0.000238284977968,-0.464160978794,0.000118037736684,0.476691156626,0.000392378453398,-0.541187524796,0.000262384128291,0.493906383226,-0.0089490841952,0.354288098502,0.0136005042711,0.931624281007,0.360385070911,0.0448756690296
0.0998394340277,-0.24960231781,-0.113740727305,-2.26048183441,-0.022369582206,2.11215615273,-0.739246606827,0.0401512272656,-0.00288735236973,-0.458167999983,-0.000712085631676,0.427013218403,0.000541885616258,-0.512239992619,-0.000132418514113,0.494124465287,-0.00910737025864,0.360822527101,0.0144189125366,0.931516087395,0.360235506244,0.0479609592476
0.099792227149,-0.25801679492,-0.113749437034,-2.25273919106,-0.0223742052913,2.10286879539,-0.73924100399,0.0401512272656,-0.000526269315742,-0.419766783714,-7.02134057065e-05,0.381750673056,-0.000109620385047,-0.477787464857,-0.000211629041587,0.494207638811,-0.00928406750052,0.367746823408,0.0152962549278,0.93138916265,0.360070910877,0.0512756385441
0.0997327715158,-0.270360738039,-0.113789945841,-2.24278402328,-0.022374888882,2.08960175514,-0.739240348339,0.0401512272656,-0.00277390959673,-0.394160330296,-0.000582013337407,0.287098526955,-0.00549633521587,-0.416710495949,-0.000226100280997,0.493818771738,-0.00954059220363,0.377259946809,0.0163800488485,0.931207658692,0.359842224439,0.0556557597148
0.0996715277433,-0.276410758495,-0.113797672093,-2.23866510391,-0.0223742742091,2.0829885006,-0.739237964153,0.0401512272656,-0.0026928295847,-0.370868861675,-0.00229123304598,0.234098285437,0.000483007257571,-0.404063820839,0.000198997469852,0.493284629384,-0.00967515708597,0.381781133651,0.0167697396813,0.931132487535,0.359729576237,0.0574952011243
0.09944871068,-0.288937479258,-0.113830700517,-2.23196935654,-0.0223745256662,2.06975507736,-0.739233374596,0.0401512272656,-0.0123084420338,-0.316555738449,-0.00179769098759,0.133800908923,0.000678174197674,-0.327846348286,0.000510843237862,0.49176217413,-0.0099628066672,0.389502511916,0.0172635095825,0.931030982123,0.359497894675,0.0603700668634
0.0987568572164,-0.300989031792,-0.113845840096,-2.22843551636,-0.0223877970129,2.0556538105,-0.73923265934,0.0401512272656,-0.0219818409532,-0.210626348853,0.00104709644802,0.0171521250159,-0.000850066193379,-0.27063164115,0.000131585024064,0.489075091697,-0.0104254201815,0.395528876576,0.016991661571,0.931114181908,0.359148320191,0.0612384476863
0.0983202233911,-0.304236143827,-0.113840103149,-2.22836971283,-0.0225386694074,2.05109405518,-0.739230632782,0.0401512272656,-0.0247411951423,-0.156191661954,-0.000224192961468,-0.00321506522596,-0.0285922270268,-0.264310479164,0.000148142760736,0.487943702362,-0.0106715936409,0.39661351657,0.016688154711,0.931212437097,0.35900226477,0.0606817605523
0.0977368503809,-0.30659237504,-0.113842390478,-2.22845077515,-0.0237114802003,2.0459420681,-0.739234089851,0.0401512272656,-0.0359810292721,-0.0920774266124,0.000125110134832,-0.00456010689959,-0.0876773148775,-0.271959125996,-0.000442346150521,0.486702242803,-0.0111406447832,0.397121441042,0.0165716757364,0.931311307839,0.359001260943,0.0591837965988
0.0956115946174,-0.308205574751,-0.113824494183,-2.22889471054,-0.0327995121479,2.0328707695,-0.739234805107,0.0401512272656,-0.0563911646605,0.017037468031,0.000414013222326,-0.0259387884289,-0.287980735302,-0.253736555576,-0.000235766347032,0.483687490115,-0.0136308547716,0.396139903119,0.0183589281414,0.931360901602,0.359901509457,0.0519684894966
0.0946385189891,-0.307714641094,-0.113828346133,-2.22947216034,-0.0378859266639,2.02904224396,-0.739235520363,0.0401512272656,-0.0647393241525,0.0483239926398,-0.000664330029394,-0.0440627932549,-0.354775726795,-0.237748190761,-0.000188425998203,0.482811891098,-0.0148162418314,0.395239649959,0.0196243200399,0.931297841452,0.360412260364,0.0490124354941
0.0932919755578,-0.306487500668,-0.113823898137,-2.23046875,-0.0451035648584,2.02528357506,-0.739234566689,0.0401512272656,-0.0795588046312,0.0852396935225,0.000189235404832,-0.0673570558429,-0.44927072525,-0.193972945213,0.00468717562035,0.481817537239,-0.0165762991534,0.393747370852,0.0217159847366,0.931155807915,0.36118223261,0.0449963545665
0.0883521512151,-0.301177680492,-0.11403696239,-2.23476290703,-0.0739195272326,2.016518116,-0.739236950874,0.040157135576,-0.125111505389,0.145042166114,-0.00718251476064,-0.106814660132,-0.693314194679,-0.153228029609,-0.000142874778248,0.479044270158,-0.0235335469715,0.388242168122,0.0309915052792,0.930250132524,0.364255328354,0.0315003649298
0.0867706686258,-0.299475193024,-0.114087805152,-2.23604130745,-0.0825443267822,2.01476311684,-0.739236950874,0.040157135576,-0.14021410048,0.145959869027,-0.00435926625505,-0.11145041883,-0.762169599533,-0.134779766202,0.000190647027921,0.478167054047,-0.026426917232,0.386140297742,0.0349401940443,0.929808662065,0.365418848711,0.0265348729045
0.0836644768715,-0.296219140291,-0.114189982414,-2.2384455204,-0.0996186509728,2.01195001602,-0.73923766613,0.040157135576,-0.15555973351,0.168481945992,-0.00560397608206,-0.117505453527,-0.870793819427,-0.130662798882,2.88501396426e-05,0.477182756233,-0.0301072273268,0.383647546726,0.0400980524655,0.929161350376,0.366919627694,0.0205260238115
0.0803640261292,-0.292691648006,-0.114488251507,-2.24075341225,-0.118068136275,2.00916051865,-0.739237606525,0.040157135576,-0.174819141626,0.17833198607,-0.0165340527892,-0.113806545734,-0.957667291164,-0.150355815887,-0.000485250144266,0.476105427054,-0.0345085987125,0.380914444937,0.0461729926599,0.928342181587,0.368595051324,0.0136578350534
0.0749124512076,-0.286986142397,-0.11546754092,-2.24427199364,-0.148194521666,2.00503873825,-0.739237904549,0.040157135576,-0.186945185065,0.207477003336,-0.0490838736296,-0.119270756841,-1.04481637478,-0.130655482411,0.000104068974906,0.47433992655,-0.0423402636856,0.376528050615,0.0566006797512,0.926820877296,0.371207189442,0.00215560925645
0.0713014826179,-0.28316155076,-0.11650197953,-2.24633216858,-0.167942911386,2.00282001495,-0.739236414433,0.0401637032628,-0.209638506174,0.217643111944,-0.063659645617,-0.116889938712,-1.15482521057,-0.121549241245,6.2928913394e-05,0.473305720393,-0.0476768534353,0.373862164777,0.0634472552507,0.925758855164,0.372718238141,-0.00510906327709
0.0676116868854,-0.279636710882,-0.117603369057,-2.24823594093,-0.188085123897,2.00087857246,-0.739241957664,0.0401637032628,-0.22540281713,0.205247044563,-0.0720568597317,-0.110843874514,-1.19618010521,-0.103507235646,0.00062578485813,0.47232984078,-0.0531436335317,0.371515226767,0.0705301339431,0.924574227313,0.374220556093,-0.0121232617545
0.0647545009851,-0.277213782072,-0.118548005819,-2.24951124191,-0.202953979373,1.99966073036,-0.739239454269,0.0401637032628,-0.251907557249,0.207621887326,-0.0922055989504,-0.104780331254,-1.2449618578,-0.0937692299485,-0.000125280741486,0.471309350701,-0.0594626336182,0.369239438934,0.0784814966595,0.923224131282,0.375651754877,-0.0195861389772
0.0557340756059,-0.269939988852,-0.121803507209,-2.25291371346,-0.246880814433,1.99686074257,-0.73924189806,0.0401637032628,-0.28447458148,0.218372091651,-0.101542286575,-0.0921109393239,-1.32175135612,-0.0691796094179,-2.70372056548e-05,0.469788542166,-0.070034156205,0.365877843886,0.0913412253667,0.920911982686,0.377619264217,-0.0313303633619
0.0499377921224,-0.265873670578,-0.124193698168,-2.2547121048,-0.273977458477,1.99545633793,-0.739239871502,0.0401637032628,-0.293445289135,0.191297382116,-0.135901063681,-0.087079487741,-1.36314284801,-0.0669234469533,2.23212737183e-06,0.468664906422,-0.0781487823976,0.363850169021,0.100936247805,0.919094891751,0.378812519697,-0.0397181122305
0.0447139106691,-0.262699395418,-0.126593098044,-2.25611710548,-0.297159671783,1.99441766739,-0.739242851734,0.0401637032628,-0.317753791809,0.190547659993,-0.14234264195,-0.0796325281262,-1.36363828182,-0.0602873563766,3.93301270378e-05,0.46761379606,-0.0857886893967,0.362332283505,0.109607973469,0.917434812793,0.379581694205,-0.0470870845691
0.0392240174115,-0.259508579969,-0.129197135568,-2.25736451149,-0.32047945261,1.993516922,-0.739241778851,0.0401637032628,-0.33225813508,0.18253095448,-0.169032096863,-0.0659740120173,-1.37701427937,-0.0545771121979,0.000122328230646,0.466666875567,-0.0927845611792,0.361132702345,0.117313354911,0.915917857406,0.380078526827,-0.0535944807826
0.0325084477663,-0.25606611371,-0.132904499769,-2.25862050056,-0.348560839891,1.99252080917,-0.739244163036,0.0401637032628,-0.339982777834,0.149911850691,-0.190845221281,-0.0576227232814,-1.39476156235,-0.0390129834414,0.000412146560848,0.465401003834,-0.102011884156,0.359986360196,0.127133837763,0.913966694356,0.38039296496,-0.0616689613449
0.0163686536252,-0.250039935112,-0.14292421937,-2.26049160957,-0.411932677031,1.99117136002,-0.739243447781,0.0401676446199,-0.357442349195,0.111338831484,-0.242358788848,-0.0216714553535,-1.37005829811,-0.0277146622539,9.19096055441e-05,0.462357192996,-0.123899214,0.359068522877,0.149309546573,0.909548756629,0.37979268562,-0.0786462602083
0.0104936044663,-0.248408958316,-0.147131830454,-2.26066231728,-0.43363031745,1.99080300331,-0.739242970943,0.0401676446199,-0.384834140539,0.0868123620749,-0.29030379653,0.000983192701824,-1.36031353474,-0.0255435388535,-4.57313835796e-05,0.460890098972,-0.133918292989,0.359374166393,0.158718383283,0.907767310557,0.378752247321,-0.0855202871866
0.00288278469816,-0.24679222703,-0.152883902192,-2.26062107086,-0.460322111845,1.99045836926,-0.739244520664,0.0401676446199,-0.388060241938,0.0755541175604,-0.28788036108,0.00697242002934,-1.31981670856,-0.0073477178812,-0.000148838837049,0.459624137016,-0.142080340718,0.359893207345,0.166087327466,0.906421244115,0.377592323056,-0.090772050316
-0.0167243275791,-0.244602277875,-0.168832376599,-2.25989055634,-0.524631083012,1.99034154415,-0.739244997501,0.0401676446199,-0.395074158907,0.014003909193,-0.348103880882,0.032909784466,-1.21375179291,-0.00455027539283,-0.000396006071242,0.455022540512,-0.167981351221,0.362771685737,0.188125354384,0.902568185601,0.372494858756,-0.105958016483
-0.0231084246188,-0.244428113103,-0.174392610788,-2.25919914246,-0.544109404087,1.99027144909,-0.739247322083,0.0401676446199,-0.400603413582,0.00885524321347,-0.357600927353,0.0546821989119,-1.17278730869,-0.00144211435691,0.000145392958075,0.453138514,-0.177359064255,0.364332201791,0.19556188444,0.9014037021,0.370032726936,-0.110917518309
-0.0299800727516,-0.244326964021,-0.180570349097,-2.25812077522,-0.564337611198,1.99019408226,-0.739246189594,0.0401676446199,-0.399062037468,0.002109561814,-0.367910891771,0.069261841476,-1.21843183041,0.000926742621232,0.000241788249696,0.451370730156,-0.185782449234,0.365914778663,0.201996383505,0.90046438603,0.36755424007,-0.115174783809
-0.0364532023668,-0.244354739785,-0.186720371246,-2.25667786598,-0.583082854748,1.99012124538,-0.739250063896,0.0401676446199,-0.395694077015,-0.00294450018555,-0.378378927708,0.103267215192,-1.12819099426,-0.00295662134886,0.0002898433886,0.449656888188,-0.19377211688,0.367635188386,0.207953677765,0.899653657162,0.364991182705,-0.11899580364
-0.0564914606512,-0.244490489364,-0.206685289741,-2.24933624268,-0.634958803654,1.98977863789,-0.739270806313,0.0401781499386,-0.387488126755,-0.00539203872904,-0.392855226994,0.186442643404,-0.965718626976,-0.00493114674464,0.000216440472286,0.443742707883,-0.219706404916,0.374352519107,0.22554697537,0.898033718096,0.354677030105,-0.129877661884
-0.0624580718577,-0.244551688433,-0.213148549199,-2.24620103836,-0.650196135044,1.98968076706,-0.739284157753,0.0401781499386,-0.368830800056,-0.00345850037411,-0.421054780483,0.20664614439,-0.928265035152,-0.00952074769884,-0.00201834831387,0.441876351063,-0.227660723981,0.376826949128,0.230807434397,0.897631697271,0.351180283574,-0.132882174826
-0.067163310945,-0.244609430432,-0.218625694513,-2.24340009689,-0.661934554577,1.98958218098,-0.739295899868,0.0401781499386,-0.352018356323,-0.00206029461697,-0.41721123457,0.226938173175,-0.876352488995,-0.00806453078985,-1.51252143041e-05,0.440189107114,-0.23456514318,0.37907603311,0.235154425876,0.897410799766,0.347914591929,-0.135320688933
-0.0763357579708,-0.244655013084,-0.229361444712,-2.23726987839,-0.683708190918,1.98949790001,-0.739424526691,0.0401781499386,-0.346996665001,-0.00179438351188,-0.397022366524,0.239277034998,-0.773143470287,0.000308980495902,-0.0176870152354,0.437194479247,-0.246477720893,0.38322130966,0.242435383605,0.897158822261,0.34197179384,-0.139235140355
-0.086119607091,-0.244768589735,-0.241375908256,-2.2293035984,-0.704901099205,1.98945057392,-0.739781677723,0.0401781499386,-0.315567672253,-0.00264866743237,-0.404702216387,0.291267752647,-0.655498206615,-0.00785105861723,-0.00684861559421,0.433726565292,-0.259761373226,0.388382971995,0.250005879758,0.897280285645,0.334629682766,-0.142857006016
-0.0909139439464,-0.244907736778,-0.247683271766,-2.2246928215,-0.715128779411,1.98935747147,-0.739959597588,0.0401781499386,-0.286822915077,-0.00620626471937,-0.389517456293,0.290369749069,-0.620282888412,-0.00158164522145,-0.0132330125198,0.431921417031,-0.266491950595,0.391272016612,0.253773335542,0.89743808991,0.330664777059,-0.144446439332
-0.0954851731658,-0.245135053992,-0.254030674696,-2.21998763084,-0.724549949169,1.98928546906,-0.740177750587,0.0401781499386,-0.280079126358,-0.0161436833441,-0.402152329683,0.299580961466,-0.556604743004,0.000183668133104,-0.011956914328,0.430082957738,-0.273030307141,0.394184180584,0.257281318288,0.897694981283,0.326631628609,-0.145814343283
-0.100628785789,-0.245527490973,-0.261350005865,-2.21434903145,-0.734155774117,1.98926484585,-0.740496695042,0.0401781499386,-0.251932650805,-0.0244695916772,-0.365260571241,0.291984826326,-0.472773581743,-0.000505914271343,-0.0229162517935,0.427928764268,-0.280351264664,0.39760508183,0.260949939519,0.89818361253,0.321805489286,-0.1470120879
-0.111421078444,-0.247225955129,-0.278892159462,-2.19974684715,-0.753283977509,1.9892064333,-0.741927087307,0.0401919409633,-0.187448918819,-0.0506750047207,-0.348083347082,0.287907898426,-0.332011044025,-0.00010185843712,-0.038500495255,0.422875478427,-0.296788229498,0.406358287059,0.268808777851,0.899702836642,0.310227210179,-0.14844434792
-0.114315412939,-0.248205378652,-0.284789860249,-2.1949326992,-0.758365392685,1.98919773102,-0.74269336462,0.0401919409633,-0.157504379749,-0.0646186321974,-0.336655586958,0.279970258474,-0.28253608942,-0.00109409785364,-0.0522155314684,0.421195176985,-0.301793180457,0.409320359587,0.271035884889,0.900299602664,0.306517398195,-0.14848319375
-0.116568699479,-0.249228596687,-0.290085732937,-2.19064211845,-0.762353718281,1.98919677734,-0.743522465229,0.0401919409633,-0.125433549285,-0.0637930259109,-0.326178461313,0.257534474134,-0.214129820466,-0.000318588892696,-0.0445021092892,0.419718343532,-0.306054688427,0.411976238917,0.272858870818,0.900866177876,0.303292732806,-0.148329646659
-0.119071833789,-0.250906765461,-0.297078698874,-2.18534374237,-0.766534209251,1.98919773102,-0.744647026062,0.0401919409633,-0.0987405255437,-0.0867028534412,-0.306216925383,0.220098182559,-0.159968331456,0.00121612160001,-0.0441719815135,0.417828329299,-0.311065435376,0.415197238787,0.274773665809,0.901701444911,0.299283931179,-0.147861641538
-0.121367774904,-0.253429889679,-0.304642081261,-2.17969155312,-0.769755542278,1.9891988039,-0.74614161253,0.0401919409633,-0.0756528154016,-0.0987960323691,-0.260442018509,0.195298090577,-0.0946378186345,-0.000284587586066,-0.0436733812094,0.415577504118,-0.316570399008,0.419137114116,0.276661377232,0.902857443623,0.294584988383,-0.146719470892
-0.122750371695,-0.255346506834,-0.309354007244,-2.17628026009,-0.771232843399,1.98920989037,-0.746849775314,0.0401919409633,-0.0662776678801,-0.104590654373,-0.23563298583,0.163643598557,-0.0533922016621,-0.000679688877426,-0.0274332985282,0.414153658353,-0.319751829019,0.421546932479,0.277651261286,0.903685246522,0.291575389354,-0.145761944026
-0.123813785613,-0.257446616888,-0.313233375549,-2.17377662659,-0.771569132805,1.98922085762,-0.747268676758,0.0401919409633,-0.0539791174233,-0.130599915981,-0.201562061906,0.124313808978,0.000737151189242,8.72097189131e-06,-0.0208053011447,0.412886990961,-0.322176293429,0.423523806206,0.278172294804,0.904566729459,0.288905517331,-0.144612613879
-0.124590776861,-0.25951436162,-0.316263794899,-2.17195606232,-0.771536529064,1.98926579952,-0.74756270647,0.0401919409633,-0.036784093827,-0.112679213285,-0.165074318647,0.0961258560419,0.00203376938589,0.00700033223256,-0.0194672066718,0.411847433073,-0.323983845984,0.425162796934,0.278527397354,0.905322904961,0.286752139757,-0.143478697714
-0.125359073281,-0.26337620616,-0.320843070745,-2.17002296448,-0.770533800125,1.98961102962,-0.74822384119,0.0402129516006,-0.0124740377069,-0.121044360101,-0.122126825154,0.0439604111016,0.0896228924394,0.0143703697249,-0.0321108177304,0.410242085934,-0.32629790545,0.42747607842,0.278675169332,0.906564478295,0.283729047053,-0.141346468749
-0.125493183732,-0.265329688787,-0.322670161724,-2.16963219643,-0.768339216709,1.98997020721,-0.748741686344,0.0402129516006,-0.0088954353705,-0.11436701566,-0.0904059708118,0.0096677839756,0.169169142842,0.0264691654593,-0.0323802307248,0.409625312497,-0.326854622973,0.428228990323,0.278083657312,0.907349930176,0.282501531019,-0.139923080285
-0.125525400043,-0.267250865698,-0.324016690254,-2.16963219643,-0.76428180933,1.99047493935,-0.749303996563,0.0402129516006,0.00315000652336,-0.0995818302035,-0.0632914826274,-0.00430463114753,0.272921949625,0.0302678626031,-0.0326392240822,0.409194169312,-0.326868511061,0.428633021371,0.276807689385,0.908372085124,0.281376168081,-0.138076463527
-0.125504180789,-0.268654018641,-0.324829995632,-2.16974210739,-0.759359657764,1.99094927311,-0.749843895435,0.0402129516006,0.000495821645018,-0.0829270482063,-0.0370590537786,-0.00756503967568,0.347897619009,0.026327567175,-0.0368966683745,0.408991837801,-0.326514098497,0.42870492808,0.275176445025,0.909429376575,0.280457718474,-0.136233626369
-0.125455990434,-0.26993983984,-0.325290381908,-2.1699090004,-0.752221703529,1.99160945415,-0.750415623188,0.0402129516006,0.0109399762005,-0.0607597455382,-0.0172257404774,-0.0132774906233,0.457292973995,0.0442601889372,-0.0263005159795,0.409010000779,-0.32563763935,0.428506252121,0.272646276831,0.910901610181,0.279390044644,-0.133654281385
-0.125059247017,-0.271223425865,-0.32541936636,-2.17064380646,-0.733981251717,1.99359619617,-0.751278460026,0.0402129516006,0.0220302511007,-0.023833129555,0.00124506221619,-0.034394800663,0.681311905384,0.0782842040062,-0.0307221151888,0.409667493146,-0.323025982897,0.427153393976,0.266540250974,0.914050868197,0.277534864378,-0.128225206936
-0.124504819512,-0.271579027176,-0.325388610363,-2.17139005661,-0.721621930599,1.99518573284,-0.751803457737,0.0402129516006,0.0402544103563,-0.0107714012265,0.000400607532356,-0.0508455000818,0.771644353867,0.108706377447,-0.0290990769863,0.410317584855,-0.32100940182,0.425922289305,0.262207620087,0.91611094034,0.276524983014,-0.12458668632
-0.122046075761,-0.271541893482,-0.325324654579,-2.17422795296,-0.68754786253,2.00016140938,-0.753033518791,0.0402431599796,0.0790393650532,0.00506945466623,0.00635209772736,-0.104320794344,0.98206281662,0.153912603855,-0.0239683762193,0.4125118395,-0.314939188929,0.421845524453,0.249981737787,0.921450307963,0.274309952299,-0.11485865435
-0.120086923242,-0.271244853735,-0.325209647417,-2.17668962479,-0.665893018246,2.00361561775,-0.753344535828,0.0402431599796,0.101261861622,0.0183745007962,0.00992762111127,-0.127904623747,1.08231329918,0.162063211203,-0.0150148123503,0.413955672936,-0.31098327197,0.419074611434,0.242452248628,0.924530597142,0.273057051113,-0.109086793905
-0.111703343689,-0.269800454378,-0.323901712894,-2.18816161156,-0.587542414665,2.01575422287,-0.754116177559,0.0402431599796,0.151737868786,0.0320946536958,0.0342389643192,-0.219367906451,1.31475186348,0.208907186985,-0.00437803240493,0.419614272892,-0.294265902473,0.407565553207,0.212475073058,0.935348591834,0.268768777131,-0.0879812434991
-0.108972169459,-0.269254028797,-0.323261290789,-2.19205093384,-0.564591050148,2.0192232132,-0.754290640354,0.0402431599796,0.164888471365,0.0352035649121,0.0449727028608,-0.235330194235,1.39381861687,0.197533234954,-0.0093134297058,0.421261997612,-0.289090944701,0.404116418346,0.203609524187,0.938174143028,0.267614876396,-0.0821870831229
-0.105982556939,-0.268594235182,-0.322431445122,-2.19615674019,-0.540380239487,2.02238416672,-0.75448101759,0.0402431599796,0.178799644113,0.0433399677277,0.0503588579595,-0.244282454252,1.44869446754,0.173201367259,-0.00896068941802,0.422949273203,-0.283499183165,0.400496992029,0.194133761747,0.941025817291,0.266368860127,-0.0763552472514
-0.101886436343,-0.267547369003,-0.321248620749,-2.20135259628,-0.509459495544,2.02566170692,-0.754784107208,0.0402851849794,0.213615238667,0.0543152093887,0.0555341280997,-0.25141081214,1.48654818535,0.145886346698,-0.0166130363941,0.424834748189,-0.276879391221,0.396322993471,0.183016626086,0.944150518948,0.264920871738,-0.070011738669
-0.0951105505228,-0.265562564135,-0.319097042084,-2.20878863335,-0.463877052069,2.02951908112,-0.755289137363,0.0402851849794,0.236002653837,0.0730304792523,0.090022623539,-0.245310544968,1.55361640453,0.109307385981,-0.0148221123964,0.428201470875,-0.264812369,0.389191115408,0.163464038393,0.949080541479,0.262612672924,-0.0596675594128
-0.0914373919368,-0.264481127262,-0.317673891783,-2.21242046356,-0.440361827612,2.03124117851,-0.755471765995,0.0402851849794,0.249380290508,0.0765618532896,0.0960013568401,-0.234641373158,1.57498168945,0.112536124885,-0.0101304678246,0.429903878322,-0.258743919021,0.385931575954,0.153998833764,0.951259993767,0.261509369324,-0.054787160016
-0.0861513614655,-0.262760400772,-0.315717309713,-2.21730852127,-0.408440381289,2.03340768814,-0.7556604743,0.0402851849794,0.273689061403,0.09063154459,0.101204544306,-0.243424206972,1.61371803284,0.0970357581973,-0.0119670489803,0.432224271634,-0.250339930746,0.381529853906,0.141053143878,0.954023659101,0.25999914031,-0.0484078010834
-0.0816107094288,-0.261333286762,-0.313954412937,-2.22124433517,-0.38253262639,2.0348341465,-0.755795955658,0.0402851849794,0.288377404213,0.0851074829698,0.114221908152,-0.24575676024,1.64181005955,0.0764121860266,-0.00482945842668,0.434094566041,-0.243308261626,0.378047364537,0.130472671485,0.956085804518,0.258823430372,-0.0434424674165
-0.066393636167,-0.256173193455,-0.307125121355,-2.23204708099,-0.302990376949,2.03779554367,-0.756025493145,0.0402851849794,0.343399018049,0.105519346893,0.174930021167,-0.212332233787,1.67818415165,0.0485851056874,-0.003269107081,0.440149564294,-0.22055856229,0.36816769413,0.0979490324318,0.961364755922,0.25561005071,-0.0291083284319
-0.0607682056725,-0.254419118166,-0.304209440947,-2.2353105545,-0.276108235121,2.03858280182,-0.756071329117,0.0402851849794,0.359434306622,0.113788962364,0.182127982378,-0.196475192904,1.68752777576,0.0457788854837,0.000181976502063,0.442348932607,-0.212395383134,0.365220268966,0.0870438098184,0.962764723786,0.254780970738,-0.0243745450747
-0.05417624861,-0.252206385136,-0.30067422986,-2.23865699768,-0.245628491044,2.03937292099,-0.756087481976,0.0402851849794,0.372825294733,0.125182494521,0.205398350954,-0.175575062633,1.69652807713,0.0481628961861,-0.00196575303562,0.444914656296,-0.202962522977,0.362065610163,0.0747130641689,0.964151154017,0.253898420884,-0.0191337872659
-0.0485381633043,-0.250464916229,-0.297493875027,-2.24131703377,-0.22017519176,2.04005980492,-0.756097316742,0.0402851849794,0.397023916245,0.11903270334,0.231315881014,-0.170730233192,1.69665431976,0.0424179434776,0.000712268636562,0.44766672531,-0.192740040202,0.359027685937,0.0617410225588,0.965379618102,0.253072524176,-0.013584413361
-0.0346318371594,-0.246491730213,-0.288924574852,-2.246768713,-0.162071049213,2.04110908508,-0.75611102581,0.0402851849794,0.415517568588,0.119866378605,0.26456412673,-0.139759123325,1.70984733105,0.0117892306298,-0.00173335731961,0.452213554691,-0.175519199305,0.354754478981,0.0411978163927,0.966715124042,0.25246580744,-0.00506207847865
-0.0272027030587,-0.244328320026,-0.28432688117,-2.24895215034,-0.133162811399,2.04132533073,-0.756116569042,0.0402851849794,0.452622652054,0.131582319736,0.286607295275,-0.113125197589,1.69496369362,0.00937900319695,0.00166885834187,0.454813945668,-0.165499884428,0.352626613285,0.0296371488138,0.967189877822,0.252319585014,-0.000454269617274
-0.0199310723692,-0.242443189025,-0.279702216387,-2.25067448616,-0.105992123485,2.0414750576,-0.756114542484,0.0402976647019,0.459543436766,0.110499896109,0.298062771559,-0.0965665429831,1.70279848576,0.0141999525949,-0.00065561773954,0.45731022654,-0.15582777768,0.350950299052,0.0188595343657,0.967440231728,0.252365384832,0.00392787855303
-0.0104626202956,-0.24017482996,-0.273240238428,-2.25238037109,-0.072128020227,2.04169273376,-0.756114244461,0.0402976647019,0.476602375507,0.124922558665,0.334180384874,-0.0691927969456,1.69012439251,0.00948567315936,0.000611241848674,0.460537149343,-0.143290405494,0.349257129887,0.00557473699465,0.967448133264,0.252832245616,0.00942799135796
0.0035622974392,-0.236849993467,-0.263356804848,-2.2540538311,-0.023137902841,2.04203391075,-0.756113648415,0.0402976647019,0.497444748878,0.103561110795,0.356905966997,-0.0443972125649,1.68260717392,0.0145838083699,-0.00113175075967,0.465172603045,-0.124774876146,0.347416753208,-0.0135182987046,0.967030290172,0.253711857311,0.0173195451218
0.0121637778357,-0.235190093517,-0.257041245699,-2.25460648537,0.0052287154831,2.04227042198,-0.756113946438,0.0402976647019,0.523023664951,0.0958120748401,0.394383400679,-0.0201530344784,1.66686475277,0.0148670431226,0.000528165255673,0.467889936142,-0.1135645915,0.34681559624,-0.0244472119673,0.966478779661,0.254633175534,0.0219783507777
0.0230822451413,-0.233248591423,-0.248752653599,-2.25486183167,0.0400902070105,2.04256081581,-0.756111562252,0.0402976647019,0.516530394554,0.092878729105,0.398682743311,-0.00186166469939,1.65962398052,0.0187382139266,-0.00111988815479,0.471042341465,-0.100050893189,0.346465154479,-0.0371694717585,0.965566268501,0.256024770884,0.0274140089789
0.0308684613556,-0.23201648891,-0.242810189724,-2.25479841232,0.0649280771613,2.0428879261,-0.756108641624,0.0402976647019,0.526843547821,0.0689480081201,0.405603200197,0.00369749194942,1.64827525616,0.0263335052878,0.000545174349099,0.47347447573,-0.0892521571434,0.34648213683,-0.0472701302928,0.964705189367,0.257091588145,0.03183311778
0.0562918223441,-0.229568347335,-0.222229152918,-2.25454306602,0.14186526835,2.04564905167,-0.756097793579,0.0402976647019,0.542337596416,0.039035089314,0.442410886288,0.0145791824907,1.60892665386,0.0704314559698,0.000107763822598,0.4801465711,-0.0562229145617,0.347854108689,-0.0761703962914,0.961127814155,0.261522962546,0.0451346356864
0.0667006522417,-0.228981330991,-0.213489115238,-2.2542142868,0.172333434224,2.0470187664,-0.756093919277,0.0402976647019,0.553136050701,0.0177668258548,0.471866846085,0.020526131615,1.59562683105,0.0771335661411,-0.000162404743605,0.482491738749,-0.0426888702235,0.348893751913,-0.0875617913506,0.959329854489,0.263590815499,0.0503889338695
0.0754706040025,-0.228679060936,-0.205884248018,-2.25378847122,0.197606801987,2.04819297791,-0.75608086586,0.0402976647019,0.546537399292,0.0131719941273,0.476945102215,0.0362010262907,1.56401336193,0.0721547454596,0.00187953445129,0.484287617083,-0.0312244635842,0.349998383667,-0.0969913527317,0.957661482064,0.265485212998,0.0547244427747
0.0865010544658,-0.228419348598,-0.196267768741,-2.25290322304,0.228798806667,2.04939079285,-0.756063818932,0.0403114520013,0.5503885746,0.00836660154164,0.488679915667,0.0553852543235,1.55683374405,0.0502671413124,0.000944133324083,0.486280616311,-0.0168507814887,0.351657484884,-0.108678226824,0.955393911391,0.267989985502,0.059940674442
0.103484883904,-0.228295072913,-0.180829942226,-2.25091266632,0.276402264833,2.05140066147,-0.75593405962,0.0403114520013,0.547216117382,0.00426703086123,0.502581834793,0.0777455940843,1.5193618536,0.077187590301,0.0145589374006,0.48890978595,0.00551391279746,0.354838292061,-0.126463545114,0.95151246194,0.272077295661,0.06785979226
0.111701734364,-0.228305190802,-0.173247635365,-2.24961137772,0.29892385006,2.05249381065,-0.755773246288,0.0403114520013,0.552017450333,-0.00162895803805,0.510968923569,0.0921944305301,1.47914528847,0.0746623501182,0.00933552533388,0.490001126445,0.0163051190294,0.356641026444,-0.134847567552,0.949493697717,0.274131641998,0.0716218825842
0.121475823224,-0.228293016553,-0.164023786783,-2.24771881104,0.325176775455,2.05403733253,-0.755527615547,0.0403114520013,0.532436668873,-0.000842510955408,0.50446331501,0.112311780453,1.44869995117,0.0944863706827,0.0163458567113,0.491121444193,0.0284392062229,0.358861071412,-0.144020529224,0.947107236035,0.276582525038,0.0758160744433
0.131556630135,-0.228302299976,-0.154351308942,-2.24534225464,0.351962208748,2.0558590889,-0.755163013935,0.0403114520013,0.522042810917,0.00108195096254,0.508731544018,0.135728895664,1.38304579258,0.100302152336,0.0202917587012,0.492274918121,0.0424044949118,0.361718214483,-0.154402457136,0.944227568741,0.279435246292,0.0806853300055
0.147189632058,-0.228260397911,-0.13893930614,-2.24085330963,0.392562001944,2.05930137634,-0.754419267178,0.0403114520013,0.504429936409,0.00229356810451,0.510252058506,0.162263855338,1.30727124214,0.121718153358,0.0315401367843,0.493693476793,0.0629965742409,0.366428913133,-0.169204723117,0.939719596529,0.283859893144,0.0878658200103
0.155210882425,-0.228257238865,-0.130884885788,-2.23826742172,0.413413405418,2.06144404411,-0.753850519657,0.0403232723475,0.493768155575,0.0001444699883,0.503227591515,0.164377734065,1.2592921257,0.145365819335,0.0395188517869,0.494284353373,0.0736136441797,0.369083669955,-0.176773440511,0.937302794081,0.286037329896,0.0916366112949
0.163061961532,-0.228262096643,-0.122909292579,-2.23546099663,0.433660656214,2.06371760368,-0.753338038921,0.0403232723475,0.493713110685,-8.28386546345e-05,0.496828138828,0.18406689167,1.28646862507,0.151851654053,0.0304233655334,0.494774550503,0.0840168838111,0.371863286982,-0.184094666755,0.93484263032,0.288238027657,0.0953795014982
0.172613471746,-0.228277862072,-0.113014653325,-2.23147392273,0.458202987909,2.06666970253,-0.752784073353,0.0403232723475,0.461104333401,0.000261200068053,0.492621898651,0.210933208466,1.22435712814,0.15974137187,0.0298134852201,0.495290724009,0.0967453597648,0.375590019517,-0.192924790856,0.931697412167,0.291035895629,0.100090281121
0.186128169298,-0.2282795012,-0.0987807586789,-2.22469830513,0.493002772331,2.07155966759,-0.751616239548,0.0403232723475,0.43575489521,0.000490560603794,0.466984272003,0.238755300641,1.11930167675,0.175488904119,0.0563352890313,0.49595557249,0.114846243522,0.381569955027,-0.205353419523,0.927044838554,0.294828332293,0.107210515167
0.195192024112,-0.228266254067,-0.089139662683,-2.21948719025,0.516603946686,2.07530903816,-0.750088453293,0.0403232723475,0.414416968822,-0.000963513739407,0.454395473003,0.2565497756,1.09630346298,0.178209036589,0.084594771266,0.496329594051,0.127048352815,0.386025421625,-0.213793743307,0.923862345409,0.29694681662,0.112219382639
0.200501173735,-0.228257119656,-0.0833268985152,-2.21613574028,0.530804991722,2.07774496078,-0.748867154121,0.0403232723475,0.399879157543,0.00551072647795,0.442967265844,0.260319530964,1.07366502285,0.196531042457,0.101543478668,0.496530109601,0.134316713042,0.388854544188,-0.218877279773,0.921953031566,0.297994628514,0.115301973286
0.20759023726,-0.228269949555,-0.075623832643,-2.2114815712,0.549558997154,2.08144330978,-0.746705174446,0.0403232723475,0.387544363737,-0.0029791505076,0.425546020269,0.256325751543,1.02576458454,0.217808783054,0.13992883265,0.49678125258,0.143938032365,0.392788267105,-0.225572435594,0.919437317365,0.299110583573,0.119519681281
0.224414274096,-0.228380948305,-0.0568421259522,-2.19799804688,0.596195936203,2.0932598114,-0.74002712965,0.0403232723475,0.327261865139,-0.00712662795559,0.391852974892,0.291547745466,0.959599912167,0.293667912483,0.171796277165,0.497827448139,0.167137457366,0.403957263349,-0.241952786656,0.913177086425,0.300452274787,0.131510030462
0.23098193109,-0.228489860892,-0.0491415858269,-2.1916706562,0.615758657455,2.09984779358,-0.736034631729,0.0403344370425,0.302963316441,-0.00309335161,0.351403266191,0.304672032595,0.904755175114,0.326110363007,0.200891405344,0.498582495582,0.176856403772,0.409478864334,-0.248990065389,0.910569707739,0.299908040442,0.137556975991
0.235168650746,-0.228553086519,-0.0442885272205,-2.18750286102,0.628256618977,2.10448002815,-0.733119487762,0.0403344370425,0.289736002684,-0.00539536913857,0.333985298872,0.292111307383,0.883619964123,0.332445651293,0.199505165219,0.499034260661,0.182301488428,0.412719441099,-0.252976336119,0.909112015702,0.299351524264,0.141092100668
0.240927934647,-0.22886711359,-0.0374675542116,-2.18137383461,0.646398186684,2.11194348335,-0.728607714176,0.0403344370425,0.261793971062,-0.0184965860099,0.312971562147,0.299146324396,0.832737565041,0.373209059238,0.221556723118,0.499855560313,0.19048205746,0.418045218915,-0.259151297766,0.90687894728,0.297996606878,0.147000686441
0.251116245985,-0.230010658503,-0.0240286942571,-2.16767954826,0.681899249554,2.12937521935,-0.717351973057,0.0403344370425,0.206671580672,-0.0333357937634,0.272712320089,0.305481791496,0.743128061295,0.417494744062,0.267000645399,0.50210237018,0.20579086875,0.430010987826,-0.271027828798,0.902633578969,0.293468712668,0.160226878197
0.254668921232,-0.230786532164,-0.0194533858448,-2.16233587265,0.694731891155,2.13720750809,-0.71238476038,0.0403344370425,0.192711770535,-0.0447089634836,0.237238094211,0.292400926352,0.69492328167,0.452202945948,0.276655137539,0.503201614521,0.210981531884,0.434927196907,-0.275203593709,0.901150309683,0.291026855949,0.165814565586
0.258126974106,-0.231549933553,-0.0152087137103,-2.15697979927,0.707664787769,2.14574241638,-0.706858813763,0.0403344370425,0.166885018349,-0.0421152673662,0.211988002062,0.286272853613,0.670626163483,0.453852593899,0.311928540468,0.504448028208,0.215890330955,0.439950581091,-0.279414777193,0.899753160288,0.287961346185,0.171609718892
0.262462794781,-0.23334094882,-0.00907523091882,-2.14803290367,0.727135837078,2.16001391411,-0.696843862534,0.0403475686908,0.116676598787,-0.0694533362985,0.18021415174,0.281765073538,0.574022829533,0.464434355497,0.321237683296,0.50672497428,0.222380737786,0.448256937994,-0.285506667717,0.897823892136,0.28213915313,0.181095829178
0.264349848032,-0.234574511647,-0.00616583973169,-2.14339780807,0.736540675163,2.1681265831,-0.69134169817,0.0403475686908,0.104438282549,-0.0707937702537,0.165065437555,0.271474063396,0.528343915939,0.490568488836,0.324239224195,0.508187838081,0.225537575771,0.45319433043,-0.288605279037,0.896804664204,0.278446403007,0.186858201594
0.265946388245,-0.235853016376,-0.00373298185878,-2.13924789429,0.744947969913,2.17617702484,-0.686171293259,0.0403475686908,0.0873888656497,-0.0832866132259,0.144976556301,0.249373659492,0.517488241196,0.506868183613,0.317049950361,0.509662173501,0.228102712326,0.457831760892,-0.291287138615,0.895903817504,0.274727888424,0.192438924483
0.267383784056,-0.237562537193,-0.00137968652416,-2.13495922089,0.753893852234,2.18537807465,-0.680392384529,0.0403475686908,0.0695086270571,-0.104142159224,0.116620473564,0.228002026677,0.475101828575,0.512037277222,0.326648056507,0.511168921662,0.230190293379,0.462420707644,-0.293765378926,0.895074567694,0.270773264177,0.198053678315
0.268552482128,-0.239890486002,0.000937898003031,-2.13042807579,0.763037145138,2.19611740112,-0.67347484827,0.0403475686908,0.040990639478,-0.110773921013,0.101061336696,0.212930604815,0.403523921967,0.52028208971,0.329784095287,0.512951214104,0.232025589466,0.467688559786,-0.296235882874,0.894246554601,0.265931148968,0.20456789818
0.269130975008,-0.243188396096,0.0035401720088,-2.12428855896,0.774173915386,2.21142458916,-0.663278460503,0.0403475686908,0.00659368699417,-0.126341030002,0.0722806975245,0.200853586197,0.370232582092,0.544164538383,0.368760585785,0.515964521639,0.233624182141,0.475557558875,-0.29928696953,0.893262301313,0.257877389361,0.214497139034
0.269191861153,-0.245404794812,0.00462775072083,-2.12108516693,0.780162990093,2.2208302021,-0.656808078289,0.0403475686908,0.00117386085913,-0.132058411837,0.0522717796266,0.179472491145,0.340584129095,0.559915602207,0.382895886898,0.517760361025,0.23397870396,0.479994121298,-0.300799282925,0.892822045388,0.252772181925,0.220215372715
0.269165068865,-0.247602269053,0.00524915708229,-2.11831617355,0.785312712193,2.22968292236,-0.650709092617,0.0403475686908,-0.00401160446927,-0.142834588885,0.0246816501021,0.166787773371,0.322256684303,0.55080062151,0.375734835863,0.519360844527,0.233974296084,0.483830882811,-0.301979109989,0.892473535912,0.248144920364,0.225219233191
0.269112795591,-0.250254541636,0.00539591163397,-2.11533546448,0.790772736073,2.2401945591,-0.643498122692,0.0403475686908,-0.00165959668811,-0.138966828585,-0.00104990729596,0.147687092423,0.265329271555,0.558923959732,0.378473073244,0.52164821485,0.233465757112,0.489017487671,-0.303372364873,0.892056318745,0.24149382346,0.23212381464
0.268332213163,-0.254959791899,0.00522500136867,-2.111297369,0.797809422016,2.25813341141,-0.63114708662,0.0403475686908,-0.0459219180048,-0.158017575741,-0.00665014097467,0.112638004124,0.200745925307,0.586604297161,0.412586003542,0.525022749256,0.231779724103,0.496175234805,-0.304551917348,0.89166928232,0.231485722616,0.242050367702
0.267531901598,-0.257577002048,0.00506843766198,-2.10953831673,0.801046490669,2.26803421974,-0.623886287212,0.0403475686908,-0.0525556392968,-0.159308776259,-0.0086537245661,0.0942710414529,0.178472191095,0.579538345337,0.438841432333,0.527023353504,0.230395545805,0.500201048542,-0.305047581309,0.8915601645,0.225130604444,0.247755235727
0.266477406025,-0.260786145926,0.0046276114881,-2.10787510872,0.804281592369,2.27959871292,-0.615107655525,0.0403475686908,-0.0554613210261,-0.170129865408,-0.0249986797571,0.0707374513149,0.156757622957,0.575730621815,0.432901829481,0.529183431049,0.228546353089,0.504494820597,-0.305431187182,0.891488914449,0.217915414868,0.253913719497
0.265593975782,-0.263219386339,0.00421636272222,-2.10697960854,0.806274652481,2.28762507439,-0.609161257744,0.0403994470835,-0.0661344155669,-0.162884667516,-0.0323758199811,0.0605376474559,0.124785333872,0.571657478809,0.41494306922,0.530536884992,0.227171089824,0.507232275367,-0.30556800231,0.891422320529,0.213267383714,0.257898168169
0.264013081789,-0.266505360603,0.00346429017372,-2.10584878922,0.808532297611,2.29950165749,-0.600478827953,0.0403994470835,-0.0830810666084,-0.15899425745,-0.0384636484087,0.0432650111616,0.105398714542,0.553460240364,0.415687680244,0.532768541284,0.224678935724,0.511278955926,-0.305490904313,0.891392813423,0.205832355228,0.264059085767
0.261511176825,-0.271028190851,0.00203162501566,-2.10482025146,0.811510264874,2.31464219093,-0.588220715523,0.0403994470835,-0.0873111784458,-0.150926321745,-0.0585096627474,0.0256593655795,0.0941607952118,0.510917723179,0.43453553319,0.53572870896,0.220751535945,0.516611098311,-0.305582765278,0.891402665097,0.194944263158,0.272061015506
0.259781688452,-0.27368041873,0.000893119198736,-2.10434937477,0.812610983849,2.32339477539,-0.580374062061,0.0403994470835,-0.104330830276,-0.145423203707,-0.0660906359553,0.0190007146448,0.0284093972296,0.476885914803,0.427767604589,0.537447809908,0.218130382027,0.51951028972,-0.305452051769,0.891508340374,0.188408220047,0.276431303231
0.257916361094,-0.276122152805,-0.000399134092731,-2.10410118103,0.812770545483,2.3312292099,-0.573263585567,0.0403994470835,-0.114445723593,-0.132728129625,-0.0808644816279,0.00701608788222,0.000484031421365,0.448069572449,0.395533531904,0.538956493975,0.215539570399,0.521859934932,-0.305020917532,0.891668282994,0.182809931537,0.280125760287
0.255751430988,-0.27846378088,-0.00186818290967,-2.10404014587,0.812776327133,2.3389980793,-0.566498756409,0.0403994470835,-0.12994132936,-0.129134133458,-0.0848064050078,-0.000578090664931,0.000285278132651,0.409878104925,0.355744421482,0.540614435645,0.212507952149,0.524193645817,-0.304437651524,0.891848170375,0.176806483606,0.284014127047
0.250015258789,-0.283108502626,-0.00597511138767,-2.10405111313,0.812769591808,2.35430049896,-0.552958667278,0.0403994470835,-0.158266171813,-0.103757575154,-0.106555148959,-0.00219957879744,-0.000795019208454,0.331834584475,0.311389535666,0.54441276714,0.204777287698,0.528881696342,-0.303088793782,0.89225456978,0.16330454182,0.292148236491
0.245942085981,-0.285168290138,-0.00869152322412,-2.1040520668,0.81262087822,2.36172628403,-0.545482158661,0.0404598601162,-0.179537534714,-0.070183031261,-0.114510118961,5.54723592359e-05,-0.0149120325223,0.298532396555,0.300442099571,0.546602405844,0.19995144092,0.530992626262,-0.30232857076,0.892606887311,0.155590325484,0.296043966864
0.242462202907,-0.286369919777,-0.0107450261712,-2.10408759117,0.812090873718,2.36674618721,-0.540189385414,0.0404598601162,-0.204735562205,-0.0668573603034,-0.115364044905,-0.00294506479986,-0.049024105072,0.264759927988,0.274944424629,0.548175399592,0.196343235434,0.532205410173,-0.30160087026,0.892937449943,0.150256093442,0.298534305577
0.238041356206,-0.287520349026,-0.0133204292506,-2.1042175293,0.811025202274,2.37168431282,-0.534780561924,0.0404598601162,-0.218750670552,-0.0456406287849,-0.122147731483,-0.008580529131,-0.0548491589725,0.217117294669,0.245084792376,0.549988156313,0.191895174935,0.533331868477,-0.300553755934,0.893393019879,0.144321352519,0.301143983348
0.231225535274,-0.288556694984,-0.0176594499499,-2.10459399223,0.808238565922,2.37741875648,-0.527906119823,0.0404598601162,-0.240457117558,-0.027356158942,-0.162515327334,-0.0133382687345,-0.138827592134,0.167726114392,0.213156566024,0.552831071174,0.184404305858,0.534362807247,-0.298389528009,0.894352621504,0.135508934768,0.304523244197
0.227535888553,-0.288899004459,-0.0202276017517,-2.10487604141,0.805630266666,2.37965273857,-0.524674654007,0.0404598601162,-0.249586313963,-0.0195635091513,-0.176212504506,-0.0193154234439,-0.194172784686,0.137993007898,0.217406302691,0.554219191551,0.18038125401,0.534550574371,-0.296859862553,0.895003163234,0.131466014571,0.305876194715
0.222587347031,-0.28910407424,-0.0236614029855,-2.10529780388,0.801588177681,2.3821516037,-0.520639359951,0.0404598601162,-0.272291123867,-0.00112675200216,-0.182355374098,-0.0270211063325,-0.22379720211,0.124930426478,0.199302092195,0.556001913788,0.175019143088,0.534534675247,-0.294614156462,0.895959367686,0.126402121895,0.30737894125
0.217802867293,-0.289097636938,-0.0268956311047,-2.10580015182,0.797206401825,2.38412666321,-0.517369747162,0.0404598601162,-0.289781957865,0.00187858962454,-0.19411867857,-0.0308360606432,-0.287142664194,0.1041065678,0.196332335472,0.557623489962,0.169906919014,0.534260219398,-0.292218192717,0.896938490647,0.122017721303,0.308579887881
0.202434286475,-0.288729250431,-0.0373200327158,-2.10808253288,0.780290484428,2.38791203499,-0.508568763733,0.0404775887728,-0.330528914928,0.00929208379239,-0.23284175992,-0.060494992882,-0.391023010015,0.0623137056828,0.169269040227,0.562125638168,0.153551965324,0.532292572589,-0.283508504832,0.900448126522,0.10986111935,0.311041208302
0.197012543678,-0.288571804762,-0.041199542582,-2.10918593407,0.773784458637,2.38883757591,-0.50593328476,0.0404775887728,-0.345478653908,0.00782081857324,-0.259870707989,-0.0757735744119,-0.428834289312,0.0529469177127,0.159242227674,0.563538322221,0.147655336735,0.531325802307,-0.280203109707,0.901753328097,0.105872376878,0.311637918213
0.190610691905,-0.288390815258,-0.0461970418692,-2.11059713364,0.765819549561,2.38956141472,-0.502963900566,0.0404775887728,-0.36065787077,0.00957548990846,-0.281750917435,-0.0799225047231,-0.459986031055,0.0308008752763,0.156873136759,0.565118945965,0.140460108858,0.530063261268,-0.276217931938,0.903335866158,0.101157766572,0.312177950741
0.183274999261,-0.288023084402,-0.0518723875284,-2.11219835281,0.756253659725,2.39008951187,-0.499926537275,0.0404775887728,-0.375675439835,0.0197760500014,-0.284431040287,-0.0858814790845,-0.495198249817,0.0291800163686,0.13931837678,0.566798784018,0.132246569498,0.52846732106,-0.271467370674,0.905181154082,0.0960995944165,0.312597844818
0.171605244279,-0.287374526262,-0.0611588396132,-2.11473011971,0.7412545681,2.39081215858,-0.496200084686,0.0404775887728,-0.402662992477,0.0255322288722,-0.331695407629,-0.0841106027365,-0.488311618567,0.0230547711253,0.103601492941,0.569257679876,0.119020114717,0.525898830665,-0.263842324025,0.907985562311,0.0883571543583,0.313276969535
0.163297832012,-0.286779463291,-0.0678982362151,-2.11642241478,0.731425225735,2.39119005203,-0.494109630585,0.0404775887728,-0.421747326851,0.0342960394919,-0.335353165865,-0.0858265161514,-0.500406801701,0.0106097310781,0.104091100395,0.570864044001,0.10957885513,0.524086498314,-0.258687843418,0.909835524044,0.0828054742817,0.313724675414
0.158588722348,-0.286359101534,-0.0717104375362,-2.11729574203,0.725894868374,2.39131140709,-0.492998629808,0.0404775887728,-0.433032095432,0.0399367772043,-0.35673469305,-0.0745524466038,-0.503519713879,0.00672712177038,0.114144548774,0.571872360715,0.103254864817,0.52286320977,-0.255256119365,0.911051344279,0.0791199803051,0.313958261573
0.149317368865,-0.285494208336,-0.0794171541929,-2.11883211136,0.715215504169,2.39141941071,-0.490813702345,0.0404775887728,-0.442105054855,0.0425356291234,-0.374142855406,-0.0709464326501,-0.506064116955,-0.000906955858227,0.101737551391,0.573365959652,0.0931122006391,0.520993844257,-0.24990966936,0.912909188147,0.0731436832174,0.314311903438
0.126816168427,-0.282690793276,-0.0992937386036,-2.12152004242,0.69178122282,2.39185738564,-0.486954391003,0.0404920354486,-0.471712112427,0.0671164914966,-0.444458961487,-0.0427280068398,-0.453437507153,0.00441611139104,0.0694089531898,0.576711681845,0.0672168934574,0.516664460115,-0.237259106716,0.916978257337,0.0576016397934,0.31550125614
0.119345642626,-0.281541675329,-0.106476791203,-2.12216806412,0.684580266476,2.39193558693,-0.48577105999,0.0404920354486,-0.4710277915,0.0761048570275,-0.465154886246,-0.0377156436443,-0.441986769438,0.00641782442108,0.078084744513,0.577689367435,0.058119623777,0.515223426834,-0.233175046197,0.918230944578,0.0519358877141,0.315886045115
0.11170142889,-0.280252963305,-0.114083081484,-2.12265229225,0.677589952946,2.39210748672,-0.484543561935,0.0404920354486,-0.477842628956,0.0868831723928,-0.477919012308,-0.0272078607231,-0.432478845119,0.0100062871352,0.0649165213108,0.578619187537,0.0486547819711,0.513813148225,-0.229117302167,0.919417213814,0.0458818380737,0.316341754132
0.1015875265,-0.278515845537,-0.124139755964,-2.12312293053,0.669073820114,2.39226222038,-0.483462840319,0.0404920354486,-0.49799361825,0.084639929235,-0.497724413872,-0.0165222417563,-0.382880568504,0.00938985310495,0.043607044965,0.579645710903,0.0361745177928,0.512045153116,-0.223959941607,0.920821814213,0.0379352091731,0.317001657113
0.0871740058064,-0.275797128677,-0.13903413713,-2.12356424332,0.659334719181,2.39261627197,-0.482207238674,0.0404920354486,-0.49980828166,0.0960643142462,-0.526471316814,-0.0116420742124,-0.306696206331,0.0186000298709,0.0443029813468,0.580794445263,0.018155323855,0.509633805163,-0.217453994166,0.92243086602,0.0257575009596,0.318074847578
0.0684788376093,-0.272214412689,-0.159830138087,-2.12387299538,0.648652732372,2.39317584038,-0.48071628809,0.0404920354486,-0.488773912191,0.103447183967,-0.582715034485,-0.00630817515776,-0.252386957407,0.011511943303,0.0365060307086,0.581553455774,-0.00603830046832,0.506676381318,-0.209661553838,0.924000523673,0.00873890170018,0.319669667585
0.0615852810442,-0.270680338144,-0.1680329144,-2.1238694191,0.645338475704,2.39346647263,-0.480267465115,0.0404920354486,-0.490587115288,0.110106796026,-0.582770526409,-0.000872330041602,-0.219886541367,0.0259753838181,0.0360102392733,0.581652851522,-0.0152612828983,0.505551430942,-0.206961751838,0.924431911154,0.00204767914246,0.320294054907
0.040066447109,-0.266402721405,-0.193744838238,-2.12387251854,0.637186944485,2.39453697205,-0.478804051876,0.040501229465,-0.499702125788,0.107973434031,-0.61153870821,0.00276060705073,-0.15906701982,0.0251837000251,0.0362184271216,0.581009121924,-0.0439929164559,0.502397070372,-0.199328740867,0.925130080997,-0.0195145678128,0.32252374738
0.0280664563179,-0.264067053795,-0.208821058273,-2.12397313118,0.633476257324,2.3952293396,-0.478092879057,0.040501229465,-0.486901074648,0.0858825072646,-0.628083229065,-0.00636100163683,-0.14300249517,0.0173736605793,0.0173738747835,0.580007360225,-0.0603915476082,0.500608717361,-0.195303615518,0.925185457445,-0.0321030356684,0.323817482359
0.0198235977441,-0.262508451939,-0.219808876514,-2.12402319908,0.631440401077,2.39550614357,-0.477799773216,0.040501229465,-0.476534277201,0.0970982313156,-0.651718556881,-0.000636815850157,-0.103443071246,0.0207667853683,0.0142077356577,0.578999700607,-0.0719540071821,0.499384215092,-0.192711848016,0.925054367242,-0.0410694416408,0.324730445027
0.00819181650877,-0.260284811258,-0.235739395022,-2.12406611443,0.628980755806,2.39593696594,-0.47741997242,0.040501229465,-0.477210909128,0.0909742712975,-0.669686436653,0.000182472562301,-0.100606575608,0.0178489554673,0.0174405276775,0.577179154042,-0.0884681151611,0.497646275258,-0.189153924737,0.92465602095,-0.0540285625524,0.326056666529
0.00243539689109,-0.25923153758,-0.243820980191,-2.12407970428,0.627838671207,2.39615440369,-0.477214664221,0.040501229465,-0.474966436625,0.0875906571746,-0.668963313103,0.000111703775474,-0.0890012905002,0.0128833791241,0.0194668397307,0.575896107605,-0.098080895847,0.496665845455,-0.187127896732,0.924313114609,-0.0616317039632,0.326848511051
-0.00943260639906,-0.256911247969,-0.260630309582,-2.12409329414,0.626313745975,2.39678478241,-0.476758271456,0.040501229465,-0.456499516964,0.0862286388874,-0.67807507515,-0.00457194866613,-0.0563974902034,0.0331549346447,0.0205939505249,0.573511421454,-0.113794097283,0.4950272152,-0.184039397529,0.923519211555,-0.0743687805386,0.328193616956
-0.0230707172304,-0.254506647587,-0.281399577856,-2.12411975861,0.624442458153,2.39773035049,-0.476022988558,0.04051239416,-0.448674201965,0.0849651023746,-0.693910062313,0.00118719716556,-0.0614597089589,0.0242537092417,0.0274716988206,0.5697235354,-0.134197243054,0.493063109382,-0.180000377519,0.922154100156,-0.0910028309832,0.330075997452
-0.0310024060309,-0.252921968699,-0.293730676174,-2.12411856651,0.623388409615,2.39829087257,-0.475548237562,0.04051239416,-0.440566807985,0.0816922932863,-0.694745361805,-0.00224727066234,-0.0639191940427,0.0308539476246,0.0245886333287,0.567190760382,-0.146148787097,0.491793252203,-0.177621335454,0.921234383578,-0.100835393921,0.331074152904
-0.0370887368917,-0.251871347427,-0.303456604481,-2.12415981293,0.622550666332,2.3987159729,-0.475246310234,0.04051239416,-0.428180575371,0.0690866187215,-0.693389117718,-0.00259698368609,-0.0558627136052,0.0294739045203,0.0158645864576,0.565006246089,-0.155433104824,0.490864988586,-0.175759582149,0.920429898888,-0.10845293249,0.331896567671
-0.045649100095,-0.250349521637,-0.317440092564,-2.12412929535,0.621719181538,2.39931631088,-0.474860608578,0.04051239416,-0.409887045622,0.0838321521878,-0.696058511734,0.00118160841521,-0.0332023799419,0.0309653319418,0.0167353991419,0.561493853708,-0.169242640372,0.489504082027,-0.173098207237,0.919053372188,-0.11991438564,0.333164298087
