imanlab/tactile_prediction_flat_dataset/train/data_sample_2021-11-24-15-23-32/robot_state.csv
position_panda_joint1,position_panda_joint2,position_panda_joint3,position_panda_joint4,position_panda_joint5,position_panda_joint6,position_panda_joint7,position_panda_finger,velocity_panda_joint1,velocity_panda_joint2,velocity_panda_joint3,velocity_panda_joint4,velocity_panda_joint5,velocity_panda_joint6,velocity_panda_joint7,ee_state_position_x,ee_state_position_y,ee_state_position_z,ee_state_orientation_x,ee_state_orientation_y,ee_state_orientation_z,ee_state_orientation_w
-0.311389654875,-0.000358203309588,0.317466855049,-2.50116038322,0.00821524579078,2.53234934807,-0.783456742764,0.0785373300314,6.37278353679e-05,-0.000796248030383,-0.000270053889835,-0.00048685920774,-1.70814128069e-05,-3.38207901223e-05,0.000395663024392,0.472938400924,0.00329311786841,0.174404264018,0.00380182405714,0.924244628175,0.381468021648,0.015477776564
-0.311388492584,-0.000358248769771,0.317466646433,-2.50116086006,0.00821559410542,2.53234887123,-0.783446729183,0.0785373300314,-0.000206115451874,7.00719683664e-05,1.25556580315e-05,0.000337235484039,7.33105116524e-05,-0.000119274147437,-0.000235374100157,0.472938075292,0.00329358408741,0.174404053075,0.00380147886154,0.924246416446,0.381463707107,0.0154774121801
-0.311388999224,-0.000358850025805,0.317465394735,-2.50116181374,0.00821485184133,2.53234744072,-0.783443212509,0.0785373300314,3.95538918383e-05,-0.000740385963582,-0.000218567511183,6.00394996582e-05,-3.79829252779e-05,1.08578133222e-05,0.000368181586964,0.472937410068,0.00329268191692,0.174403814872,0.00380140788811,0.924247320574,0.381461555832,0.0154764600115
-0.311390459538,-0.000357774726581,0.317466914654,-2.50116372108,0.00821613799781,2.53234696388,-0.783437788486,0.0785373300314,-9.96477392619e-05,0.000580594060011,-0.000274335470749,9.65545841609e-05,2.49592703767e-05,-0.000126439714222,-0.000465011427877,0.472936239231,0.00329282532486,0.174402541956,0.00380022048389,0.924248568452,0.38145859938,0.0154750987194
-0.311385184526,-0.000361273356248,0.317466825247,-2.50116562843,0.00821510516107,2.53234696388,-0.783426761627,0.0785373300314,-7.29675157345e-05,0.00275396090001,0.000284520414425,0.000201311602723,0.000118882271636,-6.39325226075e-05,-0.000250569515629,0.472935845053,0.00329504729992,0.174403368297,0.0038011467827,0.924249510401,0.381456292964,0.0154754660192
-0.311385542154,-0.000362113001756,0.3174675107,-2.50116753578,0.008215976879,2.53234601021,-0.783422410488,0.0785373300314,-6.24188323854e-05,-0.00104602682404,-0.000116646915558,0.000139258103445,-5.65608061152e-05,-7.44163407944e-05,0.000419158401201,0.47293485938,0.00329520278831,0.174402910252,0.00380060543194,0.924250426663,0.381454114742,0.0154745675215
-0.311386555433,-0.00036323358654,0.317468732595,-2.5011639595,0.00821420084685,2.53234672546,-0.783421397209,0.0785373300314,3.4014985431e-05,0.000220668298425,-0.000175596796907,0.000255158258369,0.000107026186015,0.000143832236063,-0.000355570897227,0.472936879735,0.00329516260711,0.174404877663,0.00380224771916,0.924250265029,0.381454399944,0.0154767875498
-0.311383575201,-0.000353445066139,0.317468255758,-2.50116181374,0.00821457989514,2.53234601021,-0.783407151699,0.0785373300314,0.00013722210133,0.000800570298452,-6.52777725918e-06,0.00051395513583,1.46254797073e-05,3.97773656005e-05,-0.000147259313962,0.472936257564,0.00329684904993,0.174401251141,0.00379911898892,0.924252629001,0.381448824814,0.0154737910711
-0.311386227608,-0.000350024638465,0.317466408014,-2.50116276741,0.00821516197175,2.53234648705,-0.783405542374,0.0785373300314,9.567309462e-05,9.37779841479e-05,-0.000365584040992,0.000201392293093,-1.23180916489e-05,-0.000100610996014,7.20479947631e-05,0.472935406474,0.00329491494604,0.174399387759,0.00379779012039,0.924253915208,0.381445781056,0.0154723240156
-0.311381697655,-0.000347575871274,0.317466497421,-2.50116300583,0.00821520294994,2.53234624863,-0.783402860165,0.0785373300314,0.00263965385966,-0.000196243519895,-0.000121371107525,6.001445945e-05,-5.60382177355e-05,-9.67447122093e-05,-0.000239145476371,0.472934856863,0.0032972202029,0.174398172093,0.00379684093268,0.924253574991,0.381446660951,0.0154711876716
-0.311385452747,-0.000348182977177,0.317468464375,-2.50116705894,0.008215601556,2.53234481812,-0.783398628235,0.0785373300314,-0.00366800720803,-0.00123922456987,-0.00178394489922,0.00045282006613,-1.52843620072e-06,-0.000888764450792,5.08420780534e-05,0.472932721538,0.00329635504678,0.174396726165,0.00379587573237,0.924254820882,0.381443743318,0.0154689292239
-0.311384856701,-0.000361039070413,0.317467749119,-2.50117015839,0.00821535289288,2.53234505653,-0.783386707306,0.0785373300314,0.000194672524231,-0.00136232899968,-0.000240548703005,-0.000469510996481,-6.12101575825e-05,-0.000445171754109,0.000723505276255,0.472933141923,0.00329576007375,0.174401501532,0.0037996699692,0.924256920308,0.381438469978,0.0154725910813
-0.311381876469,-0.000366032647435,0.317469269037,-2.50116848946,0.00821482483298,2.53234481812,-0.783385157585,0.0785373300314,0.000451917410828,-0.000479744398035,8.95681296242e-05,0.00052262225654,0.000136219940032,7.92239443399e-05,8.48196577863e-05,0.472934722924,0.00329751408228,0.174404184959,0.00380144706592,0.924256304072,0.381439846789,0.0154750233593
-0.311385571957,-0.000362052174751,0.317468643188,-2.5011677742,0.0082155931741,2.53234577179,-0.783384919167,0.0785373300314,0.0028555423487,0.000358712859452,-0.000144100937177,2.09972567973e-05,-8.68493589223e-05,-8.60637883306e-05,2.24303348659e-05,0.472934681849,0.00329570622028,0.17440276704,0.00380030086781,0.924257311655,0.381437443894,0.0154743543805
-0.311393350363,-0.000360718811862,0.317467957735,-2.50117230415,0.00821546372026,2.53234481812,-0.783378779888,0.0785373300314,-0.000397335417802,-0.000602010986768,0.00017469577142,-5.96633326495e-05,-0.000146845763084,-0.00118889554869,-0.000235189334489,0.472932152333,0.00329174859422,0.174400308477,0.00379888961848,0.924260128972,0.381430755665,0.0154712877995
-0.311379641294,-0.000360146921594,0.317470729351,-2.50116801262,0.00821643788368,2.53234481812,-0.783368945122,0.0785379931331,0.00212865392677,0.000149285973748,-0.000217973341933,7.89134064689e-05,1.48946764966e-05,-3.67114516848e-05,-0.000116802249977,0.472934285299,0.00329954169244,0.174401943426,0.00379918977939,0.924259027052,0.381433335177,0.0154734471893
-0.311381876469,-0.000354910676833,0.317468464375,-2.50116991997,0.00821480806917,2.53234434128,-0.783367216587,0.0785379931331,0.000461851508589,0.000566077767871,-0.00040876030107,0.000154847381054,6.51393111184e-06,4.75099222967e-05,-4.85819655296e-05,0.472932264487,0.00329766917845,0.174398585307,0.0037973652098,0.924259979331,0.381431188583,0.0154699283599
-0.311380505562,-0.000350305112079,0.317469745874,-2.50117373466,0.00821560434997,2.53234410286,-0.783361375332,0.0785379931331,0.000391474022763,-0.000905645953026,-0.000413193978602,-2.79649357253e-05,0.000104110251414,8.22523070383e-05,2.9655243452e-06,0.472929698342,0.00329917858286,0.174395004288,0.00379483361697,0.924260777908,0.381429421868,0.0154663982446
-0.311384737492,-0.000358814024366,0.317465811968,-2.50116968155,0.00821530260146,2.53234481812,-0.783356487751,0.0785379931331,0.000265286013018,0.000355210882844,-0.000245273840846,0.000240745270276,-2.34055496549e-05,8.32810328575e-05,-0.000308845716063,0.472933088234,0.00329489888865,0.174400477221,0.00379858776376,0.924263117022,0.381423496817,0.0154718131885
-0.311392217875,-0.000361206999514,0.31745994091,-2.50117063522,0.00821657571942,2.53234386444,-0.783354282379,0.0785379931331,-0.000197931629373,-0.00277930265293,0.000259256717982,-0.000550074619241,-3.02983498841e-05,-5.55072037969e-05,0.000228720600717,0.472932834854,0.00328853401436,0.174401089819,0.00379874041106,0.924266274851,0.381415837046,0.0154719642529
-0.311383426189,-0.00036056956742,0.317465931177,-2.50117349625,0.00821640808135,2.5323445797,-0.783351778984,0.0785379931331,0.00144405954052,-0.000113746522402,0.000411109824199,0.000266491115326,-8.64656976773e-05,7.46192017687e-05,-9.40536119742e-05,0.472931486533,0.00329553783129,0.1743997536,0.00379804595754,0.924263929739,0.381421576381,0.0154707396339
-0.311365187168,-0.00035855176975,0.317477971315,-2.50117468834,0.00821474939585,2.53234386444,-0.783350944519,0.0785379931331,0.00159478245769,0.000601711217314,0.000106134117232,-0.000182851828868,-4.36098707723e-06,4.44785582658e-05,-0.000166603829712,0.472930361268,0.00330986390378,0.174398312772,0.00379724343219,0.924258088842,0.381435809911,0.0154689609689
-0.311358422041,-0.00035724931513,0.317472845316,-2.50117492676,0.00821539573371,2.53234171867,-0.783348202705,0.0785379931331,-0.00011701566109,0.00277982093394,-0.000151396510773,-0.000613742100541,-3.94004273403e-05,-4.06450672017e-05,-0.000388604326872,0.472929582406,0.00331073750809,0.174397431535,0.00379615843388,0.924258425536,0.38143506643,0.015467442803
-0.31136661768,-0.000360209582141,0.31746584177,-2.50117540359,0.00821516197175,2.53234243393,-0.783346831799,0.0785379931331,-0.000692291068844,-3.89453489333e-05,-0.00269496394321,0.00036480432027,0.000206772703677,0.000126191793242,0.000300881627481,0.47293000798,0.00330339167664,0.174398643145,0.00379733123948,0.924261524999,0.381427496179,0.0154686302966
-0.31136661768,-0.000360852922313,0.317464321852,-2.50117397308,0.00821650214493,2.53234362602,-0.783343017101,0.0785379931331,0.000236815409153,-0.00017629544891,0.000381530582672,-0.000141920245369,-0.000137143520988,6.50592046441e-05,-6.46978587611e-05,0.472931046774,0.00330271645751,0.1743996043,0.00379765476036,0.924262724508,0.38142452096,0.0154702423123
-0.311356186867,-0.000361096346751,0.31747046113,-2.50117254257,0.00821583159268,2.53234171867,-0.783341705799,0.0785379931331,0.00110339478124,0.000268943433184,0.000610567338299,-0.000111366287456,-2.67484574579e-06,-0.000109049171442,-0.00026133278152,0.472931295342,0.00331051043905,0.174400090914,0.00379768201858,0.924259711143,0.381431829314,0.0154700755831
-0.311349928379,-0.000360558042303,0.317472279072,-2.50118255615,0.00821438618004,2.53234243393,-0.783340334892,0.0785379931331,0.000721334421542,0.000948452972807,-0.000324688298861,0.000257206935203,4.34408902947e-05,0.000151487460244,-0.0001467007678,0.472926377039,0.00331431931264,0.174395618996,0.00379584127407,0.924258289527,0.381435496066,0.0154650526428
-0.311361074448,-0.000358394958312,0.317466437817,-2.50118303299,0.00821569561958,2.53234314919,-0.783336997032,0.0785373300314,-0.000327891088091,-9.60097022471e-05,0.000302303989884,-0.00121509970631,-1.24686548588e-05,-5.82782231504e-05,-0.000440896925284,0.472926247229,0.00330638878778,0.174394916366,0.00379518008402,0.924262380595,0.381425598705,0.0154648233196
-0.311356633902,-0.000358221324859,0.317465394735,-2.50118756294,0.00821556802839,2.53234100342,-0.783334374428,0.0785373300314,0.000441790209152,-0.000199692920432,0.000126959101181,1.44964251376e-05,-8.73486933415e-05,-5.86884561926e-05,9.11816168809e-05,0.472923596017,0.00330798511508,0.174392865729,0.00379385094469,0.924262264238,0.381426021945,0.0154616644122
-0.311319410801,-0.000357592420187,0.317475050688,-2.50119614601,0.00821605976671,2.53234171867,-0.783329904079,0.0785373300314,0.0016676740488,0.000278045132291,-0.000188263249584,3.08463422698e-05,5.21148795087e-05,-9.28168738028e-05,4.76322929899e-05,0.472919426132,0.00333018564953,0.174389298663,0.00379164300171,0.924254318442,0.381445448774,0.0154579292712
-0.311258971691,-0.00036377061042,0.317469149828,-2.50121378899,0.0082149785012,2.53234124184,-0.783325135708,0.0785373300314,0.00262531265616,-0.00102267041802,-0.00357139087282,-0.000376440992113,-6.22678635409e-05,6.7592402047e-05,-0.000181872877874,0.472911699771,0.00335556804747,0.174385138285,0.00379006725893,0.924244750042,0.381468893011,0.0154518852771
-0.31123149395,-0.000360498030204,0.317469269037,-2.50121736526,0.00821611005813,2.53234124184,-0.783324062824,0.0785373300314,0.000996739254333,4.1650600906e-05,0.0001261002908,-0.000176372763235,2.51495566772e-05,4.22770426667e-05,0.000228277305723,0.472909281519,0.00336970513757,0.174382135691,0.00378772034234,0.924239557816,0.381481612314,0.0154490159003
-0.311208128929,-0.00035926720011,0.317469745874,-2.5012216568,0.00821436289698,2.53234171867,-0.783321917057,0.0785373300314,0.00241881096736,0.00091836071806,0.000179493101314,0.000616742006969,4.97696637467e-05,0.00542472163215,5.32220510649e-05,0.47290721522,0.00338005605197,0.174380087962,0.00378696982601,0.924235551011,0.381491417795,0.0154467775931
-0.311167448759,-0.000356196978828,0.317470252514,-2.50122761726,0.00821694917977,2.53234100342,-0.783321619034,0.0785373300314,0.00509115913883,-0.00224276143126,0.000253768812399,0.000238013992202,0.000104170343548,0.000122137804283,-0.000283987552393,0.472903628358,0.00339980242221,0.174376314049,0.00378370119696,0.924228225262,0.38150935558,0.0154428793075
-0.311098724604,-0.000352028029738,0.317470520735,-2.50123047829,0.00821693986654,2.532340765,-0.783317923546,0.0785373300314,0.00104430958163,-0.000567983894143,-0.000544875278138,-3.18359816447e-05,-2.87411658064e-05,-0.000186406017747,0.000294121331535,0.472901353618,0.00343262242031,0.174373301643,0.00378121277816,0.924215824441,0.381539537521,0.0154399894547
-0.311053961515,-0.000354400457582,0.317470669746,-2.50123548508,0.00821581017226,2.53234124184,-0.783319056034,0.0785373300314,0.000203449380933,-0.000513579288963,5.17266453244e-05,-0.00101720402017,3.22284322465e-05,-0.000222118920647,-0.000380090379622,0.472899283845,0.0034536704712,0.174372456898,0.00378109780552,0.924206882832,0.381561247534,0.0154387528023
-0.310998797417,-0.000355089025106,0.317470282316,-2.50124669075,0.00821415241808,2.53234052658,-0.783314108849,0.0785373300314,0.00229253363796,0.000848243013024,-0.000801062036771,-0.000259022432147,-9.56499570748e-05,-0.000966696708929,6.21233266429e-05,0.472893724612,0.00347941822756,0.174368321942,0.0037790670709,0.924197206554,0.381584920042,0.0154334224738
-0.310940802097,-0.000364640873158,0.317470014095,-2.50125098228,0.00821502879262,2.53234148026,-0.783315658569,0.0785373300314,0.00405494309962,0.000503002665937,0.000363788974937,-0.000472331041237,-4.43326462118e-05,0.000107945299533,0.000153630724526,0.472893134674,0.00350628608367,0.174371026866,0.00378085798105,0.924185982618,0.381611992471,0.0154357225601
-0.31080520153,-0.000353727926267,0.317471265793,-2.50126290321,0.00821604207158,2.532340765,-0.7833096385,0.0785373300314,0.00397982820868,0.00120263709687,0.000351270049578,0.000278502237052,2.71158096439e-05,-0.00493563339114,-4.10416214436e-05,0.47288518929,0.0035715478456,0.174361402549,0.0037735814904,0.92416135668,0.381672087581,0.015426086559
-0.310764819384,-0.000354430754669,0.317471057177,-2.50127124786,0.00821551680565,2.53234052658,-0.783308267593,0.0785373300314,0.00348659954034,-0.000262392539298,-0.000760185008403,3.12238262268e-05,-6.65888219373e-05,0.000441093870904,-0.000264250324108,0.472881139215,0.0035904564855,0.174358436871,0.00377201812935,0.924153931071,0.381690231571,0.0154223983474
-0.310714989901,-0.000357631797669,0.31747508049,-2.50128245354,0.00821503438056,2.532340765,-0.783305168152,0.0785373300314,0.00417187530547,-0.000641506048851,0.000255127466517,-0.000259136606473,4.23067540396e-05,-7.53725325922e-05,-0.000137043462018,0.472875879735,0.00361655424911,0.174355433969,0.0037706823134,0.924143864408,0.381714777958,0.0154184241326
-0.310634255409,-0.00036369197187,0.317472726107,-2.50130295753,0.00821471586823,2.53234028816,-0.783303081989,0.0785373300314,0.00287173362449,-0.00168685393874,-3.33977477567e-05,-0.00013741159637,8.47133196658e-05,8.20405966806e-06,0.000332412222633,0.472866956303,0.00365239091839,0.174350190935,0.00376816899646,0.924129732367,0.381749302795,0.0154112996021
-0.310563266277,-0.00035868116538,0.317474365234,-2.50131678581,0.00821455940604,2.53233957291,-0.783296585083,0.0785373300314,0.00416776444763,0.000813277030829,-0.000206600787351,-0.000452870008303,-2.22189610213e-05,-0.000220618618187,-0.000351640599547,0.472859214347,0.00368692325058,0.174342472813,0.00376325168058,0.924117236071,0.381779944415,0.0154027808404
-0.310495018959,-0.00035636665416,0.317469418049,-2.5013449192,0.00821638014168,2.53234004974,-0.783290624619,0.0785373300314,0.00428688758984,-0.000164533572388,0.000149937244714,-8.52471130202e-05,4.76010100101e-05,8.98324651644e-05,-0.000108177257061,0.472845379111,0.00371697000289,0.174330493935,0.00375628818059,0.924106802756,0.381805805373,0.0153894140768
-0.310399919748,-0.000362237566151,0.317472279072,-2.50137066841,0.00821505580097,2.53234052658,-0.783286511898,0.0785373300314,0.000391106383177,-0.000211006903555,0.000725649297237,-0.000594691373408,2.79570413113e-05,-5.67150091229e-05,-0.000210611513467,0.472833779945,0.00376284720306,0.174323121157,0.00375301667554,0.924088830404,0.381849713943,0.0153799880718
-0.310378104448,-0.000359671743354,0.317470699549,-2.50137805939,0.00821454077959,2.53233909607,-0.783285140991,0.0785373300314,0.00395545735955,-0.000553004618268,0.000103207174107,-0.00184874190018,-0.000112513604108,0.000121495570056,7.56730587455e-05,0.472829498409,0.00377248770418,0.174318947368,0.00375050145287,0.924085235986,0.38185864178,0.0153749065994
-0.310360848904,-0.000353054725565,0.317470580339,-2.50138831139,0.00821497384459,2.53233838081,-0.783283889294,0.0785373300314,0.000112625377369,0.00131268904079,2.34859107877e-05,-0.00218290649354,-2.75401016552e-05,-6.97160212439e-05,0.00207062251866,0.472823412609,0.00378089917164,0.174311905217,0.00374604593464,0.924082405834,0.381865837184,0.0153673824252
-0.310342133045,-0.000357443699613,0.317470788956,-2.50139713287,0.00821496360004,2.53233909607,-0.783281505108,0.0785373300314,0.00156792928465,-0.000510471640155,-0.000102976751805,0.000348837376805,-9.03211621335e-05,-0.000156305017299,0.000266863789875,0.472819971179,0.00378960337959,0.174310499709,0.00374578344748,0.924079274521,0.381873499404,0.0153653390257
-0.310320615768,-0.0003614264715,0.317470669746,-2.50140428543,0.0082142688334,2.53233885765,-0.783278286457,0.0785373300314,0.0043384982273,-0.000288886541966,-0.000410597538576,0.000278933614027,7.64291144151e-06,5.30028410139e-05,-9.17196084629e-05,0.472817137076,0.00379970734688,0.174309639948,0.00374576167459,0.924075607865,0.381882447052,0.0153634805798
-0.310311824083,-0.000360688165529,0.317471891642,-2.50140500069,0.00821411423385,2.53233909607,-0.783277988434,0.0785373300314,8.72583404998e-05,-0.000947342312429,-1.94207077584e-05,-0.000318305974361,4.80339040223e-05,-1.69629074662e-05,4.21234581154e-05,0.472816607292,0.0038042259192,0.174308884521,0.00374531666179,0.924073852158,0.381886723078,0.0153629027215
-0.310295134783,-0.000359341851436,0.31747096777,-2.50140476227,0.00821501668543,2.53233838081,-0.783272266388,0.0785373300314,-0.00022765120957,-0.000138498056913,-3.69680310541e-05,-0.000605304318015,6.7112276156e-05,-3.65877604054e-05,-0.000177381778485,0.472816304221,0.00381204186228,0.174308186106,0.00374435751617,0.924071970131,0.381891311383,0.0153622842822
-0.310273975134,-0.000355064810719,0.317470580339,-2.5014128685,0.00821453984827,2.53233647346,-0.783270537853,0.0785373300314,0.000380869576475,-0.000547661678866,1.49816733028e-05,-0.0002649128146,-2.18863006012e-05,8.50597280078e-05,-0.000329355301801,0.472811316423,0.00382177030827,0.174303038916,0.00374107127522,0.924068486285,0.381900025036,0.0153560281545
-0.310268372297,-0.000354842835804,0.31746956706,-2.50141406059,0.00821581669152,2.53233838081,-0.783268630505,0.0785373300314,-0.000656436255667,0.000398772332119,0.00023676136334,-0.000975056667812,1.42208737088e-05,-2.07902921829e-05,-0.000681536854245,0.472811029599,0.00382397323477,0.174302540572,0.00374068030486,0.924068095811,0.381900966012,0.0153562188802
-0.31026545167,-0.000358543649781,0.317469537258,-2.50141310692,0.00821458920836,2.5323369503,-0.783267617226,0.0785373300314,0.00215059076436,0.000360651814844,0.00020618349663,-0.000450003572041,-1.49571396832e-05,-3.33677126036e-05,0.00111329497304,0.472811803441,0.00382514026287,0.174304553335,0.0037421474213,0.924067594396,0.381902113738,0.0153574908535
-0.31025326252,-0.000359540892532,0.317470878363,-2.50141692162,0.00821602437645,2.53233504295,-0.78326177597,0.0785373300314,0.00203999690711,-0.000324486027239,0.000124880796648,0.000170743573108,-5.65109166928e-06,-0.00282689090818,0.000124955025967,0.472809679132,0.00383155279739,0.17430333126,0.00374085286742,0.924066381901,0.381905143598,0.0153554171951
-0.310243785381,-0.000359802070307,0.317472040653,-2.50141835213,0.00821483694017,2.53233623505,-0.783260762691,0.0785373300314,0.00109657179564,2.41688649112e-05,0.000306933623506,-0.000414271955378,-5.54619909963e-05,-7.04509366187e-05,-2.97156548186e-05,0.472809256412,0.00383650203591,0.17430300267,0.00374112834995,0.92406436146,0.381910034474,0.0153552951541
-0.310232371092,-0.000359061872587,0.317471504211,-2.5014193058,0.00821524392813,2.53233528137,-0.783259809017,0.0785373300314,0.000839467043988,-0.00118885631673,-0.0003518560261,1.33962003019e-05,-0.000102795951534,9.44491039263e-05,-0.000126080485643,0.472808443933,0.00384169968692,0.174302207654,0.00374032746678,0.924062548769,0.381914472395,0.015354197199
-0.31022259593,-0.000358959543519,0.317474424839,-2.50142359734,0.0082146814093,2.53233480453,-0.783255875111,0.0785373300314,0.000414719281252,0.000644139596261,-5.57694511372e-05,-0.000468536367407,-6.63039099891e-05,8.70784497238e-05,-0.000151723434101,0.47280623931,0.00384766244621,0.174300440655,0.00373942343547,0.924060825848,0.38191874156,0.0153519175792
-0.310188651085,-0.000360597972758,0.317471593618,-2.50142288208,0.00821446068585,2.53233551979,-0.783250451088,0.0785373300314,0.00158218899742,0.000756078690756,-1.58352249855e-05,7.46874502511e-05,2.45496048592e-05,-7.13292465662e-05,8.15309686004e-05,0.472806776065,0.00386272066713,0.174301280604,0.00373981381755,0.924055705907,0.381931079912,0.0153530470418
-0.310174793005,-0.00036036488018,0.317471504211,-2.50142455101,0.00821463391185,2.5323343277,-0.783246576786,0.0785373300314,0.000304600951495,-0.000227858225117,-9.2812369985e-05,0.000638324243482,-4.76326458738e-05,-6.3574523665e-05,1.07758369268e-05,0.472805822435,0.00386933702362,0.174300719901,0.00373920666085,0.924053852018,0.381935613968,0.0153519825845
-0.310157865286,-0.000357547512976,0.317470729351,-2.5014269352,0.00821539480239,2.53233456612,-0.783244848251,0.0785373300314,0.000186212913832,-0.000713550951332,-0.00047977748909,-2.2550488211e-05,-6.74137163514e-06,8.54144091136e-05,-0.000409631466027,0.472804227516,0.00387626424938,0.174298316099,0.00373744731979,0.924051666487,0.381941001946,0.0153499141632
-0.310117185116,-0.000359663536074,0.317470788956,-2.50142526627,0.00821699202061,2.53233551979,-0.783240675926,0.0785373300314,0.000399690674385,6.23272135272e-05,0.000102182544651,-0.000168817525264,-0.000136070200824,4.49983963335e-05,-0.000222115922952,0.472805313962,0.00389586507176,0.174300173778,0.0037379500199,0.924044651444,0.38195787588,0.0153522181945
-0.310092359781,-0.000355982134352,0.317470759153,-2.50142765045,0.00821498967707,2.53233480453,-0.783238589764,0.0785373300314,0.00135585758835,0.0003563905193,-3.4821779991e-05,-0.000196552355192,0.000345051725162,9.12130926736e-05,-0.000345102598658,0.472803374514,0.0039076521195,0.174297521438,0.00373651369717,0.92404005761,0.381969124339,0.0153492062622
-0.310071229935,-0.000359337223927,0.317471444607,-2.50142788887,0.0082156220451,2.53233289719,-0.783236801624,0.0785373300314,0.00194825942162,0.000223186216317,-0.000176828310941,-0.000446065183496,1.13993173727e-05,6.31743168924e-05,0.000335189979523,0.472803270736,0.00391783726141,0.174298754311,0.00373683627454,0.924036318534,0.381978150256,0.0153496089235
-0.310048043728,-0.000357846729457,0.317471116781,-2.50142812729,0.00821486394852,2.53233361244,-0.783233761787,0.0785373300314,0.000554900150746,-0.000342849845765,0.000232485952438,6.29097485216e-05,1.13004080049e-06,5.58304054721e-05,0.000209648220334,0.472802997249,0.00392867562067,0.17429805953,0.00373645316982,0.924032425141,0.381987587748,0.0153492246146
-0.310025423765,-0.000361421058187,0.317469835281,-2.50142741203,0.008215688169,2.53233408928,-0.783232927322,0.0785373300314,0.000484677409986,0.0018304012483,-8.47665432957e-05,0.000150246894918,-9.81204811978e-06,0.000113274261821,-0.000146935941302,0.47280389611,0.00393863776466,0.174299989358,0.00373743865685,0.924028599245,0.381996750524,0.0153512735939
-0.309997349977,-0.000357580982381,0.317470937967,-2.50142979622,0.00821553915739,2.53233456612,-0.783230006695,0.0785373300314,0.000730711675715,-0.000703533005435,-0.000283009256236,0.000309925992042,0.000139326133649,2.06678287213e-05,0.00150290608872,0.47280217186,0.00395260175204,0.174297379184,0.00373563681865,0.924023606701,0.38200893731,0.0153489665991
-0.30998262763,-0.000357393349987,0.317470520735,-2.50142836571,0.00821571610868,2.53233504295,-0.783226430416,0.0785373300314,0.000249080214417,0.00413680914789,8.73941680766e-05,0.000174185362994,-5.18314700457e-05,-3.007108171e-05,4.81765018776e-05,0.472802869063,0.00395938877658,0.174297898703,0.00373575022003,0.924021572003,0.382013823056,0.0153498313144
-0.309967041016,-0.000356872973498,0.317471146584,-2.50143003464,0.00821677967906,2.53233385086,-0.783223390579,0.0785373300314,0.00137888500467,0.000808958313428,0.000283907895209,-0.000307475129375,-0.000116882445582,0.000257617619354,0.000246630370384,0.472801676163,0.00396713005729,0.174296900664,0.00373460633923,0.924019245004,0.382019517801,0.0153484618257
-0.309943705797,-0.000356867007213,0.317469984293,-2.50143003464,0.00821556802839,2.5323343277,-0.783224344254,0.0785373300314,0.000512170721777,-8.09576595202e-05,7.96172753326e-05,0.000247755844612,-3.95556489821e-05,-0.00498868431896,7.02374163666e-05,0.472801690329,0.0039775492764,0.174296942938,0.00373486039182,0.924014637397,0.382030654916,0.0153485856602
-0.309905946255,-0.000359483150532,0.317469626665,-2.50143146515,0.00821559224278,2.53233456612,-0.783222258091,0.0785373300314,0.00130607211031,-0.000841833767481,6.77799907862e-05,-0.000120906530356,-4.76219211123e-05,5.40300025023e-05,7.53424319555e-05,0.472801309091,0.00399510239165,0.174297581861,0.00373517247797,0.924007883906,0.382046965086,0.0153491080427
-0.309837400913,-0.000363317027222,0.317471504211,-2.50143027306,0.0082141822204,2.53233408928,-0.783217489719,0.0792379975319,0.000527480442543,-0.000850983546115,5.6510874856e-05,7.63766802265e-05,7.05282582203e-05,1.54458612087e-05,-0.000456739217043,0.472802068926,0.00402814232507,0.174299723266,0.00373634772914,0.92399508811,0.382077828165,0.0153508879584
-0.309796929359,-0.000363139464753,0.317472487688,-2.50142860413,0.00821560528129,2.53233647346,-0.783215403557,0.0792379975319,0.00141067593358,0.00083578331396,-0.000166311874636,0.000214489264181,-1.73313528649e-05,-0.000246851675911,1.44265677591e-05,0.47280318219,0.00404783216126,0.174300521447,0.00373633829857,0.923987759034,0.38209546978,0.015352934177
-0.309762120247,-0.000358907738701,0.317471235991,-2.50142979622,0.00821485836059,2.53233647346,-0.783215165138,0.0792379975319,0.000588294758927,-0.000225725787459,-0.000301570049487,0.000397455209168,-0.00019897815946,9.69828761299e-05,2.36854430113e-05,0.472801943385,0.00406482205253,0.174298241935,0.00373462781126,0.923980965374,0.382111996667,0.0153508914299
-0.309726029634,-0.000358709366992,0.317472338676,-2.50143313408,0.00821509305388,2.53233504295,-0.783210813999,0.0792379975319,0.00315033155493,0.000673318631016,-0.000354497838998,-6.57824421069e-05,-0.000152433960466,-8.51331205922e-05,0.00012081508612,0.472799709542,0.00408214490807,0.174296479084,0.00373323456883,0.923974867231,0.382126854263,0.0153484402917
-0.309671580791,-0.000358687073458,0.317472338676,-2.50143170357,0.00821645185351,2.53233575821,-0.783207833767,0.0792379975319,0.0012450866634,-0.000461466755951,1.27406829051e-05,0.000277361919871,-0.000127506398712,0.000393757713027,0.000133727851789,0.472800372707,0.00410727574454,0.174297244368,0.00373293538538,0.923965478934,0.382149502133,0.0153498089212
-0.309643179178,-0.000360604317393,0.317470610142,-2.5014295578,0.00821470748633,2.53233623505,-0.783202946186,0.0757169499993,3.27471352648e-05,-0.0032793614082,0.000486783945234,-0.000230653153267,2.4777438739e-05,0.00202909577638,0.000195012704353,0.472801674625,0.0041197094139,0.17429898794,0.00373427720619,0.923961012152,0.382160215853,0.0153516220033
-0.30961021781,-0.000359382538591,0.317471265793,-2.50142908096,0.00821601971984,2.53233671188,-0.783200085163,0.0757169499993,0.00171362957917,-0.00272542308085,0.000218356231926,0.000133787718369,2.63977817667e-05,7.46865625842e-05,-0.000464513956103,0.472801680514,0.00413573410679,0.174298670958,0.00373342784406,0.923955340487,0.382173928877,0.0153518100531
-0.309574604034,-0.000362816179404,0.317474752665,-2.50143122673,0.00821647420526,2.53233647346,-0.783197879791,0.0757169499993,0.00194019940682,-0.000939963967539,0.000506305193994,9.1380214144e-05,-0.000168027676409,-0.000270150456345,-6.91986497259e-05,0.47280096721,0.00415407081135,0.174299352433,0.00373364878131,0.923948351323,0.382190810113,0.0153521432508
-0.309509932995,-0.00035880311043,0.317471176386,-2.50143408775,0.00821475498378,2.53233528137,-0.783194839954,0.0757169499993,0.00143675063737,0.00139273749664,-0.00035907223355,3.87096952181e-05,-2.53839898505e-05,8.04871888249e-05,0.000518783694133,0.472798490268,0.00418304851117,0.174296320057,0.00373156304296,0.923937053138,0.38221828249,0.0153486640919
-0.309491634369,-0.000358119228622,0.31747174263,-2.50143289566,0.00821475405246,2.53233599663,-0.783192336559,0.0757169499993,0.000746335543226,0.00116064387839,4.31182485272e-07,0.000374134717276,6.24566600891e-05,5.66955750401e-05,-0.000360391684808,0.472799028389,0.00419200522744,0.174296546148,0.00373153835218,0.923933917536,0.382225835769,0.0153493257908
-0.309469819069,-0.000359129830031,0.317471563816,-2.50142979622,0.00821587070823,2.5323369503,-0.783190906048,0.0757169499993,0.000321756029734,-0.000659581332002,-0.000160816649441,-0.000183584648767,-1.2466730368e-05,5.0236187235e-05,-6.79259017033e-07,0.472800670852,0.00420095554722,0.174297864763,0.00373190315155,0.923930583511,0.382233812769,0.015351280412
-0.309449225664,-0.000358611607226,0.317472487688,-2.50142884254,0.00821418128908,2.53233623505,-0.783191025257,0.0757169499993,0.000165178542375,0.000123026911751,-0.00039493557415,0.000261213630438,-0.00030489108758,0.00295909820125,0.00314802699722,0.472800897116,0.00421236957722,0.174298372113,0.00373231621869,0.923925795645,0.382245371993,0.0153515220943
-0.30938065052,-0.000356685864972,0.317472785711,-2.50143551826,0.00821613986045,2.53233456612,-0.783186078072,0.0757169499993,0.00101524509955,-0.000313288037432,0.00026366696693,-0.000311775191221,0.000131140666781,-2.44041948463e-05,0.000255587860011,0.472796784802,0.00424510429129,0.174294743253,0.00372902889915,0.923913957599,0.382274187092,0.0153472754394
-0.309359371662,-0.000360044679837,0.317471265793,-2.5014359951,0.00821543671191,2.53233504295,-0.783186674118,0.0757169499993,0.0016159969382,-9.84355119726e-06,-0.000302956352243,0.000257521198364,0.00125340453815,-0.000388193759136,0.000252436409937,0.472797085372,0.00425424475201,0.174296110487,0.00373015745485,0.923909932369,0.382283854681,0.0153485155298
-0.309187233448,-0.00035730790114,0.317471921444,-2.50143432617,0.00821469910443,2.53233647346,-0.783176839352,0.0598170794547,0.000323638523696,-0.00137666298542,-0.000305495224893,-3.45560365531e-05,-5.2325381148e-06,-0.000118156181998,-5.76304119022e-05,0.472797030986,0.00433604055247,0.174295668486,0.00372865773631,0.923878666151,0.382359399234,0.0153491642411
-0.309141814709,-0.000360999023542,0.317471653223,-2.5014321804,0.00821442436427,2.53233647346,-0.783177137375,0.0598170794547,0.00204497366212,0.00104692287277,0.000107425701572,0.000490461359732,-2.79028354271e-05,4.29680512752e-05,0.000143874363857,0.472798411409,0.00435720334603,0.174298163724,0.00372998085915,0.923869889079,0.382380494655,0.0153516216431
-0.309086740017,-0.00036245121737,0.317471295595,-2.50142860413,0.00821684394032,2.53233647346,-0.783174693584,0.0598170794547,0.00249683810398,0.00128600455355,-0.000200929818675,-0.000232126840274,2.04765601666e-05,-8.06192183518e-05,-0.000213469524169,0.472800089309,0.00438314640563,0.174300212762,0.00373002523937,0.923860229426,0.382403728252,0.0153542078517
-0.30898296833,-0.000357373501174,0.317474424839,-2.50143575668,0.00821450911462,2.53233575821,-0.78316962719,0.0598170794547,0.00331627484411,-0.00215341500007,0.000304705929011,0.00025055516744,0.000117844967463,1.35800528369e-05,-0.000275781669188,0.472795300531,0.00443378079937,0.174295071456,0.00372668436512,0.92384049638,0.38245165715,0.0153485731359
-0.308916091919,-0.000363402476069,0.317470401525,-2.50142669678,0.00821637082845,2.53233647346,-0.783167600632,0.0598170794547,0.00331826903857,0.000929385074414,1.59417195391e-05,0.000577849743422,-4.99594862049e-05,-0.000387303705793,0.000552143494133,0.47280038776,0.00446334289448,0.174301384549,0.00372945966938,0.923829030029,0.38247903937,0.0153557328679
-0.308894276619,-0.000362810853403,0.317471444607,-2.50143051147,0.00821469537914,2.5323369503,-0.783166587353,0.0598170794547,0.000988960731775,-0.000216297834413,7.12993351044e-05,1.86780944205e-05,5.43376263522e-05,1.84495056601e-05,-0.000374694907805,0.472798488515,0.00447407405547,0.174299674223,0.00372891581141,0.923824624233,0.382489762988,0.0153538184171
-0.308867871761,-0.000353631534381,0.317470371723,-2.50143551826,0.00821396801621,2.53233575821,-0.78316450119,0.0583855472505,0.002090531867,-0.001782838488,0.00023581062851,3.7709105527e-05,-2.01650800591e-06,-0.000105056278699,0.000288904382614,0.472794352814,0.00448643455975,0.174293484259,0.00372477628393,0.923820184978,0.38250078236,0.0153474116731
-0.30884245038,-0.000352780742105,0.317471653223,-2.50143623352,0.00821534078568,2.53233528137,-0.783162534237,0.0583855472505,0.00208119372837,0.000987607170828,0.0002515570377,-0.000260055501712,-4.8327488912e-05,0.00014605098113,-0.00045217317529,0.472793661426,0.00449917052142,0.174292778037,0.00372368547824,0.923815681659,0.38251169623,0.0153467396297
-0.308777093887,-0.000366161955753,0.317473828793,-2.50142812729,0.00821569375694,2.53233766556,-0.783159077168,0.0583855472505,0.00121922895778,-0.000274936523056,-0.000335625081789,0.000274189922493,-0.000106489649625,-2.84186189674e-05,0.000294208730338,0.47279974309,0.00453050635533,0.174302177861,0.00372933377708,0.923803297208,0.382541142918,0.0153568810321
-0.308756649494,-0.000362949998816,0.317472606897,-2.50143146515,0.00821540039033,2.53233742714,-0.783156991005,0.0583855472505,0.00159534031991,0.000460249255411,-0.000169435559656,-0.000428764120443,0.000162434385857,3.75890376745e-05,0.000136090544402,0.472797534293,0.00453972015469,0.174299409686,0.00372754294345,0.923800026737,0.38254917365,0.0153540042686
-0.308735817671,-0.000357071723556,0.317471712828,-2.50143694878,0.00821516569704,2.53233551979,-0.783156037331,0.0583855472505,0.00241507194005,-6.82363970554e-05,-0.00032865034882,-0.000351683731424,-0.000106327031972,-9.55796713242e-05,-0.000311835290631,0.472793539524,0.00454939471343,0.174294448231,0.00372416001965,0.923796460571,0.382558045201,0.0153483485524
-0.308717727661,-0.000354065588908,0.31747174263,-2.50143504143,0.00821566767991,2.53233480453,-0.783153653145,0.0583855472505,0.000849653733894,-0.00127764209174,7.74302691298e-07,3.32570234605e-05,-7.48892343836e-05,-4.38324896095e-05,7.66382509028e-05,0.472793753265,0.00455814128286,0.174293775303,0.00372311798065,0.923793542077,0.382565122912,0.0153478474974
-0.308672696352,-0.000364319217624,0.317473113537,-2.50143027306,0.00821479875594,2.53233671188,-0.783148944378,0.0583855472505,4.15404065279e-05,0.000127938663354,0.000274647201877,3.17180165439e-05,-7.17146394891e-05,0.000221126741963,1.38964323924e-05,0.472797767569,0.00457955950906,0.174300421991,0.00372752452892,0.923785302081,0.382584695627,0.0153548550778
-0.308663129807,-0.0003611833381,0.317474335432,-2.50143051147,0.00821482483298,2.5323369503,-0.783146560192,0.0583855472505,0.00200785230845,-5.95365818299e-05,-0.000205279240618,0.000212835366256,-9.91456981865e-05,0.000135339709232,0.00145810993854,0.472797182318,0.00458481176003,0.174298943248,0.00372640569959,0.923783723366,0.382588565439,0.0153536843129
-0.308655023575,-0.000355956377462,0.317473202944,-2.50143551826,0.00821578409523,2.53233551979,-0.783146798611,0.0583855472505,0.0018088913057,0.000124752768897,0.000665048428345,-0.00070736912312,5.54309081053e-05,-1.22939363791e-05,-0.0004057593178,0.47279367392,0.00458839075654,0.17429450596,0.00372319840053,0.923782581249,0.382591549375,0.0153488241951
-0.308642208576,-0.000362763385056,0.317472577095,-2.50143051147,0.00821634195745,2.53233718872,-0.783142805099,0.0575798153877,0.000141208671266,-0.00116590189282,-0.000231343045016,-0.000219477980863,-0.000193817075342,0.00131656753365,-3.45822409145e-05,0.472797384661,0.00459387649972,0.174299675867,0.0037263736391,0.923780996301,0.382595113265,0.0153546084765
-0.308638781309,-0.000366177206161,0.317472219467,-2.50143074989,0.00821597315371,2.53233671188,-0.783139884472,0.0575798153877,0.000579868385103,-0.000592662545387,-0.00026086519938,0.000140751202707,-0.000195967848413,0.00148153153714,0.000574716483243,0.472797722705,0.00459495584187,0.174300976346,0.00372729335184,0.923780883378,0.38259534084,0.0153555084954
-0.308631896973,-0.000362403254258,0.317474752665,-2.50143146515,0.00821498874575,2.53233528137,-0.783138513565,0.0575798153877,0.000240838024183,-0.000276667036815,0.000313948985422,1.26793474919e-05,-0.000161191623192,-0.00149902096018,0.00014063474373,0.472796407948,0.0045997216021,0.174298960536,0.00372595399557,0.923779242416,0.382599415502,0.0153530286352
-0.308623582125,-0.000351850292645,0.317473530769,-2.50143480301,0.00821489840746,2.53233528137,-0.783134043217,0.0575798153877,5.95450401306e-05,-0.000694758899044,0.00033441465348,-0.00233186618425,5.17862872584e-06,-0.000126034545247,6.18932317593e-05,0.472793195149,0.00460356493653,0.174292918503,0.00372186070758,0.923778835521,0.38260066111,0.0153474622294
-0.308618485928,-0.000353793584509,0.317471951246,-2.50144076347,0.00821548048407,2.53233504295,-0.783133089542,0.0575798153877,0.000687018502504,0.000436574191554,0.000152721084305,0.000152884458657,-5.89480732742e-05,-0.000162500422448,1.16474466267e-05,0.472790591694,0.00460513962647,0.174291441695,0.0037211341724,0.923778467236,0.382601639948,0.0153454039763
-0.308614760637,-0.000363226718036,0.317471086979,-2.50143527985,0.00821463111788,2.53233575821,-0.783131480217,0.0575798153877,0.000159778763191,-0.000159719231306,-0.000202970724786,0.000755039684009,8.09841585578e-05,-7.86938835518e-05,-0.000206185301067,0.47279476275,0.00460601578309,0.174297886267,0.00372553518378,0.923777975281,0.382602528565,0.0153517943874
-0.308616280556,-0.00036641350016,0.317470878363,-2.50143074989,0.00821470841765,2.53233718872,-0.783130288124,0.0575798153877,0.000230439953157,-0.000225636526011,-0.000237708431087,0.000922974548303,-2.65949947789e-05,-3.02983407892e-05,0.000251102668699,0.472797712167,0.00460506834048,0.174301221581,0.00372766648063,0.923778476371,0.382601137982,0.0153557804411
-0.308616876602,-0.000368658977095,0.317470163107,-2.50142979622,0.00821590702981,2.5323369503,-0.783129453659,0.0575798153877,-1.37164024636e-05,-0.000253399164649,-0.000452446576674,-1.93592022697e-05,2.17271590373e-05,-0.00016736589896,0.00105710874777,0.472798458774,0.0046044079175,0.174302580026,0.00372820284676,0.923779048672,0.382599697927,0.0153571015435
-0.308584183455,-0.000350693881046,0.317474663258,-2.50143790245,0.00821566488594,2.53233480453,-0.783122897148,0.0575798153877,-6.08496084169e-05,-0.000589640345424,-0.000541431130841,0.000102046244137,-3.47306486219e-05,-8.98844155017e-05,0.00020454825426,0.472791299114,0.00462300861809,0.174291400869,0.00372035145604,0.923773326052,0.382614049577,0.0153456772351
-0.308571904898,-0.000376058858819,0.31747084856,-2.50142860413,0.00821594242007,2.5323369503,-0.783119678497,0.0575798153877,6.56253760098e-05,0.000455164088635,-0.000521228881553,-5.52840901946e-05,-5.68273571844e-05,1.87800924323e-05,-0.000269357726211,0.472799932796,0.00462564483821,0.174306368445,0.00373037766808,0.923772122278,0.382616259989,0.0153605878502
-0.3085744977,-0.000362027756637,0.317468702793,-2.50143456459,0.00821473449469,2.53233551979,-0.783116579056,0.0575798153877,-0.00017304168432,0.000846100912895,-0.000285220361548,-0.000497683591675,4.75812612422e-06,-0.000239208646235,0.000606845947914,0.472794694686,0.00462399111012,0.174297604671,0.00372480352163,0.923773601117,0.382613101837,0.0153516677714
-0.308566153049,-0.000345082866261,0.317470610142,-2.50143647194,0.00821541901678,2.53233623505,-0.783113121986,0.0575798153877,0.000301112071611,0.0013244120637,0.000377151212888,-0.000101024568721,4.96384018334e-05,0.00536705413833,0.00042769650463,0.47279133404,0.00462968308191,0.174289318651,0.00371882673758,0.923772550273,0.382615974895,0.0153447426577
-0.308555662632,-0.000346397864632,0.317474007607,-2.50144004822,0.00821521133184,2.53233528137,-0.783112227917,0.0575798153877,0.00188089348376,-8.95886332728e-05,0.000454823952168,0.000436466507381,6.08546288277e-05,0.000181580224307,-0.000277068931609,0.472789564654,0.00463615921591,0.174288422292,0.00371834329417,0.92377005587,0.382622065779,0.0153431503651
-0.308545976877,-0.000351234368281,0.317476063967,-2.50144052505,0.00821552332491,2.53233480453,-0.78310996294,0.0560918115079,0.00160189741291,0.000228067976423,0.000236733991187,-1.84513555723e-05,3.4360321024e-06,-0.0017862461973,-4.23986284659e-06,0.472789912035,0.00464149207457,0.174290362749,0.00371953159352,0.923768259791,0.382626331704,0.0153446165485
-0.308534801006,-0.000371210626327,0.317473232746,-2.50143313408,0.00821485929191,2.53233623505,-0.783106088638,0.0560918115079,-0.000409363303334,-0.000530148390681,-0.000108528554847,-0.000803720788099,7.41710537113e-05,3.91838802898e-05,0.000546209630556,0.472796711808,0.00464447125301,0.174302354431,0.00372771600834,0.923767078128,0.382628636816,0.0153562844011
-0.308537721634,-0.000361236045137,0.31747096777,-2.50143814087,0.00821645464748,2.53233504295,-0.783105611801,0.0560918115079,-5.52265046281e-05,0.00129842956085,-1.38884570333e-05,-0.000455858214991,1.55632060341e-05,-0.000141151118441,-0.0048036784865,0.472792593062,0.00464256362491,0.174295807995,0.00372293857561,0.923768533095,0.382625432037,0.0153497698141
-0.308537423611,-0.000348194880644,0.317470788956,-2.50143790245,0.0082156425342,2.53233480453,-0.783101916313,0.0560918115079,0.000460457638837,-0.000306117697619,-0.00324485031888,-1.10553610284e-05,-4.26341866842e-05,-6.36649347143e-05,0.000227646931307,0.47279068227,0.00464320633907,0.174290022069,0.00371892225591,0.923769194266,0.38262407794,0.0153447061233
-0.308520078659,-0.000366793654393,0.317475736141,-2.50142860413,0.0082147475332,2.53233647346,-0.783095896244,0.0557267032564,-0.000363925006241,-0.000905561610125,0.000221320078708,4.7367906518e-05,1.49739698827e-05,-6.90255765221e-05,-0.000216287051444,0.47279816577,0.00465284176829,0.17430216201,0.00372700473102,0.923765713668,0.382631915364,0.0153568458742
-0.308519989252,-0.000364092935342,0.317473620176,-2.50142836571,0.00821686536074,2.53233742714,-0.783095955849,0.0557267032564,0.000384777085856,-0.000779152323958,-0.000754390202928,-0.000238459193497,2.00208687602e-05,-0.000225908122957,0.000292537617497,0.472798085917,0.00465212753228,0.174301133365,0.00372580181032,0.923766430294,0.382630207,0.0153565958547
-0.30852201581,-0.000362641934771,0.317472159863,-2.50143671036,0.00821548234671,2.53233623505,-0.78309327364,0.0557267032564,0.000326014793245,9.30613823584e-05,-6.81215606164e-05,-0.000914699689019,0.000197339148144,0.000103553960798,7.85979427746e-05,0.472793663979,0.00465043954143,0.174297110518,0.00372392571354,0.923767480374,0.382627895862,0.0153514680583
-0.30852240324,-0.000354686373612,0.317472815514,-2.50144267082,0.00821547117084,2.5323343277,-0.783091187477,0.0557267032564,0.000135339098051,-0.000557828170713,0.000226088581257,0.000328333146172,0.000170070401509,2.47299376497e-05,-0.000321487168549,0.472789217956,0.00465092341945,0.174291030094,0.00371986632644,0.923767947754,0.382627074947,0.0153447872983
-0.30851945281,-0.000361094396794,0.317473828793,-2.50143504143,0.00821538735181,2.53233528137,-0.78308826685,0.0557267032564,-0.000177858804818,-0.000418291980168,-0.00031857014983,0.00092888972722,-9.56982967182e-06,-7.5867450505e-05,-0.000319541519275,0.472793996402,0.00465251691906,0.17429697666,0.0037235125641,0.92376761975,0.382627573495,0.01535121622
-0.308517128229,-0.00036553866812,0.317473262548,-2.50143432617,0.00821489002556,2.53233671188,-0.783086955547,0.0557267032564,2.59870307673e-06,-0.000352856906829,0.000191509112483,-7.23215998732e-05,8.36802573758e-05,1.27075891214e-05,-0.000165914971149,0.472795309045,0.00465311083375,0.174299387161,0.00372546307707,0.923767407192,0.382627961697,0.0153538576699
-0.308516681194,-0.000364359293599,0.317473322153,-2.50143265724,0.00821503344923,2.53233623505,-0.783087134361,0.0557267032564,0.000331767369062,-0.000106709027023,-0.000212561353692,4.62724638055e-05,2.52629015449e-05,-0.00386687926948,-0.000241020607064,0.472795817529,0.00465342196667,0.17429946398,0.00372526298817,0.923767297915,0.382628222687,0.015353976834
-0.308519154787,-0.000358901830623,0.317471086979,-2.50143265724,0.00821532402188,2.53233647346,-0.783085227013,0.0557267032564,-0.000164195604157,0.00144984514918,0.000156504567713,-0.000358818593668,-3.25679247908e-05,4.03364720114e-05,0.000183679265319,0.472795065756,0.0046514742563,0.174297036049,0.00372349064379,0.923768649964,0.382625053849,0.0153520295185
-0.308510601521,-0.000356273434591,0.317475497723,-2.50143957138,0.00821542367339,2.53233575821,-0.783080756664,0.0546254739165,-0.000173849170096,-0.000289303308818,5.31078476342e-05,0.000430932937888,0.000252362166066,0.000117627503641,-0.00343768764287,0.472791171046,0.00465770552458,0.1742930883,0.00372105253408,0.923767119045,0.382628954038,0.0153475325195
-0.308505803347,-0.000366151944036,0.317475140095,-2.50143003464,0.0082150734961,2.5323369503,-0.783078491688,0.0546254739165,0.000900117505807,-0.00126192066818,-0.000220973539399,0.000691709166858,0.00031906820368,0.000102853082353,0.000733310880605,0.472797429008,0.00465935145568,0.174301360645,0.00372629368934,0.923766489577,0.382630072885,0.0153562520241
-0.308507502079,-0.000370164954802,0.317473441362,-2.50143384933,0.00821436569095,2.53233647346,-0.783076286316,0.0546254739165,-0.000190826147445,-0.000274540565442,7.1068345278e-05,-0.00021444207232,0.000154889377882,-0.00411643926054,9.79258911684e-05,0.472796137814,0.0046574978022,0.174301628067,0.00372698393411,0.923767452993,0.38262776174,0.0153557159084
-0.308510661125,-0.000367564411135,0.317470580339,-2.50143790245,0.00821560341865,2.53233647346,-0.7830747962,0.0546254739165,-0.000563621055335,0.000791788741481,-0.00363403651863,-0.000181610681466,0.000127067207359,-2.25102030527e-05,0.000116895382234,0.472793583897,0.00465443289343,0.174298453421,0.00372472063313,0.923769307972,0.382623433917,0.0153525113974
-0.308514475822,-0.000353743729647,0.317472159863,-2.50143861771,0.00821532681584,2.53233528137,-0.783073246479,0.0546254739165,-0.00010687282338,0.0012587250676,0.000282307039015,0.000102470796264,-0.000115396986075,-0.000204795476748,0.000107628955448,0.472791171826,0.00465441668611,0.174292279607,0.00372034790622,0.92376993647,0.382622189073,0.0153467781022
-0.308508813381,-0.000351991504431,0.31747084856,-2.50144004822,0.00821560807526,2.53233528137,-0.783070802689,0.0546254739165,-0.0001778104197,-0.000840163731482,0.000318050442729,5.61556225875e-05,0.000135800932185,-7.9524164903e-05,-0.000213347797398,0.472790236606,0.00465671836034,0.174291156546,0.0037195426046,0.923769557869,0.382623159158,0.0153455764286
-0.308504223824,-0.00036095752148,0.317473828793,-2.50143551826,0.00821480900049,2.53233599663,-0.783072054386,0.0546254739165,-0.000226195261348,-0.000310567585984,-0.000103430742456,0.000186518431292,-0.000109298955067,0.000105783765321,-0.000259769964032,0.47279383311,0.00465969093585,0.17429679668,0.00372343056939,0.92376771843,0.382627333966,0.0153512682484
-0.308500826359,-0.000363619474228,0.317475050688,-2.50143146515,0.00821645744145,2.53233599663,-0.783068776131,0.0493084415793,0.00284754484892,-0.000474730943097,-0.000163743810845,-0.000407266750699,0.000196157110622,-0.000113614420115,-0.000579528859816,0.47279613792,0.00466185167613,0.174299574853,0.00372454074039,0.923767664514,0.382627329248,0.0153543605816
-0.308501183987,-0.000364080420695,0.317474097013,-2.50143647194,0.00821527279913,2.53233623505,-0.783067524433,0.0493084415793,-9.2702517577e-05,-0.000256255385466,0.000173198612174,1.46632501128e-05,0.000214319021325,-0.000128728046548,0.000326491950545,0.472793888657,0.00466112503159,0.174297849409,0.00372411889516,0.923768004984,0.382626598261,0.0153521950465
-0.308503061533,-0.000361490412615,0.317472547293,-2.50144124031,0.00821645651013,2.53233504295,-0.783066809177,0.0493084415793,-0.000119633521535,-0.000282049586531,0.000117624971608,-0.00234001479112,3.64440456906e-05,-5.93027380091e-07,-0.000114359929285,0.472790991596,0.00465967186885,0.174294712043,0.00372186429143,0.923769045514,0.382624253495,0.015348569834
-0.308505088091,-0.000362390623195,0.317472875118,-2.50143432617,0.00821563601494,2.53233623505,-0.783061444759,0.0493084415793,8.08688419056e-05,0.000701232580468,-6.77750140312e-05,-0.000159088347573,5.75111625949e-05,-7.85943338997e-05,1.51651602209e-05,0.472794675625,0.00465881152219,0.174297928513,0.00372386962613,0.923770201729,0.382621281384,0.015352586317
-0.308502674103,-0.00036288012052,0.317473143339,-2.50143432617,0.00821535289288,2.53233528137,-0.783063590527,0.0493084415793,7.98177861725e-05,-9.52270966081e-06,0.000250372395385,-0.000165539750014,-2.76823743661e-06,-7.83353098086e-05,0.00136915955227,0.472794531043,0.0046600409465,0.174298057836,0.00372391867531,0.923769236912,0.382623621679,0.0153523021046
-0.308499276638,-0.000357043230906,0.317472964525,-2.5014398098,0.00821429863572,2.53233575821,-0.783062458038,0.0493084415793,-0.000533849059138,0.000137122347951,8.80106526893e-05,-0.000211821636185,5.55547230761e-05,0.00270825205371,-0.000636708864477,0.472791133489,0.00466176436708,0.174293340744,0.00372135268911,0.923768759746,0.382624985597,0.015347642542
-0.308496206999,-0.000359360070433,0.317472994328,-2.50143933296,0.00821573287249,2.53233575821,-0.783056259155,0.0493084415793,0.000809968740214,-0.000976215931587,-0.000164116398082,-0.000390755216358,-5.26494004589e-05,-0.00010740752623,0.000139925410622,0.472791695554,0.0046631964047,0.174294567665,0.00372172932843,0.923769552452,0.382623016691,0.0153489242391
-0.30849647522,-0.000365623738617,0.317473679781,-2.50144028664,0.00821496825665,2.53233599663,-0.783057868481,0.0493084415793,0.00036098525743,-0.00130000861827,0.00387809192762,0.000100527337054,9.74144713837e-05,-0.0001240389538,0.000727265432943,0.472792239647,0.00466304706889,0.174297030436,0.0037238327116,0.923769002949,0.382624243697,0.0153508983235
-0.308496743441,-0.000362501450581,0.317473322153,-2.50143361092,0.00821495335549,2.53233623505,-0.783059239388,0.0493084415793,-7.43499622331e-05,-0.000416169554228,-0.000222267161007,0.000199040659936,2.49006043305e-05,5.26906296727e-05,-4.05452410632e-05,0.472794991025,0.00466292961037,0.174298257338,0.00372413978948,0.923768829823,0.38262457816,0.015352905294
-0.308498859406,-0.000360900186934,0.317473471165,-2.50143957138,0.00821506977081,2.53233599663,-0.783057570457,0.0458609424531,-6.55991607346e-06,-8.17814143375e-05,0.000251679390203,-0.000184355551028,0.000152146414621,-0.000130657630507,9.05398046598e-05,0.472792014088,0.0046619814086,0.174295219948,0.00372254118257,0.923769630367,0.382622795598,0.0153495494889
-0.308498233557,-0.000356266536983,0.317473351955,-2.50144338608,0.00821497570723,2.53233504295,-0.783054172993,0.0458609424531,0.000420581345679,-0.000825133000035,-0.000275787140708,-0.00191511178855,-2.98310824292e-05,9.81091070571e-05,8.33447338664e-05,0.472789156962,0.004662498661,0.174291528067,0.00372003889659,0.92377021414,0.38262157496,0.0153454500414
-0.308499574661,-0.000358299497748,0.317472159863,-2.50143861771,0.00821416079998,2.53233575821,-0.783052802086,0.0458609424531,6.60073710606e-05,-0.000577643688302,-0.000172545027453,0.000798602530267,6.35148389847e-05,-0.00434309057891,-3.08929156745e-05,0.472791894529,0.00466118033635,0.174294370304,0.0037219525581,0.923770777643,0.382620066481,0.0153486758524
-0.308496832848,-0.000363194354577,0.317473202944,-2.50143551826,0.00821666046977,2.53233623505,-0.783051908016,0.0458609424531,0.000680332363117,-0.000127172330394,-0.000173822176293,-5.93776894675e-05,-2.9826991522e-05,-0.00486619165167,0.00032370199915,0.472794191118,0.00466288012912,0.174297824255,0.00372348920124,0.923770545325,0.382620459501,0.015352487494
-0.308495253325,-0.000358300982043,0.317474156618,-2.5014462471,0.00821506418288,2.53233242035,-0.783051490784,0.0458609424531,0.000527181720827,0.00058634771267,-0.000511632824782,-0.00059760879958,-6.43341627438e-05,8.61181179062e-05,-0.000106808060082,0.472787521882,0.00466418225919,0.174291076026,0.00371958718853,0.923770040502,0.382622068347,0.0153437100628
-0.30849173665,-0.000358522927854,0.317474782467,-2.50144433975,0.00821535848081,2.53233456612,-0.783050835133,0.0447255671024,-0.00046083831694,5.02759539813e-05,7.33244232833e-05,0.000554976752028,-2.10385569517e-05,0.000309227616526,-5.92031792621e-05,0.472788905322,0.00466615406028,0.174292123796,0.00372030750772,0.923769388033,0.382623556304,0.015345712449
-0.308492988348,-0.000356856558938,0.317473053932,-2.50144004822,0.00821516755968,2.53233408928,-0.78304952383,0.0447255671024,-0.000673164904583,-0.000238623702899,-0.0033067681361,-0.000388018495869,-0.000194259395357,-0.000338797690347,0.00011836757767,0.47279021662,0.00466458260413,0.174292715317,0.00372041445446,0.923770302624,0.382621320649,0.0153463733002
-0.308497816324,-0.000359743571607,0.317472279072,-2.50145435333,0.00821441598237,2.53233242035,-0.783048093319,0.0447255671024,-0.000352219038177,-0.000292689423077,-0.000521921610925,-0.000416167487856,1.68962105818e-05,0.000103982070868,-0.00462966086343,0.472783912668,0.00466194406149,0.17428855895,0.00371871864297,0.923771490677,0.382618707117,0.0153404299224
-0.308495402336,-0.000362286024028,0.317472785711,-2.50144982338,0.00821488723159,2.53233265877,-0.783048391342,0.0447255671024,0.000544788083062,0.0002555573883,0.000265642476734,0.000452506792499,-8.25149836601e-05,0.000232691789279,7.30017709429e-05,0.472786485432,0.00466324691371,0.174291491899,0.00372028410158,0.923770891351,0.382620009028,0.0153436682068
-0.308495640755,-0.000353186478605,0.31747084856,-2.50145936012,0.00821462646127,2.53233194351,-0.783043622971,0.0447255671024,1.06256338768e-05,0.00216269004159,8.8249478722e-05,-0.00168712576851,1.47468836076e-05,-5.69593976252e-05,0.000405817030696,0.472780437718,0.00466260198327,0.174283614727,0.00371547889875,0.923772329135,0.382616915228,0.0153354167175
-0.308495402336,-0.000356817996362,0.317472100258,-2.50145602226,0.00821488536894,2.53233242035,-0.783044934273,0.0447255671024,2.31709350373e-06,-0.000254659098573,0.000284812471364,0.000692062836606,4.4983546104e-05,-5.17659427715e-05,7.64013093431e-05,0.472782667509,0.00466315957313,0.174286593783,0.00371729420654,0.923771775802,0.382618105912,0.0153386005444
-0.30849391222,-0.000358186254743,0.317471414804,-2.50145030022,0.00821439176798,2.53233289719,-0.783043086529,0.0447255671024,-0.000109132473881,-0.000265631562797,-0.000192339881323,-0.000311817973852,3.08338385366e-05,-2.04483476409e-05,0.000203275878448,0.472785821351,0.00466376944909,0.174289642531,0.00371906173319,0.923771715141,0.382618093884,0.0153421250313
-0.308493107557,-0.00035810173722,0.317472279072,-2.50145721436,0.00821621809155,2.53232908249,-0.783043503761,0.0447255671024,-0.00041527528083,-0.000865775975399,0.000445918907644,-0.000788652396295,7.54535431042e-05,7.87648241385e-05,0.000271253025858,0.472781562541,0.0046643326773,0.174286388778,0.0037164592402,0.923771803778,0.382618104648,0.0153371494606
-0.308488696814,-0.000359076802852,0.317473858595,-2.50146245956,0.00821632053703,2.53232979774,-0.783039212227,0.0447255671024,0.00198933575302,0.000464118231321,9.5236733614e-05,-0.00029198534321,-0.000122683108202,7.63675707276e-05,-0.000683336111251,0.472779346585,0.00466710058035,0.174284846579,0.00371582175737,0.923771522373,0.382618858316,0.0153354512413
-0.308487027884,-0.000357805809472,0.317475765944,-2.50146603584,0.00821660924703,2.53233003616,-0.783040881157,0.0447255671024,0.000257508567302,3.53373252437e-06,5.87405447732e-05,-0.000479594862554,-1.75511340785e-05,8.71845622896e-06,-0.000197327288333,0.472777584066,0.00466829476844,0.174282673853,0.00371455861856,0.923770840367,0.382620603633,0.015333293843
-0.308489471674,-0.000356658187229,0.317473173141,-2.50146722794,0.00821498967707,2.53232812881,-0.783036768436,0.0447255671024,-0.000391399196815,-0.000240343346377,-0.000249309785431,-0.00190115114674,-1.13695396067e-05,-3.29916874762e-05,0.000107280466182,0.472776363423,0.00466643536628,0.174281740413,0.00371418466566,0.923772130452,0.382617568447,0.0153314001863
-0.308487772942,-0.00035666875192,0.317472696304,-2.50146818161,0.00821704603732,2.53232765198,-0.783037304878,0.0447255671024,0.000158024020493,-0.000763308431488,0.00028547711554,0.000303958193399,-6.27332483418e-05,-9.15838681976e-05,4.94474625157e-05,0.47277590035,0.0046673203763,0.174281623437,0.00371358989551,0.923772039311,0.38261780182,0.0153312116397
-0.308488160372,-0.000354626448825,0.31747251749,-2.50146961212,0.00821577850729,2.53232741356,-0.783035933971,0.0447255671024,2.50768789556e-05,-0.000243267961196,0.000648985384032,-0.000825607101433,-4.57941241621e-05,2.60460747086e-05,6.7559791205e-05,0.47277476658,0.00466687490348,0.174279829723,0.00371272195621,0.923772325662,0.382617196366,0.0153292780278
-0.308488875628,-0.000357445416739,0.317472726107,-2.50147533417,0.00821665581316,2.53232693672,-0.783035635948,0.0447255671024,0.000430645857705,-0.000422306562541,0.0028000457678,0.000124491940369,-5.75460762775e-05,8.37917614263e-05,0.000369992136257,0.472772375646,0.00466652147212,0.174278816659,0.00371223352127,0.923772640104,0.382616510031,0.0153275781796
-0.308488309383,-0.000358392833732,0.317471832037,-2.50147604942,0.00821554102004,2.53232645988,-0.78303450346,0.0447255671024,0.000110471679363,-0.00059842329938,6.48779969197e-05,-0.000515079009347,5.85527232033e-06,-0.000115796479804,0.000367877073586,0.472772174451,0.00466625560607,0.174279204662,0.00371281774777,0.923772719878,0.382616314471,0.0153275104368
-0.308484643698,-0.000355987576768,0.317474603653,-2.50148057938,0.00821601971984,2.53232693672,-0.783033549786,0.0433695502579,-0.000349575595465,-0.000447277823696,-6.89649168635e-05,-0.00061538949376,-1.01386958704e-05,2.14278425119e-05,-5.71553937334e-05,0.472769023223,0.00466920747124,0.174275501241,0.00371064374507,0.923771898926,0.382618465295,0.0153238237961
-0.308487147093,-0.00035825316445,0.317472040653,-2.5014834404,0.00821644067764,2.5323266983,-0.783032298088,0.0433695502579,-4.96033717354e-05,-8.55955659063e-05,0.000141865311889,1.82938147191e-05,-0.000142087548738,-0.000149297498865,-0.000113673580927,0.472768593159,0.00466692934075,0.174275992072,0.00371095620369,0.923773103272,0.382615547369,0.0153240030291
-0.308484733105,-0.000355427211616,0.317473590374,-2.50148153305,0.00821679923683,2.53232645988,-0.783030688763,0.0433695502579,0.000356632226612,-0.00248925224878,0.000189968050108,1.57295507961e-05,0.000102540412627,-8.09223638498e-05,-0.000410001783166,0.472769001157,0.00466896662749,0.174275445161,0.00371021679008,0.92377271748,0.382616496225,0.0153237472548
-0.308485209942,-0.00035588213359,0.317473560572,-2.50148463249,0.00821628421545,2.5323266983,-0.783028483391,0.0433695502579,0.000472015963169,-0.0010452006245,0.000124066180433,0.000277939921943,5.93160584685e-05,9.71395347733e-05,0.000306307396386,0.472767830965,0.00466885953194,0.174274868304,0.00371028773648,0.923773094749,0.382615615725,0.0153229719477
-0.308485299349,-0.000358814257197,0.317474246025,-2.50148487091,0.00821527186781,2.53232693672,-0.783029317856,0.0433695502579,-8.2437923993e-05,-4.43039280071e-05,0.000233352693613,-0.000114087488328,-0.000203499585041,-6.91667737556e-05,-0.00275130872615,0.47276803163,0.00466875008231,0.174275707734,0.00371117779655,0.923772722335,0.382616483155,0.0153235482022
-0.308481961489,-0.000359732046491,0.317474097013,-2.50148916245,0.00821511354297,2.53232645988,-0.783028066158,0.0433695502579,0.000635515432805,0.000162222291692,-1.4261436263e-05,-0.000216561777052,1.45032538512e-06,0.000163873119163,-0.000165880293935,0.472766239904,0.00467028946467,0.174274583468,0.00371066077965,0.923772409905,0.382617308307,0.0153219046389
-0.308483064175,-0.00035949802259,0.317474752665,-2.50149273872,0.00821541063488,2.53232693672,-0.783026337624,0.0433695502579,-0.00032884630491,-0.000435805588495,-0.000292256940156,0.000398411444621,-4.89722106067e-06,5.07698605361e-05,-0.000222781964112,0.47276435479,0.00466987747023,0.174272599506,0.0037095196457,0.923772907353,0.382616196616,0.0153199502326
-0.308481782675,-0.000359554280294,0.317472964525,-2.50149226189,0.00821534823626,2.53232622147,-0.783025562763,0.0433695502579,-0.000331243936671,0.00129741686396,-1.79474318429e-05,-0.000239282555413,-4.56014968222e-05,-1.42546723509e-05,0.000328722933773,0.472763832657,0.00466959811977,0.174271917452,0.00370911823517,0.923773282735,0.382615333063,0.0153189795766
-0.308483213186,-0.00035697122803,0.317475438118,-2.501496315,0.00821621250361,2.53232574463,-0.783023893833,0.0432007871568,3.66640597349e-05,-0.00282835145481,1.74373471964e-05,0.000214001964196,-5.33340280526e-05,5.83103501413e-05,8.90923620318e-05,0.472762046863,0.00467038926247,0.174270299629,0.00370789362054,0.923773388444,0.38261516466,0.0153171075163
-0.308480888605,-0.000351999449776,0.317473083735,-2.50149321556,0.00821639969945,2.53232622147,-0.783025979996,0.0432007871568,6.38247292954e-05,0.000433598965174,-0.00015093255206,0.000254811980994,5.69528856431e-05,0.000160454015713,5.63517369301e-06,0.472762869593,0.0046706382495,0.174269322522,0.00370692610333,0.923773036091,0.382616033745,0.0153168826287
-0.308482348919,-0.000355931668309,0.317472487688,-2.50149178505,0.00821595825255,2.53232693672,-0.783023774624,0.0432007871568,-0.000369975110516,3.90066779801e-05,-0.000409680273151,-0.000186203425983,1.08598960935e-07,-0.000106864630652,0.000145692829392,0.472764307681,0.00466945935389,0.174271714374,0.0037087164151,0.92377373648,0.382614227411,0.0153193302064
-0.308479547501,-0.000361012876965,0.317470610142,-2.50149846077,0.00821569189429,2.53232645988,-0.783023178577,0.0432007871568,-0.00301010115072,-0.000114764246973,1.7910848328e-05,0.000351763243088,-4.30551990576e-05,0.00013817792933,-0.000481453433167,0.472761799613,0.00466960837988,0.174271344663,0.00370907536297,0.923773647031,0.38261449597,0.0153179296237
-0.308480829,-0.00035787402885,0.317472547293,-2.50149798393,0.00821667350829,2.53232574463,-0.783021092415,0.043213263154,-1.48045119204e-05,0.000758574344218,0.000194380729226,-1.82699059224e-05,8.28995980555e-05,-0.000115688701044,-1.04932287286e-05,0.472761393452,0.00467012370053,0.174270053745,0.00370772961596,0.923774098238,0.382613467489,0.0153167341644
-0.308480620384,-0.000358219898771,0.317473858595,-2.50150084496,0.00821571517736,2.53232574463,-0.783021628857,0.043213263154,9.86892264336e-05,0.000666802981868,0.000302551809,0.000206490731216,-2.6723711926e-05,6.47557908451e-06,-0.000181210139999,0.472760080523,0.00467076223536,0.174269091817,0.00370755795482,0.92377357594,0.382614782146,0.0153154358375
-0.308482170105,-0.000357377779437,0.317472934723,-2.50150251389,0.00821630749851,2.53232526779,-0.783019065857,0.043213263154,-8.62442830112e-05,-0.000847383053042,-5.34722094017e-05,0.000213696868741,3.79578773391e-06,5.82809661864e-05,0.000222800532356,0.472759069277,0.00466965771406,0.174268017158,0.00370672207667,0.923774653631,0.382612238332,0.0153141856473
-0.308480083942,-0.000358692312147,0.317474365234,-2.50150370598,0.00821670796722,2.53232598305,-0.783018112183,0.043213263154,-0.000158415583428,-0.00278764800169,-0.000233330341871,-6.45782056381e-05,7.66597804613e-05,-1.35979262268e-05,-5.93862314417e-05,0.472758840256,0.00467127301848,0.174268209851,0.00370691649262,0.92377421919,0.382613272048,0.0153145181694
-0.308481544256,-0.000357153272489,0.317471146584,-2.50150513649,0.00821557454765,2.53232550621,-0.783017992973,0.043213263154,6.49144858471e-05,0.000259503227426,-0.000218415181735,-0.000343192310538,2.6315172363e-05,3.39783764502e-05,-0.00167105952278,0.472757847351,0.00466906889191,0.174266915018,0.00370640318279,0.92377498821,0.382611484535,0.0153129134392
-0.308477878571,-0.000360076694051,0.317472100258,-2.50150489807,0.00821596756577,2.53232598305,-0.783016741276,0.043213263154,0.000147894199472,0.00100062019192,-0.000441497948486,-0.000275769736618,7.52754567657e-05,-3.80172750738e-05,8.82538952283e-05,0.472758484106,0.00467113374431,0.174268366024,0.00370733006705,0.923774376684,0.382612891904,0.0153144153307
-0.308475404978,-0.000358633667929,0.317476481199,-2.50150585175,0.00821707304567,2.53232622147,-0.783014953136,0.043213263154,0.000182647694601,0.00045683272765,-0.00016185529239,-0.000262417423073,-3.45940752595e-05,0.000134345071274,-0.000180420451215,0.472757853173,0.00467464672753,0.174267452428,0.00370636008632,0.92377357988,0.382614858354,0.0153135842097
-0.308472722769,-0.000358841760317,0.317476004362,-2.50150895119,0.00821603834629,2.53232550621,-0.783015906811,0.043213263154,0.000165721052326,-0.00109049945604,0.000185501048691,-0.000332641619025,7.45472425479e-05,0.000109453554614,-7.10064487066e-05,0.472756203905,0.00467516302718,0.174266348364,0.00370614922826,0.923772932062,0.382616489027,0.0153119709347
-0.308476179838,-0.000357758428436,0.317472457886,-2.50151252747,0.00821567419916,2.53232383728,-0.783012747765,0.043213263154,0.000165790726896,7.67143501434e-05,-3.86250103475e-05,0.000385235704016,0.000148400125909,1.55416528287e-05,0.0021731951274,0.472754038102,0.00467216895422,0.174264143195,0.0037047796256,0.923774793042,0.382612128893,0.0153089795682
-0.308477520943,-0.000359404046321,0.3174726367,-2.50151324272,0.0082163112238,2.53232574463,-0.783013164997,0.043213263154,-0.000257390813204,-0.000544487324078,-0.000131530905492,-0.000117206931463,2.25466942538e-06,-0.00020933005726,-4.81351635244e-05,0.472754365054,0.00467157106257,0.174264783807,0.00370537890119,0.923775013734,0.382611540385,0.0153102258115
-0.308478683233,-0.000358914316166,0.317471027374,-2.50151586533,0.0082169547677,2.5323240757,-0.783013224602,0.043213263154,-0.000393347494537,0.00134518567938,0.00018268385611,0.000243033617153,-5.85698107898e-05,-0.000222250950173,0.00254855654202,0.472752698063,0.00467030724965,0.174263382164,0.00370425982372,0.923775667182,0.382610057904,0.015308117297
-0.308476179838,-0.000358239456546,0.317472547293,-2.50151896477,0.00821569003165,2.53232455254,-0.783012092113,0.043213263154,0.000447288126452,-0.000181702300324,0.000496299064253,0.000257719686488,0.00016555970069,2.44144348471e-06,0.000204910262255,0.47275120896,0.00467216114807,0.17426191396,0.00370385615309,0.92377494452,0.382611870795,0.0153065128574
-0.308469712734,-0.000357765093213,0.317473709583,-2.5015335083,0.00821611005813,2.53232312202,-0.783009171486,0.0432139188051,0.00020088054589,0.000152772350702,-0.000121582081192,6.5341941081e-05,2.85585192614e-05,-0.000194162683329,3.74521077902e-05,0.472743887731,0.00467575017934,0.174255887964,0.00370051502886,0.923774233309,0.382613920989,0.0152989937877
-0.308472812176,-0.000362738472177,0.317471891642,-2.5015642643,0.00821589399129,2.53232312202,-0.783008992672,0.0432139188051,-0.00014137281687,-0.000369067594875,2.6665695259e-05,-0.000711920380127,2.11368296732e-06,-4.15689028159e-05,0.000492026621941,0.472730061388,0.00467304167284,0.174246114914,0.00369645779878,0.923775371139,0.382611708299,0.0152866030407
-0.308473467827,-0.000369475164916,0.317472308874,-2.50161886215,0.00821523740888,2.53232479095,-0.783009171486,0.0432139188051,0.000144678284414,0.000120962780784,0.000539207481779,-0.00781627651304,9.94378642645e-05,9.27686323848e-06,-0.000289684248855,0.472705520861,0.00467233372825,0.174227985245,0.00368891148903,0.923775634334,0.382612025581,0.0152645637384
-0.308471173048,-0.000363145081792,0.317472815514,-2.50173926353,0.00821490492672,2.53232383728,-0.783007264137,0.0432139188051,-0.00131728209089,-0.000397487048758,6.19118873146e-05,-0.00109889393207,-4.47645616077e-05,-7.35057037673e-05,0.000256006343989,0.4726471766,0.00467342540077,0.174178059141,0.00366421084503,0.923776385544,0.382612786753,0.015205859569
-0.308471977711,-0.000356537086191,0.317472845316,-2.50181436539,0.00821615662426,2.53232216835,-0.783002495766,0.0432139188051,0.000163469885592,0.000374432594981,-0.000742268981412,-0.0051584681496,-7.33399720048e-05,1.64018547366e-05,0.00348433014005,0.472610157347,0.00467311996611,0.174145625826,0.00364733843561,0.923778272705,0.38260989862,0.0151678924758
-0.308472633362,-0.000348961650161,0.317471176386,-2.50189971924,0.00821466650814,2.53232192993,-0.783003628254,0.0432139188051,-0.000173306820216,-0.00116547103971,5.58131650905e-05,-0.00407212786376,1.75664190465e-05,0.000239861736191,-0.00295889773406,0.472568437266,0.0046719391868,0.174108895998,0.0036293063369,0.923778977654,0.382610060175,0.0151251484413
-0.308472901583,-0.000354565156158,0.317475020885,-2.50197482109,0.00821520853788,2.53232240677,-0.783003091812,0.0432139188051,-0.0028156528715,-0.000908452435397,-0.000262165965978,-0.00781636405736,-2.56457824435e-05,-3.53585483026e-06,-6.89630905981e-05,0.472533705107,0.00467306322833,0.174082152879,0.00361697235372,0.923779001006,0.382611399597,0.0150927596251
-0.30847415328,-0.000362082530046,0.31747213006,-2.50212240219,0.00821410771459,2.53232240677,-0.782999157906,0.0432139188051,-7.03792975401e-05,-0.000382814236218,-0.000286718684947,-0.0023828104604,0.000132509812829,-1.60537565534e-05,-8.05153540568e-05,0.472464050193,0.00466985291579,0.174027513734,0.00359189829005,0.92378152068,0.382608159875,0.0150265098144
-0.308473795652,-0.000357336713932,0.317472755909,-2.50214886665,0.00821468513459,2.53232216835,-0.78299921751,0.0432139188051,0.000319036713336,0.00425750669092,-7.28272279957e-05,-0.001465161331,4.00652425014e-05,5.15705214639e-05,0.000626626831945,0.472451423597,0.00467065754432,0.174015475033,0.00358538611545,0.923781556567,0.382608666002,0.0150129655647
-0.308473110199,-0.000356196280336,0.317472338676,-2.50216412544,0.00821587536484,2.53232288361,-0.782999396324,0.0427155084908,-0.000180995135452,-0.000241482339334,0.000332031457219,-0.00121947890148,-9.30291134864e-05,0.00559683982283,-0.00039395497879,0.472444156228,0.00467083676763,0.174009079185,0.00358197589577,0.923781773686,0.382608450186,0.0150059182433
-0.308473110199,-0.000356931588612,0.317472934723,-2.50217795372,0.00821525603533,2.53232383728,-0.782997667789,0.0427155084908,9.16055214475e-05,-0.000449989485787,0.000466269993922,-0.00115910777822,-2.46509825956e-05,7.58554742788e-05,-0.000122026867757,0.47243790265,0.00467099026363,0.174004105183,0.00357995695784,0.92378198647,0.382608180925,0.0150001651125
-0.308472067118,-0.000361896381946,0.317472577095,-2.5021841526,0.00821546185762,2.53232336044,-0.782995283604,0.0427155084908,-0.000254545127973,-0.00134577066638,5.16211621289e-05,-0.000171744206455,4.68012076453e-05,6.15075477981e-05,6.46128028166e-05,0.472435603953,0.00467105859356,0.174003869944,0.00358022858545,0.923782354743,0.382607335056,0.0149989957236
-0.308470964432,-0.000359976140317,0.317472726107,-2.50218462944,0.00821478571743,2.53232264519,-0.782994449139,0.0427155084908,-5.06189207954e-05,0.000392051821109,1.64401917573e-05,-0.000519893248565,-7.1841510362e-05,-0.00554849719629,2.53246216744e-05,0.472434635697,0.00467157955684,0.174002375135,0.00357941250239,0.923782190728,0.382607808379,0.0149972180639
-0.30847120285,-0.000356115400791,0.317471563816,-2.50219726562,0.00821700599045,2.5323164463,-0.782993733883,0.0427155084908,0.000104019287392,0.000518687884323,1.54941571964e-05,-0.000924144813325,-5.99014965701e-05,-0.000328922615154,-0.000403518934036,0.472427004907,0.00467129230152,0.173995507232,0.00357416633356,0.923783106673,0.382606019497,0.0149876845279
-0.308470010757,-0.000356055999873,0.317474335432,-2.50222015381,0.00821602437645,2.53231716156,-0.782992064953,0.0427155084908,-1.05712906588e-05,-0.00069991115015,0.000489353493322,-0.00147802114952,7.35791400075e-05,-0.000208649755223,0.000211772610783,0.472415619021,0.00467326153725,0.173986315061,0.0035700322707,0.92378273527,0.382607382076,0.0149767737168
-0.308464020491,-0.000374154304154,0.31747469306,-2.50221133232,0.00821991544217,2.53223800659,-0.782985329628,0.0427155084908,0.00018302994431,-0.00171921984293,-0.00050982524408,0.00406088028103,0.0011815726757,-0.00603457400575,0.000152850610903,0.472406046758,0.0046753812365,0.173990693517,0.00356150326294,0.923783673338,0.382606160013,0.0149521426817
-0.308465123177,-0.000399425276555,0.317474067211,-2.50222039223,0.00822014454752,2.53207755089,-0.782984673977,0.0427155084908,0.000737657072023,-0.00566437840462,2.34519684454e-05,-0.00398945529014,0.000142240241985,-0.0027005483862,0.000211688835407,0.472370883837,0.00467330659447,0.173983320591,0.00353738174142,0.923785088472,0.382605645929,0.0148834348691
-0.308462679386,-0.000414237962104,0.317474454641,-2.50223255157,0.0082177920267,2.53203988075,-0.782984554768,0.0427155084908,0.000558158266358,-2.69961674348e-05,-0.000425497884862,-3.67126922356e-05,0.000181874464033,-0.00309781101532,-0.000133880923386,0.472359193244,0.00467374831898,0.173981660875,0.00353333297656,0.923784429204,0.382607961258,0.0148657856334
-0.308462023735,-0.000405932631111,0.317475229502,-2.50221943855,0.00821894127876,2.53202962875,-0.782981932163,0.0427155084908,0.000766479643062,-0.000366503343685,-0.000123871563119,0.00121954176575,0.000249530625297,-0.00301432050765,-0.000101855723187,0.472361940172,0.00467494217952,0.173982079616,0.00353081702864,0.92378486737,0.38260699259,0.0148640860225
-0.308460563421,-0.000394643138861,0.317478567362,-2.5022175312,0.00821763742715,2.53202152252,-0.782981157303,0.0427155084908,0.000270193006145,0.000402668491006,-0.000122654731967,-0.000841516593937,0.000130393877043,5.49201649847e-05,0.000395035225665,0.472358680993,0.0046776115201,0.173976318979,0.00352595311525,0.923784129196,0.38260913635,0.014855933654
-0.308460474014,-0.000404843478464,0.317473471165,-2.50222969055,0.00821709353477,2.53200411797,-0.782977759838,0.0412064902484,-0.000494174601045,-0.000825265538879,0.00014312712301,0.000591083429754,-0.00013347271306,0.000143162804306,-0.000292951415759,0.472351389724,0.00467475174929,0.173975179931,0.00352416532531,0.923785670437,0.382605781231,0.0148469257927
-0.308461099863,-0.000412048597354,0.317472726107,-2.50221920013,0.00821709819138,2.53199887276,-0.782977640629,0.0412064902484,-0.000649807101581,0.000641247315798,-0.000170468425495,-0.000175481822225,6.94818591001e-05,4.26046244684e-05,-0.000215969907003,0.47235633687,0.00467380170228,0.173982007752,0.00352746225305,0.923785857544,0.382605097687,0.0148521149239
-0.308458894491,-0.000405959639465,0.31747508049,-2.50222253799,0.00821820087731,2.53199672699,-0.78297740221,0.0412064902484,-0.00228290702216,-0.000661691825371,7.28404629626e-05,0.000117158197099,9.20136244531e-07,-0.000583224755246,-0.000133702313178,0.472353343188,0.00467629342511,0.173977771458,0.00352413192264,0.923785286401,0.382606691183,0.0148473791816
-0.308460354805,-0.000395841896534,0.317474544048,-2.5022289753,0.00821799878031,2.53198981285,-0.782975673676,0.0412064902484,-0.00029944779817,0.00127643684391,-0.000533876707777,0.000256765080849,6.56451666146e-05,0.00013904365187,0.00287958956324,0.472347266375,0.00467579962581,0.173970067959,0.00351840577972,0.923786137552,0.382605079412,0.014837310334
-0.308458298445,-0.00040552939754,0.317474842072,-2.5022251606,0.00821825116873,2.53197336197,-0.782971858978,0.0381707213819,-0.000147475337144,0.00146176945418,0.000174161570612,0.000180088420166,-9.04564149096e-05,-0.000234531136812,0.000272908859188,0.472347147238,0.0046764917541,0.173974214887,0.0035189709148,0.923786409669,0.382604491066,0.0148354054222
-0.308455020189,-0.000405089143896,0.317475557327,-2.50222635269,0.00821885187179,2.53197169304,-0.782970070839,0.0381707213819,-0.000317408237606,-0.000481824274175,0.000332130584866,4.26098631578e-05,-4.87527067889e-05,-0.000208731507882,-0.000225678755669,0.472345965134,0.00467840699362,0.173973526229,0.00351811260027,0.923786154863,0.382605176572,0.0148337962502
-0.308456093073,-0.00040069129318,0.317477285862,-2.50222539902,0.00821838807315,2.53196692467,-0.782971560955,0.0381707213819,-0.000163909731782,-0.000103620630398,-0.000443685858045,-0.000376302370569,-5.36395928066e-05,-6.76752222262e-07,0.000734793837182,0.472344717585,0.0046789079971,0.173971474054,0.0035160977941,0.92378573001,0.382606356385,0.0148303008315
-0.308456838131,-0.000402444507927,0.317474514246,-2.50222563744,0.00821802113205,2.53196287155,-0.782967507839,0.0381707213819,-0.000102105826954,-0.000574465084355,-6.61982048769e-05,-4.98050430906e-05,-4.39587711298e-05,-0.000113803806016,-0.000171055216924,0.47234404497,0.00467726666886,0.173972022288,0.0035160184547,0.923787134965,0.382603012035,0.0148290846957
-0.30845874548,-0.000406093255151,0.317475408316,-2.50222611427,0.00821885466576,2.53195595741,-0.782965660095,0.0381707213819,-7.73081046646e-05,0.00394484493881,-5.15504652867e-05,2.97810292977e-05,-6.96657734807e-05,0.000162689364515,0.000335123448167,0.472342845798,0.00467652856257,0.173972581867,0.00351548314115,0.923787833062,0.382601411566,0.0148270163928
-0.308455735445,-0.000402483477956,0.317474216223,-2.50222635269,0.00821898132563,2.53195261955,-0.782966673374,0.0381707213819,0.000570176693145,0.00173369143158,0.000276210746961,-0.000106238090666,4.38008719357e-05,-0.00115180842113,-5.0698989071e-05,0.472341612303,0.00467704142636,0.173970874358,0.00351387095404,0.923787552106,0.382602207703,0.0148243592978
-0.308452308178,-0.000401339842938,0.317474454641,-2.50222611427,0.00821834802628,2.53194785118,-0.782964229584,0.0381707213819,-0.000147505692439,3.72323447664e-05,0.000362750171917,0.000486839271616,0.000144345351146,9.4746988907e-05,-0.00055854319362,0.472340346977,0.00467932069179,0.173969682845,0.00351249406683,0.923787068132,0.382603503193,0.014821409013
-0.308452010155,-0.000402949139243,0.317474067211,-2.50222587585,0.00821890216321,2.53194618225,-0.782962560654,0.0381707213819,-0.00053374399431,-0.00113293714821,-0.000149521496496,-0.000425717647886,0.000154247172759,-0.0001230295602,-0.00258825533092,0.472340343525,0.00467923120704,0.17397034017,0.00351257839568,0.923787486995,0.382602490398,0.0148214266802
-0.308451622725,-0.000405027967645,0.317473590374,-2.50222420692,0.00821796990931,2.5319442749,-0.782960116863,0.0381707213819,-2.91778851533e-05,0.00190613314044,-0.000148044899106,0.000234588980675,-8.28953416203e-05,0.00507507007569,-0.000503123679664,0.472341039402,0.00467904609814,0.173971743104,0.00351343324421,0.923787811725,0.38260167574,0.0148220140215
-0.308451592922,-0.000401300232625,0.317475706339,-2.50222682953,0.00821841228753,2.53194141388,-0.782959640026,0.0381707213819,0.00146461417899,-0.00072020990774,-9.53443523031e-05,-0.000427602004493,3.05457706418e-06,-0.000174229469849,0.000530208752025,0.472338599866,0.00468025144574,0.173968777454,0.00351105720652,0.923787627162,0.382602294611,0.0148181044851
-0.308453440666,-0.000401850702474,0.31747251749,-2.50222563744,0.00821832381189,2.531935215,-0.782954990864,0.0381707213819,-0.000302167492919,0.000955675845034,0.000181791954674,-0.000407287909184,5.24837123521e-05,1.91447520592e-06,-0.000197002271307,0.472337932672,0.00467784609094,0.173968903396,0.00351030504468,0.92378949358,0.382597876877,0.0148159913857
-0.308454483747,-0.000402151228627,0.317475020885,-2.50222849846,0.00821769144386,2.53193354607,-0.782952308655,0.0381707213819,-4.98949375469e-05,-0.000286704482278,0.000517734035384,-0.000216440617805,8.50102333061e-06,-8.41989676701e-05,-0.000435487949289,0.472336251386,0.00467847499524,0.173967764377,0.00350969009603,0.923789659355,0.382597561478,0.0148139453609
-0.30844810605,-0.000402944569942,0.317477494478,-2.50222921371,0.0082173300907,2.53193330765,-0.782952725887,0.0382140614092,0.000194763721083,-0.000412486988353,-0.000362202874385,0.000377388088964,1.59770697792e-05,7.49943719711e-05,-0.00017723464407,0.472335938831,0.00468259496448,0.173967818573,0.00350980252102,0.923787831268,0.382601980727,0.0148137812114
-0.308445364237,-0.000401388475439,0.31747636199,-2.50222682953,0.00821861065924,2.53193044662,-0.782948851585,0.0382140614092,-4.15638533013e-05,-0.00105876871385,-0.000412455352489,8.58494458953e-05,4.29059691669e-05,-8.02989525255e-05,0.000180962844752,0.472336209241,0.00468350862257,0.17396778016,0.00350881505748,0.923788475175,0.382600460663,0.0148131203648
-0.308449029922,-0.000404367310693,0.317474484444,-2.5022315979,0.00821930915117,2.53192782402,-0.78294968605,0.0382140614092,-0.000664902327117,-0.000561856781133,-6.07187257629e-06,0.00062331504887,8.44353326102e-06,-0.000107415908133,-0.000114885115181,0.472333854174,0.00468076297425,0.173967009308,0.00350824239771,0.923789513674,0.382598044357,0.0148109012976
-0.308449357748,-0.000400628661737,0.31747341156,-2.50222826004,0.0082187242806,2.53192806244,-0.782946646214,0.0382140614092,0.000397171097575,-4.92730796395e-05,0.000605293025728,0.000345281267073,-7.65237637097e-05,0.000110977773147,-0.000171753345057,0.472334931511,0.00468026528319,0.173966656216,0.00350785272711,0.923790274829,0.382596203605,0.0148110692005
-0.308448702097,-0.000403142010327,0.317472189665,-2.50222635269,0.00821851566434,2.53192424774,-0.782946169376,0.0382140614092,0.000114039365144,-0.000354201009031,0.000136341826874,-0.000225401483476,-8.7687287305e-05,0.000131569016958,-6.27539047855e-05,0.472335396175,0.00467987343787,0.173968166956,0.00350835155176,0.923790433657,0.382595813302,0.0148111268809
-0.308447569609,-0.000400475400966,0.317474812269,-2.5022289753,0.0082174539566,2.53192257881,-0.782945454121,0.0382140614092,-0.0033184052445,0.00164721801411,0.000117013092677,-2.73736804957e-05,2.44204948103e-05,-0.00069023197284,-0.000126921760966,0.472333367849,0.00468170764483,0.173965789689,0.00350693822267,0.923789738549,0.382597625226,0.0148080110496
-0.30844271183,-0.000403196841944,0.317476212978,-2.50223112106,0.00821801554412,2.53191876411,-0.782941043377,0.0382140614092,-0.000210040860111,0.000337214733008,6.39117060928e-05,-0.000504923867993,0.000146397549543,-0.000195259635802,0.00506239989772,0.472332204441,0.00468457917621,0.173966081286,0.00350662162843,0.923789459634,0.382598349974,0.0148067603843
-0.308439105749,-0.00040113623254,0.317477494478,-2.50223064423,0.00821785908192,2.53191900253,-0.782940626144,0.0382140614092,0.000261749140918,-0.000535667524673,0.000109276050352,0.000572858436499,6.64784383844e-05,-0.000343420746503,0.000550955475774,0.472331849454,0.00468695428939,0.173965097149,0.00350593125684,0.923788623062,0.382600409173,0.0148059086646
-0.30844193697,-0.000403870915761,0.317475378513,-2.50222802162,0.00821780320257,2.53191828728,-0.782940626144,0.0382140614092,0.000205632299185,-0.00292969937436,-0.00297095486894,0.000697191164363,-6.53559836792e-05,7.87828503235e-06,0.000116674586025,0.472333378244,0.00468449403119,0.173967279228,0.00350721929032,0.923789525275,0.382598144844,0.0148078239671
-0.308443963528,-0.000403993530199,0.317474812269,-2.50223088264,0.00821856595576,2.531914711,-0.782937467098,0.0382160283625,0.000126986036776,0.000511288875714,-0.000158203256433,0.000456024368759,-0.000114186361316,-5.36068873771e-05,0.000242820693529,0.472331276369,0.00468329141452,0.173965880628,0.00350583241955,0.923790786944,0.382595221429,0.0148049761813
-0.308439731598,-0.000400780729251,0.317478150129,-2.5022251606,0.00821713358164,2.53191423416,-0.782935917377,0.0382160283625,-7.8800614574e-05,0.000531284487806,2.83409481199e-05,-0.000476682558656,5.54545731575e-05,-0.000212084691157,0.000251666438999,0.472333369306,0.00468697029968,0.173966625121,0.0035060972232,0.923789398994,0.38259852913,0.014806038611
-0.308439850807,-0.000407728628488,0.317476034164,-2.50222587585,0.00821799039841,2.53191447258,-0.782936930656,0.0382160283625,0.000259731226834,-0.000537937739864,-0.000666424923111,-0.000290232885163,7.72245621192e-05,0.000115688322694,0.000295732927043,0.472334144286,0.00468562179394,0.173969486045,0.00350804104983,0.92378971621,0.382597647781,0.0148085606399
-0.308440387249,-0.00041815880104,0.317474871874,-2.50222206116,0.00821955967695,2.53191232681,-0.782933473587,0.0382160283625,0.000242857757257,0.000382485100999,-0.000130524480483,1.93746582227e-05,3.94963026338e-05,-2.25123058044e-05,0.00040350575,0.472336902384,0.00468427697602,0.173975160465,0.00351103698303,0.923790999009,0.382594341805,0.0148132397075
-0.308441460133,-0.000411511893617,0.317474752665,-2.50222158432,0.00821896642447,2.53191280365,-0.782931685448,0.0382160283625,0.00102581118699,5.77046557737e-05,-3.08181442961e-05,-0.000229587036301,-1.03564525489e-05,2.51028382081e-06,0.000332163792336,0.472336408722,0.00468414427404,0.173972699463,0.00350946473632,0.923791373766,0.382593525068,0.0148113358952
-0.308441311121,-0.000417513918364,0.317475259304,-2.50222420692,0.00821795593947,2.53191208839,-0.782932341099,0.0382160283625,0.000139209063491,-0.000247921590926,6.96599381627e-05,4.59064685856e-05,-1.40909623951e-05,5.32602789463e-05,0.000109100947157,0.472335914691,0.00468409891983,0.17397430143,0.00351104728176,0.923790945281,0.382594520572,0.0148119706947
-0.308438658714,-0.000418969430029,0.317475825548,-2.50222229958,0.00821872800589,2.53191041946,-0.782931089401,0.0382160283625,0.000624050968327,-0.00179661926813,0.00058088474907,0.000216365529923,-9.05040942598e-05,-6.74259490552e-06,-7.41911571822e-05,0.472336665188,0.00468559817622,0.173975540619,0.00351131402309,0.923790673971,0.382595143724,0.014812732337
-0.308434814215,-0.000417209375883,0.317476212978,-2.50222563744,0.00821905769408,2.53190946579,-0.782928586006,0.0382160283625,-0.000109421125671,0.000388009648304,-0.000248948694207,-0.000325274333591,3.26906811097e-05,-0.000234236591496,-5.97129255766e-05,0.472334586769,0.00468768499084,0.173973359202,0.00350980137553,0.923790438554,0.38259582717,0.0148101197209
-0.3084384799,-0.00041594466893,0.317475497723,-2.50222659111,0.00821897573769,2.53190922737,-0.782929360867,0.0382160283625,-0.000339155376423,0.000699829426594,-0.00024231869611,0.0011641017627,1.21032217066e-05,0.00020147440955,-0.000833893485833,0.472333911102,0.00468566829549,0.173972397394,0.00350922998955,0.923791133934,0.382594194166,0.0148090662134
-0.308439970016,-0.000417051895056,0.3174726367,-2.50222182274,0.00821747165173,2.53190946579,-0.782927036285,0.0382160283625,0.000431605731137,-0.000274099758826,0.000144348814501,0.000272641278571,-6.50274887448e-05,-6.9066787546e-05,-0.000306428555632,0.472336416229,0.00468350045305,0.17397477604,0.00351094651646,0.923792133215,0.382591665932,0.0148116409306
-0.308437854052,-0.000414415815612,0.317474097013,-2.50222253799,0.0082182046026,2.53190946579,-0.782927036285,0.037781316787,-0.000169148872374,3.32415947923e-06,0.000385248713428,7.78036701377e-05,-0.000117795178085,-4.25919279223e-05,-0.000196313325432,0.472335660156,0.00468535275265,0.17397331459,0.00350973783351,0.923791587673,0.382593042719,0.0148103892442
-0.308431327343,-0.000416177383158,0.317475527525,-2.50222706795,0.00821791961789,2.53190588951,-0.782922446728,0.037781316787,-7.71474969952e-06,-0.000448796112323,0.000330467970343,5.09661695105e-05,3.69990375475e-05,0.000149140265421,9.22900871956e-05,0.472332964483,0.004688990952,0.173972,0.0035087626017,0.923790942817,0.382594728315,0.0148072989838
-0.308430939913,-0.000414808280766,0.317475616932,-2.50222802162,0.00821812450886,2.53190565109,-0.782923281193,0.037781316787,3.22394294017e-06,-0.000952173024416,0.000208836761885,0.000219180743443,-1.46846114149e-05,-6.69787696097e-05,-0.000172377476702,0.472331771106,0.00468936484844,0.173970170895,0.00350766841914,0.923790760376,0.382595248665,0.014805495194
-0.30843052268,-0.000417137664044,0.317476451397,-2.50222659111,0.00821905676275,2.53190565109,-0.782922804356,0.037781316787,-0.000722616678104,0.00052013102686,7.71027043811e-05,-8.88934082468e-05,-4.97686560266e-05,1.66312784131e-05,-0.000353440380422,0.472333276672,0.00468982359453,0.173972594451,0.00350879819285,0.923790710214,0.382595266184,0.0148079044325
-0.30843308568,-0.000423031131504,0.317473083735,-2.50221633911,0.00821917969733,2.53190493584,-0.782919824123,0.037781316787,0.000427133840276,0.000360297999578,0.00352715165354,0.00113223062363,1.58891034516e-05,0.000113297151984,-0.000372859445633,0.4723394624,0.00468730580548,0.173979599476,0.00351272744888,0.923792003819,0.382591828683,0.0148150846678
-0.308421701193,-0.0005512337666,0.317478656769,-2.50219774246,0.00822029728442,2.53190493584,-0.782917678356,0.037781316787,0.000241583053139,-0.0095627931878,0.000255154038314,-0.000823771348223,-6.09487469774e-05,-0.000318300444633,-9.15760683711e-05,0.472367087588,0.00468875177943,0.17404393905,0.00355684838938,0.923788543392,0.382597554955,0.0148723418479
-0.308417469263,-0.000774412415922,0.317478954792,-2.50220966339,0.00821929611266,2.53189897537,-0.782914340496,0.037781316787,0.000830095377751,-0.0124386437237,-0.000419507879997,-0.000495888933074,-8.81680316525e-05,-7.40056493669e-05,-3.98695810873e-05,0.472393907488,0.00468001999453,0.174138857897,0.00362566794092,0.923786581794,0.382598649005,0.0149492238023
-0.308411866426,-0.0010551258456,0.317476421595,-2.50225186348,0.00821818597615,2.53189659119,-0.782912909985,0.037781316787,-0.00054608087521,0.00238191895187,-0.00127644452732,-0.00379772414453,-0.000219073554035,0.000149409199366,-0.000440895353677,0.472415814579,0.00466769285999,0.174248120786,0.00370810934413,0.923784269112,0.382600054808,0.0150356845661
-0.308412581682,-0.00102429639082,0.317476809025,-2.50227308273,0.00821842905134,2.5318980217,-0.782913267612,0.037781316787,-0.00101860042196,0.00101857865229,2.43497033807e-05,-0.000506356765982,-4.86321041535e-05,0.00014227925567,0.000127098144731,0.47240025545,0.00466843980596,0.174224713282,0.00369352013038,0.923785033279,0.382599229636,0.0150133062354
-0.308419138193,-0.00101317872759,0.317471832037,-2.5023021698,0.00821801368147,2.53189969063,-0.782912969589,0.0367017574608,-0.000141094846185,-0.000111528854177,-0.000200007096282,-0.00340421264991,-6.9197260018e-05,0.00026575679658,0.0057504917495,0.472386307549,0.00466388031923,0.174209962111,0.0036858935699,0.923787183194,0.382594723062,0.0149977306181
-0.308419555426,-0.0010436977027,0.317470371723,-2.50233530998,0.0082173300907,2.53190088272,-0.782913088799,0.0367017574608,0.000286060938379,-0.00117221125402,0.000220538742724,-0.00323081342503,-1.68305232364e-05,-8.06631248906e-07,-0.000256906379946,0.472375455045,0.00466133969656,0.174210836412,0.00368996090223,0.923787420863,0.382594236691,0.0149944982576
-0.308417081833,-0.00106105464511,0.317471385002,-2.50236773491,0.00821744091809,2.53190159798,-0.782912015915,0.0367017574608,-9.90544140222e-05,0.0010652798228,7.74792133598e-05,-0.0011957376264,0.000157927090186,-0.00011698819435,7.782283501e-05,0.472362346261,0.00466211746837,0.17420535693,0.00368909666114,0.923787062656,0.382595451089,0.0149857907363
-0.308407247066,-0.00104244053364,0.317479282618,-2.50237894058,0.00821801368147,2.53190135956,-0.782910168171,0.0367017574608,-0.000405480968766,0.000412052526372,-0.000136457267217,-0.000228317076107,-0.000167303864146,-0.00457178847864,-0.000333298346959,0.47235487966,0.00467110372479,0.174193779937,0.00368145169943,0.923784390833,0.382602414141,0.014974596572
-0.308408439159,-0.0010422449559,0.317476987839,-2.50239253044,0.00821602251381,2.53190112114,-0.782908797264,0.0367017574608,-0.000363568717148,-0.00102702330332,-0.000170531828189,-0.00103570742067,6.14692762611e-05,-6.58095304971e-05,0.000234415550949,0.472348032103,0.00466946172325,0.174187878556,0.00367902346267,0.923785088363,0.382601034157,0.0149674196165
-0.308417737484,-0.0010654933285,0.317472338676,-2.50240945816,0.00821673311293,2.53190159798,-0.782909274101,0.0367017574608,-0.000722753000446,-0.000664944760501,-0.000285600894131,-0.000277765939245,0.000101598612673,0.00560555839911,0.000198125271709,0.472343679795,0.00466171658664,0.174191749847,0.00368335762351,0.923787720653,0.382594585602,0.0149687273483
-0.308417260647,-0.00107553659473,0.317470341921,-2.50241518021,0.00821718107909,2.53190112114,-0.782907068729,0.034988515079,0.000702375371475,-6.81994133629e-05,0.00027318354114,0.000238124805037,-1.78004229383e-05,1.82541589311e-05,0.000132939676405,0.47234238628,0.00466051330324,0.174193978295,0.00368530776021,0.923788471529,0.382592714087,0.0149697423546
-0.30841678381,-0.00106497888919,0.317471653223,-2.50240588188,0.00821783114225,2.5319018364,-0.782907605171,0.034988515079,-0.000575650890823,-0.000656732183415,0.00451668351889,0.000378283613827,-6.95702838129e-05,0.000182360439794,-0.000146594364196,0.472345350411,0.00466194253242,0.174192937404,0.0036835939928,0.923788133757,0.382593519484,0.0149704240825
-0.308416962624,-0.00106686819345,0.317470788956,-2.50240397453,0.00821849703789,2.53190112114,-0.782906830311,0.034988515079,9.55724899541e-05,-2.53414891631e-05,-0.000178748116014,-0.000392143905628,-5.85266889175e-06,-0.000117001880426,0.000326627690811,0.472346392198,0.00466140274276,0.174194461864,0.00368424536519,0.923788560265,0.382592430613,0.0149717727478
-0.308409482241,-0.00107679713983,0.317472070456,-2.5024061203,0.0082172267139,2.53190040588,-0.782905042171,0.034988515079,0.000280306121567,-0.000146644480992,0.00035746282083,-0.00085981405573,-0.000123592326418,-0.000380253244657,1.88207231986e-05,0.472346680195,0.00466498532422,0.174198010965,0.00368717537113,0.923786974386,0.382596139723,0.0149741191673
-0.30840498209,-0.0010900394991,0.317474156618,-2.50241756439,0.00821767933667,2.53189516068,-0.782902538776,0.0352341048419,-0.000231448895647,0.000950079353061,5.53594800294e-05,-1.50910636876e-06,-4.74270273116e-05,-9.93639059743e-06,-0.000504997617099,0.472342084486,0.00466743045933,0.17419899003,0.00368811715661,0.923786282293,0.382597903688,0.0149715134784
-0.308406084776,-0.0010905105155,0.317470550537,-2.50241971016,0.00821700133383,2.53189206123,-0.782903790474,0.0352341048419,-0.000274646939943,-0.00126014731359,-0.000655823620036,-0.000895054312423,-4.83682451886e-05,-7.1430389653e-05,-9.17690922506e-05,0.472340488908,0.00466513825288,0.174198071184,0.00368750487924,0.923786871852,0.382596577356,0.0149691810055
-0.308405548334,-0.00114487134852,0.317472577095,-2.5024433136,0.00821627024561,2.53186821938,-0.782899737358,0.0352341048419,0.000356718228431,-0.00492503400892,0.000685316743329,-0.0010695628589,0.000104261016531,-0.0040822410956,-4.76313834952e-05,0.472332338563,0.00466358203042,0.174210992617,0.00369623371711,0.923786961162,0.382596327082,0.0149679133337
-0.308407574892,-0.00129633082543,0.317470341921,-2.50241971016,0.00821702275425,2.53161096573,-0.7829002738,0.0352341048419,0.00130055809859,-0.00851625204086,-0.000124324273202,0.00271646678448,0.000246423238423,-0.0188695918769,0.000206920609344,0.472313593999,0.00465490092911,0.174261294272,0.00370191856261,0.923787909151,0.382595667874,0.0149247885404
-0.308395594358,-0.00158902944531,0.317474722862,-2.50230121613,0.00821619667113,2.53056406975,-0.78289693594,0.0352341048419,0.000588952330872,-0.0167601462454,0.000526989577338,0.0101946284994,0.000115532609925,-0.0583533383906,-0.000369151734049,0.472184901032,0.00464838100543,0.174342355238,0.00361793376216,0.923789252375,0.382605740213,0.0146005133758
-0.308408260345,-0.00267530442216,0.317461818457,-2.501922369,0.00821771193296,2.52694368362,-0.78287923336,0.0352341048419,-0.00322366855107,-0.0470879524946,-0.000670501380228,0.0176996681839,-0.000268685806077,-0.151759028435,0.00259339949116,0.471745492962,0.00458536834013,0.174635954616,0.00335021744892,0.923809698065,0.382598611693,0.0135173894596
-0.30840086937,-0.00390296941623,0.317469209433,-2.50149464607,0.00821671355516,2.52308750153,-0.782760083675,0.0352341048419,0.00101349235047,-0.0676569417119,0.000741505878977,0.0257664453238,-0.000150064472109,-0.225507840514,0.0146571742371,0.471298137535,0.00453467846327,0.174991102281,0.00309222581167,0.923840574258,0.382564015654,0.0124018185838
-0.308413475752,-0.00905819516629,0.317455887794,-2.49943375587,0.00822387635708,2.50818562508,-0.781448185444,0.0352341048419,-6.38136043563e-05,-0.140033617616,-0.00134422292467,0.0605694577098,0.00262701348402,-0.391511470079,0.047812435776,0.469845606481,0.00429027866244,0.176665874382,0.00231576056493,0.924117340583,0.382006439581,0.00853568320936
-0.308408975601,-0.0115288579836,0.317463368177,-2.49825167656,0.00822432618588,2.50137805939,-0.780438959599,0.0352341048419,0.00425399327651,-0.171809434891,0.00106582045555,0.0843071267009,-0.000925723172259,-0.460893988609,0.0849593132734,0.469255547692,0.00417617100995,0.177659627596,0.00202021422144,0.924326422101,0.381537108322,0.00678371558573
-0.308412820101,-0.0197332203388,0.317462980747,-2.49390673637,0.00822925660759,2.48039293289,-0.776443004608,0.0352341048419,0.000658850709442,-0.241739466786,0.000483583338792,0.14241361618,-0.00108847359661,-0.604898095131,0.115673497319,0.467924208591,0.00380746553701,0.181119806688,0.00148838387319,0.92510144086,0.379710583804,0.00223182946908
-0.30840370059,-0.0275341849774,0.317479282618,-2.48897123337,0.00823156069964,2.46183133125,-0.772803008556,0.0352341048419,-0.0035243416205,-0.30645903945,-0.000353758368874,0.199995800853,-0.000387089326978,-0.718890428543,0.139642596245,0.467286101164,0.00348525782792,0.184880478194,0.00141055186324,0.925787598636,0.378039898864,-0.00108032635294
-0.308408915997,-0.032632522285,0.31747636199,-2.48546552658,0.00823188293725,2.44980764389,-0.77054810524,0.0361357107759,-0.00018657403416,-0.330771535635,0.000563365581911,0.246392607689,-0.000181719049579,-0.791095912457,0.148031800985,0.466967319988,0.00324497567078,0.187822096843,0.00144505381912,0.926269469776,0.376844539696,-0.00331266749469
-0.308396309614,-0.0384513735771,0.317489534616,-2.48097658157,0.00822672154754,2.43608307838,-0.767865538597,0.0361357107759,-0.000291257776553,-0.369002819061,0.000510438228957,0.287257373333,-0.000119850352348,-0.834379673004,0.165340393782,0.46685412601,0.00305152133173,0.19064250549,0.00156648823876,0.926709281777,0.375741114827,-0.0051056336081
-0.308422267437,-0.0457243062556,0.317476719618,-2.47508692741,0.00823199469596,2.4195227623,-0.764630675316,0.0361357107759,-0.00148505531251,-0.402589678764,-0.00217602797784,0.333987653255,0.000652730406728,-0.911564767361,0.16492575407,0.466896129864,0.00272452088904,0.195250537927,0.00192767525248,0.927382772248,0.374034076638,-0.00748244638912
