imanlab/tactile_prediction_flat_dataset/train/data_sample_2021-11-24-16-18-22/robot_state.csv
position_panda_joint1,position_panda_joint2,position_panda_joint3,position_panda_joint4,position_panda_joint5,position_panda_joint6,position_panda_joint7,position_panda_finger,velocity_panda_joint1,velocity_panda_joint2,velocity_panda_joint3,velocity_panda_joint4,velocity_panda_joint5,velocity_panda_joint6,velocity_panda_joint7,ee_state_position_x,ee_state_position_y,ee_state_position_z,ee_state_orientation_x,ee_state_orientation_y,ee_state_orientation_z,ee_state_orientation_w
0.136990875006,0.162382379174,-0.137575253844,-2.48198223114,-0.0260172411799,2.65742278099,-0.722677528858,0.0793647319078,-6.64346807753e-05,0.000518954650033,0.000368813663954,-0.000333475269144,-4.32366578025e-05,1.67654416146e-05,0.000248858443229,0.479369689671,-0.00485453513453,0.116317629781,0.0186403847665,0.930897203511,0.364804816471,0.000614911564115
0.136998087168,0.162383273244,-0.137571394444,-2.48198413849,-0.0260159466416,2.6574242115,-0.722676098347,0.0793653875589,-0.0032238883432,-0.000294854165986,0.000337663135724,-0.000291914999252,-0.000109881046228,4.9793994549e-05,-6.54226387269e-05,0.479368860183,-0.00484911739339,0.11631662875,0.0186395875045,0.93089567134,0.364808767512,0.0006145635246
0.136999160051,0.162386164069,-0.137570500374,-2.48198390007,-0.0260169673711,2.65742588043,-0.722676336765,0.0793653875589,0.000110407774628,-0.000434207177022,-0.000842230103444,0.000353811396053,-8.39805288706e-05,-0.000127699007862,1.98574944079e-05,0.479368731526,-0.00484824319513,0.1163154832,0.0186397303761,0.930895090039,0.364810244491,0.000613996857165
0.136997953057,0.162383750081,-0.137571632862,-2.4819817543,-0.0260158050805,2.65742659569,-0.722676992416,0.0793653875589,-0.00380198983476,-0.00048199982848,-0.000235572777456,-0.000422386830905,0.000106068277091,0.000122744313558,8.48192394187e-06,0.479370504847,-0.00484927359509,0.116317449992,0.0186403609768,0.930895572523,0.364808976781,0.0006165583503
0.136995866895,0.162384241819,-0.137572497129,-2.48198127747,-0.0260157492012,2.65742850304,-0.722676932812,0.0793640762568,3.57333556167e-05,-2.11888436752e-05,0.000347516557667,-0.000489497033413,2.54386923189e-05,7.16332724551e-05,0.000212757600821,0.479370880627,-0.00485078969179,0.116317474801,0.0186407237504,0.930896194187,0.364807370869,0.000617179491067
0.136994034052,0.162384957075,-0.137574627995,-2.4819829464,-0.0260157678276,2.65742874146,-0.722677886486,0.0793640762568,-0.000300486572087,0.000422322482336,0.000225020630751,-0.000105979117507,-5.84756753597e-06,6.42937011435e-05,0.000169336562976,0.479370079214,-0.00485269982242,0.11631669292,0.0186405994679,0.930896655344,0.364806201951,0.000616298634964
0.136994764209,0.162384584546,-0.137573257089,-2.48198151588,-0.0260166022927,2.65743160248,-0.722676992416,0.0793640762568,0.00537181319669,0.000497256987728,0.000422937941039,0.000262151530478,-4.87927172799e-06,7.72340936237e-05,0.000420496042352,0.479371361102,-0.00485174842218,0.11631744507,0.018641386518,0.9308963402,0.364806962555,0.000618277610933
0.136999577284,0.16238258779,-0.137572735548,-2.48198103905,-0.0260157100856,2.65743112564,-0.722677469254,0.0793640762568,0.00017507240409,-0.000354318530299,-3.18104284815e-05,0.000426385871833,-0.0001157347142,2.85484802589e-05,-0.000145933678141,0.479372116613,-0.00484897425196,0.116318674138,0.0186414677425,0.930895370794,0.36480942988,0.00061957229863
0.136998206377,0.162381932139,-0.137571468949,-2.4819791317,-0.0260165631771,2.65743231773,-0.722678184509,0.0793640762568,-0.00023474045156,-0.000431558815762,-0.000244375667535,-0.000456465699244,-7.26367434254e-05,0.00152295571752,-2.58835661953e-05,0.479373493742,-0.00484896350111,0.116319742132,0.0186421826648,0.930895108598,0.364810059494,0.00062128052887
0.136996284127,0.162382483482,-0.137574449182,-2.48198056221,-0.0260154530406,2.65743255615,-0.722675263882,0.0793640762568,-0.000480117247207,0.00036374796764,0.000184389500646,-0.000122390003526,-1.69172653841e-05,-9.57236843533e-05,2.93713292194e-05,0.47937267996,-0.00485139779406,0.116319038587,0.0186418905409,0.930896710826,0.36480598731,0.000620481292451
0.136991992593,0.162384316325,-0.137576460838,-2.48198366165,-0.0260166246444,2.65743136406,-0.722677409649,0.0793640762568,-0.000782096933108,0.000227250216994,0.000103668797237,0.000383289210731,-1.99892238015e-05,3.48698767993e-06,-8.0486664956e-05,0.479370441125,-0.00485443175654,0.116317075449,0.0186412568285,0.930897313693,0.364804486421,0.00061747488597
0.136994570494,0.162383928895,-0.137575045228,-2.48197984695,-0.0260156020522,2.65743255615,-0.722677469254,0.0793640762568,0.00327050476335,-8.39377535158e-05,-7.90744234109e-05,2.43493977905e-05,-7.93347571744e-05,4.26119731856e-05,-0.000482520816149,0.479372730144,-0.00485256231667,0.116318608398,0.0186419321191,0.930896698499,0.364806017382,0.000620045572366
0.136998176575,0.162385508418,-0.137571826577,-2.48197770119,-0.0260163825005,2.65743470192,-0.722678124905,0.0793640762568,-0.000213453080505,-0.000210248239455,0.000135122361826,-0.000207938748645,0.000157829548698,0.000168985090568,-0.00022854663257,0.479373993419,-0.00484920315996,0.116318791498,0.0186424182444,0.930895215891,0.364809773232,0.00062153964925
0.136998653412,0.162385359406,-0.137573674321,-2.48197817802,-0.026017377153,2.65743637085,-0.722676277161,0.0793640762568,-0.000486026518047,-0.000643778359517,0.000155320274644,0.00269707385451,-2.00508166017e-05,-2.2364405595e-05,-4.81508432131e-05,0.479374134292,-0.00484994805523,0.116318842514,0.0186429992438,0.930895601275,0.364808759614,0.000621851381096
0.136996209621,0.162382796407,-0.13757301867,-2.48197770119,-0.0260150507092,2.65743756294,-0.722678363323,0.0793640762568,-0.000154098655912,3.7616067857e-05,6.50066504022e-05,-0.000343367340975,3.15662828143e-06,6.97184514138e-05,-0.000100480792753,0.479375176441,-0.00485064090827,0.116320322596,0.0186430303993,0.930895925173,0.364807927749,0.000624059687405
0.136995941401,0.162385001779,-0.137575298548,-2.48197865486,-0.0260171089321,2.65743899345,-0.72267895937,0.0793640762568,0.000193176907487,0.000637701596133,2.30404384638e-05,-0.000246136827627,-2.35353909375e-05,-5.62597197131e-05,8.03252260084e-05,0.479374522674,-0.00485203779519,0.116319103392,0.0186434740834,0.930895926427,0.364807903748,0.000622962634343
0.136997416615,0.162381380796,-0.1375746876,-2.48197960854,-0.0260169915855,2.65744233131,-0.722678482533,0.0793640762568,-0.000260256638285,-0.000203191069886,-0.000323855609167,-0.000345219508745,-1.76234025275e-05,-0.000171561187017,-0.000171777617652,0.479375732134,-0.00485067426465,0.116320731459,0.0186442121091,0.930895639198,0.364808593741,0.000626014982285
0.136994987726,0.162382498384,-0.137574836612,-2.48198032379,-0.0260173324496,2.65744328499,-0.722678780556,0.0793640762568,-0.000137707902468,0.00036699170596,-0.000177643130883,0.000393399503082,8.82468011696e-05,0.00142309733201,-0.000421585311415,0.47937512919,-0.00485216958054,0.116320096471,0.0186442106553,0.93089599595,0.364807684524,0.000625404016175
0.136995375156,0.162383541465,-0.13757571578,-2.48197650909,-0.0260156728327,2.65744400024,-0.722678780556,0.0793640762568,0.000109474756755,0.00035082330578,-6.25750726613e-06,-1.15666471174e-05,-5.70182091906e-05,-8.8817323558e-05,-0.000164096825756,0.479377028112,-0.00485238351285,0.116321000093,0.0186446101884,0.930896333225,0.364806800492,0.000627134492873
0.137000113726,0.162383422256,-0.137571930885,-2.48197722435,-0.0260154586285,2.65744566917,-0.72267729044,0.0793647319078,-0.00028545546229,0.000151126892888,6.55250478303e-05,1.683832852e-05,-7.41499243304e-05,9.63964412222e-05,-0.000400732737035,0.479377071077,-0.0048481733604,0.116320916942,0.0186444321664,0.930895092871,0.36480997346,0.000627826638216
0.136995062232,0.162382870913,-0.137573227286,-2.48197245598,-0.0260157324374,2.65744829178,-0.722678720951,0.0793647319078,-0.000676257128362,-7.49392202124e-05,0.000386071391404,7.27999067749e-05,-2.874088932e-05,6.43804014544e-05,0.00051578466082,0.479380193601,-0.00485118177651,0.116323087737,0.0186459763825,0.930895902709,0.364807821833,0.000631426502535
0.136992082,0.162383243442,-0.137578174472,-2.48197579384,-0.0260154083371,2.65744805336,-0.722678720951,0.0793647319078,-0.00020734386635,0.000370173336705,-0.000145884579979,-0.000272073375527,-4.2521423893e-05,-0.000189680664334,-0.000278894556686,0.479378326612,-0.00485515551011,0.116321786294,0.0186456054129,0.930897398429,0.364804027509,0.00062944031058
0.136998876929,0.162384912372,-0.137574657798,-2.48197603226,-0.0260168183595,2.65744996071,-0.72267717123,0.0793647319078,0.00027732559829,-0.000483698473545,-0.000496995344292,-0.000214833984501,6.18119811406e-05,6.36152344669e-06,0.00033230803092,0.479378294357,-0.00485018173593,0.116321046831,0.0186457214698,0.930895569081,0.364808689578,0.000629466992545
0.13699644804,0.162382468581,-0.13757443428,-2.48197841644,-0.0260167531669,2.65745210648,-0.722678124905,0.0793647319078,-0.00143459858373,0.000202006776817,-0.00119771715254,0.000254818645772,0.00010217756062,-5.61177075724e-05,-0.000316601712257,0.479378045133,-0.00485116055693,0.116321570518,0.0186459104537,0.930895807976,0.364808068483,0.000630532653355
0.136997759342,0.162383183837,-0.137574970722,-2.48197722435,-0.0260162819177,2.65745306015,-0.722676455975,0.0793647319078,-0.00377632654272,0.000825016060844,-0.00100894225761,-3.96663490392e-05,-4.09094718634e-05,7.47124649934e-05,-5.43464957445e-05,0.479378719676,-0.00485079625701,0.116321737742,0.0186461447073,0.930896034556,0.364807477108,0.000631242348647
0.136997625232,0.162384346128,-0.137574151158,-2.48197317123,-0.0260162651539,2.65745377541,-0.722678780556,0.0793647319078,-0.00172479951289,0.000211115766433,-0.000112094079668,-0.000556376297027,-2.80584317807e-05,1.74510787474e-05,0.00059148069704,0.47938071432,-0.00485043864101,0.116322649697,0.018646800171,0.930895468146,0.364808886059,0.00063290285721
0.136996760964,0.162383854389,-0.137574732304,-2.48197817802,-0.0260166395456,2.65745425224,-0.722678244114,0.079051502049,-0.000108768952487,-0.000113408335892,0.00234354380518,0.000424417143222,8.31314973766e-05,-6.56529664411e-05,0.000207968158065,0.479378338959,-0.00485118016609,0.116321194661,0.0186461570527,0.930895784946,0.364808113868,0.000630981565505
0.136996120214,0.16238437593,-0.13757660985,-2.48197746277,-0.0260165017098,2.65745568275,-0.722679197788,0.079051502049,-0.000340920407325,-0.000502166978549,0.000886660709511,-0.000170690662344,-7.59926660976e-06,0.000217476612306,-0.000437125272583,0.479378834886,-0.00485238338432,0.116321193577,0.0186465467059,0.930896093566,0.364807305493,0.000631525058354
0.136993646622,0.162382707,-0.137577950954,-2.48197293282,-0.0260163638741,2.6574614048,-0.722678780556,0.079051502049,0.000230830104556,-0.000392232002923,-0.000191284634639,0.00119385763537,-6.78216747474e-05,0.000503102492075,0.000212560538785,0.479382830021,-0.00485416323887,0.116324247287,0.0186486630282,0.930896807555,0.364805365446,0.00063724169185
0.13699491322,0.162383705378,-0.137575775385,-2.48197484016,-0.0260158944875,2.65746545792,-0.72268140316,0.079051502049,0.000107224623207,-2.51428064075e-05,-0.00132261484396,-0.00057655229466,-7.68994141254e-05,4.29029460065e-05,-0.000493293628097,0.479382520492,-0.0048524514829,0.116323455228,0.018648618636,0.930895768445,0.364808018184,0.000637861855403
0.136998429894,0.162384688854,-0.137574493885,-2.48197436333,-0.0260146856308,2.65747070312,-0.722681522369,0.079051502049,-0.00394831597805,0.000455416011391,-0.000463713164208,4.60026458313e-05,-5.68181094422e-05,8.38696214487e-05,-0.000139488489367,0.479383712951,-0.00485006701686,0.116323616138,0.0186491204286,0.930895038846,0.364809850102,0.000640243833206
0.136997789145,0.162384793162,-0.137574955821,-2.48197412491,-0.0260138101876,2.65747475624,-0.722682654858,0.079051502049,-0.000665918109007,0.000371357455151,-0.000153834102093,0.000369766290532,0.000167090038303,-0.0001574694179,-0.000528755947016,0.479384691836,-0.00485055481058,0.116324022801,0.0186496901446,0.930895148597,0.364809537387,0.000642255494729
0.136996075511,0.162383407354,-0.137574285269,-2.48197674751,-0.0260149165988,2.65747928619,-0.722681343555,0.079051502049,-0.00272096809931,-0.000525262497831,-0.00112738332245,-0.000223180642934,-6.38172059553e-05,-4.81029055663e-05,-0.000123022749904,0.479384615596,-0.00485100519935,0.116324174836,0.018650339931,0.930895382259,0.364808905284,0.000643753316532
0.136997535825,0.162383675575,-0.137573167682,-2.48197293282,-0.0260134153068,2.65748524666,-0.722683727741,0.079051502049,-0.000106202773168,-0.000104744758573,-0.00253428146243,0.000382198515581,-4.51216510555e-05,7.95427549747e-05,2.77563158306e-05,0.47938782753,-0.00484962776745,0.116325900711,0.0186516049203,0.930894673543,0.364810640913,0.000648354321699
0.136993467808,0.162383720279,-0.137577265501,-2.48197507858,-0.0260133892298,2.65749526024,-0.722681164742,0.079051502049,-0.000114090013085,-8.00956840976e-05,-0.000153106884682,1.1931881545e-06,5.04641684529e-05,-0.000136361952173,0.000160267867614,0.479388871201,-0.00485359328021,0.116326092186,0.0186532403697,0.930896563936,0.364805727167,0.000651909941366
0.136995986104,0.162383958697,-0.137575656176,-2.481975317,-0.0260135121644,2.65749740601,-0.72268229723,0.0686078742146,0.000168913247762,-0.000286385475192,0.00340284942649,0.000265565118752,-5.1689974498e-05,-3.69381996279e-05,0.000883946428075,0.479389176372,-0.00485156283678,0.116326073417,0.0186534356029,0.930895577567,0.364808232669,0.000652738396558
0.136998936534,0.162384748459,-0.137574449182,-2.48197436333,-0.0260134804994,2.65749931335,-0.722683250904,0.0686078742146,0.000680914672557,0.000874439545441,0.000248811964411,8.47367555252e-05,-7.16355571058e-05,5.69679432374e-05,0.000233952960116,0.479390048374,-0.00484938345174,0.116326264452,0.0186537396997,0.930894609052,0.364810686478,0.000653872269863
0.136997282505,0.162383928895,-0.137575283647,-2.48197293282,-0.0260142441839,2.65750479698,-0.722681283951,0.0686078742146,-0.000185485638212,-0.000564422109164,0.00196362612769,-0.000173065418494,8.18655098556e-05,-0.000172315863892,-5.77945393161e-05,0.479392026707,-0.00485068703036,0.116327584429,0.018655266743,0.930895281158,0.364808887198,0.000657302917933
0.136995986104,0.162384688854,-0.137574866414,-2.48197484016,-0.0260138195008,2.65750741959,-0.722682356834,0.0686078742146,0.00244004512206,-0.000811949896161,0.000254282145761,0.000369286863133,7.88091201684e-05,-4.47701058874e-05,-0.00043214080506,0.479391444638,-0.00485110281263,0.11632679528,0.018655154448,0.930895308126,0.364808824121,0.000657304117956
0.136996790767,0.162383690476,-0.137577161193,-2.48197245598,-0.0260136257857,2.65750789642,-0.722682237625,0.0686078742146,0.0011294161668,0.000423060526373,-0.00296636391431,0.000133545865538,3.05162448058e-05,0.000129894819111,-0.000231216152315,0.479392998698,-0.00485143149587,0.116328071695,0.0186558700587,0.930895490108,0.364808319895,0.000659111868831
0.136998608708,0.162382707,-0.137574151158,-2.48197245598,-0.026015387848,2.65751290321,-0.722681462765,0.0686078742146,-0.000115064976853,-0.000133271314553,-0.00345160323195,-4.68750404252e-05,-0.000190008868231,0.000107699706859,0.000228780321777,0.47939430582,-0.00484939551243,0.116329055275,0.018657043636,0.930894563293,0.364810619869,0.000661868797764
0.136991322041,0.162383928895,-0.137579709291,-2.48197340965,-0.0260130669922,2.65751957893,-0.722680449486,0.0686078742146,0.000770688115153,0.000642264378257,0.00019487166719,-0.000182654403034,-0.000123994483147,0.000361071462976,0.000721565564163,0.479394967946,-0.0048556434259,0.116328813395,0.0186578014987,0.930897411545,0.364803309291,0.000663955613273
0.136996820569,0.1623878479,-0.137573838234,-2.48200130463,-0.0260121002793,2.65750932693,-0.72268229723,0.0686078742146,-0.00293263560161,0.000852730765473,0.000831683981232,-0.00395952677354,-0.000192008665181,0.000635492440779,0.000502149923705,0.479376078294,-0.00484969660279,0.11631490882,0.0186493184026,0.930895069669,0.364809755802,0.000643385487118
0.137008041143,0.162387534976,-0.13756839931,-2.48200464249,-0.0260132476687,2.65751290321,-0.722680985928,0.0686078742146,-0.000156368812895,-8.42364606797e-05,-0.00344142667018,0.00163408264052,9.69470493146e-05,-0.000428992905654,-0.000102404475911,0.479376723771,-0.00484231263519,0.116315522095,0.0186497015223,0.930892391001,0.36481656857,0.000644973489959
0.137003958225,0.162385717034,-0.137569114566,-2.48195672035,-0.0260118171573,2.6575653553,-0.722683787346,0.0686078742146,7.54739157856e-05,-0.000813945487607,-0.000135509821121,0.00419374834746,0.000179503505933,-0.000891620933544,0.000263387337327,0.479409918903,-0.00484361592715,0.116335604112,0.0186657719306,0.930892401625,0.36481564001,0.000688509025846
0.137008368969,0.162375971675,-0.137568026781,-2.48195695877,-0.0260107945651,2.65798306465,-0.722683310509,0.0677384510636,-0.00366049865261,-0.000304436805891,-0.000327346468112,0.000593699340243,-0.00011991943029,0.000433875102317,0.00032474056934,0.479506082738,-0.00483722108041,0.116380371579,0.0187395711211,0.930889001876,0.364820086274,0.000893865865295
0.137012526393,0.162374913692,-0.137565627694,-2.48195409775,-0.0260102972388,2.65799760818,-0.722682118416,0.0677384510636,0.000298334693071,-0.000392193469452,0.000549685326405,-0.000345084234141,0.000111914720037,-0.000368720619008,-0.000277338025626,0.479510968171,-0.00483381992893,0.116383164733,0.0187424017324,0.930888007627,0.364822456052,0.000902705768197
0.137008517981,0.16237655282,-0.13756737113,-2.48195505142,-0.0260108951479,2.65801739693,-0.722684800625,0.0677384510636,-0.000258905783994,-0.000482007540995,-0.000343508465448,-0.000335087650456,-7.67407691455e-05,-3.11564363074e-05,-0.00262245885096,0.479514411127,-0.00483653207175,0.116383879362,0.0187456924732,0.93088833584,0.364821429894,0.000910596291011
0.137006163597,0.162373676896,-0.137568488717,-2.48195528984,-0.0260104201734,2.65804195404,-0.72268140316,0.0677384510636,0.000386704137782,-0.000467599835247,0.000270727730822,0.000930670765229,-8.36101316963e-05,0.000599520164542,2.40242698055e-05,0.479520236291,-0.00483792804177,0.116387410826,0.0187501699272,0.930889505463,0.364818183062,0.000923438500566
0.137012839317,0.162374898791,-0.137565299869,-2.48195123672,-0.0260103773326,2.65805673599,-0.722681999207,0.0677384510636,0.000189746438991,-6.51613954687e-05,3.44121758644e-06,-0.000414040026953,-6.2976811023e-05,0.00326236663386,6.62339953124e-05,0.479525461659,-0.00483298333259,0.11638978421,0.0187530155093,0.93088748935,0.364823159786,0.000931852590356
0.137011498213,0.162376686931,-0.137565478683,-2.48195385933,-0.0260107554495,2.6580657959,-0.722682893276,0.0677384510636,-0.00335026555695,-0.000362904887879,-0.000239999164478,7.71003833506e-05,-4.97574619658e-05,-6.74603288644e-05,0.000833560887258,0.479525540499,-0.00483372610708,0.116388618668,0.0187539887864,0.930887503022,0.36482306955,0.000933932961497
0.137010887265,0.162375792861,-0.13756492734,-2.48195576668,-0.0260110478848,2.6580722332,-0.722682893276,0.0677384510636,-0.000283964618575,-0.000149853905896,-0.000564134097658,-1.31068245537e-05,5.46224009668e-06,1.01370847005e-06,-0.000251858786214,0.479526422699,-0.00483633635767,0.116388055273,0.0187553758553,0.930888189513,0.364821237907,0.000937314726225
0.13700889051,0.162375763059,-0.137567415833,-2.48195695877,-0.0260106660426,2.65809583664,-0.722682893276,0.0677384510636,-0.000251746387221,0.000116776463983,2.37447020481e-05,-3.06489187096e-06,-6.22407605988e-05,0.000139658543048,-0.000851527729537,0.479530664164,-0.00483570459507,0.116390739927,0.0187588061977,0.930888156973,0.36482111961,0.00094697864169
0.137011364102,0.162377670407,-0.137566402555,-2.48195576668,-0.0260115545243,2.65812492371,-0.722682952881,0.0677384510636,-0.000155122572323,-1.55481920956e-05,1.89270413102e-05,0.000215406587813,-0.000110794382636,-1.10337605292e-05,-0.000254229351413,0.479537209593,-0.00483382721258,0.116392889493,0.0187638873958,0.930887169965,0.3648233421,0.000960243614023
0.13700953126,0.162380024791,-0.137566104531,-2.48196053505,-0.0260112006217,2.65813350677,-0.72268307209,0.0677384510636,0.00276539265178,0.000622022722382,-4.31889711763e-05,-0.000160927564139,8.22057045298e-05,0.000154406938236,7.36927759135e-05,0.479536105079,-0.00483458364711,0.116390894731,0.0187641127259,0.930887450886,0.364822611897,0.000960931490479
0.137010082603,0.162379130721,-0.137565925717,-2.48195934296,-0.0260104257613,2.6581401825,-0.722682595253,0.0677384510636,0.000357908487786,-0.00033024098957,-0.000112322079076,0.000917067169212,-0.000144223391544,0.00299286213703,-0.000238694556174,0.479538365802,-0.0048341174941,0.116392338779,0.0187653917399,0.930887484443,0.364822449377,0.000965139851938
0.137010350823,0.162376001477,-0.137565791607,-2.48195743561,-0.0260097477585,2.65814948082,-0.722682893276,0.0677384510636,-0.000859848572873,0.000191336104763,-0.00032519683009,0.000329877919285,0.00486313551664,-1.27151743072e-05,-0.000413042958826,0.479542109551,-0.00483403190159,0.116395390141,0.0187676610673,0.930887478916,0.364822328281,0.000972094289508
0.137008532882,0.162379965186,-0.137568578124,-2.48195958138,-0.0260101016611,2.65815758705,-0.722684025764,0.0677384510636,0.000219233319513,0.000571488402784,-0.000529476325028,-0.000139288269565,-3.5220036807e-05,-0.000137765266118,-9.07474895939e-05,0.4795415097,-0.00483656549049,0.116392942819,0.0187682449428,0.930888020172,0.364820916621,0.000972297652985
0.137009456754,0.162378355861,-0.137565985322,-2.48195505142,-0.0260105319321,2.65816497803,-0.722683727741,0.0677384510636,-0.001224605483,0.00354467355646,-0.000161275893333,-0.000212000013562,8.13805218058e-06,-0.000134803180117,-0.00223231897689,0.479546085483,-0.00483425421568,0.116396257027,0.0187705418306,0.930887207602,0.364822853876,0.00097900796168
0.13700991869,0.162377253175,-0.137566745281,-2.4819586277,-0.0260115619749,2.65817189217,-0.722683429718,0.0610476732254,-1.42315502671e-05,-0.000314003176754,9.40890022321e-05,0.000263758032816,-0.000168339509401,0.000209767938941,0.00025857554283,0.47954603547,-0.00483431169251,0.116396378538,0.0187714788193,0.930887111247,0.364823045775,0.000981148692594
0.137011915445,0.162377044559,-0.137565732002,-2.48196029663,-0.0260110013187,2.65817809105,-0.722683489323,0.0610476732254,0.00016033204156,5.95424244239e-05,-6.29035275779e-05,0.000186953460798,-0.00195808568969,2.76442242466e-05,0.000350544054527,0.479546577969,-0.00483278179662,0.11639645079,0.0187720563494,0.930886614525,0.364824277219,0.000983480636122
0.137009769678,0.162375852466,-0.137567058206,-2.48196125031,-0.0260108970106,2.65818500519,-0.722683310509,0.0610476732254,-2.55253162322e-05,0.000157673406648,-0.000622166437097,-7.17073926353e-05,0.000227158088819,9.9014112493e-05,0.00447297748178,0.47954783598,-0.00483439654285,0.116397330246,0.0187732881293,0.930887252237,0.364822577635,0.000986816987076
0.137008622289,0.162379294634,-0.137569412589,-2.48195934296,-0.0260111801326,2.65819001198,-0.722683787346,0.0610476732254,0.00176958437078,-2.40673489316e-05,-0.00022747310868,0.000556385028176,-6.16895922576e-05,8.7215055828e-05,0.000145574493217,0.479549164197,-0.00483619327419,0.116396843316,0.0187743368504,0.930887703892,0.364821367259,0.000988277892583
0.137007787824,0.162378057837,-0.137567192316,-2.48195838928,-0.0260110031813,2.65819334984,-0.722682595253,0.0610476732254,-0.000600385013968,8.81892046891e-05,0.0001889490959,0.00028960549389,0.00216001900844,-0.000155828092829,0.000333481148118,0.479550643036,-0.00483538890945,0.116398040257,0.018775011537,0.930887681077,0.364821383444,0.000990972603779
0.137013375759,0.162370026112,-0.137564182281,-2.48194074631,-0.0260111745447,2.65821552277,-0.722685396671,0.0610135272145,0.00053536699852,-0.00132301822305,0.000289861403871,0.00187663407996,-4.9366892199e-05,0.00202800845727,6.67416024953e-05,0.479568622741,-0.00483005945649,0.116412065624,0.018783826312,0.930885203901,0.364827178932,0.00101696851014
0.137049436569,0.162244960666,-0.137550354004,-2.4817802906,-0.0260107722133,2.65845680237,-0.722683548927,0.0610135272145,0.000630681286566,-0.00843681301922,0.000363827042747,0.00789952185005,-7.15721107554e-05,0.00110118149314,0.000276049802778,0.479728471198,-0.00479921549807,0.116546926094,0.0188666261787,0.930874469535,0.364849525538,0.00126324352955
0.137058377266,0.162109926343,-0.137555241585,-2.4816095829,-0.0260110292584,2.65851926804,-0.72268229723,0.0610135272145,-0.000849451171234,-0.00162210757844,-0.000584225927014,0.00843917578459,-0.000108814951091,0.000585064524785,0.000263119698502,0.479854239271,-0.00479113141656,0.116672874937,0.0189226804635,0.930872631669,0.364850685248,0.00143280612598
0.137043967843,0.162122026086,-0.137571528554,-2.48148083687,-0.0260106865317,2.65854477882,-0.722683131695,0.0610135272145,-0.00177877233364,0.000170627463376,0.000139180468977,0.00342679861933,-0.000127367995447,0.00293392082676,0.00260200886987,0.479928192255,-0.00480572156538,0.116717688867,0.0189521632151,0.930877402779,0.364836698704,0.00150315254845
0.137036830187,0.162147298455,-0.13757814467,-2.48142409325,-0.0260111615062,2.65856814384,-0.722681820393,0.0610135272145,-0.000701943936292,0.001206037472,-0.000656120537315,-4.6298041525e-06,-0.000496385211591,-0.000122917466797,-0.000690414162818,0.479957051263,-0.0048125978266,0.116727640501,0.0189641461114,0.930879601756,0.364830362121,0.00152799100707
0.137039989233,0.162160098553,-0.137576267123,-2.4814260006,-0.0260109025985,2.65857744217,-0.722682535648,0.0610135272145,0.000227733296924,0.00049051240785,0.00374484201893,-0.000554085359909,-0.000233406943153,-0.000100498422398,-0.000346302666003,0.479955363282,-0.00481043717174,0.116721727881,0.018963683199,0.930878541118,0.364833103489,0.00152534867031
0.137047857046,0.16215069592,-0.137571975589,-2.48142075539,-0.0260107219219,2.65859460831,-0.722684085369,0.0610135272145,-0.000240398716414,-0.00103698542807,-0.000520687724929,0.000522303744219,-1.44995347e-05,0.00013414939167,-0.0052350028418,0.479963849551,-0.00480400956965,0.11672953725,0.0189682893131,0.930875949293,0.364839412887,0.00154062214921
0.137046083808,0.162152782083,-0.137574329972,-2.4814260006,-0.0260114632547,2.65861129761,-0.722682118416,0.0610135272145,-0.000178352856892,0.00356306857429,-0.000355352938641,-0.000629544258118,-0.000113371133921,-6.56062038615e-05,0.000609366397839,0.479964321803,-0.00480604004871,0.116728274937,0.0189702943558,0.930876839485,0.364837019349,0.00154487517024
0.137045830488,0.162153854966,-0.137573644519,-2.48142552376,-0.0260104872286,2.65861725807,-0.72268307209,0.0610135272145,0.000201682923944,-0.00339940516278,-0.00108721002471,0.000173380991328,2.27641194215e-05,-0.000172915140865,1.49277993842e-05,0.479965871543,-0.00480562881674,0.116728713877,0.0189711538031,0.93087666601,0.364837404754,0.00154783034999
0.137044161558,0.162153571844,-0.137574180961,-2.48142528534,-0.0260113310069,2.65862321854,-0.722683012486,0.0610135272145,-6.53386450722e-05,0.000121522192785,-0.000235743151279,7.21499382053e-05,-0.00444531626999,-3.96971699956e-05,9.3340913736e-06,0.479967207273,-0.00480683293086,0.116729280582,0.0189724816964,0.930876893055,0.3648367446,0.00155060951928
0.13704366982,0.162153571844,-0.137573868036,-2.4814324379,-0.0260106381029,2.65862727165,-0.722682833672,0.0610135272145,-0.00017063228006,-0.00395913468674,-0.000148106264533,-0.000181317838724,0.000198628433282,7.77613022365e-05,0.00573111372069,0.479964298198,-0.0048068871088,0.116727114832,0.0189715488655,0.930877123749,0.364836211108,0.00154905268544
0.137047082186,0.162188112736,-0.137570932508,-2.48143625259,-0.0260101780295,2.6586368084,-0.722683310509,0.0571181811392,5.76848069613e-05,0.000441720621893,-0.000889931689017,-0.000473684107419,0.000134225381771,-7.16496942914e-05,-9.83782301773e-05,0.479957022531,-0.00480471867295,0.116710225691,0.0189681054129,0.930875900642,0.364839569772,0.00153512030128
0.137044280767,0.162191316485,-0.137572154403,-2.48143720627,-0.0260114260018,2.65863895416,-0.722681879997,0.0571181811392,-3.16233195008e-06,0.000388856162317,-0.00235028658062,6.5343658207e-05,0.000261321489234,-3.98994452553e-05,0.00014865770936,0.479956314638,-0.00480684134486,0.116708526937,0.0189683033149,0.930876672097,0.364837595828,0.00153400462857
0.137041434646,0.162187814713,-0.137574091554,-2.48143219948,-0.0260101798922,2.65864300728,-0.722681641579,0.0571181811392,-8.55297039379e-05,0.000293869670713,0.000278975407127,0.00108154304326,0.00242918892764,0.000186401142855,-0.000115183014714,0.479960494849,-0.00480894014891,0.116712379684,0.018970190976,0.930877737114,0.364834755303,0.00153993761793
0.137041032314,0.162131413817,-0.137577190995,-2.48140645027,-0.0260109920055,2.65865969658,-0.722683310509,0.0571181811392,-0.000621935818344,0.000894510187209,-0.000242531546974,-0.000505755888298,0.000157186645083,0.000142434611917,1.75501372723e-06,0.479989417758,-0.00480818976164,0.116749742857,0.0189846869881,0.930877499078,0.364834407362,0.00158690240058
0.137042209506,0.162133976817,-0.137574702501,-2.48140692711,-0.0260115638375,2.65866470337,-0.722681879997,0.0571181811392,0.000509429024532,0.00298184994608,0.000715609290637,-0.00161630485673,-0.000251007906627,-2.2606442144e-05,-0.000377528485842,0.479989767892,-0.0048069276115,0.116748726674,0.0189851517668,0.930877191162,0.364835164349,0.0015879314408
0.137045741081,0.162138104439,-0.137574493885,-2.4813990593,-0.0260113254189,2.65866827965,-0.72268229723,0.0571181811392,-4.78808578919e-05,0.000705505954102,0.000311519746901,0.00182862451766,-4.39775940322e-05,0.000100971650681,3.25849177898e-05,0.479995199316,-0.00480454660663,0.116750235402,0.0189870513474,0.930876262141,0.364837416685,0.00159233600454
0.137046098709,0.162143334746,-0.137572869658,-2.48138570786,-0.0260114502162,2.65867257118,-0.722681820393,0.0571181811392,0.000137838709634,-0.000317885249387,-0.000152999520651,-0.00033520127181,6.79455333739e-05,-2.39045020862e-05,0.000176275018021,0.48000049055,-0.00480425715391,0.116752423858,0.0189890905981,0.930876018724,0.364837911003,0.00159705427161
0.137052029371,0.162138089538,-0.137572348118,-2.48138999939,-0.0260113179684,2.65867757797,-0.722682952881,0.0571930408478,-1.81476862053e-05,-0.00138069631066,-8.31636571093e-05,-1.78387290362e-05,0.000964166480117,-0.0001087927958,-0.000661458820105,0.48000045158,-0.00480088350993,0.116753813637,0.0189897015431,0.930874652083,0.364841353075,0.00160003597938
0.137049987912,0.162140712142,-0.137571766973,-2.48138737679,-0.026010511443,2.65867996216,-0.722683370113,0.0571930408478,0.000245146395173,0.000660762365442,-0.00279297307134,-0.00050563539844,-0.00056379311718,-9.74732465693e-05,-0.000421159289544,0.480001748611,-0.00480158440713,0.116753691537,0.0189900582497,0.930874947032,0.364840577,0.00160116680031
0.137047320604,0.162141367793,-0.137573212385,-2.48138856888,-0.0260115899146,2.65868234634,-0.722681701183,0.0571930408478,-0.000165810575709,0.00104650878347,-0.000450327323051,0.000401557801524,8.47915653139e-05,-0.000115501796245,0.00181354384404,0.480001338179,-0.00480336747592,0.116752931039,0.018990452925,0.930875710964,0.364838607745,0.0016010678399
0.137044072151,0.162143647671,-0.137575522065,-2.48138546944,-0.0260099805892,2.65868377686,-0.722682654858,0.0571930408478,-0.000332884315867,-0.000536975217983,-0.0012269980507,0.00211469340138,-6.88729269314e-05,-0.00010053448932,0.000328688736772,0.480002902913,-0.00480635878374,0.116753352256,0.0189908990978,0.930876877358,0.364835603025,0.00160231151258
0.137040182948,0.162140324712,-0.137577995658,-2.48138403893,-0.0260119400918,2.65868830681,-0.722682535648,0.0571930408478,0.000256806233665,-2.76025602943e-05,0.000245735398494,-0.000116336595966,0.000277615443338,0.000205090400414,-0.000638067896944,0.480005318917,-0.00480938124755,0.116755871796,0.0189929509035,0.930877691084,0.36483340182,0.00160644281601
0.137049123645,0.162143081427,-0.137572169304,-2.48138713837,-0.026010569185,2.65868926048,-0.722682774067,0.0571930408478,0.000321698753396,-0.000165501129231,-4.73217478429e-05,-0.000168289334397,3.73915572709e-05,0.000157276692335,0.0029026074335,0.480003381429,-0.00480219496009,0.116753504306,0.0189914590177,0.930875209401,0.364839820127,0.00160447524468
0.1370549649,0.162144169211,-0.137569695711,-2.48139023781,-0.0260112024844,2.65869259834,-0.722682595253,0.0567189268768,-9.40645259107e-05,0.000106129184132,0.000589440518524,-0.000310728646582,-2.69203064818e-05,-2.08415513043e-05,-1.27861403598e-05,0.480002306119,-0.00479817884049,0.116752187041,0.018991276796,0.930873622129,0.364843880915,0.0016041424249
0.13705688715,0.162145227194,-0.137568622828,-2.48139023781,-0.0260116383433,2.65869426727,-0.722681879997,0.0567189268768,0.00110475381371,0.000451175001217,-2.56045823335e-05,0.000146917824168,8.1340673205e-05,7.43567215977e-05,0.00448415940627,0.480002465958,-0.00479699845037,0.116751862692,0.0189914697789,0.930873223007,0.364844887819,0.00160445687821
0.137049838901,0.16214132309,-0.137569397688,-2.48138952255,-0.0260109547526,2.6586971283,-0.722682356834,0.0567189268768,-7.8143333667e-05,0.000671961170156,0.000101911253296,0.00056897761533,-8.03466245998e-05,2.19816247409e-05,0.00013586843852,0.480004244359,-0.00480035382073,0.116754198012,0.0189924409434,0.930874555096,0.364841423056,0.00160797047159
0.137047439814,0.162157863379,-0.137571379542,-2.48138928413,-0.0260107312351,2.65870118141,-0.722681939602,0.0567189268768,-0.000441693438916,0.000941146048717,-0.000633109419141,0.000272209232207,0.00212662760168,0.000139807802043,-0.00010125094559,0.480001693518,-0.00480296003995,0.116746819815,0.0189913499536,0.930875422032,0.364839294637,0.00160189171258
0.137041643262,0.162168264389,-0.13757519424,-2.48139071465,-0.0260107126087,2.65870189667,-0.722681760788,0.0567189268768,0.000210165570024,-4.98934605275e-06,0.000327488320181,-0.000109965454612,-7.76032320573e-05,1.15498426112e-06,-0.000402018049499,0.479998856301,-0.00480799414077,0.116741491965,0.0189902968108,0.930877192726,0.36483485586,0.00159634698913
0.137040704489,0.162174224854,-0.13757686317,-2.48139548302,-0.0260117612779,2.6587023735,-0.72268229723,0.0567189268768,-0.0016851129476,9.34484633035e-05,0.000598480633926,-0.000366136140656,-4.96497850691e-05,3.46836386598e-05,0.00026524378336,0.479995223226,-0.00480952983256,0.116737066123,0.0189891764171,0.930877408067,0.364834386783,0.00159129999469
0.137048169971,0.16219162941,-0.137572750449,-2.48141002655,-0.0260116308928,2.65870499611,-0.722682476044,0.0567189268768,-0.000221004112973,-0.00344281434081,-0.000401475233957,-0.000584980065469,-4.25732250733e-05,-0.000161378920893,-0.000954454531893,0.479984609621,-0.0048044665904,0.116723935073,0.0189845825883,0.930875344151,0.364839951849,0.00157749652223
0.137046456337,0.162202566862,-0.137574717402,-2.48141407967,-0.0260108523071,2.65870380402,-0.722683012486,0.0567189268768,-9.92936111288e-05,0.000657432363369,0.00149349647108,-0.0004969384172,-8.44768073875e-05,1.89076163224e-05,-3.70226989617e-05,0.479979910818,-0.00480663745217,0.116717244353,0.0189823482599,0.930876060192,0.364838274671,0.00156972458499
0.137038961053,0.162202730775,-0.137575894594,-2.4814145565,-0.0260105896741,2.65870165825,-0.722681581974,0.0567189268768,-0.0028409131337,-0.000198983558221,-0.000208013036172,-0.000189739614143,0.000103670783574,0.000125412101625,0.00584652088583,0.479979183383,-0.00481117684101,0.116716949147,0.0189819619143,0.930878134542,0.36483300746,0.00156847238199
0.137033477426,0.162202090025,-0.137582823634,-2.48141384125,-0.0260115228593,2.65870141983,-0.722683370113,0.0567189268768,-0.000609460985288,3.88054322684e-05,-0.000407570798416,-9.71769113676e-05,0.00149842724204,-3.72439899365e-05,5.01564318256e-05,0.479979555509,-0.0048170071747,0.116717428363,0.0189828393783,0.930879714463,0.364828930324,0.00156853269119
0.137035295367,0.162200659513,-0.137586727738,-2.48140048981,-0.026011640206,2.65869188309,-0.722683250904,0.0567189268768,7.78920802986e-05,0.000177136840648,-2.23748356802e-05,0.0027789005544,-4.69675178465e-05,2.40716726694e-05,-2.7089521609e-05,0.47998556991,-0.00481838234707,0.11672268367,0.0189844163947,0.930880275972,0.364827402466,0.00157157081726
0.137036398053,0.162204951048,-0.137590587139,-2.48132348061,-0.0260114390403,2.65866875648,-0.722681283951,0.0567189268768,-0.00129202753305,0.00199818843976,1.36392254717e-05,0.00491968542337,0.000141144235386,-0.00295822671615,-1.2245470316e-05,0.480018395411,-0.00481915460809,0.116744608709,0.0189939366895,0.930880749253,0.364825603239,0.00159372056362
0.137037172914,0.162160605192,-0.13759380579,-2.48119711876,-0.0260115358979,2.65862798691,-0.722683787346,0.0567189268768,-9.82254496193e-05,-0.0104363048449,-0.000245079078013,0.00721958419308,-4.63931100967e-05,-0.00714340480044,-0.00355130643584,0.480084111871,-0.0048183997789,0.116805946142,0.0190154054229,0.930880401113,0.364825100981,0.00165485954469
0.137040629983,0.161911651492,-0.137597665191,-2.48098158836,-0.0260119643062,2.65834164619,-0.722682237625,0.0567189268768,0.000841608911287,-0.0188891962171,0.000151588508743,0.00936043076217,0.000130979300593,-0.0237058382481,-0.000496440858115,0.480186154349,-0.00481197114245,0.116973066342,0.0190351642593,0.930881719119,0.364820303632,0.00174162980724
0.137026935816,0.160439223051,-0.137634068727,-2.47995448112,-0.0260119717568,2.65565133095,-0.722682774067,0.0580000840127,-8.91191939445e-06,-0.0584545247257,-0.00117534562014,0.0343245007098,5.79501975153e-05,-0.0975044891238,-3.16225923598e-05,0.480444193538,-0.00480772037863,0.117784970471,0.0189370307107,0.930904905434,0.364766575119,0.0016707085236
0.137037113309,0.158734187484,-0.137698814273,-2.47901844978,-0.0260125882924,2.65255451202,-0.722683489323,0.0580000840127,-0.000134796428028,-0.0942038223147,-0.00246514659375,0.0515177547932,-3.65370906366e-05,-0.182167604566,0.000756785972044,0.480607100347,-0.00480404217672,0.118583696631,0.0187962650172,0.93092998956,0.364710569701,0.00150166346558
0.137023434043,0.156983450055,-0.137739181519,-2.47802114487,-0.0260127075016,2.64880371094,-0.722682416439,0.0580000840127,-0.00193381833378,-0.116069659591,-0.00126069097314,0.0694883391261,-3.79908342438e-05,-0.266275048256,0.000117520161439,0.480681748175,-0.00480286367586,0.119479552629,0.0185298148642,0.930963325723,0.364640738817,0.00103121283862
0.137024760246,0.154415622354,-0.137790843844,-2.47656488419,-0.0260131526738,2.64290142059,-0.722683429718,0.0580000840127,0.000531273544766,-0.156899452209,-0.000617188576143,0.0819604024291,-0.00386272883043,-0.358828753233,0.00459065241739,0.480685194265,-0.00479083135534,0.12067491207,0.0180889172181,0.931005494736,0.364556615329,0.000183710953114
0.137035951018,0.148815095425,-0.137809619308,-2.47385311127,-0.0260138139129,2.63027691841,-0.722684085369,0.0580000840127,-0.000639397127088,-0.222125247121,-0.000564267043956,0.113128691912,1.50106807268e-05,-0.516310155392,0.000132737113745,0.480491509133,-0.00471536469359,0.123151951264,0.0170771287253,0.931076008834,0.364421095949,-0.00176123853007
0.137019962072,0.144715517759,-0.137828543782,-2.47178530693,-0.0260148439556,2.62052726746,-0.722681999207,0.0580000840127,-0.000464374374133,-0.270616739988,-0.00246326252818,0.12517246604,7.91357306298e-05,-0.618205189705,0.000204004783882,0.480265741416,-0.00467853620077,0.12495858061,0.0162640118379,0.931131860252,0.36430410382,-0.00338531641197
0.137019425631,0.13969938457,-0.137855216861,-2.46942853928,-0.0260144937783,2.60905504227,-0.722683489323,0.0580000840127,0.00296807778068,-0.318496346474,-0.000634280557279,0.146786823869,7.14948982932e-05,-0.715052902699,-9.48337910813e-05,0.479983707436,-0.00462441357563,0.127159917418,0.0153146633129,0.931190729326,0.364172829885,-0.00523797321583
0.13702057302,0.133227735758,-0.137872740626,-2.4662873745,-0.0260160975158,2.5946662426,-0.722682237625,0.0588097535074,-0.000580291554797,-0.368924796581,-0.000794013147242,0.180300295353,-0.000118379466585,-0.787300348282,-0.000115352020657,0.479742018318,-0.00454709718268,0.129919861974,0.0142367571686,0.931252195986,0.364024329587,-0.00727663178369
0.137027084827,0.12068323046,-0.137901678681,-2.46012473106,-0.0260167680681,2.56790208817,-0.722683131695,0.0588097535074,0.000649639870971,-0.449133068323,-0.00125318253413,0.214951351285,-0.0040084477514,-0.932379066944,-2.8260592444e-05,0.47944194225,-0.00437550841446,0.135942194871,0.0121714749974,0.931361036868,0.363727584486,-0.0109871820607
0.137027457356,0.112685978413,-0.137896150351,-2.45619916916,-0.026021393016,2.55147957802,-0.722682774067,0.0588097535074,-0.00419744523242,-0.490192234516,-0.00136313471012,0.250644415617,0.000313968688715,-1.00135719776,-0.000258907675743,0.479333697312,-0.00425814207091,0.139760234069,0.0109993219107,0.931414325548,0.363562687118,-0.0129823458051
0.137023895979,0.104576520622,-0.137909501791,-2.45194196701,-0.0260213464499,2.53500080109,-0.722683787346,0.0588097535074,0.0004504226672,-0.524804770947,0.000472116662422,0.28034299612,0.00130298396107,-1.06402075291,0.000294210680295,0.479352693827,-0.00414344592838,0.144035069482,0.00981780357553,0.931470868804,0.363377735842,-0.014908121358
0.137027740479,0.0954202264547,-0.137907922268,-2.44710040092,-0.0260266177356,2.51643228531,-0.722684085369,0.0588097535074,-7.3936971603e-05,-0.562355220318,0.000256587780314,0.294088542461,-0.00084091082681,-1.11157512665,-0.000574283418246,0.479332382815,-0.0040221525691,0.148348763656,0.00864519424291,0.931516545686,0.363207606214,-0.0168053622933
0.137010455132,0.0702084898949,-0.13792848587,-2.43208432198,-0.0260258801281,2.46720218658,-0.722682774067,0.0588097535074,0.00151359743904,-0.634639561176,0.000568267307244,0.409723669291,0.000177187946974,-1.24606466293,-0.000628222012892,0.480171941391,-0.00370006926961,0.161896425109,0.00583791649235,0.931651847672,0.362717289989,-0.0206620591586
0.136985242367,0.0538582801819,-0.137940570712,-2.42127203941,-0.0260288007557,2.43571829796,-0.722681283951,0.0588097535074,0.000337433593813,-0.662417590618,0.000135162976221,0.44853168726,-0.000597837788519,-1.27985489368,0.000181671552127,0.481032613375,-0.0035162426182,0.171256604268,0.00427943122353,0.931736640406,0.362414699966,-0.0224522677397
0.13697502017,0.0423785038292,-0.137940213084,-2.41306233406,-0.0260253567249,2.41379594803,-0.722682416439,0.0588097535074,-0.000381996884244,-0.680220901966,0.000367529632058,0.523892521858,-0.000111527690024,-1.29521477222,-0.00028672994813,0.481818418296,-0.0033895519968,0.17814510417,0.00332269622294,0.931795335466,0.362218132766,-0.0233331625218
0.136949807405,0.0286750178784,-0.137948945165,-2.40229129791,-0.0260262396187,2.38752007484,-0.72268396616,0.0588097535074,-0.00442336406559,-0.706262409687,-0.000448391278042,0.560041487217,-0.000136194794322,-1.32252812386,-0.00015314432676,0.483008028662,-0.00326438202496,0.186811041349,0.00233491008895,0.931873634676,0.361981983801,-0.0239816654842
0.136888429523,0.00739075941965,-0.137940227985,-2.38497257233,-0.026028169319,2.347874403,-0.722683370113,0.0589542202652,-0.00219268188812,-0.72797358036,-0.000147024999023,0.617967784405,7.28237937437e-05,-1.30041003227,-0.00017408716667,0.485059795779,-0.00309568133286,0.201254817548,0.00106935535313,0.932009787191,0.361627085902,-0.0241342803106
0.136791422963,-0.00538939004764,-0.137949004769,-2.37354803085,-0.0260278843343,2.3244240284,-0.722683131695,0.0589542202652,-0.00817714910954,-0.710068821907,0.00396448746324,0.629019320011,-1.84620239452e-05,-1.29816508293,-0.000801401038188,0.486278219977,-0.00306189840335,0.208594836082,0.00065770281053,0.93209561235,0.361436424963,-0.0236864361876
0.136686533689,-0.0159890409559,-0.137938946486,-2.36389493942,-0.026027303189,2.30500221252,-0.722680568695,0.0589542202652,-0.00567532842979,-0.71817368269,0.0036545007024,0.663800776005,0.000129245920107,-1.28385698795,-0.000197635585209,0.487587801669,-0.00304418708036,0.217199858123,0.000210943717851,0.932196762843,0.361214944818,-0.0230849338931
0.136548042297,-0.0304301418364,-0.137957066298,-2.35019350052,-0.0260294731706,2.27978348732,-0.722680032253,0.0589542202652,-0.0121640944853,-0.715342462063,0.000612970499787,0.68616437912,-0.000428412866313,-1.24276769161,-0.000209537538467,0.489426454922,-0.00305397723327,0.227859651067,-2.60970981891e-06,0.932335098029,0.3609553307,-0.021506136364
0.135952219367,-0.0640627518296,-0.13794644177,-2.31654644012,-0.0260264612734,2.22324109077,-0.722674012184,0.0589542202652,-0.0162778850645,-0.678360998631,-0.000941037142184,0.693293392658,0.000915167387575,-1.12119233608,0.000375235918909,0.493796566279,-0.00328927978829,0.253963550082,0.000167513745539,0.932713412212,0.360264047038,-0.0159837015582
0.135676383972,-0.0750407651067,-0.137961566448,-2.30519962311,-0.0260213688016,2.20572805405,-0.722672998905,0.0590179152787,-0.0221108421683,-0.677356660366,0.000323222455336,0.711932599545,-0.000871181255206,-1.05250549316,-8.48137860885e-05,0.495313453291,-0.00346065508541,0.263386273953,0.00046802091296,0.932864815909,0.359977143862,-0.013396707679
0.135239079595,-0.08719984442,-0.137933522463,-2.29239320755,-0.0260232035071,2.18710112572,-0.72267049551,0.0590179152787,-0.0246390458196,-0.665345609188,0.000989697757177,0.698100745678,0.00387018639594,-1.00712776184,-0.000558538478799,0.496672541953,-0.00366024566098,0.271735455338,0.000873257851792,0.933006458616,0.359697407359,-0.010768492321
0.1347848773,-0.100346155465,-0.137973561883,-2.27869129181,-0.0260201990604,2.16777682304,-0.722664952278,0.0590179152787,-0.0260624662042,-0.651526212692,-0.00281341560185,0.68689852953,-0.000189727099496,-0.927078485489,-5.39653810847e-05,0.498458901789,-0.00399551456442,0.283806778295,0.00155557022323,0.933207956733,0.359271052954,-0.00669327164619
0.133307948709,-0.12788169086,-0.137987837195,-2.24987459183,-0.0260151941329,2.13003754616,-0.722661554813,0.0590179152787,-0.038279030472,-0.606055378914,-0.000870795629453,0.623731255531,-0.000171249746927,-0.771019995213,-0.00013257075625,0.501599091577,-0.0049518154086,0.307211684941,0.00336592622485,0.933622145469,0.358235094766,0.00244470712825
0.13253903389,-0.139756560326,-0.137991249561,-2.23783254623,-0.0260113961995,2.11504268646,-0.722659945488,0.0590179152787,-0.0356182865798,-0.570214390755,-0.00202135043219,0.565588653088,2.6117930247e-05,-0.715302824974,0.000101375400845,0.502722367257,-0.00546111162405,0.31732220381,0.00429823240869,0.933793450184,0.357721935733,0.00680690628806
0.131843850017,-0.149954363704,-0.138024389744,-2.22772216797,-0.0260107833892,2.10274386406,-0.722658455372,0.0590179152787,-0.0365842431784,-0.559987068176,-0.00024580952595,0.550076425076,-0.000116068447824,-0.648314416409,-0.000207442819374,0.50355638975,-0.00594640788481,0.325982977103,0.00515719783293,0.933933937223,0.357247759123,0.0107164592954
0.129934489727,-0.175515696406,-0.13822247088,-2.20401763916,-0.0260063409805,2.074031353,-0.722656190395,0.0590179152787,-0.03825693205,-0.497233331203,-0.00339940120466,0.432267546654,0.000258068670519,-0.519278466702,-0.000195365806576,0.504871235278,-0.00735430208336,0.347224669391,0.0073765133413,0.934257607656,0.355918463397,0.0207450400618
0.129226997495,-0.183565691113,-0.138294234872,-2.19711732864,-0.0260048955679,2.06566524506,-0.72265625,0.0590179152787,-0.0410187058151,-0.45784124732,-0.00193040643353,0.38062915206,7.72965449869e-06,-0.475112020969,-5.04885883856e-06,0.505055444185,-0.00786839613077,0.353733963081,0.00809271482948,0.934355439931,0.355444114983,0.0239562235824
0.128508090973,-0.191117435694,-0.138354226947,-2.19112229347,-0.0260038133711,2.05807042122,-0.722655713558,0.0590257979929,-0.0365348607302,-0.422178775072,-0.0114338621497,0.325960844755,-0.000306624890072,-0.426028072834,2.53493044511e-06,0.505056545271,-0.00837620872533,0.359642084911,0.00872448358295,0.934447284313,0.354979558498,0.0268638969504
0.12769523263,-0.199247166514,-0.138485088944,-2.18528556824,-0.0260032005608,2.05005550385,-0.722655236721,0.0590257979929,-0.044947039336,-0.388344496489,-0.00816834066063,0.255222678185,-4.06279687013e-05,-0.383918881416,-0.000142555087223,0.504826820443,-0.00897463788085,0.365722844093,0.00931732045338,0.934558920516,0.354437294932,0.0297828015872
0.1262781322,-0.210130542517,-0.138556361198,-2.1785569191,-0.0259992461652,2.03966474533,-0.722652852535,0.0590257979929,-0.0536824837327,-0.332078784704,-1.75350724021e-05,0.185981094837,-0.000156619425979,-0.313160926104,0.000292859826004,0.504154704493,-0.00988316080698,0.373371265265,0.00998771864982,0.934742385871,0.35361750739,0.0333403012192
0.125341102481,-0.215474829078,-0.138557866216,-2.17581748962,-0.0260006617755,2.03454017639,-0.722654044628,0.0590257979929,-0.0601171031594,-0.296738296747,-0.00285265990533,0.135888114572,-0.00228339014575,-0.293061465025,0.000180795104825,0.503612043442,-0.0104287972475,0.376846865828,0.010220031582,0.93487089068,0.353129064286,0.0348113825657
0.124241322279,-0.220397114754,-0.138543516397,-2.17384815216,-0.0259992014617,2.02956843376,-0.72265213728,0.0590257979929,-0.0626626163721,-0.252399295568,-4.55402696389e-05,0.0933331847191,-4.08150408475e-05,-0.265119284391,-0.000516345608048,0.502878148675,-0.0110335371051,0.379747727865,0.0102940729052,0.935038017555,0.352586202596,0.0357897640925
0.123120427132,-0.22435157001,-0.138548269868,-2.1726603508,-0.0260017849505,2.02529549599,-0.722643733025,0.0590257979929,-0.0703826919198,-0.21456387639,0.000516684551258,0.0532572641969,0.000254064565524,-0.240014642477,0.00377411465161,0.502103214409,-0.0116400040774,0.381852355967,0.010237359155,0.935226565125,0.352039247947,0.0362606667319
0.118935957551,-0.231093391776,-0.138711616397,-2.17191123962,-0.0260195322335,2.01504945755,-0.721358060837,0.0590323619545,-0.102999098599,-0.0651821494102,-0.0156609807163,-0.00639079650864,-0.000368209701264,-0.189486548305,0.0463954471052,0.4997020862,-0.013913986384,0.384505213437,0.00936581732685,0.936288281358,0.349356026237,0.0350271648208
0.114634118974,-0.231395438313,-0.139409691095,-2.17210388184,-0.026036247611,2.00863623619,-0.71946978569,0.0590323619545,-0.131545811892,0.0293760076165,-0.0350520387292,-0.0161371137947,-0.00303179142065,-0.161485031247,0.0501323118806,0.49824291079,-0.016335302062,0.383878246624,0.00822960721645,0.93755012013,0.346263494765,0.0321502362144
0.112286068499,-0.230440631509,-0.139995157719,-2.17243409157,-0.0260425023735,2.00631642342,-0.718435764313,0.0590323619545,-0.142816796899,0.0821559727192,-0.0365491844714,-0.0286083072424,0.000275199738098,-0.120038107038,0.0773311778903,0.497656944209,-0.0177751032057,0.383000027762,0.00760791991551,0.938284052304,0.344437880917,0.0304582110706
0.107810214162,-0.227348655462,-0.141361236572,-2.17337465286,-0.0260498523712,2.00406837463,-0.715236783028,0.0590323619545,-0.174247801304,0.121008887887,-0.0693586841226,-0.0421052239835,-0.000914046715479,-0.0459237881005,0.14882747829,0.496957231875,-0.0206305301595,0.380769697208,0.00655512325628,0.939908313753,0.340254691707,0.0274979372843
0.104135900736,-0.224342167377,-0.143110528588,-2.17430639267,-0.0260574687272,2.00346088409,-0.711912751198,0.0590323619545,-0.178244620562,0.170430064201,-0.100169762969,-0.0439606569707,0.00257979123853,-0.0126704191789,0.163220912218,0.496591074478,-0.0232809947685,0.378748428379,0.00575786084459,0.941434593108,0.336191272173,0.0253610358745
0.101491309702,-0.22170111537,-0.144702464342,-2.17492508888,-0.0260586086661,2.00344419479,-0.709521174431,0.0590323619545,-0.196256950498,0.199329420924,-0.124662406743,-0.0473832339048,0.000514212879352,-0.00122549885418,0.179268047214,0.496443528443,-0.0251946992861,0.377245206343,0.00522391893871,0.942488580592,0.333339275119,0.0239356110106
0.0984130352736,-0.218502476811,-0.146880045533,-2.17561864853,-0.0260658822954,2.00346040726,-0.70654296875,0.0590323619545,-0.209618374705,0.224321514368,-0.156590864062,-0.0416572205722,-0.00020679087902,0.00147925037891,0.210498213768,0.496240073563,-0.0279240476756,0.375180326587,0.00447532193985,0.943970394062,0.329265569822,0.0220011555471
0.0854431763291,-0.205730542541,-0.15764054656,-2.17833375931,-0.0260757282376,2.00527000427,-0.6950096488,0.059034332633,-0.282960683107,0.276424527168,-0.248964384198,-0.0590088367462,0.000139940049849,0.0804059877992,0.212925210595,0.495555800502,-0.0395495970538,0.36759879445,0.00182594314639,0.949711271564,0.312731838925,0.0156193216214
0.0804137140512,-0.200956597924,-0.162176713347,-2.17928886414,-0.0260778032243,2.00689983368,-0.691460609436,0.059034332633,-0.308087289333,0.279095947742,-0.286797374487,-0.0593674182892,0.000137650538818,0.108938664198,0.204039469361,0.495393771152,-0.0442487261336,0.364878055619,0.000995915589618,0.951755258564,0.306549987661,0.0137127933868
0.0750050470233,-0.196287989616,-0.1673925668,-2.18034529686,-0.0260806847364,2.00924873352,-0.68811160326,0.059034332633,-0.330658167601,0.27659368515,-0.321886360645,-0.0629020482302,0.000101417164842,0.159690141678,0.19177262485,0.495243437984,-0.0494780237746,0.362216246953,0.000244990649613,0.953878559154,0.299946389457,0.0121571998758
0.0677773281932,-0.190217778087,-0.174717783928,-2.18162727356,-0.0260828249156,2.01332807541,-0.684344291687,0.059034332633,-0.363779813051,0.305071562529,-0.383897125721,-0.0559424124658,-3.02578300762e-05,0.239207431674,0.167482540011,0.495151356071,-0.0566668857435,0.358883375228,-0.000546159678377,0.956584361474,0.291260073041,0.0106597671422
0.0593645051122,-0.183542847633,-0.183857560158,-2.18286085129,-0.0260847117752,2.01963591576,-0.68058103323,0.059034332633,-0.401471674442,0.294521421194,-0.442559182644,-0.0592970401049,-0.000502733048052,0.35664114356,0.158860057592,0.49529716404,-0.0683059273042,0.354404977842,-0.00118852392983,0.960591126566,0.277785802549,0.00991577364646
0.0499593764544,-0.176589876413,-0.194173395634,-2.18411970139,-0.0260961279273,2.02816772461,-0.677084386349,0.059034332633,-0.417851150036,0.310975372791,-0.47211548686,-0.0481091961265,0.000645511958282,0.415997684002,0.149859860539,0.495482968136,-0.0752744135572,0.352041428967,-0.00126969791335,0.962802841721,0.270012031801,0.0101280904774
0.0420666635036,-0.171027734876,-0.20317299664,-2.18484854698,-0.0260996390134,2.03608822823,-0.674615859985,0.0590369589627,-0.458821505308,0.305662602186,-0.534209251404,-0.0391680747271,-0.00271921837702,0.464148759842,0.138960778713,0.495734319236,-0.083803332801,0.349532052043,-0.00114553082043,0.965353247784,0.260716335016,0.0108989495531
0.0332933217287,-0.165349170566,-0.213831469417,-2.18538546562,-0.0261181853712,2.04537343979,-0.672283768654,0.0590369589627,-0.468822807074,0.305689454079,-0.580325484276,-0.0144802518189,0.000637163408101,0.512153923512,0.124886848032,0.495938565467,-0.0936784477608,0.347149835282,-0.000770267063095,0.968106997091,0.250232203053,0.0123326039982
0.0209286529571,-0.157428786159,-0.229238182306,-2.18547391891,-0.0261602643877,2.05982732773,-0.668973565102,0.0590369589627,-0.501970052719,0.297368526459,-0.638124585152,-0.000812173355371,-0.00528710335493,0.591147661209,0.140177160501,0.496311566761,-0.107963415371,0.344268754345,0.000312902499661,0.971830443196,0.235185603362,0.0152716546463
0.0138637693599,-0.153377011418,-0.238276958466,-2.18544650078,-0.0261971112341,2.06836724281,-0.666972696781,0.0590369589627,-0.512440025806,0.287007033825,-0.662748575211,0.00796792656183,-0.00196562707424,0.618704199791,0.139034584165,0.496375587887,-0.116304541263,0.342917361479,0.00113063317423,0.973882233429,0.226389751128,0.0173146573509
0.00143156608101,-0.146576151252,-0.254296898842,-2.18513083458,-0.026218265295,2.08412647247,-0.664079070091,0.0590369589627,-0.526941537857,0.275663375854,-0.68385887146,0.0187059883028,-0.00227689766325,0.681555986404,0.108876317739,0.496341612678,-0.131165830221,0.34090537884,0.00295770748253,0.977226512948,0.21108943077,0.0214673303113
-0.0123697575182,-0.139763861895,-0.272669255733,-2.18454408646,-0.0262237098068,2.10246348381,-0.661106407642,0.0590369589627,-0.527446508408,0.256457358599,-0.726985216141,0.0289491266012,-0.00046395213576,0.714916408062,0.116346262395,0.495902187124,-0.148129172352,0.339241671127,0.0055117484495,0.980649699285,0.193845624661,0.026826505856
-0.0198532268405,-0.13618299365,-0.283023416996,-2.18403673172,-0.0262258742005,2.11252617836,-0.659502029419,0.0590369589627,-0.539977908134,0.251906841993,-0.736500918865,0.0399369820952,-0.000871189928148,0.717815339565,0.121394194663,0.495466873069,-0.156909018269,0.338550389143,0.00695759528777,0.982273435133,0.184961998129,0.0296571988617
-0.0303516704589,-0.131481960416,-0.297914296389,-2.18308830261,-0.0262097157538,2.12673616409,-0.657384455204,0.0590369589627,-0.520001709461,0.216671347618,-0.747091591358,0.0513734258711,0.000334546639351,0.701182425022,0.097654864192,0.494464291558,-0.171129881276,0.337759099843,0.00949429779488,0.984679778452,0.170681315296,0.0344017517399
-0.0402591973543,-0.127513855696,-0.312435686588,-2.18202161789,-0.0261606778949,2.14009952545,-0.655647695065,0.0590369589627,-0.517251133919,0.205799743533,-0.771635651588,0.0576766841114,0.0136921303347,0.701834142208,0.0970131829381,0.49307648611,-0.184884222267,0.337364087981,0.0121181573131,0.986746027519,0.157018176604,0.0391244086471
-0.0551897399127,-0.122273929417,-0.335224092007,-2.1801211834,-0.0255867987871,2.16036534309,-0.653200984001,0.0590395852923,-0.497605144978,0.144700393081,-0.757456600666,0.068506538868,0.0465150140226,0.638921558857,0.0739324465394,0.490445390244,-0.204378180403,0.337360265814,0.0159916899444,0.989284271548,0.137591168295,0.0461472212196
-0.0634670853615,-0.120139114559,-0.347850620747,-2.17893910408,-0.0246515534818,2.17118501663,-0.651831388474,0.0590395852923,-0.475933283567,0.116162739694,-0.728300690651,0.0743286684155,0.0803023502231,0.630635678768,0.0836912021041,0.488556675466,-0.215499516887,0.337777668241,0.0181459867738,0.990548368922,0.126242123226,0.0504735377271
-0.0704180896282,-0.118502363563,-0.358626186848,-2.17786860466,-0.0229980647564,2.18056178093,-0.650623202324,0.0590395852923,-0.467320114374,0.0958508700132,-0.716174662113,0.0656837970018,0.153393998742,0.604582726955,0.080388866365,0.486849049765,-0.224865853985,0.338288983556,0.0198242234916,0.991514805332,0.116347787861,0.0544847036241
-0.0792684778571,-0.117076173425,-0.372215718031,-2.17665147781,-0.0188386961818,2.19239282608,-0.648924529552,0.0590395852923,-0.432544142008,0.0449323952198,-0.646649062634,0.0551289767027,0.261815309525,0.565341114998,0.0878751650453,0.484476172292,-0.236475931844,0.339215708203,0.0213304545066,0.992612094442,0.103162314916,0.0601978251921
-0.0915019586682,-0.116659656167,-0.390478312969,-2.17530798912,-0.00988892000169,2.20823407173,-0.646586894989,0.0590395852923,-0.390046060085,-0.0069190794602,-0.564862370491,0.0433093570173,0.326853960752,0.48480001092,0.0702563896775,0.480817150233,-0.251850216126,0.341114011199,0.022426337685,0.993789300446,0.0842749609946,0.0691203034273
-0.0981801524758,-0.1170225963,-0.400102525949,-2.17460536957,-0.0033598060254,2.21658229828,-0.645247161388,0.0590395852923,-0.35452529788,-0.0390573106706,-0.490447759628,0.0330231189728,0.393012881279,0.434702932835,0.0819680169225,0.478707801448,-0.259885450545,0.342431806644,0.0225244275563,0.994246157825,0.0736219073779,0.0744784684787
-0.117770433426,-0.124876670539,-0.427485942841,-2.17162013054,0.0394012145698,2.24201726913,-0.637786746025,0.059044841677,-0.0994033142924,-0.148332208395,-0.17710635066,0.0318960249424,0.62242680788,0.198412016034,0.110282808542,0.473600450875,-0.281068142556,0.350604968498,0.0159132865093,0.994307867602,0.0343332252357,0.0995984993907
-0.118943668902,-0.127546414733,-0.42984393239,-2.17115068436,0.05055231601,2.24516606331,-0.635663568974,0.059044841677,-0.0351862758398,-0.165920332074,-0.110443390906,0.0278177373111,0.674349963665,0.169064611197,0.137602239847,0.473879330796,-0.28209117717,0.352637474555,0.0131335016456,0.993988527087,0.0283753276237,0.104924542576
-0.11902102083,-0.130440980196,-0.430938661098,-2.17067980766,0.0624430589378,2.24770927429,-0.633296072483,0.059044841677,0.0159201379865,-0.180303320289,-0.0193800665438,0.0226322282106,0.717665076256,0.147780835629,0.140042722225,0.474754905016,-0.281873644296,0.354770634176,0.00987357020677,0.99357897991,0.023282882659,0.110277968636
-0.117917440832,-0.134313136339,-0.430425405502,-2.17012882233,0.0778396949172,2.25014877319,-0.629988729954,0.059044841677,0.096155077219,-0.179100200534,0.057557310909,0.0309900399297,0.756024956703,0.100759364665,0.17602622509,0.476600408515,-0.280011443927,0.35754340614,0.00531035108431,0.992966666098,0.0181607654089,0.116872522379
-0.11350350827,-0.139457315207,-0.427224606276,-2.16907668114,0.101109623909,2.25217461586,-0.623895287514,0.059044841677,0.206227421761,-0.180574730039,0.158170178533,0.0415508076549,0.826672434807,0.0413323789835,0.240117579699,0.480592280995,-0.274578784141,0.361410571292,-0.00235353205812,0.991971739251,0.0125235914355,0.125816091064
-0.10942222923,-0.142543077469,-0.423919349909,-2.1683549881,0.115411937237,2.25269770622,-0.619516253471,0.059044841677,0.271631777287,-0.186714679003,0.231655612588,0.0412825122476,0.8567019701,0.0257339160889,0.268784254789,0.483648645936,-0.269849197836,0.363772350058,-0.0074455041755,0.991311831696,0.0101368540308,0.130929983945
-0.0752119868994,-0.154954448342,-0.39130422473,-2.16356039047,0.192695245147,2.25299906731,-0.58845937252,0.0590487793088,0.527742087841,-0.103553682566,0.537354528904,0.0826616287231,0.953844666481,-0.00330832786858,0.514036595821,0.505683278296,-0.230232336582,0.375396818287,-0.0382073572249,0.987307612847,0.00730829239894,0.153982025014
-0.0657076090574,-0.156640827656,-0.381356030703,-2.16222643852,0.209009245038,2.25287795067,-0.579165518284,0.0590487793088,0.584215044975,-0.0942724570632,0.614836156368,0.0812397897243,0.959633052349,-0.0124167809263,0.574020683765,0.511195216684,-0.218960934514,0.377687706552,-0.04539181217,0.986381040276,0.00806590549743,0.157882765484
-0.0556083284318,-0.157879590988,-0.37050229311,-2.16084170341,0.225226446986,2.252825737,-0.568956196308,0.0590487793088,0.616282820702,-0.0516973026097,0.652524650097,0.0836610347033,0.942749142647,-0.00553530082107,0.62605381012,0.516809054523,-0.20681875705,0.379825191797,-0.0527629570722,0.98544454087,0.00914287480444,0.161342910496
-0.0217799488455,-0.158945128322,-0.33386349678,-2.15638542175,0.271050035954,2.25238156319,-0.534391701221,0.0590500943363,0.729653775692,0.0133234495297,0.797459661961,0.0990800485015,0.860636353493,-0.00625150976703,0.770244657993,0.533246773271,-0.165843501406,0.385060433611,-0.075167096457,0.982753638454,0.0149676327235,0.168288928285
-0.0106329359114,-0.158758118749,-0.321617096663,-2.15509486198,0.28377622366,2.25227451324,-0.522602319717,0.0590500943363,0.755000412464,0.0154536506161,0.836863398552,0.0787223428488,0.828393220901,-0.004723216407,0.804235160351,0.537878459699,-0.152184512123,0.386345767899,-0.0818850724684,0.981984880557,0.0173932688963,0.169404849864
0.00232580048032,-0.158332303166,-0.307276248932,-2.1538233757,0.297308266163,2.25224232674,-0.508634388447,0.0590500943363,0.777603387833,0.0335783921182,0.871754586697,0.0684408918023,0.7574172616,-0.000933457049541,0.842058181763,0.542757961461,-0.136207290449,0.3875742975,-0.089324172904,0.981160283356,0.0204493240418,0.170080908223
0.0189375821501,-0.157444581389,-0.288881987333,-2.15250778198,0.312416523695,2.25220298767,-0.490279316902,0.0590500943363,0.785632669926,0.0450463443995,0.878010571003,0.0523749887943,0.690838336945,-0.00280322995968,0.889473199844,0.548178403096,-0.115698507458,0.38870539792,-0.0981607292952,0.980243254712,0.0247182402486,0.169931283497
0.041477445513,-0.155823290348,-0.263613432646,-2.15112948418,0.330358237028,2.25206136703,-0.46477997303,0.0590500943363,0.816046714783,0.0708727315068,0.91695535183,0.0459283217788,0.584392905235,-0.00673577049747,0.941491365433,0.554148846717,-0.087588942711,0.389662126845,-0.109354720048,0.979156366411,0.0310144506883,0.168322484728
0.0545002855361,-0.154437750578,-0.248832345009,-2.15043258667,0.339014828205,2.25197577477,-0.449518352747,0.0590500943363,0.80542242527,0.0942856445909,0.908335447311,0.0376493111253,0.501444101334,-0.0034405940678,0.964080572128,0.556904117647,-0.0712720693838,0.389828915833,-0.115210902619,0.978649274819,0.0349061903499,0.1665941247
0.0682567879558,-0.15270857513,-0.23309597373,-2.14984416962,0.34689232707,2.25190067291,-0.432889133692,0.0590500943363,0.801376223564,0.105260901153,0.932810783386,0.0310025271028,0.437465012074,-1.74785327545e-05,0.997778356075,0.559243513532,-0.0539985979109,0.389712044175,-0.120929078798,0.978204560629,0.039138614399,0.164195505491
0.08420868963,-0.150671198964,-0.214559614658,-2.14944314957,0.355176538229,2.25189614296,-0.412331610918,0.0590500943363,0.79650592804,0.106709189713,0.922093153,0.00943527929485,0.387643158436,-0.0038448467385,1.04681348801,0.561218861977,-0.0337969121987,0.389359666051,-0.12729392638,0.977752128725,0.0437591110175,0.160879367785
0.121488958597,-0.144484937191,-0.170978561044,-2.14940452576,0.370485723019,2.25194573402,-0.359795063734,0.0590514056385,0.741862952709,0.136385515332,0.895740151405,-0.0017390033463,0.254055649042,0.00735456356779,1.12371194363,0.562766326777,0.0133831401731,0.386979106549,-0.140586341806,0.977115195143,0.0533931473511,0.150434528716
0.132697090507,-0.142183974385,-0.157328307629,-2.14942860603,0.374131560326,2.25227975845,-0.341683030128,0.0590514056385,0.70250505209,0.155739471316,0.840449035168,-0.00374829676002,0.2088496387,0.0269248951226,1.18314480782,0.56249898141,0.0277662296226,0.385963696706,-0.144186292018,0.977032345027,0.0556152201997,0.146714201568
0.144137859344,-0.139507263899,-0.143556028605,-2.14942312241,0.377366989851,2.25287294388,-0.322254180908,0.0590514056385,0.682033658028,0.17530401051,0.828413069248,0.000204957294045,0.190967410803,0.043374683708,1.1987131834,0.561960333037,0.0414173668959,0.384828024851,-0.1474105751,0.977010002339,0.0573343337486,0.142948772459
0.175492033362,-0.131032884121,-0.104738429189,-2.15012979507,0.385153025389,2.25794315338,-0.258619576693,0.0590514056385,0.541774094105,0.176387041807,0.680807113647,-0.0266247596592,0.125345423818,0.172836691141,1.29637491703,0.558817692888,0.0821996596999,0.38068544562,-0.156429319766,0.977255247137,0.0576649394432,0.131060307935
0.18392214179,-0.128210768104,-0.094234906137,-2.15067362785,0.38713568449,2.26124119759,-0.237765610218,0.0590514056385,0.501678824425,0.170621603727,0.623617887497,-0.0415235161781,0.118959762156,0.228396713734,1.3056961298,0.557787756556,0.0927963650338,0.37930809764,-0.158679471655,0.977410884705,0.055712935137,0.128003344839
0.19202311337,-0.125385299325,-0.0842016935349,-2.15146279335,0.388809502125,2.26587152481,-0.21529494226,0.0590514056385,0.455721050501,0.151155948639,0.571279406548,-0.0549810416996,0.0952745676041,0.30253431201,1.32892906666,0.556767634713,0.103375750048,0.377866043748,-0.160846295668,0.977606617538,0.052308608632,0.125210142056
0.200881421566,-0.12217245996,-0.0729244872928,-2.15266370773,0.390473365784,2.27282714844,-0.187285348773,0.0590579733253,0.388057738543,0.158791005611,0.48706522584,-0.0566770210862,0.0729712769389,0.366254627705,1.35410666466,0.555796738495,0.113792778273,0.376415560528,-0.16294748491,0.977819652318,0.0473312487147,0.122786796086
0.21103361249,-0.117666058242,-0.0605839677155,-2.15475964546,0.39259827137,2.28519749641,-0.146188825369,0.0590579733253,0.302683532238,0.140436083078,0.369131714106,-0.0694288834929,0.0701331794262,0.432322651148,1.37829899788,0.555104549714,0.125808015779,0.374364935459,-0.165758137272,0.978112453324,0.0361241259486,0.120479524402
0.214466378093,-0.115945532918,-0.0564773418009,-2.15583515167,0.393318742514,2.29144120216,-0.128305897117,0.0590579733253,0.249842122197,0.127963632345,0.30094435811,-0.084814876318,0.0416987016797,0.496466606855,1.37155413628,0.555119564193,0.129715217048,0.373623140179,-0.166819502211,0.978183670088,0.0301242856611,0.120085337841
0.21845266223,-0.113308556378,-0.0517639033496,-2.15745615959,0.393848955631,2.30144071579,-0.102064244449,0.0590579733253,0.173061698675,0.146837279201,0.211712345481,-0.0773397162557,0.0198128316551,0.534058690071,1.37999093533,0.555554963953,0.134045127653,0.372537507198,-0.168081130361,0.978230532782,0.0202228071824,0.120019982147
0.222029134631,-0.106723628938,-0.0469441302121,-2.16136717796,0.3943605721,2.33161568642,-0.0327530167997,0.0590579733253,-0.0251982156187,0.130189090967,-0.0149373263121,-0.0694480165839,0.00653966935351,0.664201796055,1.34043323994,0.559356292993,0.137127233964,0.370572616907,-0.170805753674,0.977488029387,-0.0130908542657,0.123171328428
0.221096470952,-0.104434646666,-0.0478179082274,-2.16246747971,0.394547611475,2.34314584732,-0.0102135967463,0.0590579733253,-0.0850878059864,0.137180894613,-0.0814844742417,-0.0603136010468,0.0128108914942,0.688040673733,1.31769061089,0.561567774197,0.13550810654,0.37018154856,-0.171606073521,0.976799406168,-0.0262861651267,0.125392634789
0.219123363495,-0.102117478848,-0.0497613586485,-2.16337418556,0.394747942686,2.35521292686,0.0119070140645,0.0590579733253,-0.144655168056,0.139539495111,-0.133875027299,-0.0448963791132,0.00917017459869,0.726399123669,1.28616654873,0.564198405349,0.132664019665,0.369959869546,-0.172363095879,0.975828368524,-0.0403314524978,0.12815354852
0.215992987156,-0.0994263961911,-0.0528164096177,-2.16398191452,0.394935488701,2.36874461174,0.0344218797982,0.0590579733253,-0.192638590932,0.151271402836,-0.199005231261,-0.0229172799736,0.0148826306686,0.771010100842,1.2182135582,0.567462868104,0.128439479849,0.369888266309,-0.173060888474,0.974465683754,-0.0557797642325,0.131739051396
0.211465448141,-0.0965200215578,-0.0576128177345,-2.16438221931,0.395148187876,2.3846719265,0.0585439167917,0.0590678229928,-0.249815046787,0.147463649511,-0.268723398447,-0.0172703173012,0.00596295949072,0.811980128288,1.19106888771,0.57156999468,0.12224956922,0.370144435413,-0.173766854142,0.972477833088,-0.0737156605308,0.136594090801
0.190040692687,-0.086594671011,-0.0808156654239,-2.16436052322,0.395795047283,2.43946385384,0.124428585172,0.0590678229928,-0.421068996191,0.175668522716,-0.463589578867,0.00826883036643,0.00715821236372,0.943503320217,0.96133762598,0.58656393602,0.0930301243315,0.371991122099,-0.174709266523,0.963018931826,-0.132632291356,0.156460487401
0.18123281002,-0.083215944469,-0.0905310735106,-2.16415786743,0.395972371101,2.45890808105,0.142841920257,0.0590678229928,-0.454685032368,0.163178890944,-0.510444998741,0.00278287357651,0.0084962900728,0.98882818222,0.881640791893,0.591708892669,0.0807691932454,0.372901050703,-0.174507759764,0.958845436949,-0.15219565778,0.164313576032
0.156605571508,-0.0751317739487,-0.1189205423,-2.16358733177,0.396465539932,2.50753521919,0.182288184762,0.0590750463307,-0.539468884468,0.167117014527,-0.613223910332,0.0163651462644,0.00783975142986,0.998916566372,0.713363826275,0.603556274865,0.0453178419779,0.375578230729,-0.172763105125,0.946364506501,-0.20059314748,0.185228289458
0.147595882416,-0.0725365653634,-0.129066631198,-2.16325688362,0.396615982056,2.52372837067,0.193359687924,0.0590750463307,-0.568936467171,0.148332834244,-0.644671499729,0.0241381730884,0.00722611509264,1.01936638355,0.679236352444,0.607047561075,0.0323494562163,0.376652616627,-0.171748646138,0.94162667882,-0.216217511444,0.192591764403
0.137730404735,-0.070041924715,-0.140344768763,-2.16287708282,0.396824508905,2.5411965847,0.204753190279,0.0590750463307,-0.583616435528,0.151565238833,-0.666326403618,0.0239688660949,0.00471776491031,1.01746320724,0.65761256218,0.610464127819,0.01792826129,0.378038047687,-0.17052639838,0.936148456668,-0.232905108316,0.200753641911
0.125967338681,-0.0670312643051,-0.153778448701,-2.16227507591,0.397143661976,2.56158471107,0.217184692621,0.0590750463307,-0.600104689598,0.141516000032,-0.683793067932,0.0360294021666,0.0198978111148,1.02846336365,0.585814476013,0.614178712167,-0.00027986110907,0.379816558944,-0.168744373176,0.928995828782,-0.253009975722,0.210898170917
0.107428491116,-0.0632188394666,-0.175525486469,-2.16118621826,0.397904008627,2.59296607971,0.234246790409,0.0590750463307,-0.605518102646,0.114881552756,-0.702693462372,0.0382211469114,0.0345886461437,1.00269126892,0.52929264307,0.618366834177,-0.02731665715,0.382989264895,-0.165778742818,0.917914644501,-0.28091085734,0.2259185777
0.098377764225,-0.0614957809448,-0.185987889767,-2.1604449749,0.398471593857,2.60795783997,0.24209934473,0.0590750463307,-0.60379421711,0.115060515702,-0.6960927248,0.0581943467259,0.0429479591548,1.00814223289,0.512345194817,0.619991588568,-0.040953275963,0.384773288901,-0.164198420173,0.912014335614,-0.294538337705,0.233486397353
0.0857177749276,-0.0593541935086,-0.200639948249,-2.15913057327,0.399410247803,2.62846589088,0.252129286528,0.0590750463307,-0.602740228176,0.0830456987023,-0.694930613041,0.0650062486529,0.0421130396426,0.956085622311,0.447348207235,0.621639169758,-0.0592075607838,0.387410507168,-0.161944613256,0.903889022786,-0.312094146329,0.243630499383
0.0762717202306,-0.0582727640867,-0.211584821343,-2.15795660019,0.399901211262,2.64354252815,0.259059548378,0.0590750463307,-0.579038262367,0.0611308626831,-0.676328599453,0.0840453654528,0.0306368358433,0.933826267719,0.415022581816,0.622537583738,-0.0745077363803,0.390046099738,-0.159897045117,0.896879116638,-0.32615229906,0.252320158915
0.0497535616159,-0.0567842014134,-0.241958200932,-2.15360641479,0.401225030422,2.68558835983,0.278371751308,0.0590796433389,-0.535744130611,-0.00175301905256,-0.602668404579,0.107365787029,0.0384273827076,0.86833178997,0.400581091642,0.623055330056,-0.114982852575,0.398694367806,-0.15423055558,0.876874387985,-0.362005845893,0.276144908754
0.0407823845744,-0.0568984411657,-0.25169801712,-2.15157413483,0.402066618204,2.69972443581,0.284947156906,0.0590796433389,-0.519606411457,-0.0206770058721,-0.56294888258,0.128706589341,0.0582290478051,0.797180771828,0.375021249056,0.622709637318,-0.128428619035,0.402362729623,-0.15247266705,0.869561093873,-0.37367805803,0.284570375197
0.0311547573656,-0.0576738603413,-0.262084662914,-2.14910078049,0.403362631798,2.71422815323,0.291446059942,0.0590796433389,-0.468170285225,-0.0666115432978,-0.510490775108,0.132617488503,0.0705701932311,0.730929076672,0.322179228067,0.621884341361,-0.143494210555,0.407024762724,-0.15063962731,0.861082521934,-0.386406450381,0.294167720651
0.0228245612234,-0.0592380985618,-0.27086558938,-2.1466960907,0.404749304056,2.72728323936,0.297240555286,0.0590796433389,-0.429522633553,-0.100978821516,-0.450287491083,0.132033765316,0.0862068012357,0.686003029346,0.307315945625,0.620948861381,-0.15589838139,0.411717313614,-0.149352328427,0.853570201613,-0.396787227757,0.302773328521
0.0109741026536,-0.0630411356688,-0.28316155076,-2.14310407639,0.407215356827,2.74568939209,0.306343466043,0.0590796433389,-0.370474368334,-0.175994858146,-0.38906916976,0.105887524784,0.0689398944378,0.559067487717,0.3072026968,0.619097692867,-0.17267574295,0.419113993893,-0.148090097308,0.842596269526,-0.410996514973,0.314932872211
0.00518267881125,-0.0667067095637,-0.2890175879,-2.14153909683,0.408133476973,2.75465726852,0.311485469341,0.0590796433389,-0.31171259284,-0.238087877631,-0.300906926394,0.08486738801,0.0491094812751,0.4988899827,0.295727372169,0.617750315175,-0.181122094447,0.423886879746,-0.147785903869,0.836546484504,-0.41815939306,0.321701768
0.000357850658474,-0.0710191354156,-0.293503880501,-2.14025831223,0.409044146538,2.762819767,0.316548407078,0.0590796433389,-0.263191759586,-0.270992636681,-0.234260097146,0.0665090829134,0.0623001717031,0.460876733065,0.290759652853,0.616500788707,-0.18799425182,0.428766508489,-0.147952527549,0.830987419936,-0.424197593169,0.32806456545
-0.0039623323828,-0.0768004059792,-0.29735660553,-2.1393430233,0.410302877426,2.77085661888,0.321804523468,0.0590842403471,-0.193630635738,-0.353252917528,-0.16776996851,0.03407811746,0.064782217145,0.373533457518,0.257958054543,0.61504165731,-0.194383159965,0.434631432868,-0.148772411544,0.825026794619,-0.430071455817,0.335016567156
-0.0081688920036,-0.0890726298094,-0.300684779882,-2.13885736465,0.412468492985,2.78093361855,0.328676134348,0.0590842403471,-0.072702281177,-0.418902218342,-0.0543040446937,0.0066976188682,0.0662068277597,0.273286491632,0.208554342389,0.613068442393,-0.200048104218,0.444025883567,-0.151334016512,0.817707377191,-0.435648221023,0.344475380693
-0.00885854568332,-0.0974984839559,-0.301085889339,-2.13890457153,0.413374513388,2.78546500206,0.33254891634,0.0590842403471,-0.000402607518481,-0.462382465601,0.00296414387412,-0.00343920825981,0.0333176329732,0.206461578608,0.200952127576,0.612108026252,-0.201291639201,0.450357950044,-0.153726876407,0.813957819589,-0.437441073567,0.349980031152
-0.00846622139215,-0.104774735868,-0.300656348467,-2.13886785507,0.413620501757,2.78812241554,0.335505664349,0.0590842403471,0.0459710285068,-0.496625304222,0.0543606951833,0.00179284776095,0.00515609327704,0.155201524496,0.18372438848,0.61160318644,-0.201092750178,0.455039219201,-0.155695363995,0.811820807909,-0.437788606019,0.353619945089
-0.00716622825712,-0.114006049931,-0.298960804939,-2.13881635666,0.413673996925,2.79025006294,0.338858157396,0.0590842403471,0.091288164258,-0.514027774334,0.127771005034,0.00271277921274,-0.000832306453958,0.104885332286,0.189821735024,0.611174146921,-0.199502627865,0.461175158611,-0.158605067282,0.809687323708,-0.437209833054,0.357908412849
-0.00484551489353,-0.124411024153,-0.295497536659,-2.13881969452,0.413725584745,2.79182577133,0.342442214489,0.0590842403471,0.137466967106,-0.526621699333,0.207679331303,0.000744204386137,0.00265412172303,0.055929671973,0.164114460349,0.611029158215,-0.196114778504,0.467929425318,-0.162270082985,0.80800738162,-0.435451085109,0.362180678031
0.000959635071922,-0.141196802258,-0.287495285273,-2.1387617588,0.413732260466,2.79262876511,0.347420096397,0.0590842403471,0.225832715631,-0.54046446085,0.29869133234,0.00603513745591,-0.000212531944271,0.00362559547648,0.155092060566,0.61134135865,-0.187994967326,0.478246917555,-0.168606591005,0.806776062922,-0.430538478692,0.367859782767
0.00452169217169,-0.14867541194,-0.282954752445,-2.13873362541,0.413732111454,2.79262447357,0.349534213543,0.0590842403471,0.276699572802,-0.530844509602,0.350755929947,-0.00157856498845,-6.00407693128e-05,0.00043128017569,0.149153470993,0.61178551445,-0.182260681105,0.483628267388,-0.172294870988,0.80670965798,-0.426935471806,0.37048631245
0.0107049569488,-0.159534707665,-0.274926155806,-2.13871669769,0.413730442524,2.79260230064,0.352821141481,0.0590862110257,0.310902863741,-0.507422566414,0.41089913249,0.00152394641191,0.000223021983402,-0.00646981270984,0.167171403766,0.612643985898,-0.173375707257,0.490481185589,-0.177388207465,0.807111071361,-0.421363884126,0.373574114653
0.015879496932,-0.167463779449,-0.267895579338,-2.13877177238,0.413728296757,2.79244375229,0.355272740126,0.0590862110257,0.339484781027,-0.483847081661,0.461699754,-0.00214118952863,-0.000746532692574,-0.0160022955388,0.138613894582,0.61337348059,-0.166216177031,0.495142989246,-0.181115173845,0.807754736961,-0.4168425786,0.375462172571
0.0337447337806,-0.187873736024,-0.244764178991,-2.13933682442,0.413709104061,2.79000711441,0.360651522875,0.0590862110257,0.410856455564,-0.381789803505,0.533377528191,-0.0356129258871,-0.00173294183332,-0.06831407547,0.0952546596527,0.615942888435,-0.140310605074,0.507473793293,-0.192587741119,0.812032505984,-0.399982251219,0.378850062101
0.0417629107833,-0.194555312395,-0.234298586845,-2.14024782181,0.413696616888,2.78839278221,0.362305760384,0.0590862110257,0.414131224155,-0.332946151495,0.550059020519,-0.0628576278687,-7.95412852312e-05,-0.0996200442314,0.0806734859943,0.616998557094,-0.128488047087,0.510995605984,-0.196964362606,0.814721986619,-0.392290386069,0.378868548483
0.0486984550953,-0.199522852898,-0.225452587008,-2.14149236679,0.41368034482,2.78670740128,0.363523542881,0.0590862110257,0.442363023758,-0.280159592628,0.558208405972,-0.0903999879956,-0.000247690884862,-0.113820828497,0.07026835531,0.617758197564,-0.118320281465,0.513201572501,-0.200436324283,0.817297814215,-0.385725131283,0.378240248432
0.0577400811017,-0.204683825374,-0.214057460427,-2.14377069473,0.41366097331,2.78423929214,0.364816248417,0.0590862110257,0.447468817234,-0.216600716114,0.553865909576,-0.129943966866,-0.0056829219684,-0.132752776146,0.0616886913776,0.6186072361,-0.105070825426,0.514809624964,-0.204490018581,0.821046710965,-0.377248033774,0.376497080175
0.0715389624238,-0.210007697344,-0.19737714529,-2.14882111549,0.413537830114,2.77991461754,0.366390794516,0.0590862110257,0.447888046503,-0.136393532157,0.52546608448,-0.204524978995,-0.00588939804584,-0.135644957423,0.0356274992228,0.619508238321,-0.0851479163638,0.514594629557,-0.20964364427,0.827467754842,-0.364724379237,0.371917711273
0.078146673739,-0.211441531777,-0.189584702253,-2.15216875076,0.413312017918,2.77789855003,0.366712927818,0.0590875223279,0.434836834669,-0.0589764788747,0.50838559866,-0.236886560917,-0.0269326139241,-0.132597923279,0.0107925115153,0.619773480814,-0.0756959450794,0.513240637482,-0.211537606831,0.83092034641,-0.358744375955,0.368952152987
0.0862473770976,-0.211885660887,-0.180376470089,-2.15710163116,0.412805646658,2.7755150795,0.36684346199,0.0590875223279,0.422616243362,0.0021161052864,0.476794302464,-0.281253904104,-0.0284128282219,-0.120981141925,0.00265688472427,0.619997124266,-0.06430571595,0.510274228378,-0.213253423513,0.835495426456,-0.351554453119,0.364526865787
0.110131144524,-0.204959645867,-0.153044119477,-2.1818125248,0.410263419151,2.76904439926,0.366858631372,0.0590875223279,0.293132156134,0.211373180151,0.339721173048,-0.445337712765,-0.0782437622547,-0.0853113159537,-0.00326692732051,0.619070798043,-0.029994648222,0.49001118473,-0.21426254726,0.852282436874,-0.331034162109,0.343689673713
0.115154951811,-0.200834065676,-0.14721404016,-2.18982648849,0.408791780472,2.76771020889,0.366847336292,0.0590875223279,0.251342654228,0.2647998631,0.300162315369,-0.45406678319,-0.0857117623091,-0.0588929019868,-0.00234562275,0.618581786804,-0.0239374752174,0.483803068147,-0.213316427259,0.856037403349,-0.327526416867,0.338263967703
0.119051709771,-0.195568874478,-0.142691552639,-2.19781184196,0.407306313515,2.76677131653,0.366813123226,0.0590875223279,0.209477037191,0.346604198217,0.243898749352,-0.48489060998,-0.0936011523008,-0.0512851364911,-0.00251312344335,0.617918861914,-0.0175513835817,0.474825706252,-0.211405355155,0.860686668717,-0.324060714316,0.330924292259
0.126134097576,-0.153885990381,-0.134160816669,-2.24078297615,0.396636098623,2.76450991631,0.363745599985,0.059091463685,-0.0502357780933,0.570257365704,-0.0381790287793,-0.466378748417,-0.171617791057,-0.00337297772057,-0.0910857915878,0.613694278986,-0.00628176636047,0.423774765414,-0.193984461135,0.879750202717,-0.31944102149,0.293882702991
0.12472435087,-0.143109381199,-0.135369181633,-2.24923276901,0.393398016691,2.76445937157,0.361580103636,0.059091463685,-0.103148177266,0.620826244354,-0.0963169038296,-0.476737082005,-0.195526331663,0.00355218537152,-0.147588327527,0.612558806121,-0.00765799906662,0.412323113202,-0.188770364691,0.883127292176,-0.320107448575,0.286327009323
0.122812993824,-0.133292704821,-0.13731713593,-2.2568116188,0.389977067709,2.76447510719,0.358809739351,0.059091463685,-0.133797094226,0.614089846611,-0.146517023444,-0.468982547522,-0.23595957458,-0.00239000166766,-0.197842404246,0.611358133781,-0.00983333246531,0.402008532962,-0.183651639942,0.886068001014,-0.320813909725,0.279703428162
0.119428768754,-0.120398566127,-0.140921294689,-2.26637983322,0.384090125561,2.76452922821,0.353650957346,0.059091463685,-0.190483435988,0.624698936939,-0.20283973217,-0.425829231739,-0.316644370556,0.00652307877317,-0.300873428583,0.609585418872,-0.0138741374543,0.388748735007,-0.176208988022,0.889929024823,-0.321345521698,0.271502815227
0.106295727193,-0.0890040770173,-0.154638409615,-2.28766441345,0.364051908255,2.76461315155,0.332384556532,0.0590934343636,-0.322711288929,0.599819242954,-0.328618526459,-0.399548470974,-0.470940083265,0.00742877647281,-0.577725291252,0.604277692264,-0.0296408122895,0.357902995599,-0.154921881783,0.899351414003,-0.320622058933,0.253707981108
0.101622104645,-0.080655567348,-0.159581139684,-2.29302072525,0.357085973024,2.76478242874,0.323568403721,0.0590934343636,-0.349463284016,0.604335486889,-0.379462808371,-0.376869678497,-0.516743719578,0.0124814864248,-0.677162110806,0.602556981178,-0.0353076215194,0.349975460446,-0.148305741344,0.902065531488,-0.319415712115,0.249513098887
0.0949778035283,-0.0699892789125,-0.166939377785,-2.29963207245,0.347457110882,2.76494932175,0.310687541962,0.0590934343636,-0.381325900555,0.572680771351,-0.417618572712,-0.358930677176,-0.55795276165,0.0115813296288,-0.750580489635,0.600120722029,-0.0435381456104,0.340016501239,-0.139413817924,0.90554821836,-0.31756367425,0.244334860531
0.0749768614769,-0.0460340678692,-0.188799455762,-2.31435775757,0.319063574076,2.76536774635,0.270768284798,0.0590934343636,-0.48278927803,0.487980633974,-0.516280770302,-0.268158912659,-0.652858793736,0.0125211561099,-0.99576240778,0.592848468973,-0.0685651284608,0.31753171199,-0.115149711464,0.914408087874,-0.310077086826,0.233346507765
0.0641038268805,-0.0360540896654,-0.200678095222,-2.31969761848,0.304564744234,2.76585817337,0.247466921806,0.0590934343636,-0.520769894123,0.411583781242,-0.569229841232,-0.233292803168,-0.673649311066,0.0243726335466,-1.12147438526,0.589402092952,-0.0812069455639,0.309344653011,-0.104062836106,0.918200737426,-0.305400306392,0.22980205497
0.057197611779,-0.0310193467885,-0.20826408267,-2.32262039185,0.295740753412,2.76610422134,0.232427597046,0.0590934343636,-0.526734828949,0.372205346823,-0.581744492054,-0.212625131011,-0.692104697227,0.0114286858588,-1.17982423306,0.587077344676,-0.089586490182,0.304902058452,-0.0971381486792,0.920463830465,-0.302209360811,0.227991269126
0.0294010154903,-0.0158031545579,-0.239068686962,-2.33060479164,0.261886149645,2.76697611809,0.168632388115,0.0590934343636,-0.571935534477,0.224483564496,-0.637421429157,-0.103277482092,-0.655548214912,0.018224388361,-1.38940382004,0.577688558386,-0.12322152306,0.292052140552,-0.0710205093817,0.928557495898,-0.287854729269,0.223330961982
0.0201978906989,-0.0127595998347,-0.249202296138,-2.33203268051,0.251476913691,2.76728796959,0.146042302251,0.0590934343636,-0.585286319256,0.169394165277,-0.638360440731,-0.0664452239871,-0.634899914265,0.0264170728624,-1.42459571362,0.574620334839,-0.134257120696,0.289612728084,-0.0629527055959,0.930909501822,-0.282471373174,0.222832626195
0.0100863697007,-0.0103091709316,-0.260377645493,-2.33293414116,0.240737617016,2.76765179634,0.121336907148,0.0590954050422,-0.597486436367,0.125248372555,-0.664822816849,-0.0405437014997,-0.63045334816,0.0136508001015,-1.48157978058,0.571266278292,-0.146386343523,0.287799242961,-0.0544789977933,0.933161736508,-0.276803836062,0.22275737551
-0.00162173132412,-0.00824641436338,-0.273573338985,-2.33317732811,0.228629469872,2.76798319817,0.0910914093256,0.0590954050422,-0.579043447971,0.0698848739266,-0.652687251568,0.00223855930381,-0.594120085239,0.0189708899707,-1.55489623547,0.567319323313,-0.160545691191,0.286543076178,-0.0446968703494,0.935702420744,-0.269623659776,0.223083507616
-0.0187000166625,-0.00790001265705,-0.292685717344,-2.3328294754,0.212083816528,2.76910376549,0.0450394228101,0.0590954050422,-0.586646080017,-0.00550691224635,-0.649254620075,0.0264746975154,-0.543166875839,0.0579063668847,-1.61451041698,0.561407496764,-0.181076774352,0.286694024269,-0.0307982821822,0.938979805716,-0.258481703867,0.224845722053
-0.0288909189403,-0.00833065807819,-0.304153710604,-2.33219003677,0.202639058232,2.77030396461,0.0153406849131,0.0590954050422,-0.564853966236,-0.0455690026283,-0.634209752083,0.0405492521822,-0.499697297812,0.0792184323072,-1.68457090855,0.5577614243,-0.193362504396,0.287454200943,-0.0223270908282,0.94090663234,-0.250941264615,0.226328724721
-0.0383506640792,-0.00967334769666,-0.314990609884,-2.33140468597,0.194704011083,2.77165007591,-0.0137026328593,0.0590954050422,-0.539454460144,-0.100411422551,-0.630608081818,0.052138466388,-0.438173800707,0.0756955072284,-1.71289038658,0.554649702135,-0.203522417272,0.288630372459,-0.0154180665559,0.94235785072,-0.244501164212,0.227910387644
-0.0468880981207,-0.011591821909,-0.325015574694,-2.33048629761,0.188147947192,2.7727394104,-0.0414653792977,0.0590954050422,-0.517387807369,-0.121109686792,-0.59982419014,0.0636717602611,-0.384111374617,0.0686711519957,-1.74382972717,0.550876470211,-0.215317159318,0.290541774715,-0.00745102395502,0.943958377027,-0.236645455354,0.229969547615
-0.0710655897856,-0.0195460319519,-0.352492064238,-2.32655072212,0.172110065818,2.77603459358,-0.127498626709,0.0590999983251,-0.446147620678,-0.212013363838,-0.525706887245,0.0954526588321,-0.243334010243,0.0612853467464,-1.74657762051,0.541043806988,-0.244357225339,0.297505305301,0.012942628976,0.947826048654,-0.21384403138,0.236069904434
-0.0788332596421,-0.0234465617687,-0.361562430859,-2.32483077049,0.168184012175,2.77717328072,-0.15900157392,0.0590999983251,-0.412286520004,-0.216778978705,-0.477414757013,0.0997113585472,-0.179030448198,0.0720460787416,-1.70228528976,0.537675363372,-0.253802703801,0.300727697142,0.0197629259282,0.948967736823,-0.205279892413,0.238599720636
-0.0854818746448,-0.0273966602981,-0.369376212358,-2.32312822342,0.165404975414,2.77831459045,-0.187510088086,0.0590999983251,-0.371006727219,-0.251719504595,-0.441240370274,0.0966753661633,-0.147830888629,0.0589990504086,-1.6352981329,0.534741634825,-0.261931180193,0.303967764301,0.0257385405181,0.949846512456,-0.197473889414,0.241108259907
-0.101494930685,-0.0406741499901,-0.387961506844,-2.31833291054,0.161704570055,2.78141832352,-0.262740880251,0.0590999983251,-0.276224046946,-0.289094865322,-0.288591176271,0.0863618329167,-0.0176246128976,0.054259609431,-1.33514344692,0.527475427099,-0.281401163757,0.314255015026,0.0405048780181,0.951401789125,-0.176682701756,0.24895223055
-0.105559997261,-0.0452572628856,-0.392024964094,-2.31695795059,0.161607980728,2.78215074539,-0.283295154572,0.0590999983251,-0.23104993999,-0.282832294703,-0.237791448832,0.0836850628257,-0.00023230779334,0.0384235233068,-1.24767637253,0.525731099477,-0.285991140194,0.317608264331,0.0442268284162,0.951651095777,-0.170754521544,0.251489706782
-0.110911093652,-0.0538010969758,-0.397891879082,-2.3145647049,0.161613419652,2.78319501877,-0.316005051136,0.0590999983251,-0.139848232269,-0.310775518417,-0.158685281873,0.079039439559,-0.000565513561014,0.0282919574529,-0.987164676189,0.52314866893,-0.293084243556,0.324580436936,0.0506911713454,0.951911679414,-0.159279478539,0.256757876509
-0.114278510213,-0.0706614926457,-0.403072923422,-2.31097650528,0.16165587306,2.78365254402,-0.359526097775,0.0591039396822,0.0066923238337,-0.310038387775,-0.0137540642172,0.0374844893813,-0.000223028459004,0.00173678202555,-0.568295061588,0.521970745248,-0.297523147258,0.334969999672,0.0569569715191,0.951816103801,-0.144101125389,0.264644805902
-0.114154063165,-0.0736829340458,-0.403025984764,-2.31060910225,0.161654219031,2.78363990784,-0.364755690098,0.0591039396822,0.0284656062722,-0.302365928888,0.0263885185122,0.0282476618886,-0.000466850673547,-0.00367433601059,-0.465704083443,0.522192766989,-0.29741747142,0.337565512902,0.0578737967635,0.951717654071,-0.140576286088,0.266687903846
-0.109670348465,-0.089621976018,-0.399312287569,-2.30986642838,0.161643773317,2.78174972534,-0.381155788898,0.0591039396822,0.13764180243,-0.279129832983,0.110156163573,0.00303843664005,-0.000218181987293,-0.0883462503552,-0.120503231883,0.524403933987,-0.29311735766,0.345773313977,0.0583541261843,0.951383749932,-0.129975307157,0.273075402667
-0.106831014156,-0.0946792513132,-0.396935462952,-2.30991005898,0.161641672254,2.77996993065,-0.382435500622,0.0591039396822,0.171886324883,-0.268590062857,0.152980178595,-0.000363650469808,-0.000131638196763,-0.111894644797,-0.0180481169373,0.525664711258,-0.290177918715,0.348267846686,0.0574295626811,0.951344186142,-0.126887530265,0.274855669721
-0.103924274445,-0.0987714976072,-0.394315958023,-2.30984401703,0.161639139056,2.77798986435,-0.382471621037,0.0591039396822,0.194536417723,-0.244514212012,0.170793816447,0.00276390672661,-0.000105066443211,-0.138352811337,-0.000594310287852,0.52701156607,-0.287067148673,0.3502590825,0.0562911624004,0.951381470807,-0.124216317004,0.276179123615
-0.100152648985,-0.10305351764,-0.391127258539,-2.30981850624,0.161635220051,2.77533936501,-0.382363647223,0.0591039396822,0.225424468517,-0.232764840126,0.192098975182,-0.00117093173321,-0.000612409145106,-0.162980616093,0.0158597305417,0.528657740267,-0.28311480792,0.352224448116,0.0548001628049,0.951558981126,-0.120906247892,0.277333962048
-0.0876724645495,-0.112683780491,-0.379470467567,-2.30951595306,0.161622598767,2.76585388184,-0.37882322073,0.0591098517179,0.281517505646,-0.156713023782,0.252179473639,0.0142665039748,-9.47768276092e-05,-0.208119630814,0.111076682806,0.534229464234,-0.269344810064,0.356245611838,0.0493054701487,0.952650814603,-0.110808318122,0.278831333201
-0.0825123861432,-0.115273058414,-0.374658346176,-2.30919790268,0.161614865065,2.76206994057,-0.376374870539,0.0591098517179,0.291802912951,-0.130954787135,0.291165739298,0.0290667433292,0.000210206999327,-0.209325179458,0.164456024766,0.536513566717,-0.263667936971,0.357273899462,0.0470040531881,0.953167957562,-0.107073348821,0.27892070795
-0.0776566639543,-0.117108084261,-0.369894236326,-2.30869078636,0.161613792181,2.75873303413,-0.373393625021,0.0591098517179,0.307384729385,-0.0989940911531,0.301232069731,0.0383740961552,1.72795334947e-05,-0.208330139518,0.207246854901,0.538474629659,-0.25892068488,0.357985871136,0.0451068469115,0.953582091763,-0.104153918857,0.278923874037
-0.071332283318,-0.118549458683,-0.363786399364,-2.30773949623,0.16160479188,2.7544593811,-0.368507266045,0.0591098517179,0.323201447725,-0.0425205938518,0.32164645195,0.05995477736,-9.11126553547e-05,-0.203967139125,0.281022638083,0.541677659535,-0.251234837511,0.358754849161,0.041957337983,0.954272509319,-0.0999428747171,0.278594653989
-0.0616513378918,-0.119351886213,-0.35368680954,-2.30588746071,0.161599129438,2.74880743027,-0.359676539898,0.0591098517179,0.330115586519,-0.00969335995615,0.349925845861,0.0706775262952,-0.00260231597349,-0.184729173779,0.329204469919,0.546382502274,-0.240188713284,0.359420059571,0.0376229632907,0.955197421713,-0.0943778939815,0.277984192005
-0.0556504279375,-0.119291737676,-0.347387343645,-2.30472755432,0.161589562893,2.74575781822,-0.353395372629,0.0591098517179,0.341859638691,0.00751486141235,0.360724776983,0.0579754598439,-0.000335055578034,-0.157206445932,0.378580957651,0.549260780361,-0.233320744817,0.359610306208,0.0349473644916,0.955734065006,-0.0912969267321,0.27751747614
-0.0528333969414,-0.119209185243,-0.344386845827,-2.30429577827,0.161584630609,2.74447751045,-0.350236803293,0.0591098517179,0.339827388525,0.0230090469122,0.36880800128,0.0403916612267,-0.000101251251181,-0.143331944942,0.402318865061,0.551810331192,-0.226964374376,0.359629496886,0.0324795114661,0.956201906774,-0.0886848947527,0.277052312659
-0.044322963804,-0.118699513376,-0.335183948278,-2.30332636833,0.16157194972,2.741076231,-0.340148389339,0.0591098517179,0.3563131392,0.0290449224412,0.393782556057,0.0304759051651,-0.000452704232885,-0.128775671124,0.406865745783,0.554446768482,-0.220087937716,0.359466654683,0.02982616885,0.956701166569,-0.0860324353906,0.27646283166
-0.0268804356456,-0.11724601686,-0.315680503845,-2.30282354355,0.161504030228,2.73460435867,-0.319077134132,0.0591131336987,0.342437058687,0.0433293320239,0.383444428444,-0.00341450353153,-0.0012542133918,-0.116110563278,0.453772693872,0.561461356012,-0.19938017724,0.358197596112,0.0219915681957,0.9583013686,-0.0780698878668,0.274007208239
-0.0219155382365,-0.116612017155,-0.310328066349,-2.30289959908,0.161444604397,2.73301529884,-0.312369942665,0.0591131336987,0.344148725271,0.0428597219288,0.369202971458,-0.00692939385772,-0.00250051892363,-0.113561689854,0.481507956982,0.563553814197,-0.192549957785,0.357531645146,0.0193583977141,0.958812899286,-0.0759119475937,0.273020974479
-0.0151752037928,-0.115684367716,-0.303075551987,-2.30298876762,0.161255598068,2.73073601723,-0.302829802036,0.0591131336987,0.332793831825,0.0498382337391,0.376283884048,-0.00441817333922,-0.0149480793625,-0.109745264053,0.492077082396,0.565658769387,-0.185323628863,0.35677683954,0.0165616507344,0.959356897046,-0.0737875893397,0.271873954556
-0.00875357538462,-0.114609472454,-0.295739144087,-2.3031578064,0.161066710949,2.72859740257,-0.29314109683,0.0591131336987,0.308194696903,0.0627154037356,0.358713239431,-0.019748205319,-0.00426549371332,-0.0917328074574,0.48079675436,0.567973636882,-0.176922808336,0.355782582438,0.0133316753386,0.959987263893,-0.0714794244683,0.270439292939
0.000106564053567,-0.113036833704,-0.285493791103,-2.30407333374,0.160827338696,2.72628116608,-0.278630495071,0.0591131336987,0.295524686575,0.0544778220356,0.347946107388,-0.0298804510385,-0.00573779270053,-0.0768628567457,0.481846153736,0.570724879512,-0.165771222182,0.354157258088,0.00900385660496,0.96078677254,-0.0689883734543,0.268418166854
0.00546631077304,-0.112276978791,-0.279611498117,-2.3051609993,0.160648226738,2.72505998611,-0.268716782331,0.0591256096959,0.274118065834,0.0452642999589,0.302769690752,-0.0684266239405,-0.0118912002072,-0.0607497766614,0.535498976707,0.572095902178,-0.159149115484,0.353014667498,0.0062650995897,0.961238886004,-0.0681868725691,0.267078832299
0.00894718803465,-0.111730977893,-0.275867938995,-2.30611467361,0.160530507565,2.72431159019,-0.261764734983,0.0591256096959,0.255505442619,0.0407548062503,0.283229768276,-0.0747580751777,-0.0109587833285,-0.0567281134427,0.525070786476,0.572812721248,-0.155187360005,0.352184810524,0.00456116953045,0.961521411208,-0.0679701571787,0.266150012111
0.0134981460869,-0.111027598381,-0.27071377635,-2.30779337883,0.160396099091,2.72331523895,-0.252189397812,0.0591256096959,0.220861211419,0.0294985082,0.261861592531,-0.0936809107661,-0.00805522501469,-0.0512010492384,0.485621422529,0.573735285817,-0.14907528075,0.350706081696,0.0018998109476,0.961991223081,-0.0677781467041,0.264528637304
0.0198364704847,-0.110068909824,-0.26391723752,-2.31105566025,0.160173371434,2.72178220749,-0.237939998507,0.0591256096959,0.198193177581,0.0341070778668,0.186935409904,-0.121908500791,-0.0120602734387,-0.0347240716219,0.467407464981,0.574521761166,-0.140673006074,0.348045620694,-0.00197251722391,0.962744846821,-0.0682292549418,0.261654806106
0.0234113465995,-0.109424747527,-0.26047873497,-2.31366038322,0.159962072968,2.72117543221,-0.228620156646,0.0591256096959,0.162825003266,0.0273992028087,0.156076848507,-0.138120755553,-0.00529079092667,-0.0323298573494,0.455689042807,0.574624154944,-0.136835134619,0.346388444023,-0.00391169049363,0.963122501428,-0.0691760054608,0.259989280319
0.0259388945997,-0.109086349607,-0.25818118453,-2.31621289253,0.15974585712,2.72080588341,-0.221225947142,0.0591256096959,0.137239292264,0.0168866980821,0.121346533298,-0.157234206796,-0.0154594387859,-0.0167318601161,0.412713050842,0.574468048914,-0.133820874439,0.344783907024,-0.00554986121973,0.9634550248,-0.0703396660701,0.258410420257
