imanlab/tactile_prediction_flat_dataset/test/data_sample_2021-11-25-13-26-15/robot_state.csv
position_panda_joint1,position_panda_joint2,position_panda_joint3,position_panda_joint4,position_panda_joint5,position_panda_joint6,position_panda_joint7,position_panda_finger,velocity_panda_joint1,velocity_panda_joint2,velocity_panda_joint3,velocity_panda_joint4,velocity_panda_joint5,velocity_panda_joint6,velocity_panda_joint7,ee_state_position_x,ee_state_position_y,ee_state_position_z,ee_state_orientation_x,ee_state_orientation_y,ee_state_orientation_z,ee_state_orientation_w
-0.0253831166774,-0.0268650464714,0.0158288385719,-2.52743387222,0.0465422794223,2.52406096458,-0.78222155571,0.0568758696318,-5.19035602338e-05,-0.000379609846277,5.53852005396e-05,-0.000399872165872,0.000840253313072,9.28795416257e-05,-1.82781168405e-05,0.462912571334,-0.00193063498617,0.175829168292,-0.00791065950679,0.93307308286,0.359242111836,0.0160358435186
-0.0253822412342,-0.0268647745252,0.0158290620893,-2.52743387222,0.0465418659151,2.52406144142,-0.782220304012,0.0568758696318,0.000182685384061,-0.000831713958178,-0.000158109207405,-0.000137231341796,3.60381309292e-05,8.47641422297e-05,-0.000290489813779,0.462912632901,-0.00193015495328,0.175829086084,-0.00791051933092,0.933073052572,0.359242192018,0.0160358787599
-0.0253811776638,-0.0268651880324,0.0158291533589,-2.52743387222,0.0465417504311,2.52406072617,-0.782219648361,0.0568758696318,5.38976382813e-05,-0.000116921029985,-3.73908596885e-06,-0.000272158213193,-3.55304655386e-05,7.01182798366e-05,0.00227557239123,0.462912373645,-0.0019294814612,0.175829075958,-0.00791065300842,0.933072886689,0.359242637983,0.0160354742935
-0.0253823548555,-0.0268667135388,0.0158274061978,-2.52743339539,0.0465410649776,2.52406167984,-0.782220542431,0.0568758696318,2.11121969187e-05,0.000371350673959,-6.16272518528e-05,-5.12177284691e-05,-9.29570014705e-05,-0.000124988189782,-8.98560247151e-05,0.462913210505,-0.00193102370419,0.175830190335,-0.00790979942126,0.933073194043,0.359241789004,0.0160370305908
-0.0253840088844,-0.0268657207489,0.0158280394971,-2.52743458748,0.0465419813991,2.52406096458,-0.782219946384,0.0568758696318,0.000127759602037,-0.000277172308415,-0.000135152586154,-0.000350802758476,-9.79233227554e-05,0.000120306773169,-0.000140454169014,0.462912333402,-0.00193143033821,0.175829201935,-0.00791059045907,0.933073633816,0.359240684584,0.0160357931039
-0.0253841299564,-0.0268659219146,0.0158275328577,-2.52743601799,0.0465414002538,2.52406287193,-0.782222211361,0.0560688264668,0.000231420097407,0.00017084828869,0.000143331955769,-0.000250958983088,1.66352037922e-05,8.70232397574e-05,-2.56702714978e-05,0.462912095559,-0.00193176942025,0.175828915266,-0.00791025640839,0.933073261781,0.359241647136,0.0160360419479
-0.0253809429705,-0.0268624853343,0.0158279687166,-2.52743339539,0.0465418696404,2.52406096458,-0.782221376896,0.0560688264668,-0.000169828141225,0.000247051968472,-5.04120980622e-05,0.000257516250713,3.11981784762e-05,-6.76175332046e-05,0.000115094000648,0.462912397098,-0.00193004200099,0.175828168032,-0.0079109733854,0.93307283905,0.359242783219,0.0160348344815
-0.0253836493939,-0.0268654488027,0.0158276930451,-2.5274336338,0.0465415008366,2.52406167984,-0.782220602036,0.0560688264668,3.77059623133e-05,-0.000166361947777,-4.16941256844e-05,9.18860387173e-05,-2.78579955193e-05,7.28635568521e-05,-0.000402174628107,0.462912693099,-0.00193145571907,0.175829281521,-0.00791032356319,0.933073468995,0.359241107221,0.0160360471143
-0.0253820903599,-0.0268619544804,0.0158276911825,-2.52743315697,0.0465408116579,2.52406096458,-0.782220423222,0.0560688264668,0.000506271375343,-0.000611016468611,-0.000485101307277,-6.29626083537e-05,5.58760111744e-05,-9.32338662096e-05,0.000493941945024,0.462912421549,-0.00193075749021,0.175828013551,-0.00791074356582,0.933073118771,0.359242072957,0.0160345834432
-0.0253813471645,-0.0268670786172,0.0158293452114,-2.5274336338,0.0465408749878,2.524061203,-0.782222390175,0.0560688264668,-0.000340879283613,0.000168072539964,-0.000327211717376,-0.000210167039768,0.000353551440639,-9.68417298282e-05,0.00045876466902,0.462913056282,-0.00192967294173,0.175830221438,-0.00790980265156,0.93307230672,0.359244102364,0.016036834344
-0.025384478271,-0.0268639456481,0.0158270746469,-2.52743506432,0.0465415865183,2.52406096458,-0.782221972942,0.0560688264668,0.000180062648724,0.000723647652194,-0.000145574042108,0.000118600895803,-0.000414549052948,0.000163758493727,0.000175921217306,0.462911611552,-0.0019319572916,0.17582830934,-0.00791088940074,0.933073363835,0.359241432061,0.0160346096464
-0.0253826845437,-0.0268627721816,0.0158286914229,-2.52743530273,0.0465409420431,2.524061203,-0.782221257687,0.0560241751373,-0.000691232038662,0.000183112322702,-5.40906075912e-05,-0.000132565764943,-8.21785288281e-05,-0.000162599011674,-7.13302797521e-05,0.462911582891,-0.00193056363894,0.175827579549,-0.0079109535514,0.933072924702,0.35924259468,0.0160340841628
-0.0253831651062,-0.0268643070012,0.01582785137,-2.5274348259,0.0465415380895,2.52406072617,-0.78222155571,0.0560241751373,-0.000114522816148,0.000611716939602,1.87736441148e-05,0.000108084459498,-5.41089284525e-05,7.98462278908e-05,4.84384909214e-05,0.462911946475,-0.0019311406624,0.175828432123,-0.00791082731001,0.933073177998,0.359241904278,0.016034874758
-0.025383003056,-0.0268632415682,0.0158279594034,-2.52743411064,0.0465413816273,2.52406096458,-0.782221913338,0.0560241751373,-1.88189915207e-06,-7.99955669208e-05,-0.00021506336634,-0.000441449286882,-1.15262253075e-06,-4.30691288784e-05,-0.000359287107131,0.462912170739,-0.0019310266253,0.175828239111,-0.00791080704057,0.933073045098,0.359242252964,0.0160348062943
-0.0253819059581,-0.026864990592,0.0158293135464,-2.52743387222,0.046540658921,2.52406096458,-0.782222509384,0.0560320541263,-3.39714570146e-05,-0.000109314190922,0.00291549484245,-0.00038036465412,2.63901365543e-05,0.000111161047244,-6.08071131865e-05,0.462912561578,-0.00192994561023,0.175829139861,-0.00791023026588,0.933072379916,0.359243956659,0.0160356285998
-0.0253811664879,-0.0268647074699,0.0158307813108,-2.52743577957,0.0465408414602,2.52406191826,-0.782221138477,0.0560320541263,-0.000127157574752,-8.86334164534e-05,0.000281990272924,0.000218468412641,-0.00290998024866,5.5995729781e-05,1.85979733942e-05,0.462911821723,-0.00192892290087,0.175828355567,-0.00791050347444,0.933072270632,0.359244260464,0.0160350466708
-0.0253826994449,-0.0268644317985,0.0158313885331,-2.52743601799,0.0465414896607,2.52406167984,-0.78222066164,0.0560320541263,0.000218170345761,0.000202154842555,1.39833800858e-05,0.00025700731203,0.000226540752919,-0.000153063112521,0.000271277793217,0.462911613288,-0.0019293132889,0.175828113906,-0.00791081297933,0.933072619219,0.359243360533,0.0160347716189
-0.0253812018782,-0.0268633104861,0.0158309824765,-2.52743506432,0.0465415120125,2.52406144142,-0.782221019268,0.0560320541263,-0.0003345766454,4.93270199513e-05,0.00348999677226,0.0002603289322,5.35165199835e-05,-0.000121576958918,-1.86588640645e-05,0.462911840917,-0.00192880167674,0.175827943832,-0.00791091707548,0.933072363897,0.359244029514,0.0160345896627
-0.0253848694265,-0.0268631596118,0.0158303156495,-2.52743411064,0.0465410090983,2.52406096458,-0.782220959663,0.0560320541263,1.74392371264e-05,0.000599796010647,0.000124069338199,-0.00193141389173,8.27312687761e-05,4.91352438985e-05,2.60701435764e-05,0.462912157593,-0.00193083034736,0.175828199998,-0.00791070393658,0.933073076739,0.359242177423,0.0160347083772
-0.0253817662597,-0.0268646050245,0.0158311557025,-2.52743506432,0.0465408861637,2.524061203,-0.782221198082,0.0560320541263,-0.000128698608023,0.000997300958261,-5.47490417375e-05,4.02011537517e-05,0.00257336185314,3.14758472086e-05,-0.000250538258115,0.462911990297,-0.00192902004895,0.175828519803,-0.0079105407031,0.933072303925,0.35924417486,0.0160350088178
-0.0253826491535,-0.026862507686,0.015831258148,-2.52743506432,0.0465407036245,2.52406048775,-0.782221674919,0.0560320541263,-0.000223102149903,-0.000509150093421,-0.000587374088354,0.000191255065147,0.000304481101921,-0.000122664670926,0.000180844188435,0.462911503875,-0.00192937435695,0.175827482327,-0.00791102531061,0.933072351312,0.359244099674,0.0160336966937
-0.0253839381039,-0.0268644411117,0.0158295128495,-2.52743601799,0.0465409085155,2.52406287193,-0.782221257687,0.0560320541263,-9.12794421311e-05,-0.000146568287164,-0.000585163885262,-0.000289744202746,-5.82208558626e-05,-2.12990471482e-06,9.7512784123e-05,0.462911912428,-0.00193117307498,0.175828240764,-0.00791038868354,0.933073147431,0.359241970095,0.0160353952549
-0.0253821052611,-0.0268665049225,0.0158300101757,-2.52743339539,0.0465419106185,2.52406048775,-0.782221853733,0.0560320541263,4.31054650107e-05,-3.91070243495e-05,0.00102299684659,-5.13570848852e-05,0.00148706976324,-9.52586051426e-05,-0.000199534319108,0.462912926974,-0.00192965170006,0.175829983538,-0.00791028908799,0.933072571211,0.359243421162,0.0160364652265
-0.0253829918802,-0.0268633551896,0.0158287398517,-2.52743434906,0.0465404354036,2.52406001091,-0.782221078873,0.0560320541263,9.08044239623e-06,-0.000696876726579,0.000163467120728,0.00290944240987,-0.00560769857839,-3.18636193697e-05,-1.77870551852e-05,0.462911867757,-0.00193070290763,0.175828108669,-0.00791076776008,0.933072922779,0.359242598869,0.016034193852
-0.025384567678,-0.0268633048981,0.0158310439438,-2.52743411064,0.0465424135327,2.52406144142,-0.782220602036,0.0560320541263,0.000221770416829,0.000549159012735,-0.000336348603014,4.39668256149e-05,-5.25104078406e-05,-0.00010136259516,-0.000124590587802,0.462912289217,-0.00193028615012,0.175828313498,-0.00791096342591,0.933073152354,0.359241955883,0.0160351436884
-0.0253812521696,-0.0268621202558,0.0158304143697,-2.52743625641,0.0465414002538,2.52406096458,-0.782220959663,0.0560320541263,-0.000332922005327,0.000558176834602,0.000350263464497,-0.00268926168792,1.90912851394e-05,-3.02488351736e-05,-0.000263431720668,0.462910982675,-0.00192907556773,0.175826884993,-0.007911432595,0.933072490166,0.359243749539,0.0160332601825
-0.0253822617233,-0.0268647167832,0.0158301834017,-2.5274336338,0.046540223062,2.52406191826,-0.782220840454,0.0560320541263,-0.000565718160942,-4.32863271271e-05,0.000159306451678,0.000806530413684,8.78242281033e-06,0.000163117598277,0.000523965107277,0.46291283817,-0.00192974748165,0.175829193647,-0.00790993508171,0.933072523289,0.359243574784,0.0160359867782
-0.0253843069077,-0.0268659647554,0.0158296432346,-2.52743458748,0.0465409122407,2.52406191826,-0.782221138477,0.0560320541263,-8.58754501678e-05,-0.000269621086773,-3.2423857192e-05,-0.000161210016813,0.000119278891361,-6.03779735684e-05,2.7726378903e-05,0.462912577861,-0.0019309048175,0.175829401497,-0.00791004242902,0.933073029406,0.359242247805,0.0160362121988
-0.0253813974559,-0.0268645938486,0.0158322378993,-2.5274348259,0.0465413928032,2.52406048775,-0.782221078873,0.0560320541263,0.000208867044421,-0.000240423381911,0.00350180012174,-0.00014035217464,8.79717663338e-06,9.03124509932e-06,0.000232733465964,0.46291195094,-0.00192831716679,0.175828541336,-0.00791077972476,0.933072136854,0.359244611387,0.0160348328936
-0.0253840181977,-0.0268629062921,0.0158283375204,-2.52743577957,0.0465411618352,2.52406144142,-0.782220840454,0.0560320541263,-8.71238080435e-05,-0.000671327230521,-0.000113623020297,-0.000104514962004,-0.00206275563687,0.000191859930055,0.000197291417862,0.462911426323,-0.00193133266916,0.175827478755,-0.00791102150218,0.933073335904,0.359241525994,0.0160340653232
-0.0253839716315,-0.0268639530987,0.0158291235566,-2.52743458748,0.0465411320329,2.52405977249,-0.782220244408,0.0560320541263,-0.000315028621117,-0.000474836764624,0.00108626484871,-0.000693401845638,-2.82248729491e-05,3.28435053234e-05,-0.000298995350022,0.462911797363,-0.00193094051982,0.175828271444,-0.0079109314893,0.933073276285,0.359241671185,0.0160343261666
-0.025382976979,-0.026864675805,0.0158302020282,-2.52743506432,0.0465408749878,2.524061203,-0.782223343849,0.0555861778557,-0.000327734829625,0.000775250839069,-0.000243357309955,3.96651048504e-05,-4.03486083087e-05,1.47374876178e-05,0.000192820560187,0.462911997316,-0.00193001868524,0.175828552796,-0.00791050139811,0.93307230496,0.359244170654,0.0160350621885
-0.0253833960742,-0.026863342151,0.0158309470862,-2.52743434906,0.0465410798788,2.52406048775,-0.782219290733,0.0555861778557,0.000377811462386,-0.000646664062515,-2.58506975115e-06,-2.08438041227e-06,-0.000137208291562,0.000103149715869,9.69459069893e-05,0.462911973877,-0.00192984851846,0.175828147358,-0.00791085056592,0.933073010439,0.359242357774,0.0160344535433
-0.0253815222532,-0.0268644373864,0.0158325005323,-2.5274336338,0.0465426966548,2.52406096458,-0.782222986221,0.0555861778557,0.000108453285065,9.23438346945e-05,0.00183712516446,-7.16383947292e-05,0.0105433017015,0.000141316500958,0.00010872126586,0.462912397016,-0.00192859566703,0.17582871847,-0.00791090674505,0.93307221794,0.359244360883,0.0160356640826
-0.0253823064268,-0.0268646832556,0.0158311035484,-2.5274348259,0.0465404614806,2.52406334877,-0.782221913338,0.0555861778557,-0.000343765219441,-0.000741171999834,-0.000365880638128,-0.000389809894841,3.03845899907e-05,1.63502627402e-05,-0.000211068123463,0.462912578357,-0.00192934598524,0.175828847613,-0.00790992450581,0.933072212958,0.359244376223,0.0160360948265
-0.0253848079592,-0.0268643051386,0.0158302392811,-2.52743411064,0.0465418845415,2.52406287193,-0.782220184803,0.0555861778557,-0.000171418563696,0.000105524115497,-5.18316555826e-05,1.97266563191e-05,-4.56149537058e-05,-0.000125720660435,0.00028099337942,0.462912752875,-0.00193081759103,0.175828908838,-0.00791034517947,0.933073327906,0.359241466075,0.0160362067773
-0.0253807045519,-0.0268644876778,0.015830732882,-2.52743577957,0.0465414971113,2.52406072617,-0.782221794128,0.0555861778557,0.000411192711908,-3.16881378239e-05,-0.000250612065429,0.00035644514719,1.9041064661e-05,-1.35420141305e-05,-0.000290002179099,0.462911531521,-0.00192867919879,0.175828144011,-0.0079109623092,0.933072176582,0.35924452014,0.0160344752899
-0.0253836568445,-0.026863520965,0.0158298108727,-2.52743339539,0.0465417467058,2.52406287193,-0.782221496105,0.0547765083611,-0.000468749727588,-0.000919294077903,0.000119367250591,-0.000133093766635,-4.35541987827e-05,7.13411864126e-05,0.000250480981776,0.462912970678,-0.00193048874247,0.175828824,-0.00791032679569,0.933072943413,0.359242466958,0.0160361659714
-0.0253840181977,-0.0268661826849,0.0158320143819,-2.52743530273,0.0465417206287,2.52406167984,-0.782222211361,0.0547765083611,0.000166402329342,-0.000238377979258,0.000280155480141,-0.000113391623017,-1.71854628661e-06,-5.74400328333e-05,0.000218281318666,0.462912227507,-0.00192963420537,0.175829202602,-0.00791038314829,0.9330724785,0.359243683136,0.0160359445206
-0.0253824274987,-0.0268633887172,0.0158292800188,-2.52743601799,0.0465406030416,2.52406215668,-0.782220602036,0.0547765083611,6.64709805278e-05,0.000875897298101,-0.000354308023816,0.000273342273431,-8.12466532807e-05,-7.34555796953e-05,-0.000274925230769,0.46291154706,-0.00193020484999,0.175827674709,-0.00791068781073,0.933072840811,0.359242803194,0.0160344253881
-0.0253831334412,-0.0268637966365,0.015831431374,-2.52743577957,0.0465415082872,2.52406096458,-0.782221317291,0.0547765083611,-0.000302998843836,-0.000599572085775,5.98482693022e-05,-6.44112333248e-06,-0.000198597903363,2.05251653824e-05,4.42120071966e-05,0.462911471191,-0.0019294829432,0.175827846189,-0.00791103087073,0.933072579533,0.359243481294,0.0160342678711
-0.0253819972277,-0.026864990592,0.015829289332,-2.52743649483,0.046540632844,2.52406048775,-0.78222244978,0.0547765083611,9.03712498257e-05,-0.000306478439597,-0.000195686297957,-5.27724441781e-05,1.10643923108e-05,-1.02766671262e-05,-0.000145606230944,0.462911211627,-0.00192998285648,0.175828075495,-0.00791080182886,0.933072430179,0.359243877786,0.0160341888368
-0.0253820605576,-0.0268665887415,0.0158318728209,-2.52743577957,0.046540889889,2.52406096458,-0.782221674919,0.0547765083611,-0.000121974902868,-4.19933530793e-06,0.000132811968797,0.0001568562584,-0.00547208171338,0.000153626388055,-0.000105855579022,0.462911911168,-0.00192882901477,0.175829137358,-0.00791033237018,0.933072133733,0.359244600442,0.0160354803666
-0.0253828056157,-0.0268630981445,0.0158299058676,-2.52743601799,0.0465410575271,2.524061203,-0.78222233057,0.0547765083611,0.000132272543851,-7.05688944436e-05,-5.61519664188e-06,-0.000554410507903,-0.000209516729228,2.732916073e-05,-9.01678358787e-05,0.462911296457,-0.00193005465226,0.175827452081,-0.00791103926354,0.933072555339,0.359243559968,0.0160339090269
-0.0253839027137,-0.0268645882607,0.015832811594,-2.52743530273,0.0465408153832,2.52406072617,-0.782222568989,0.0547765083611,-0.000327788904542,2.54443020822e-05,-0.000310176197672,-0.000185381737538,8.53032452142e-06,0.000134498768602,0.000459588191006,0.462911769801,-0.00192924649358,0.17582837444,-0.00791062923972,0.933072137709,0.359244620069,0.0160346628702
-0.0253831334412,-0.0268637984991,0.0158324185759,-2.52743554115,0.0465412177145,2.52406311035,-0.782222986221,0.0547765083611,-0.000212888102396,0.00134754437022,0.000215318519622,-9.00544255273e-05,-1.86430916074e-05,-6.70330118737e-05,0.000352860195562,0.462912050534,-0.00192907458227,0.175828138582,-0.00791045781852,0.933072053321,0.359244813427,0.0160353260021
-0.0253821965307,-0.0268641151488,0.0158326234668,-2.5274374485,0.0465405471623,2.52406096458,-0.782221019268,0.0547765083611,6.03764601692e-05,-0.000603113963734,-0.000165950943483,0.000149599713041,6.5386229835e-05,6.11670329818e-05,-5.69076655665e-05,0.462910906687,-0.00192866551261,0.175827625089,-0.00791088252913,0.933072113494,0.359244715388,0.016033811398
-0.0253812205046,-0.0268635358661,0.0158316995949,-2.52743530273,0.0465409494936,2.52406263351,-0.782221853733,0.0519147515297,-0.000117505333037,0.000159369126777,-0.000415709102526,-0.00258215027861,-4.77210742247e-05,-6.81101155351e-05,0.000362543185474,0.462912021001,-0.00192852741361,0.17582806521,-0.0079105150106,0.933072005726,0.359244947595,0.0160350614287
-0.0253842622042,-0.026865478605,0.0158299747854,-2.52743649483,0.0465412475169,2.52406024933,-0.782222568989,0.0519147515297,-0.000230508594541,-0.000318658043398,0.000180830378667,0.000471596926218,4.55736117146e-05,0.000160777912242,-0.000123106772662,0.462911235134,-0.00193068216613,0.175828279932,-0.00791090118339,0.933072776441,0.3592429678,0.0160343780311
-0.025383874774,-0.0268631558865,0.0158313140273,-2.52743434906,0.0465417653322,2.52406144142,-0.782221734524,0.0519147515297,-0.000302553147776,-0.000719074276276,0.000324613123666,-0.00051685346989,0.000144393081428,2.28765948123e-05,-6.47308625048e-05,0.462912152653,-0.00192987555488,0.175828150758,-0.00791085515835,0.933072687356,0.359243177352,0.016034889827
-0.025383207947,-0.0268649738282,0.015832208097,-2.52743577957,0.0465411655605,2.52406191826,-0.78222322464,0.0519147515297,-0.000652254617307,0.00440131034702,-0.000293386197882,-0.00106828403659,0.00139639573172,-5.41610788787e-05,-0.000162158947205,0.46291138746,-0.00192954127297,0.175827916484,-0.00791071345272,0.933072185407,0.359244494157,0.0160346666928
-0.0253818240017,-0.0268655586988,0.0158317368478,-2.52743577957,0.0465410128236,2.52406263351,-0.782223582268,0.0519147515297,-0.000229017547099,-0.00046103837667,0.00025364846806,-0.000265705515631,2.59956796071e-05,-3.08431808662e-05,0.000252992991591,0.46291211128,-0.00192879219864,0.175828816033,-0.00791021393229,0.933071793755,0.359245472257,0.0160357900621
-0.0253824684769,-0.0268652290106,0.0158313550055,-2.52743649483,0.0465409122407,2.52406382561,-0.782221972942,0.0519147515297,0.000521193898749,-0.000121541030239,-0.000165123332408,-0.000373607414076,0.00286855990998,-9.25119529711e-05,6.87368883519e-05,0.462911975517,-0.00192928185175,0.175828496051,-0.00791015068123,0.933072257785,0.35924426623,0.0160358390411
-0.0253857057542,-0.0268649980426,0.0158308055252,-2.52743721008,0.0465419813991,2.5240623951,-0.782221078873,0.0519147515297,-0.000224005343625,-0.00091641797917,-0.000356593780452,-0.000110072098323,9.77806848823e-05,-0.000110649300041,-0.000116913419333,0.462911285012,-0.0019309513628,0.175827979731,-0.00791088855533,0.933073261543,0.359241685658,0.0160348809172
-0.025383124128,-0.0268629640341,0.0158316455781,-2.52743601799,0.0465419739485,2.5240623951,-0.782222628593,0.0519147515297,0.000125912760268,-0.000278154562693,0.000182517411304,-2.44505790761e-05,-2.55823761108e-05,0.000137950075441,7.75786757004e-05,0.462911538466,-0.00192936862807,0.175827501771,-0.00791106100934,0.933072374162,0.359244004442,0.0160344830704
-0.0253821220249,-0.0268658660352,0.0158335976303,-2.52743506432,0.0465411692858,2.5240623951,-0.782222688198,0.0490490607917,8.46116963658e-05,0.000485722295707,0.000184645788977,0.000296267127851,0.000143880955875,-0.000103802674857,7.57921734476e-05,0.462912451079,-0.00192806966671,0.175829214032,-0.0079101105571,0.933071688615,0.359245731375,0.0160361538215
-0.0253803227097,-0.0268622990698,0.0158349424601,-2.5274348259,0.0465403161943,2.52406072617,-0.782222688198,0.0490490607917,-0.000230217818171,-0.000169986495166,-6.67259009788e-05,0.000274179474218,0.000100735538581,8.50306678331e-05,-0.000285102636553,0.462911646231,-0.00192663261309,0.175827499115,-0.00791086250969,0.933071034483,0.359247521643,0.0160337376127
-0.0253842528909,-0.0268650781363,0.0158319156617,-2.52743577957,0.0465416796505,2.52406191826,-0.782221138477,0.0490490607917,-0.000342316372553,-0.000587256683502,-0.000245982257184,-5.43449386896e-05,0.00010989542352,5.94108350924e-05,-0.000140437390655,0.462911878236,-0.00192978690274,0.17582852808,-0.00791063034137,0.933072737176,0.359243033935,0.0160353148007
-0.0253834333271,-0.0268637295812,0.0158314555883,-2.52743577957,0.0465413555503,2.52406167984,-0.782221496105,0.0490490607917,0.000146765087266,4.66660058009e-05,0.000515503052156,-0.000109864937258,-0.00111600209493,6.3722145569e-06,-0.00423818547279,0.462911614624,-0.00192962788048,0.175827881419,-0.00791085422676,0.933072573773,0.359243487621,0.0160345485168
-0.0253821313381,-0.026864208281,0.0158335547894,-2.52743554115,0.046541262418,2.52406191826,-0.782222032547,0.0490490607917,-0.000372559996322,-0.00123312498908,-0.00183570443187,-0.000264484959189,-0.000127608334878,1.65259625646e-05,-0.000344295345712,0.462911860874,-0.00192807374276,0.175828217167,-0.0079106423308,0.933071847273,0.359245361012,0.0160349568142
-0.025381969288,-0.0268656928092,0.0158339720219,-2.52743816376,0.046542711556,2.5240623951,-0.782222688198,0.0490490607917,1.71985084307e-05,-3.37247661264e-06,0.00295274658129,-3.86109313695e-05,0.00567161338404,-9.61173282121e-05,-0.00029637204716,0.462910955798,-0.00192772825323,0.175827930635,-0.00791113247751,0.933071838648,0.359245379438,0.0160348041035
-0.0253816377372,-0.0268644001335,0.015834370628,-2.52743601799,0.0465419255197,2.52406430244,-0.78222322464,0.0490490607917,0.00022268142493,0.000124052530737,5.31776204298e-05,0.000293179677101,-1.04755443431e-07,0.000147998754983,0.000234807492234,0.46291218487,-0.00192746368793,0.175828342959,-0.00791038396993,0.933071487358,0.359246255608,0.016035985199
-0.0253825373948,-0.0268656685948,0.015832176432,-2.52743625641,0.0465417802334,2.5240623951,-0.782221496105,0.0490490607917,-7.70913684391e-05,-0.0018780574901,0.000198177469429,-8.86177149368e-05,0.000112686408102,-0.000183841286344,-7.41395297155e-06,0.462911910704,-0.00192881437455,0.175828574267,-0.00791046702125,0.933072303608,0.359244148304,0.0160356585645
-0.0253830775619,-0.0268639028072,0.0158326569945,-2.52743625641,0.0465413555503,2.52406311035,-0.782221972942,0.0490490607917,7.43113196222e-05,-0.000179625480087,0.000182018848136,0.000208917175769,-0.000103183883766,-6.04832857789e-05,-0.00158994633239,0.46291142591,-0.00192894697868,0.175828002575,-0.00791065611774,0.933072053755,0.359244826193,0.0160349169277
-0.025382919237,-0.0268633663654,0.0158317852765,-2.52743673325,0.0465416349471,2.52406287193,-0.782222211361,0.0452390797436,-0.00019017898012,-0.00031303675496,0.000187869387446,-0.000333367206622,5.4166524933e-05,0.000200198672246,-0.000188185251318,0.462911364794,-0.00192923289842,0.175827453579,-0.00791093195688,0.933072340444,0.35924409355,0.0160345124277
-0.0253836251795,-0.0268633980304,0.0158325415105,-2.52743506432,0.0465417914093,2.524061203,-0.782221257687,0.0452390797436,6.92227913532e-05,9.38351950026e-05,7.49474247641e-06,-0.00010579561058,-0.000942293205298,-0.000173858410562,-4.0706305299e-05,0.46291291489,-0.00193005325147,0.175829155256,-0.00791025149933,0.93307280945,0.359242811143,0.0160362874192
-0.0253820605576,-0.0268656928092,0.0158322378993,-2.52743554115,0.0465415753424,2.52406358719,-0.782220125198,0.0452390797436,-0.000166317098774,3.07324698952e-05,0.000395139184548,-0.000285172718577,1.99071000679e-05,-2.68284729827e-05,-0.000663189275656,0.462912454097,-0.00192865473065,0.175829060213,-0.00791012860955,0.933072441178,0.359243763307,0.0160364456614
-0.0253826845437,-0.0268634334207,0.0158342942595,-2.52743506432,0.0465410836041,2.52406311035,-0.782222032547,0.0452390797436,0.00010132251191,-0.000276769918855,0.000257500942098,0.000157022863277,-0.000110696841148,2.46154886554e-05,-0.000657076656353,0.462912223725,-0.00192801473806,0.175828154376,-0.00791040653027,0.93307178747,0.359245504374,0.0160353412156
-0.0253833699971,-0.0268642380834,0.0158325470984,-2.52743697166,0.0465418994427,2.52406096458,-0.782222270966,0.0452390797436,-0.000206827971851,-9.10536109586e-05,-0.000337776931701,-7.73061183281e-05,3.04889781546e-05,-8.68678180268e-05,0.000118438147183,0.462910976591,-0.00192905589999,0.175827587156,-0.00791125754711,0.933072311989,0.359244185096,0.0160339565819
-0.0253842882812,-0.0268669687212,0.0158326085657,-2.5274207592,0.0465408675373,2.52407383919,-0.782221615314,0.0452390797436,-0.00022032110428,0.000378413213184,0.00172355689574,0.00133293762337,-1.27878020066e-05,0.000230325153098,0.000159173941938,0.462921894389,-0.00192975499974,0.175836351948,-0.00790487488418,0.933072247964,0.359243841268,0.0160485273239
-0.0253832694143,-0.0268646385521,0.0158328153193,-2.52744221687,0.0465411022305,2.5240676403,-0.78222155571,0.0452390797436,0.000461526971776,-0.000292606273433,0.0038081551902,-0.0015255123144,-0.00492383912206,-0.000342474901117,-0.000205026459298,0.462909991045,-0.0019289936616,0.175826351906,-0.0079105906547,0.933072281151,0.359244248396,0.0160346619413
-0.025383271277,-0.0268659088761,0.0158352460712,-2.52744221687,0.0465405397117,2.52407002449,-0.782221972942,0.0452390797436,-0.000355892814696,-0.000258086394751,0.000120306671306,0.00135240564123,-8.74835168361e-05,-4.21283402829e-05,0.000121077122458,0.462910709938,-0.00192794625949,0.175827160005,-0.00790970053362,0.933071673759,0.359245774463,0.0160362552408
-0.025382861495,-0.0268670916557,0.0158343557268,-2.52741527557,0.0465417020023,2.52407026291,-0.782223880291,0.0452390797436,2.2655365683e-05,-0.000395903130993,0.000171397943632,0.000730352418032,1.87129608094e-05,7.3872244684e-05,0.00011463806004,0.462923753371,-0.00192822653715,0.175838209904,-0.00790477448952,0.933071354645,0.35924611674,0.0160495786209
-0.0253833886236,-0.0268623307347,0.0158345047385,-2.52742886543,0.0465411804616,2.52407336235,-0.782221674919,0.0452390797436,0.000115603179438,0.000249426841037,0.00344738224521,-0.0010524346726,8.30214266898e-05,-0.000134131129016,-0.000155176792759,0.462916604107,-0.00192853800837,0.175830541804,-0.00790775039671,0.933071945215,0.359244864867,0.0160417981675
-0.0253850724548,-0.0268667321652,0.0158332213759,-2.5274169445,0.0465419478714,2.52407670021,-0.782222688198,0.0435205847025,-0.00028554952587,-0.00024380684772,-0.000720360199921,-6.73208051012e-05,0.000204935713555,-0.000152645428898,0.000140115080285,0.462924292103,-0.00192982973764,0.175837993636,-0.00790391739328,0.93307220186,0.35924384371,0.0160516244638
-0.0253837071359,-0.0268684029579,0.015833735466,-2.52742743492,0.0465409494936,2.52407479286,-0.782221198082,0.0435205847025,-5.93830845901e-05,-0.000571572920308,0.000145738129504,-0.000699211785104,6.66194173391e-05,-1.36339203891e-05,-8.41743240017e-05,0.462918145046,-0.00192916533041,0.175833939204,-0.0079059722401,0.933072057737,0.359244433704,0.0160457848375
-0.025384157896,-0.0268664620817,0.0158349368721,-2.52743315697,0.0465421155095,2.52407479286,-0.782224476337,0.0435205847025,-0.000233802304137,0.000420294440119,-0.000123873353004,0.000372273905668,3.50541413354e-05,8.05107483757e-05,-0.000295851670671,0.462916020639,-0.0019284854129,0.175831413604,-0.00790738782241,0.933071594384,0.359245729792,0.0160430135091
-0.0253821983933,-0.0268659256399,0.015833215788,-2.52742671967,0.0465419366956,2.52407765388,-0.782223939896,0.0408420413733,-0.000106557534309,0.000704724749085,-0.000655750394799,-0.000332735129632,4.8867015721e-05,1.03005368146e-05,5.92692558712e-05,0.462919731825,-0.00192846857222,0.175833907098,-0.00790568898466,0.933071542636,0.359245717409,0.0160471372484
-0.0253842417151,-0.0268665421754,0.0158328525722,-2.52742576599,0.0465413145721,2.52407646179,-0.78222322464,0.0408420413733,0.000200618800591,-0.000298784027109,1.00836887214e-05,0.000171047999174,-0.00399753730744,0.000119583433843,0.000243467758992,0.46292018176,-0.0019294986853,0.175834563091,-0.00790536428098,0.933071936777,0.359244685884,0.016047472176
-0.0253824107349,-0.0268668346107,0.0158342104405,-2.52742600441,0.0465417429805,2.52407813072,-0.782222390175,0.0408420413733,-1.23203408293e-05,0.000414990092395,-0.00013756165572,0.000174128887011,-8.04449973657e-06,-0.000131408349262,-1.08722110781e-06,0.462920318726,-0.00192813425315,0.175834649758,-0.0079052410812,0.933071638883,0.359245435554,0.0160480713593
-0.0253822617233,-0.0268663782626,0.015833998099,-2.52742433548,0.0465414337814,2.52407717705,-0.782223582268,0.0408420413733,-1.73045773408e-05,-0.000528900651261,-0.000233110302361,0.000915863609407,0.00443971715868,4.76716813864e-05,-8.12455982668e-05,0.462920832756,-0.00192817299862,0.175834998573,-0.00790512195087,0.933071385257,0.359246092472,0.0160481709585
-0.0253838021308,-0.0268655810505,0.0158349666744,-2.5274283886,0.0465417206287,2.52407836914,-0.782221376896,0.0408420413733,5.72449280298e-05,-0.000528105592821,-6.04222805123e-05,0.000447519618319,2.4754779588e-05,2.24878840527e-05,0.000127235543914,0.462919038964,-0.00192842042685,0.175833164229,-0.00790585943074,0.933071960407,0.35924465769,0.0160464854404
-0.0253825448453,-0.0268674343824,0.0158325023949,-2.52742409706,0.0465413145721,2.52407860756,-0.782224357128,0.0408420413733,0.00015570432879,0.000196201581275,-0.000454702123534,-0.000261084060185,2.21662885451e-05,-1.34318852361e-05,0.000126310478663,0.462921418208,-0.00192901988024,0.175835713322,-0.00790455348255,0.933071534008,0.359245662457,0.0160494283049
-0.025382835418,-0.0268664453179,0.015833247453,-2.52742552757,0.0465421229601,2.52407836914,-0.782221019268,0.0408420413733,-0.000101845434983,-0.000410806795117,-0.000255494524026,0.00312991603278,-4.50713196187e-05,0.00223753834143,-0.000160212541232,0.462920534217,-0.00192875508333,0.17583467804,-0.00790529476624,0.933072186548,0.359244003021,0.016048270401
-0.0253830719739,-0.0268683768809,0.0158335696906,-2.52742481232,0.04654160887,2.52407813072,-0.782222151756,0.0408420413733,-6.3780862547e-05,0.000225314201089,8.21542344056e-05,-0.000227515833103,3.29637841787e-05,0.00165749853477,0.000293395132758,0.462921124788,-0.00192875289973,0.175835827167,-0.00790468946633,0.93307187465,0.359244779104,0.0160493299904
-0.0253826435655,-0.0268657077104,0.0158348120749,-2.52742600441,0.0465406551957,2.52407836914,-0.782224833965,0.0408420413733,0.000108105828986,0.000450621504569,0.000237879750784,0.000269431795459,-6.68960783514e-05,6.10458446317e-05,-1.75880231836e-05,0.462920191147,-0.0019280245008,0.175834148575,-0.00790508934172,0.933070988037,0.359247152994,0.0160475417624
-0.0253842808306,-0.0268652830273,0.0158345643431,-2.52742695808,0.046540863812,2.5240790844,-0.782221376896,0.0403876267374,-0.000128598388983,0.000332845433149,-0.000844390247948,0.000463949487312,0.000187568453839,-0.000193771789782,-7.01772523826e-06,0.462919823017,-0.00192888777068,0.175833647991,-0.00790527441884,0.933071986055,0.35924456987,0.0160472483474
-0.0253848433495,-0.0268721152097,0.0158317163587,-2.52741336823,0.0465410090983,2.52408647537,-0.782223343849,0.0403876267374,5.17733788001e-05,-0.000652372371405,0.00015461575822,0.00461079739034,-8.1379301264e-05,0.000152279433678,6.30670501778e-06,0.462928949588,-0.00193062675137,0.175842783939,-0.00790000810574,0.933072080172,0.359243864538,0.0160601542153
-0.0254006832838,-0.0268766842782,0.0158235505223,-2.52739930153,0.0465419217944,2.52409505844,-0.782223045826,0.0403876267374,-0.00072068098234,-0.000545580813196,-0.000483619660372,0.000801038346253,-9.84210782917e-05,0.000551377946977,-0.000252669065958,0.462937499857,-0.00194073064507,0.17585043287,-0.00789547028125,0.93307608975,0.359233028419,0.0160718158314
-0.0254022087902,-0.0268904920667,0.0158275421709,-2.52742004395,0.04654103145,2.52510333061,-0.782222568989,0.0403876267374,0.00076874543447,0.000155211178935,-8.26612013043e-05,-0.00182767689694,-2.09559038922e-05,0.02393842116,-7.52228079364e-05,0.463148780502,-0.00195355105981,0.175943362595,-0.00769278237136,0.933072914427,0.359224841298,0.0165308965597
-0.0254007168114,-0.0268872026354,0.0158300828189,-2.52740240097,0.0465415231884,2.52529287338,-0.78222244978,0.0403876267374,-0.000155936562805,0.000643096514978,-0.000113718160719,0.000910817238037,0.000141876342241,0.00210767262615,-0.000170783911017,0.463197209458,-0.00195395723309,0.175966317161,-0.00765219766915,0.933071493874,0.359225097726,0.0166240800803
-0.0254050828516,-0.0268691070378,0.0158276502043,-2.52742433548,0.0465408042073,2.52530312538,-0.782221972942,0.0403876267374,-0.000521184992976,0.000170623752638,0.00020073838823,-0.00136794371065,-7.76311499067e-05,0.001407884527,0.000104019185528,0.463186624048,-0.00195728143946,0.175950415874,-0.00765733898086,0.933073063095,0.359221543995,0.0166104214426
-0.025408077985,-0.0268717203289,0.0158251561224,-2.5274181366,0.0465398840606,2.52537989616,-0.782222688198,0.0403876267374,0.000702760880813,-4.69323822472e-05,0.000473090971354,-0.0012600866612,-0.00214953208342,-0.000141223848914,-3.32921990776e-05,0.463206583021,-0.00196087728981,0.175961197433,-0.00763996317484,0.933073470683,0.359219043015,0.0166495672629
-0.0254138894379,-0.0268698632717,0.0158244557679,-2.52742433548,0.0465410128236,2.52540373802,-0.782222151756,0.0403876267374,-0.000535805185791,-0.00038199822302,-0.000403721176554,-0.000427441555075,-0.00104994850699,-0.000313280645059,5.96082063566e-05,0.463208431068,-0.00196451141783,0.175960074228,-0.00763686055733,0.933074994654,0.359214812041,0.0166568666927
-0.025414198637,-0.0268687848002,0.0158232934773,-2.52743458748,0.0465411953628,2.52541160583,-0.782222688198,0.0372966974974,3.53444374923e-05,0.000183943033335,0.000487767480081,-0.000334420677973,-0.000101140962215,0.000291064090561,-0.000288728624582,0.463205156998,-0.00196481465418,0.175956394859,-0.00763747797672,0.933075149784,0.35921447035,0.0166552622945
-0.0254077147692,-0.026869950816,0.0158270355314,-2.52743077278,0.0465403310955,2.52541828156,-0.782222747803,0.0372966974974,5.11510079377e-05,-0.000936948054004,9.40552781685e-05,0.000474234257126,-2.12107679545e-05,-3.53136201738e-05,-0.00013198844681,0.463208614808,-0.00196024789981,0.175959039978,-0.00763501171135,0.933073117674,0.359219559631,0.0166604722326
-0.0254134126008,-0.0268644262105,0.0158248580992,-2.52743053436,0.0465408340096,2.52543711662,-0.782223641872,0.0372966974974,-0.00177135365084,-0.000382386002457,-0.000308571819915,0.000143918863614,-0.000111442481284,0.00241713831201,-0.000394887552829,0.463211923388,-0.00196407730429,0.175958332398,-0.00763232153232,0.933074425242,0.359215929105,0.0166667510216
-0.0254217348993,-0.0268823262304,0.0158208198845,-2.52740001678,0.0465405359864,2.52548408508,-0.782222807407,0.0372966974974,-0.000314078992233,-0.00505961757153,0.000166291487403,0.00221844273619,2.0642473828e-05,0.00492089381441,0.000343287363648,0.463239373189,-0.00197060461228,0.175982883155,-0.00761368971581,0.933076196981,0.359209679425,0.0167107225518
-0.0254244562238,-0.0269242376089,0.0158190093935,-2.52737474442,0.0465407632291,2.52581739426,-0.782222688198,0.0372966974974,0.000208883022424,0.00131617521401,0.00248163891956,0.000657169148326,7.18800038157e-07,0.00199379073456,-0.00013090154971,0.463330078368,-0.00197720252687,0.176043245993,-0.00753392046798,0.933075406255,0.359204824611,0.0168943761743
-0.0254299920052,-0.0269157066941,0.0158204492182,-2.52737569809,0.0465407781303,2.52588295937,-0.782224297523,0.0372966974974,-0.000546863360796,0.000849248783197,-0.00255101360381,-0.000669030996505,-0.000624108186457,0.00575542915612,-4.28186831414e-05,0.463342465785,-0.00197990179214,0.176045045441,-0.00752245916982,0.933075715385,0.359203055409,0.0169200070226
-0.0254314653575,-0.026907177642,0.0158202517778,-2.52738833427,0.0465413443744,2.52591443062,-0.782222986221,0.0372966974974,0.000141365570016,-0.000217125518247,9.97677216219e-06,-0.00064380542608,0.000529057346284,0.000220229179831,-0.000212238897802,0.463342005615,-0.00198081887484,0.176039031701,-0.0075199778466,0.933076233999,0.359201523245,0.0169250365598
-0.0254303254187,-0.0269044246525,0.0158210676163,-2.52739667892,0.0465404950082,2.52593278885,-0.782221853733,0.0372966974974,0.000192119303392,-8.24170547276e-06,0.000104678125354,-6.97167342878e-05,-0.00146145024337,4.79705431644e-06,0.000152264299686,0.463341510619,-0.00198028453181,0.17603630306,-0.00751838149106,0.933076168818,0.359201595848,0.0169277981415
-0.0254259817302,-0.0268940236419,0.0158267058432,-2.52740907669,0.0465406477451,2.52594041824,-0.782224178314,0.0372966974974,-0.000153424436576,0.000433783134213,-4.47081401944e-05,-0.000213086823351,-0.000102906764369,0.000235492028878,-0.00035387929529,0.463335659322,-0.00197567694376,0.176027368957,-0.00752115368505,0.933074147968,0.359207122461,0.0169206825857
-0.0254386290908,-0.0268826689571,0.0158180166036,-2.5274014473,0.0465400889516,2.52595949173,-0.782223820686,0.0365625433624,-8.94139884622e-06,-0.000769510865211,0.00310819339938,0.00476503511891,4.79829323012e-05,0.00485735712573,7.8490083979e-05,0.46334158627,-0.00198578632986,0.176026862447,-0.00751785931488,0.933077929792,0.359197033607,0.0169277718164
-0.0254487358034,-0.0269066710025,0.0158172938973,-2.52736973763,0.0465409606695,2.52600669861,-0.782224297523,0.0365625433624,-0.000175511377165,-0.00303798494861,-0.000145151949255,0.00194233120419,8.18626649561e-05,0.00257869600318,0.000112944690045,0.463370610938,-0.00199158999677,0.176054739701,-0.0074980678325,0.933079282417,0.359191688775,0.0169753380603
-0.0254747867584,-0.0269334632903,0.0158173386008,-2.5273668766,0.0465396754444,2.5262606144,-0.782223045826,0.0365625433624,0.000345999724232,0.000485670258058,-0.000218866858631,0.000166741578141,5.3333445976e-05,0.000737648806535,0.000287102739094,0.46343105392,-0.00200706394766,0.176091993425,-0.00744070115563,0.933082879373,0.359177378663,0.0171051608684
-0.025483828038,-0.0269257780164,0.0158172566444,-2.52736544609,0.0465396679938,2.52627682686,-0.78222411871,0.0365625433624,-0.000229646451771,0.000258187850704,0.000190576989553,0.000113901187433,-0.000102074467577,0.000352265313268,0.000264858885203,0.463434017004,-0.00201147407784,0.176090505309,-0.00743855458837,0.933084320881,0.3591734606,0.017109731673
-0.0255050845444,-0.0269277039915,0.0158141069114,-2.52736878395,0.0465406775475,2.52633476257,-0.782223045826,0.0365625433624,-0.000313595868647,-8.74931283761e-05,-0.00138524593785,0.000511973106768,1.83618794836e-05,4.54265682492e-06,-9.37203185458e-06,0.463445221073,-0.00202344703066,0.176095516405,-0.00742724173804,0.933088851303,0.359160682572,0.0171357939099
-0.0255035571754,-0.0269288234413,0.0158164221793,-2.5273680687,0.0465399622917,2.52635216713,-0.782223880291,0.0365625433624,0.00046906771604,0.000295127509162,0.000516788568348,-4.19967691414e-05,2.36986852542e-05,0.000163413991686,-0.000319249811582,0.463449507303,-0.00202194469882,0.176097939287,-0.00742319252544,0.933087834566,0.359162992148,0.0171445021813
-0.0254955217242,-0.0269285757095,0.0158280432224,-2.52736449242,0.0465400069952,2.52636694908,-0.78222411871,0.0365625433624,0.000522220623679,-0.000419767689891,0.00196500774473,0.000272982782917,-0.00244710757397,0.00312626711093,-0.000362821156159,0.463454403468,-0.00201308662336,0.176100596554,-0.00741963770206,0.933084190129,0.359172142783,0.0171526861621
-0.0256030112505,-0.0269264001399,0.0158105548471,-2.52735757828,0.0465408042073,2.52640676498,-0.782224297523,0.0349602773786,-0.000769362377468,-0.000388085201848,0.00175759813283,0.000934793555643,-0.000136150672915,1.51374624693e-05,0.000111735149403,0.463466118334,-0.00207206910027,0.176106393273,-0.00740997234148,0.933106810032,0.359112548258,0.0171741302928
-0.0256329979748,-0.0269170328975,0.0158096048981,-2.52730607986,0.0465393662453,2.52640128136,-0.782224774361,0.0349602773786,-0.00170039921068,0.00275131454691,0.000396168441512,0.00757966609672,6.44366591587e-05,-0.00177180045284,5.3811869293e-05,0.463487445352,-0.00208595486271,0.176121214281,-0.00740288755434,0.933111450465,0.359099838279,0.0171908144248
-0.0256449580193,-0.0268956683576,0.0158133096993,-2.52712845802,0.0465398468077,2.52638077736,-0.782222986221,0.0349602773786,-1.87225014088e-05,-0.000276343547739,0.000668184948154,0.00998408906162,0.000123009027448,-0.000152239168528,-2.43313170358e-05,0.463564002059,-0.00209022380959,0.176178588554,-0.00737843328009,0.933112039576,0.359095771763,0.0172541794462
-0.0256203897297,-0.026841789484,0.0158390235156,-2.52663254738,0.0465391464531,2.52624440193,-0.782222747803,0.0349602773786,0.000340028433129,0.00172161438968,0.000748019432649,0.0217744763941,1.59282280947e-05,-0.0117560811341,0.000254884595051,0.463761632102,-0.00206733151005,0.176334087907,-0.00732484798654,0.933099589652,0.359122328439,0.0173969909666
-0.0256116762757,-0.0268248654902,0.0158471949399,-2.52623319626,0.0465405024588,2.52605223656,-0.782222270966,0.0347527712584,5.31303485332e-05,0.000665952684358,0.00110716035124,0.0303608682007,4.07896768593e-05,-0.015505024232,-0.000190742823179,0.463907023117,-0.00205872946976,0.176463928404,-0.00729369705741,0.933094177658,0.359132656841,0.0174869116414
-0.0256214234978,-0.0268190801144,0.0158470869064,-2.52560973167,0.0465397983789,2.52560377121,-0.782221913338,0.0347527712584,-0.000700268603396,0.000760923838243,-0.000621238781605,0.0483934096992,0.000101677513157,-0.0418988652527,-9.82724159257e-05,0.464104954847,-0.0020603848637,0.176662388663,-0.00727009635837,0.933092109959,0.359134511848,0.0175687824414
-0.0256344377995,-0.027188397944,0.0158425793052,-2.5217833519,0.046537976712,2.52118873596,-0.782222032547,0.0347527712584,6.32090377621e-05,-0.021302415058,-0.000283075642074,0.120760440826,0.000149749015691,-0.157627359033,-3.74269177428e-07,0.46502055412,-0.00203088262627,0.177915031574,-0.00738367807131,0.933074130325,0.359182380471,0.017497595864
-0.0256287232041,-0.0278451032937,0.0158441103995,-2.51879668236,0.0465376786888,2.51694869995,-0.782222568989,0.0347527712584,0.000354525604052,-0.0369453132153,9.2283145932e-05,0.160509511828,-0.000110679553472,-0.228495001793,-0.000163481090567,0.465616632518,-0.00198942551045,0.178993154819,-0.00756194088075,0.933055943511,0.359237941894,0.0172488874398
-0.025629511103,-0.0283877067268,0.0158457942307,-2.51622438431,0.0465369969606,2.51314520836,-0.782221019268,0.0347527712584,0.000397592200898,-0.0435490012169,-0.000309702940285,0.194987148046,-0.000101607649412,-0.303907722235,-0.000135406342451,0.466090421008,-0.00195420030554,0.179899490664,-0.00775011986919,0.933042084508,0.359283936961,0.0169545423382
-0.0256367139518,-0.0326243489981,0.0158440042287,-2.50344562531,0.0465332977474,2.49076986313,-0.782220125198,0.0347527712584,0.000502434850205,-0.11875642091,0.000159671646543,0.299506306648,-4.02973491873e-05,-0.565860748291,0.00321586802602,0.467873928999,-0.00174719358725,0.184838298793,-0.0090876938009,0.932967820881,0.35954832233,0.0146103599299
-0.0256326142699,-0.0345383696258,0.0158443711698,-2.49913668633,0.0465341173112,2.48238301277,-0.782220721245,0.0347527712584,-0.000583773537073,-0.153169825673,-0.00198775483295,0.314166754484,-0.000312668184051,-0.617606878281,0.000184711665497,0.468375609573,-0.00165874393501,0.186809733108,-0.00965346033129,0.932935071183,0.359658628201,0.0135880280286
-0.0256483312696,-0.0378435999155,0.0158345531672,-2.49247455597,0.0465338081121,2.46977233887,-0.782219588757,0.034752111882,-0.000820668123197,-0.200562909245,-0.000142857767059,0.379465788603,-0.000530939723831,-0.696062743664,-8.9921282779e-05,0.46917043417,-0.00155878015191,0.189715811057,-0.0102892806185,0.932891374111,0.359793471812,0.0125088824774
-0.0256853979081,-0.0418069139123,0.0158151555806,-2.4849023819,0.0465338379145,2.45556974411,-0.782218813896,0.034752111882,-0.00662813568488,-0.227234661579,-0.00302415643819,0.420803248882,2.28178196267e-05,-0.782885015011,-0.00029969640309,0.470129370952,-0.0014532882533,0.1933135116,-0.010988345933,0.932839791553,0.359944717861,0.0113569061925
-0.0257614161819,-0.0500898510218,0.015803925693,-2.47110533714,0.046530302614,2.4295399189,-0.782216906548,0.034752111882,-0.00143561942969,-0.311485022306,-0.00107952405233,0.474383950233,0.000159693954629,-0.887339353561,0.000208676472539,0.47187356809,-0.00125582219955,0.200429152451,-0.0120816637407,0.932730766685,0.360241221372,0.00967534955893
-0.0258018355817,-0.0564750395715,0.015797317028,-2.46148943901,0.0465287305415,2.41222524643,-0.78221642971,0.034752111882,-0.000396813615225,-0.340098828077,0.000239625238464,0.525588274002,0.000303218810586,-0.925044596195,0.000208723038668,0.473327614247,-0.00111645944325,0.206102121132,-0.0125803014251,0.932641873779,0.360468297916,0.00913658433345
-0.0258235167712,-0.060680847615,0.0157880131155,-2.45508813858,0.0465283170342,2.40085697174,-0.782217681408,0.034752111882,-0.00433869566768,-0.36193048954,0.000377116899472,0.54588842392,-0.000426092592534,-0.953515768051,-0.00553467636928,0.47415363171,-0.00103712930418,0.209408269529,-0.0128459806367,0.93258957913,0.360600805112,0.00887224420171
-0.0258546750993,-0.0698738843203,0.0157292243093,-2.44226527214,0.046528223902,2.37846207619,-0.782217144966,0.034752111882,-0.000102652156784,-0.436668723822,-0.00723412819207,0.583556115627,0.000234461971559,-0.990594983101,0.000518835091498,0.47601635193,-0.000882885071794,0.217077327132,-0.0132005536514,0.932475969956,0.360883054517,0.00881654614104
-0.0258458815515,-0.0930699780583,0.0151187228039,-2.41159558296,0.0465207733214,2.32921075821,-0.782217800617,0.0347508005798,0.000420760246925,-0.52120411396,-0.0180937256664,0.667993366718,-0.000549846154172,-1.03579366207,0.000430874177255,0.480861759442,-0.000746465161552,0.236700300215,-0.012939634838,0.932260308403,0.361382792445,0.0112142871304
-0.0258495677263,-0.118340976536,0.0136932227761,-2.37989330292,0.0465184673667,2.28244781494,-0.78221654892,0.0347508005798,-0.00209455401637,-0.578077793121,-0.0375986620784,0.712470769882,-0.000937906384934,-0.997976064682,-0.000687786377966,0.485917285011,-0.00104452465502,0.258931874872,-0.0115534195235,0.932146717496,0.361527166802,0.0163438951134
-0.025996433571,-0.137235715985,0.0121874054894,-2.35710144043,0.0465196371078,2.25125265121,-0.782215952873,0.0347508005798,-0.00843074265867,-0.600300610065,-0.0536989346147,0.714188635349,-0.000145483048982,-0.952905356884,-0.000286031456199,0.489202282024,-0.00156692881125,0.2748864475,-0.010021600814,0.93213968076,0.361336406716,0.0212410907737
-0.0261967722327,-0.149357706308,0.0110481688753,-2.34298372269,0.0465197600424,2.23267436028,-0.782217741013,0.0347508005798,-0.0119630517438,-0.604521811008,-0.0658611282706,0.683311879635,0.00106057699304,-0.903261840343,0.000530935649294,0.491164299447,-0.00206039928543,0.285459450876,-0.00882342084147,0.932164301762,0.361070137637,0.0249041594515
-0.0276927053928,-0.178958892822,0.00791259855032,-2.31070828438,0.0465103685856,2.19169998169,-0.782217860222,0.0347508005798,-0.0539097078145,-0.621831357479,-0.0702139213681,0.648609936237,0.000427373917773,-0.796419382095,0.000360544654541,0.495028571395,-0.00398405225637,0.310981178731,-0.00542987164978,0.932391315602,0.359725033559,0.0348547127469
-0.028910504654,-0.19072830677,0.00654654949903,-2.29863405228,0.0464868359268,2.17714452744,-0.782218873501,0.0347508005798,-0.0677620992064,-0.614105403423,-0.0715280845761,0.610452830791,-0.00303324288689,-0.751023709774,-0.00508709391579,0.496261420319,-0.00514013266023,0.32104148674,-0.00386161208116,0.932572561066,0.358820955195,0.0392559307198
-0.0299906395376,-0.199732363224,0.00533510604873,-2.28990602493,0.0463872551918,2.16624307632,-0.782218039036,0.0347527712584,-0.0801543369889,-0.596884727478,-0.0813322588801,0.553538322449,-0.0191564355046,-0.710030734539,-5.14935600222e-05,0.496930721016,-0.00619143398868,0.32854891431,-0.00268625998044,0.932752090281,0.357996058993,0.042486980516
-0.0349698960781,-0.226961299777,0.00080803578021,-2.2655134201,0.0434334278107,2.13669371605,-0.782225072384,0.0347527712584,-0.121374540031,-0.550366282463,-0.118935763836,0.443914830685,-0.139206856489,-0.560888767242,-0.00120625295676,0.498247194006,-0.0112373774847,0.351362375798,0.00240059879305,0.933468224548,0.354754271004,0.052732511553
-0.0404987931252,-0.246858716011,-0.00456985551864,-2.24968576431,0.0356609858572,2.11749315262,-0.78223413229,0.0347527712584,-0.17518247664,-0.477766126394,-0.163582652807,0.37340310216,-0.261571198702,-0.440225094557,0.000465417600935,0.498273606407,-0.0175981191355,0.366675097806,0.00827585273507,0.934180827125,0.351765160719,0.0591520403947
-0.0437455847859,-0.254722088575,-0.00750769209117,-2.24372935295,0.0305971484631,2.11046171188,-0.782304644585,0.0347527712584,-0.202602490783,-0.450757801533,-0.177637934685,0.329217523336,-0.331714719534,-0.399409294128,-0.0138053866103,0.498107128284,-0.0211356852816,0.372370011037,0.0112762125266,0.934591161602,0.350210415835,0.0613585528872
-0.0508719347417,-0.267630130053,-0.0133581319824,-2.23492360115,0.0174149610102,2.09958195686,-0.782878994942,0.0347514562309,-0.250547319651,-0.374892413616,-0.208436325192,0.251244664192,-0.488113641739,-0.298948556185,-0.0137964915484,0.497332402283,-0.0293984987552,0.38190858166,0.0184319073109,0.935363537534,0.347329579647,0.064167594876
-0.0544901266694,-0.272433280945,-0.0166049078107,-2.23155975342,0.0101795597002,2.09565925598,-0.783096432686,0.0347514562309,-0.27093783021,-0.32271116972,-0.254035949707,0.23257380724,-0.532633185387,-0.25995978713,-0.0177087727934,0.496890782987,-0.0341733155415,0.38575518831,0.0223020945133,0.935859575739,0.345621156661,0.0649267805489
-0.0593912750483,-0.277485966682,-0.0212468653917,-2.22790384293,0.000541832821909,2.09158372879,-0.783529758453,0.0347514562309,-0.303838789463,-0.280775368214,-0.283682376146,0.193406760693,-0.583319067955,-0.228445991874,-0.0367880687118,0.496347791156,-0.0399553013742,0.389369724546,0.0266363795173,0.936507265826,0.34347464384,0.0653438066341
-0.0768529698253,-0.286725610495,-0.0386026538908,-2.21960520744,-0.034415114671,2.08173680305,-0.788611114025,0.0347514562309,-0.372716069221,-0.0855109840631,-0.381797879934,0.140986904502,-0.72885042429,-0.157801538706,-0.17017352581,0.493757045739,-0.0623024955655,0.396955433561,0.0415302350745,0.938677431688,0.336545866908,0.0624243379452
-0.0836949497461,-0.287771165371,-0.0457669235766,-2.2174050808,-0.0465922541916,2.07931852341,-0.792108237743,0.0347514562309,-0.417616248131,-0.0259689185768,-0.461980611086,0.126144483685,-0.706377089024,-0.12577702105,-0.240939572453,0.492653207028,-0.0710230178679,0.398295913879,0.0462800611384,0.939488761262,0.334020865939,0.0604076502416
-0.0918650850654,-0.287615567446,-0.0550585873425,-2.21518135071,-0.0601863265038,2.07714080811,-0.797165334225,0.0347514562309,-0.445964455605,0.030823899433,-0.520029306412,0.107820801437,-0.714563071728,-0.0994828566909,-0.288104742765,0.491238546808,-0.0816565320348,0.399073814637,0.0512534357937,0.940514368741,0.330891675041,0.0575891186452
-0.0997349247336,-0.28643989563,-0.0642340555787,-2.21338677406,-0.0721905231476,2.07567310333,-0.802548110485,0.0347514562309,-0.470548003912,0.11419531703,-0.551596701145,0.108454562724,-0.696498692036,-0.0799882635474,-0.344700932503,0.489783713384,-0.0918390000553,0.399205093468,0.0553925230697,0.941534425808,0.327807574903,0.0546515043758
-0.115328446031,-0.281081020832,-0.0832038149238,-2.20969486237,-0.0923383384943,2.07375407219,-0.815213680267,0.0347514562309,-0.528142809868,0.220837399364,-0.66951841116,0.137835666537,-0.608697474003,-0.0514561422169,-0.468071222305,0.486756447788,-0.111863876676,0.398101212027,0.0615829162495,0.943628086069,0.321602301867,0.0484307622248
-0.12225343287,-0.277870923281,-0.0921505019069,-2.20770311356,-0.100006654859,2.07321977615,-0.821595311165,0.0347514562309,-0.540668904781,0.269688546658,-0.701742291451,0.165493831038,-0.563732504845,-0.0323344282806,-0.502666771412,0.485451725792,-0.120133469426,0.39744612856,0.0635625481947,0.944522162763,0.318944220438,0.0459594435798
-0.133924946189,-0.270687192678,-0.108046725392,-2.20338821411,-0.110962547362,2.0727865696,-0.833624064922,0.0347514562309,-0.565815031528,0.390858262777,-0.795206308365,0.240861877799,-0.458018451929,-0.0163828898221,-0.622396886349,0.482993199596,-0.136129054531,0.395787412206,0.0663951000512,0.94629484731,0.313699791841,0.0413544789813
-0.163752362132,-0.245894476771,-0.15208569169,-2.18764662743,-0.129853785038,2.07217931747,-0.869168519974,0.0347514562309,-0.623929142952,0.601288497448,-0.939474403858,0.399386972189,-0.319705307484,-0.0172455254942,-0.782038807869,0.476257628932,-0.175874583388,0.390605470852,0.0692729114743,0.951008290847,0.299723258619,0.0308295703516
-0.174278378487,-0.235140025616,-0.168553218246,-2.18030571938,-0.134930744767,2.07194924355,-0.882735788822,0.0347514562309,-0.611175596714,0.649847507477,-0.975895345211,0.470927745104,-0.28471082449,-0.0119208153337,-0.810818850994,0.473700207297,-0.189423333631,0.38867953305,0.0696403356092,0.952630088744,0.294787461364,0.0273219689592
-0.184775620699,-0.223511010408,-0.185494020581,-2.17153549194,-0.139329388738,2.07173728943,-0.897007524967,0.0347514562309,-0.62297052145,0.723809480667,-1.02313995361,0.548495173454,-0.233248874545,-0.0116902720183,-0.86129117012,0.470725852959,-0.204939405277,0.386764312878,0.0700306297247,0.954420734911,0.289168092992,0.0236344104555
-0.196635097265,-0.209125384688,-0.205160185695,-2.16050696373,-0.143546625972,2.07140922546,-0.914012253284,0.0347514562309,-0.634213328362,0.776355624199,-1.05486488342,0.59935939312,-0.207945972681,-0.0209744870663,-0.920254588127,0.467235752536,-0.221783052556,0.384585631625,0.0702244910277,0.956301926198,0.283146162248,0.0195805338006
-0.21528197825,-0.184823870659,-0.237013831735,-2.14043736458,-0.149112284184,2.07086133957,-0.942559957504,0.0347514562309,-0.619896411896,0.871811687946,-1.07190907001,0.719915986061,-0.180945277214,-0.0106318425387,-0.973886907101,0.461069958732,-0.248893227387,0.381558401023,0.0707321358164,0.959102783824,0.273751312542,0.0133803436466
-0.222714558244,-0.174630299211,-0.249935016036,-2.1319899559,-0.151203036308,2.07068371773,-0.954243600368,0.0347514562309,-0.615880012512,0.832389950752,-1.08087038994,0.716141164303,-0.152468517423,-0.0129324179143,-0.970134019852,0.458256159395,-0.259839864926,0.380295276648,0.0709862002602,0.960180438822,0.269997525214,0.0107619861724
-0.237821355462,-0.153517082334,-0.276535362005,-2.11332249641,-0.154504552484,2.07046723366,-0.978297054768,0.0347514562309,-0.588465452194,0.866358101368,-1.05305850506,0.748710274696,-0.112849153578,-0.0121836969629,-0.967263579369,0.452093070703,-0.28230341162,0.378243664932,0.071765125933,0.962356661386,0.262078054324,0.00587504206848
-0.246660083532,-0.140770629048,-0.292370885611,-2.10219502449,-0.156290337443,2.07031083107,-0.992812156677,0.0347514562309,-0.583796024323,0.823166489601,-1.0625449419,0.753153502941,-0.116162873805,-0.00127377919853,-0.960396945477,0.447964524425,-0.295542588732,0.376927317315,0.0722230055881,0.963574618426,0.257488188154,0.00276131173643
-0.273871392012,-0.102358192205,-0.341058433056,-2.06628155708,-0.161361068487,2.06975698471,-1.03926944733,0.0347514562309,-0.535722017288,0.72028273344,-0.925630569458,0.684706270695,-0.10612988472,-0.0216142646968,-0.892089426517,0.432566676514,-0.337696434544,0.374062877668,0.0748437479344,0.966981284315,0.243505676863,-0.00711296054192
-0.288734853268,-0.0829870924354,-0.366213798523,-2.04759025574,-0.164518341422,2.06866931915,-1.0645428896,0.0347514562309,-0.491258025169,0.604201197624,-0.776894807816,0.615340352058,-0.0938010439277,-0.0442022234201,-0.842479169369,0.423702403483,-0.357186206916,0.373012048231,0.0762819116778,0.968340527056,0.237365532359,-0.0124618358384
-0.300553530455,-0.0691821947694,-0.385043829679,-2.03347659111,-0.166708916426,2.06700444221,-1.08529007435,0.0347514562309,-0.463525921106,0.491737633944,-0.707040786743,0.508291304111,-0.0916248112917,-0.084089063108,-0.809528827667,0.415540569911,-0.372938254215,0.372534836582,0.0773515187101,0.969281906955,0.23285315441,-0.0169922211053
-0.313240915537,-0.0570598356426,-0.403024971485,-2.02038955688,-0.169201388955,2.06377148628,-1.10768973827,0.0347514562309,-0.405342072248,0.340272337198,-0.527583658695,0.405930578709,-0.0860247984529,-0.129001900554,-0.726109862328,0.406233931633,-0.388130962884,0.372307839504,0.0779555536677,0.970017122111,0.229141246707,-0.0220000730856
-0.320279181004,-0.051862064749,-0.411904722452,-2.01393437386,-0.170573487878,2.06078004837,-1.12010610104,0.0347514562309,-0.373774141073,0.242521449924,-0.460978329182,0.318209022284,-0.0511872470379,-0.194172501564,-0.661889016628,0.400847130719,-0.395691993735,0.372466515392,0.077916607777,0.970328088595,0.227549197278,-0.0247742856067
-0.326411277056,-0.0483304932714,-0.419461607933,-2.00882768631,-0.17121270299,2.05705690384,-1.13159430027,0.0347514562309,-0.306090444326,0.160187199712,-0.37968236208,0.249562829733,-0.0205640681088,-0.221571549773,-0.618484735489,0.395833890474,-0.401828420471,0.372735593536,0.0773232544868,0.970579250919,0.226412265266,-0.0271019894681
-0.33086758852,-0.0464530140162,-0.425103545189,-2.00535130501,-0.171579867601,2.05333137512,-1.1413449049,0.0347514562309,-0.255356311798,0.0689533650875,-0.320335179567,0.182829722762,-0.0265500508249,-0.253202676773,-0.59212487936,0.391833216363,-0.406112732018,0.373056244734,0.0765088473124,0.970658585668,0.226125908761,-0.02890293123
-0.339152038097,-0.0474405512214,-0.434303879738,-1.99990546703,-0.172255188227,2.03954648972,-1.16660678387,0.0347514562309,-0.110488705337,-0.105338953435,-0.103833340108,0.0768471136689,-0.00374360219575,-0.343794077635,-0.514005661011,0.383270028634,-0.41233695826,0.37469944859,0.0729001730833,0.970055580214,0.229338449605,-0.0328878592531
-0.340646266937,-0.0505913160741,-0.435746580362,-1.99855291843,-0.172254338861,2.03121304512,-1.1779563427,0.0347514562309,-0.0248471014202,-0.153647333384,-0.0256275553256,0.0446968227625,-7.81068520155e-05,-0.36886382103,-0.462835639715,0.380773700736,-0.412630442293,0.376053183994,0.0707032808254,0.969304989389,0.232984975538,-0.0341596910654
-0.340601354837,-0.0533395335078,-0.435759752989,-1.99802565575,-0.172255039215,2.02502727509,-1.18512415886,0.0347514562309,0.0292013138533,-0.186926826835,0.020037850365,0.0315231978893,0.000213657316635,-0.39891988039,-0.428322583437,0.379722867906,-0.41189483938,0.3770402955,0.0690539378147,0.968627581371,0.236160820728,-0.0349317724508
-0.339454203844,-0.0570343732834,-0.434955000877,-1.99766016006,-0.172247096896,2.01778626442,-1.19247972965,0.034752111882,0.0946680605412,-0.218997985125,0.0666240751743,0.0209828410298,-0.000164252749528,-0.408895999193,-0.395947992802,0.379208061975,-0.410243720254,0.378320320945,0.0672101335925,0.967715656121,0.240295783132,-0.0355969541365
-0.332561075687,-0.0677158907056,-0.428726315498,-1.99695360661,-0.172198012471,1.99843740463,-1.20950508118,0.034752111882,0.192338392138,-0.234436094761,0.198223158717,0.014923802577,0.0111713754013,-0.416581004858,-0.337326139212,0.380894596198,-0.402744659396,0.38207819505,0.0626834293774,0.964505335695,0.253862345041,-0.0367988391076
-0.328152775764,-0.0723063051701,-0.424077987671,-1.99657332897,-0.172128096223,1.99017167091,-1.21576404572,0.034752111882,0.25281649828,-0.224577918649,0.247337520123,0.0214855633676,0.00110503740143,-0.404986441135,-0.290163576603,0.382835264091,-0.398464059505,0.383690195112,0.0610149056039,0.962842425435,0.260444519738,-0.0371523472597
-0.323338955641,-0.0765370577574,-0.419361770153,-1.99615716934,-0.171996667981,1.98287045956,-1.22089755535,0.034752111882,0.284013211727,-0.237414509058,0.26475507021,0.0282540339977,0.0114284306765,-0.406509101391,-0.268169552088,0.385347774842,-0.393625847555,0.38541867872,0.0595182654835,0.961004166044,0.267458523656,-0.0373430948693
-0.31828212738,-0.0806246772408,-0.414579182863,-1.99572765827,-0.171611368656,1.97611153126,-1.22514283657,0.034752111882,0.316861510277,-0.233416780829,0.299186378717,0.0274115446955,0.0337098389864,-0.393783420324,-0.233183950186,0.387929796028,-0.38893329612,0.387052413544,0.0582635036641,0.959295908107,0.273798069849,-0.037300689918
-0.302248716354,-0.0901973545551,-0.3992639184,-1.99350392818,-0.170049220324,1.95846879482,-1.23428201675,0.034752111882,0.364071130753,-0.196439653635,0.361313134432,0.0588440224528,0.0309531763196,-0.350608199835,-0.17015889287,0.396834722191,-0.374486882477,0.391393853334,0.0553047427641,0.954107668095,0.291968258996,-0.0370739603916
-0.295590698719,-0.0935406237841,-0.392772555351,-1.99253284931,-0.16957052052,1.9523307085,-1.23744034767,0.034752111882,0.375041872263,-0.165322899818,0.354812771082,0.0567610114813,0.0213226247579,-0.331409037113,-0.176315993071,0.400659110028,-0.36854837791,0.393044363596,0.0544889826968,0.951876231676,0.29932638264,-0.0369635858705
-0.28863209486,-0.0964136347175,-0.386144518852,-1.99153220654,-0.169097289443,1.9466073513,-1.24029588699,0.034752111882,0.38589695096,-0.156411737204,0.377596855164,0.050874017179,0.028464525938,-0.300211489201,-0.153631895781,0.40465748986,-0.362451314577,0.394527578886,0.0537541503027,0.949551052625,0.306757419809,-0.0369211980344
-0.269175887108,-0.103631421924,-0.367386311293,-1.9894708395,-0.166572451591,1.93343567848,-1.24689173698,0.034752111882,0.381817400455,-0.128081157804,0.37088856101,0.0315469317138,0.0780530422926,-0.226558968425,-0.127819776535,0.415953055248,-0.345091137673,0.398191476553,0.0520640768488,0.942951072316,0.326848251935,-0.0360946950997
-0.264176756144,-0.105240322649,-0.362637579441,-1.98903548717,-0.165686786175,1.93051719666,-1.24844956398,0.034752111882,0.38225454092,-0.111222401261,0.361731171608,0.0326596498489,0.0710862129927,-0.224827185273,-0.11783284694,0.419036349998,-0.340257523369,0.399066581309,0.0516160694992,0.941092124448,0.332267097998,-0.0357766676132
-0.257271796465,-0.107032723725,-0.356347769499,-1.98846268654,-0.164443612099,1.92689263821,-1.25044107437,0.034752111882,0.374210208654,-0.09042673558,0.339393436909,0.0315862707794,0.0747868046165,-0.188720628619,-0.102716103196,0.422909123995,-0.334191499228,0.399992818939,0.0510564554679,0.938731203428,0.339001586203,-0.0354244308818
-0.249231740832,-0.109022013843,-0.348983347416,-1.98804032803,-0.162933528423,1.9230222702,-1.2523458004,0.034752111882,0.354369699955,-0.0884390324354,0.338223457336,0.0108786132187,0.0641717612743,-0.155069127679,-0.0823177397251,0.427157362007,-0.327349713976,0.400905533186,0.0504428104648,0.936099369988,0.346333757801,-0.0350202837384
-0.23918363452,-0.110904075205,-0.339418649673,-1.98784303665,-0.161377891898,1.91900026798,-1.25479841232,0.034752111882,0.318548232317,-0.0499337464571,0.295141279697,-0.00106489425525,0.0498352386057,-0.114962220192,-0.078257009387,0.432771410943,-0.318233376215,0.401739915124,0.0497730766273,0.932429099218,0.356219253206,-0.0347341201844
-0.234232023358,-0.111763551831,-0.334827303886,-1.98787808418,-0.160452023149,1.9170601368,-1.25615251064,0.034752111882,0.30203589797,-0.0464557185769,0.27850818634,-0.00144941918552,0.0633596628904,-0.122699223459,-0.0893721058965,0.435109891056,-0.314269522721,0.40201781173,0.0493984423456,0.930813050315,0.360483920456,-0.0346150550337
-0.229598939419,-0.11236115545,-0.330624312162,-1.98786723614,-0.15937563777,1.91516196728,-1.25749194622,0.034752111882,0.279890477657,-0.0270551424474,0.253980338573,0.00111242826097,0.0762744918466,-0.109701618552,-0.0757475197315,0.437125409731,-0.310777127109,0.402202053784,0.0489645150976,0.929383536399,0.364220088824,-0.0345317985687
-0.2245144099,-0.112751491368,-0.3256906569,-1.98787426949,-0.157839328051,1.91304981709,-1.25872850418,0.034752111882,0.234050959349,-0.0117555558681,0.247008919716,-0.00140909501351,0.0852775722742,-0.0990327745676,-0.057510972023,0.440635060005,-0.304617205141,0.402319660338,0.0480052652554,0.926953259273,0.370500186012,-0.0343912994782
-0.218171849847,-0.112847231328,-0.31905990839,-1.98791718483,-0.155725851655,1.91026616096,-1.2607626915,0.034752111882,0.186782851815,0.00269478489645,0.182685345411,-0.000486532226205,0.0481673330069,-0.0852879434824,-0.071269236505,0.444160707944,-0.298251761144,0.402190264287,0.0468175150492,0.92436429427,0.377059034483,-0.0344275465446
-0.215203225613,-0.112784072757,-0.316310614347,-1.98797380924,-0.154956147075,1.9090577364,-1.26191949844,0.034752111882,0.163513883948,0.00241711735725,0.146235078573,-0.00662521598861,0.0426640957594,-0.0690513402224,-0.0691238194704,0.445675698504,-0.295456811229,0.402063319464,0.0462919269368,0.923142767558,0.380092485091,-0.0345570639094
-0.213011309505,-0.112695038319,-0.314282655716,-1.98807752132,-0.15413607657,1.90803277493,-1.26289844513,0.034752111882,0.130942493677,0.00783705338836,0.128649204969,-0.00737804220989,0.064916357398,-0.069790802896,-0.0706869587302,0.446766679015,-0.29332943937,0.401900919455,0.0457395690259,0.922233232911,0.38235269156,-0.0346435402177
-0.210916191339,-0.112540267408,-0.312262624502,-1.98828101158,-0.152883037925,1.90677523613,-1.26392698288,0.034752111882,0.0988136529922,0.00350105436519,0.0959124714136,-0.0135986097157,0.0647877678275,-0.0577825345099,-0.0423059165478,0.447789502858,-0.291142824498,0.40162709196,0.0449081145648,0.92136725964,0.384526940159,-0.0347082999279
-0.208845093846,-0.112464502454,-0.310324937105,-1.9887059927,-0.151289179921,1.90510237217,-1.26469385624,0.034752111882,0.0651170685887,0.00190210994333,0.0537794418633,-0.0122306672856,0.0610204488039,-0.0653285458684,-0.0272620562464,0.448664052166,-0.288877490985,0.401238950193,0.0437502702358,0.920600737988,0.386481847305,-0.0348134522278
-0.2079962641,-0.112390041351,-0.309746325016,-1.98895812035,-0.150268182158,1.90412724018,-1.26514732838,0.0347514562309,0.0450997017324,0.00469655403867,0.0222199037671,-0.0147738866508,0.0561378002167,-0.052036985755,-0.0296845752746,0.448915710468,-0.287951706883,0.400982430467,0.0429961690036,0.920334384857,0.387196111909,-0.0348585729191
-0.209371909499,-0.112338043749,-0.310881376266,-1.99079084396,-0.147064432502,1.90077936649,-1.26731514931,0.0347514562309,-0.0617151409388,0.000232087346376,-0.0388175398111,-0.0194159466773,0.0694970488548,-0.040127068758,-0.00328516843729,0.447437054071,-0.287988653153,0.399694237719,0.0399365437225,0.920675611797,0.386662577368,-0.0354053846537
