imanlab/tactile_prediction_flat_dataset/train/data_sample_2021-11-24-15-42-06/robot_state.csv
position_panda_joint1,position_panda_joint2,position_panda_joint3,position_panda_joint4,position_panda_joint5,position_panda_joint6,position_panda_joint7,position_panda_finger,velocity_panda_joint1,velocity_panda_joint2,velocity_panda_joint3,velocity_panda_joint4,velocity_panda_joint5,velocity_panda_joint6,velocity_panda_joint7,ee_state_position_x,ee_state_position_y,ee_state_position_z,ee_state_orientation_x,ee_state_orientation_y,ee_state_orientation_z,ee_state_orientation_w
0.398944228888,-0.094837680459,-0.401841640472,-2.45193624496,-0.127552434802,2.33621239662,-0.550835192204,0.0631339028478,0.000550031545572,-0.000243784495979,0.000229406316066,0.00136630178895,3.38087520504e-05,9.75515868049e-05,-0.000333085277816,0.464981931908,-0.00866592209069,0.217792463843,0.0221842859932,0.948848914673,0.314305015726,-0.0201482345946
0.398944139481,-0.0948393121362,-0.401840567589,-2.45193624496,-0.127552777529,2.3362159729,-0.550836861134,0.0631339028478,0.000145137470099,0.000742179632653,0.000353030802216,-0.000375472387532,5.90370218561e-05,5.3822859627e-05,0.000241459638346,0.464982908604,-0.00866535169092,0.217793469767,0.0221847922332,0.948848489111,0.314306426129,-0.0201457163478
0.398943781853,-0.0948427319527,-0.401841402054,-2.4519367218,-0.127552956343,2.33621931076,-0.550835490227,0.0631339028478,0.00014456702047,-0.000423373247031,0.000107996194856,0.000315917452099,-6.07276570008e-06,-2.8065918741e-05,-0.000656697200611,0.46498378606,-0.00866567213735,0.21779498597,0.0221849880577,0.94884891861,0.314305313407,-0.0201426316591
0.398944348097,-0.0948429703712,-0.401841908693,-2.45193505287,-0.127553805709,2.33622264862,-0.550836384296,0.0631339028478,-0.000689924461767,-0.000220487068873,0.00016797130229,-0.000119922078738,-0.000104385988379,4.51803771284e-07,2.75889397017e-05,0.464985281086,-0.00866565538902,0.217796038971,0.0221858827597,0.948848706174,0.314306048264,-0.0201401864973
0.398945063353,-0.0948324352503,-0.401840507984,-2.45193886757,-0.127552658319,2.33623099327,-0.550835728645,0.0631339028478,3.18000857078e-05,0.0019944771193,-2.23031051405e-07,-0.000156770824105,-2.98173040392e-06,3.14302201332e-06,-0.000253331847489,0.464984348132,-0.00866478819115,0.217790695211,0.0221863527718,0.948848433401,0.314306655539,-0.0201430423527
0.398944973946,-0.09483846277,-0.401842057705,-2.45193529129,-0.127553731203,2.33623576164,-0.550838887691,0.0631339028478,-0.000121592223877,-0.000692471978255,-2.32402408074e-06,0.00364953116514,6.48782661301e-05,0.000163829347002,-0.000435004738392,0.464987837002,-0.00866528926949,0.217795392761,0.0221874710859,0.948848198935,0.31430775945,-0.0201356286986
0.398943930864,-0.0948383659124,-0.401840299368,-2.4519340992,-0.12755292654,2.33624339104,-0.550836920738,0.0631339028478,5.56972809136e-05,0.000413190369727,-0.000544253503904,0.00070211518323,5.65236950933e-05,-0.000233662241953,-6.48618733976e-05,0.464989684206,-0.00866504689978,0.217795739898,0.0221883713207,0.948848671752,0.314306490088,-0.0201321700467
0.398942619562,-0.0948355868459,-0.401841372252,-2.4519340992,-0.127551779151,2.33624887466,-0.550841629505,0.0631339028478,-0.000306182220811,-0.000697628012858,0.000538395193871,-6.89812950441e-05,3.55472730007e-05,0.000187133773579,8.22793808766e-05,0.464990662974,-0.00866573444466,0.217795427575,0.0221885883308,0.948848298963,0.314307704497,-0.0201305411059
0.398943662643,-0.0948356464505,-0.401841759682,-2.45193600655,-0.127555117011,2.33625078201,-0.550839722157,0.0585122816265,0.000270555960014,0.00390378455631,-9.00252562133e-05,-0.000916223973036,1.10534892883e-05,-6.85948616592e-05,0.000218491753913,0.464990738619,-0.00866566438748,0.217795362004,0.0221897764358,0.948848037009,0.31430843632,-0.0201301523126
0.398944824934,-0.0948376879096,-0.401840567589,-2.45193839073,-0.127553522587,2.33625555038,-0.550841331482,0.0585122816265,-0.000205821022973,-7.24636993255e-06,0.000154751425725,0.000160849987878,-3.76002572011e-05,0.000126432918478,-3.08752387355e-05,0.464990526,-0.00866419020564,0.217795128041,0.0221892648327,0.948847643447,0.314309773011,-0.0201283960985
0.398944735527,-0.0948391109705,-0.401840299368,-2.45193386078,-0.127554371953,2.33625721931,-0.55084246397,0.0585122816265,-0.000761905976105,-0.000743176438846,-0.000534689694177,-0.000241695335717,3.45538064721e-05,-2.959232188e-05,8.10868514236e-05,0.46499303326,-0.00866415969788,0.217797735812,0.0221904071462,0.948847431703,0.314310560803,-0.0201248164847
0.39894297719,-0.094839207828,-0.401842743158,-2.45193266869,-0.127553075552,2.33628034592,-0.550841569901,0.0585122816265,-0.000433649751358,0.000234351638937,-0.00315572856925,0.000704076024704,2.06988079299e-05,-0.000176968344022,0.000156025766046,0.464999488265,-0.0086656016304,0.217800559177,0.0221930064109,0.948848546167,0.314307859004,-0.0201115976805
0.398943305016,-0.0948384106159,-0.401842296124,-2.45192289352,-0.127555280924,2.33630180359,-0.550844192505,0.0585122816265,0.000115388618724,-0.000941949430853,-8.04856099421e-05,-0.00108366995119,-7.66469020164e-05,0.00035792766721,0.000296189624351,0.465007536081,-0.0086649468283,0.217805538143,0.0221974270478,0.948847877268,0.314310408499,-0.0200984286611
0.398943513632,-0.0948326662183,-0.401841282845,-2.45194387436,-0.127556294203,2.33631658554,-0.550845742226,0.0585122816265,0.000232412930927,0.000416316994233,-0.00039729278069,-0.0022922642529,1.40110932989e-06,0.00201911712065,-0.000204338371987,0.465001040443,-0.00866405894395,0.217795719672,0.0221964378882,0.948846950921,0.314312910552,-0.0201041245218
0.398943930864,-0.0948336049914,-0.40184122324,-2.45194077492,-0.127553224564,2.33632516861,-0.550843656063,0.0585122816265,-0.000276772683719,-0.000103337566543,7.54897118895e-05,0.000352939590812,-4.13077259509e-06,0.00173376256134,-0.000200599184609,0.465004361577,-0.00866334205581,0.217798074855,0.0221968434612,0.948847656198,0.31431116316,-0.0200977080816
0.398945003748,-0.094837397337,-0.401838719845,-2.45194029808,-0.127554371953,2.33638167381,-0.550845563412,0.0585122816265,1.87581076716e-06,-0.000700117729139,-0.00028034314164,-0.00322531396523,1.41125174196e-05,0.000191589890164,-0.000234636332607,0.465017465393,-0.0086602965232,0.21780453883,0.0222037625523,0.948846871729,0.314314929389,-0.0200681785498
0.398944765329,-0.0948398783803,-0.401840478182,-2.45193433762,-0.12755587697,2.33639907837,-0.550845384598,0.0585122816265,2.20874244405e-05,-0.000462902069557,3.01688919535e-06,0.000569855212234,-4.9006750487e-05,0.000540058070328,0.000196947235963,0.465024152709,-0.0086609123569,0.217809433163,0.0222070096036,0.948847209193,0.314314470388,-0.020055815239
0.398942232132,-0.0948390215635,-0.401843369007,-2.45193076134,-0.127555668354,2.33642745018,-0.550845623016,0.0585122816265,-3.98326810682e-05,-0.00423911726102,0.000105427476228,1.07702780952e-05,-9.10756207304e-05,-3.6154560803e-06,-4.04712045565e-05,0.465031809744,-0.00866279063668,0.217812795925,0.0222105871007,0.948848171185,0.314312271259,-0.0200408004947
0.398943632841,-0.0948366597295,-0.401842147112,-2.45193791389,-0.12755471468,2.33645749092,-0.550847649574,0.0494772084057,-0.000523157592397,-0.00099980365485,-0.000222362359636,-0.000342508312315,9.74545218924e-06,0.00140002509579,-5.90542658756e-05,0.465035068782,-0.00866076317575,0.217811324467,0.0222127279081,0.948847491322,0.314314819267,-0.0200306517275
0.398944497108,-0.0948360860348,-0.401840001345,-2.45194029808,-0.127554550767,2.33646345139,-0.550847053528,0.0494772084057,2.5133107556e-05,-0.000580895284656,-0.00323095149361,0.000397700583562,2.28527223953e-05,0.00170306407381,9.7647869552e-05,0.465035312518,-0.00865921815376,0.21781062618,0.0222131383724,0.948847102502,0.314316062656,-0.0200291038859
0.398944795132,-0.0948367714882,-0.401840150356,-2.45193171501,-0.127556070685,2.33647608757,-0.550846934319,0.0494772084057,-0.000320714927511,-0.000830264762044,8.66399786901e-05,0.000768297933973,-0.000134936941322,0.000446150341304,-0.000396215677029,0.465044073702,-0.00865895689354,0.217817509048,0.0222170465067,0.948847157696,0.314316531764,-0.0200147876922
0.398943305016,-0.0948402434587,-0.401841908693,-2.4519276619,-0.127556741238,2.33649420738,-0.55084580183,0.0494772084057,-0.000314830220304,-8.90491573955e-05,0.000446009245934,-8.54321551742e-05,5.19853638252e-05,0.000882656371687,-0.000128236453747,0.465048744526,-0.00865974576788,0.217820350096,0.0222190146253,0.948847830101,0.314315002845,-0.0200047338391
0.398943185806,-0.0948379188776,-0.401843309402,-2.45193791389,-0.127553984523,2.33650326729,-0.550846219063,0.0494772084057,0.000403474376071,-0.000300947373034,-0.000349938374711,-0.000718581606634,-7.96564418124e-05,0.00285027502105,-7.70614569774e-05,0.465045256016,-0.00866026791913,0.217815567816,0.0222176077551,0.948848197534,0.314313804655,-0.0200076943841
0.398946881294,-0.0948360338807,-0.401841193438,-2.45193338394,-0.127554520965,2.3365175724,-0.55085003376,0.0494772084057,0.000251553195994,-0.000920956081245,0.000230200908845,0.000928513414692,-4.09004896937e-05,0.000413393630879,-9.16344215511e-05,0.465050247941,-0.00865745378141,0.217817831362,0.0222203353821,0.948846705618,0.314318634067,-0.0199995475203
0.398947387934,-0.0948348045349,-0.401836663485,-2.45192456245,-0.127557128668,2.33653879166,-0.550850868225,0.0494772084057,-0.0001374338608,0.00019013255951,-0.000401189026888,0.000417847419158,8.72696764418e-05,0.000352656556061,-0.00019993330352,0.465058727474,-0.00865510050631,0.217822751435,0.0222253509991,0.948845651767,0.314322333154,-0.0199858316084
0.398942738771,-0.0948376953602,-0.401841908693,-2.45193958282,-0.127554967999,2.33654737473,-0.550851106644,0.0494772084057,-0.000181142037036,0.000341757142451,0.00012351082114,0.000824731600005,1.04899527287e-05,6.40949801891e-05,-0.000169719496625,0.465054237118,-0.00865885724407,0.217818415115,0.0222227650766,0.948847252041,0.314317594076,-0.019987264673
0.398943513632,-0.0948403701186,-0.401841789484,-2.45193648338,-0.127556294203,2.33658981323,-0.550851166248,0.0492276735604,6.62628081045e-05,8.58964194776e-05,-0.000309408584144,4.16551738454e-05,-4.05094397138e-05,-0.000151983098476,0.000430983374827,0.465064991921,-0.00865768478511,0.217823954401,0.0222284821623,0.948847262342,0.314318615695,-0.0199643392847
0.398941814899,-0.0948388949037,-0.401842176914,-2.45194029808,-0.127555012703,2.33658957481,-0.550850749016,0.0492276735604,-0.000363318860764,-0.000152950538904,0.000124098703964,-8.00613634055e-05,-6.05147215538e-05,0.000422834826168,-0.000164452125318,0.465063331993,-0.00865833104696,0.21782206889,0.0222274276282,0.948847608857,0.314317507652,-0.01996648942
0.398943006992,-0.0948382988572,-0.401842415333,-2.45192956924,-0.12755702436,2.33660149574,-0.550852775574,0.0492276735604,-0.000160322961165,-0.00248339562677,-0.00191267975606,0.000588533177506,0.000111915825983,0.00314945285209,-0.000460259936517,0.465070603991,-0.00865798700819,0.21782719437,0.0222311721263,0.948847093303,0.314319458891,-0.0199561010371
0.398946911097,-0.0948362648487,-0.401839464903,-2.45194172859,-0.127556100488,2.33662223816,-0.550852835178,0.0492276735604,-0.000348771893186,-0.00255901366472,8.93311589607e-05,-0.00212135096081,0.000133937530336,0.000275168247754,-0.000441053358372,0.465070144108,-0.00865420507791,0.217823625891,0.0222317359686,0.94884594715,0.314323157901,-0.0199517064217
0.398942619562,-0.0948390886188,-0.401841253042,-2.45193099976,-0.127556189895,2.33662939072,-0.550853192806,0.0492276735604,-0.000306799513055,-1.36611188282e-05,-0.000403880927479,0.000313353259116,-6.6864558903e-05,0.000302650878439,-0.000190011691302,0.465076208762,-0.00865683040573,0.217829235301,0.0222338788342,0.948847068696,0.31432019034,-0.0199427303185
0.398942619562,-0.0948414355516,-0.401841908693,-2.45192456245,-0.127555951476,2.33663725853,-0.550855100155,0.0492276735604,-0.000394439441152,-0.000114485330414,-0.00129488960374,-0.00040228292346,9.21438768273e-05,0.000280403648503,0.000271778495517,0.465080991081,-0.00865691131828,0.217833502555,0.022235560451,0.948847054666,0.314320623468,-0.0199346947508
0.398943424225,-0.0948396250606,-0.401842355728,-2.45193219185,-0.127555862069,2.33664274216,-0.550852775574,0.0492276735604,0.002877489198,3.34707401635e-05,-8.01416026661e-05,-0.000725104357116,-4.15726535721e-05,0.00139498675708,-0.000133250679937,0.46507867443,-0.00865655957722,0.217830042183,0.0222350341801,0.948847244352,0.314319973266,-0.0199365051192
0.398943781853,-0.0948356613517,-0.401840150356,-2.4519329071,-0.127557456493,2.33665418625,-0.550856173038,0.0447643101215,3.65714950021e-05,-0.000564005807973,0.00417292909697,-0.000584114459343,-4.33993336628e-05,6.00445418968e-05,-7.05839465809e-06,0.46508050615,-0.00865543827366,0.217829044492,0.0222370311355,0.948846083049,0.314323534827,-0.0199333958621
0.398944020271,-0.0948393493891,-0.401843219995,-2.45193433762,-0.127556398511,2.33666491508,-0.55085682869,0.0447643101215,-0.000336413271725,-0.00131847232115,-0.000222516071517,0.000291709642624,-0.000100369616121,0.000355867610779,0.000130152446218,0.465083026362,-0.0086562721225,0.217831387857,0.022237538789,0.948846680463,0.314322159901,-0.0199260715201
0.398944675922,-0.0948469787836,-0.401841461658,-2.45191860199,-0.12755638361,2.33668017387,-0.550855636597,0.0447643101215,2.85670685116e-05,-0.00342052080669,0.000108009800897,9.12101095309e-05,3.68766122847e-05,-4.07185216318e-05,7.89748355601e-06,0.465093657978,-0.00865460609394,0.217841815772,0.0222413782593,0.94884680855,0.314322631001,-0.0199082477113
0.398947089911,-0.0948437675834,-0.4018407166,-2.45193529129,-0.127557262778,2.3366792202,-0.550856292248,0.0447643101215,0.000844253168907,0.000332874391461,5.66570633964e-05,-0.00431669037789,5.80942141823e-05,0.000688553438522,-8.09813936939e-05,0.465085856176,-0.0086531341705,0.217833544461,0.0222391330945,0.948845795174,0.314325214473,-0.0199182623719
0.398939996958,-0.0948381721973,-0.40184366703,-2.45192098618,-0.127556890249,2.33669114113,-0.550855755806,0.0447643101215,4.45330697403e-05,0.000403476675274,-0.000371819274733,0.000978930504061,1.26891354739e-05,9.52549598878e-05,-0.000289212301141,0.465094032177,-0.00865792211978,0.217837951115,0.0222426060605,0.948847683779,0.314319882254,-0.0199085602405
0.398939669132,-0.0948368906975,-0.40184494853,-2.45192742348,-0.127557814121,2.33670186996,-0.55085670948,0.0447643101215,-0.000174110376975,1.29010040837e-05,0.000200632406631,-0.00103596155532,0.000124692000099,0.00190196104813,0.000233185201068,0.465093435339,-0.0086584414066,0.217835622796,0.0222431032414,0.948847586106,0.314320231648,-0.0199071435603
0.398942291737,-0.0948350280523,-0.401843965054,-2.45193386078,-0.12755741179,2.33670282364,-0.550855636597,0.0421862378716,0.000485551456222,6.91343448125e-05,0.000262721354375,0.000210545840673,-7.71816557972e-05,-7.00731543475e-05,-0.000259871478193,0.465090667937,-0.00865669630568,0.217832283578,0.0222422279506,0.94884711217,0.314321507645,-0.0199105636117
0.398946255445,-0.0948401838541,-0.401839315891,-2.45192956924,-0.127556741238,2.33671188354,-0.550855398178,0.0421862378716,0.00015482827439,-0.000910996459424,5.81136846449e-05,0.00060765928356,2.77546660072e-05,0.000223636627197,-0.00036532865488,0.465095172265,-0.00865230107306,0.217837055069,0.0222438127297,0.948846037908,0.314325220013,-0.019901379185
0.398941516876,-0.0948375016451,-0.401842445135,-2.45193362236,-0.127557203174,2.33672785759,-0.550858736038,0.0421862378716,0.000364898267435,0.000616229313891,-6.42256054562e-05,0.000131015942316,-1.17262025014e-05,-0.00018524567713,0.000154816079885,0.465096556908,-0.0086556380946,0.217835501779,0.0222450084156,0.94884663673,0.314323602386,-0.0198970409444
0.3989405334,-0.09483846277,-0.401844471693,-2.45193004608,-0.127558022738,2.33673381805,-0.55086016655,0.0421862378716,0.000163131058798,-0.000155347763211,0.000365546206012,0.000299554027151,0.0001072099476,0.000484515156131,0.000325301632984,0.465099796362,-0.0086566926433,0.217837958242,0.0222465036048,0.948846801607,0.314323332888,-0.0198917633447
0.398944228888,-0.0948404893279,-0.401842623949,-2.45192861557,-0.127557963133,2.33674359322,-0.550857782364,0.0421862378716,0.000508634839207,-0.000124026933918,0.000550106517039,2.55358172581e-05,7.19988165656e-05,-8.0111065472e-05,0.000167515143403,0.465102552679,-0.00865409707326,0.217840110601,0.0222477658012,0.948846458494,0.314324672025,-0.019885556716
0.398947656155,-0.0948410332203,-0.401838928461,-2.4519264698,-0.127557173371,2.33675932884,-0.550860226154,0.0421862378716,0.00273238006048,0.00192322279327,0.000186793040484,2.59790831478e-05,9.96505768853e-05,-0.000158991431817,-0.000222801798373,0.465107082055,-0.00865038338787,0.217842568126,0.0222498313398,0.948845132523,0.314329102738,-0.0198764773813
0.398940116167,-0.0948417633772,-0.401842683554,-2.45192408562,-0.127557739615,2.33679199219,-0.550859689713,0.0421862378716,4.41054144176e-05,-9.64419014053e-05,-0.000444799748948,-0.000303907669149,-2.20945366891e-05,0.00583008956164,-6.40193247818e-05,0.465115282988,-0.00865486372881,0.217846457957,0.0222538252437,0.948847057555,0.314324096088,-0.0198592784089
0.398941844702,-0.0948409959674,-0.401843070984,-2.45192670822,-0.127557918429,2.33682847023,-0.55085927248,0.0421862378716,0.000506757991388,-0.00162718549836,0.000359455327271,0.000260657601757,1.78380050784e-05,0.000682682439219,-0.000314178032568,0.465122098122,-0.00865336657821,0.217848026876,0.0222576770623,0.948846935406,0.314325210448,-0.0198431536956
0.398946106434,-0.094839386642,-0.40184032917,-2.45192408562,-0.127557903528,2.33686447144,-0.550859928131,0.0421862378716,-0.000563289155252,0.00306901847944,-0.000293985300232,0.000256237894064,5.89625669818e-05,0.000255135382758,0.000283387053059,0.465131070103,-0.00864938678551,0.217851405777,0.0222624589672,0.94884584775,0.314329293195,-0.0198251167952
0.398943513632,-0.0948409736156,-0.401841104031,-2.45192527771,-0.127557694912,2.3368935585,-0.550861239433,0.0421862378716,-0.000510730606038,0.00388470781036,-0.000264163682004,5.01654758409e-05,-7.236678357e-05,0.00236444105394,-0.000125172824482,0.465136845355,-0.00864972285054,0.217853846324,0.0222652584512,0.94884614642,0.314329073044,-0.0198111639646
0.398938298225,-0.0948413982987,-0.401845395565,-2.45192456245,-0.127557680011,2.33691048622,-0.550861418247,0.0407323762774,-7.13109475328e-05,-0.000222801041673,0.000269004987786,-0.000302973377984,6.24729727861e-05,6.79983641021e-05,-0.000330961454893,0.465141070327,-0.0086540860394,0.2178557302,0.0222671110932,0.948847803067,0.314324511322,-0.0198021122708
0.398942679167,-0.0948400199413,-0.401845663786,-2.45192599297,-0.127557754517,2.33692598343,-0.550860464573,0.0407323762774,-2.37136409851e-05,0.00187277363148,0.000185390410479,-3.96567193093e-05,9.35114512686e-05,-0.000288220413495,0.000389246619307,0.465143603611,-0.00865206540709,0.217855702952,0.0222687173104,0.948847310478,0.314326244009,-0.0197964048363
0.398947745562,-0.0948454588652,-0.401837795973,-2.45191884041,-0.127557143569,2.33697772026,-0.550859630108,0.0407323762774,0.00026605927269,0.00216519553214,-0.000230370365898,-0.000288818555418,4.48280587761e-07,-0.000104888276837,0.00320317200385,0.465158975288,-0.00864448589254,0.217865426854,0.0222759031265,0.94884578896,0.314332342796,-0.0197643839636
0.398939341307,-0.0948440805078,-0.40184289217,-2.45191764832,-0.1275575459,2.33701372147,-0.550861597061,0.0407323762774,-0.000417317700339,-0.000422670942498,0.000123940189951,-0.000442850257969,8.54361678648e-06,0.00278483144939,0.000217471926589,0.465167541006,-0.00865014191113,0.217868348837,0.022280199448,0.948847766381,0.314327224999,-0.0197459934997
0.398938715458,-0.0948476865888,-0.401844710112,-2.45192027092,-0.127557560802,2.33706021309,-0.550862073898,0.0407323762774,-0.000217153356061,0.000959086697549,-0.000368350272765,-0.000151418629684,6.9613539381e-05,0.00314976763912,5.58497740712e-05,0.465176582473,-0.0086497490542,0.217872402501,0.0222846638993,0.948848080589,0.314327335492,-0.01972408598
0.398948937654,-0.0948459580541,-0.401837795973,-2.45192217827,-0.127557396889,2.33713650703,-0.55086183548,0.0407323762774,0.000329488830175,-0.000185936936759,0.000638592755422,-7.26018188288e-05,-1.48611725308e-05,5.39451211807e-05,-2.81791144516e-05,0.465192535695,-0.00864005454988,0.217877239161,0.0222936014113,0.948845587528,0.314336458387,-0.0196884987605
0.398942738771,-0.0948446318507,-0.40184044838,-2.45191907883,-0.127557784319,2.33716011047,-0.550862073898,0.0407323762774,-0.000520595174748,-0.00322674028575,-0.000572900869884,0.00024274433963,9.01361636352e-05,-5.40881374036e-05,0.00016237089585,0.46519885981,-0.00864371662872,0.217879829567,0.0222967603122,0.948846985531,0.314332774751,-0.0196763547309
0.398938775063,-0.0948445498943,-0.401845365763,-2.45191931725,-0.127557858825,2.33717751503,-0.550861358643,0.0407323762774,0.00057097588433,0.000260378204985,-0.000217101711314,-8.41685177875e-05,0.000126964514493,0.00042047657189,3.31589726557e-05,0.465202481218,-0.00864737615617,0.217881031269,0.0222984307392,0.948848523847,0.314328525708,-0.0196681568836
0.398943632841,-0.094840541482,-0.401839762926,-2.45192337036,-0.127558514476,2.33719444275,-0.550862312317,0.0407323762774,0.000202228606213,-0.000571026699618,0.000626990047749,-0.000327087764163,-9.85466467682e-05,0.000426326121669,-0.000147339407704,0.465204131581,-0.00864234839255,0.217879149804,0.0223004709198,0.948846578053,0.314334529046,-0.0196637700129
0.398943036795,-0.0948506146669,-0.401840239763,-2.45191121101,-0.127558618784,2.337236166,-0.550864994526,0.0392588153481,-0.000538510095794,-0.00091245630756,-0.000275572936516,0.000174590342795,-0.000278242310742,0.00278033851646,7.7241602412e-05,0.465219683532,-0.00864158767097,0.217891824391,0.0223067359685,0.94884674313,0.31433552529,-0.0196327484391
0.39893874526,-0.0948544815183,-0.401842355728,-2.45190429688,-0.127558991313,2.33731365204,-0.550865530968,0.0392588153481,-2.73367677437e-05,-0.000827679294161,-0.000222001690418,-5.63482863072e-05,-9.00501836441e-05,0.0147727541625,-0.000165841673152,0.465240107016,-0.00864264788255,0.217902602692,0.022316496139,0.948847975683,0.314333780924,-0.019589969417
0.398936480284,-0.0948650166392,-0.401846081018,-2.45189118385,-0.127559781075,2.33747315407,-0.550865471363,0.0392588153481,0.000288702751277,-0.000564569490962,-0.000278643710772,0.000835089129396,5.03188573475e-07,0.010056569241,2.59327844105e-05,0.465279137908,-0.00864166519609,0.217923672871,0.0223351518644,0.948849544574,0.314332894491,-0.0195067650711
0.398936897516,-0.0948717817664,-0.401845991611,-2.45186114311,-0.127559885383,2.33764672279,-0.550865292549,0.0392588153481,-0.000342690676916,-0.000388235552236,0.000281697371975,0.00191066018306,0.000103880214738,0.0110136978328,0.000174404194695,0.465334034051,-0.00863712354832,0.217954848978,0.0223607925116,0.948850488247,0.314334890373,-0.0193990281787
0.398938179016,-0.0948927626014,-0.401842474937,-2.45181512833,-0.127560243011,2.33802843094,-0.550865471363,0.0392588153481,-0.000113705187687,-0.000361937331036,0.000155769812409,0.00015346345026,3.35427102982e-05,0.0141215790063,0.000252270459896,0.465440402372,-0.0086255591987,0.218013979941,0.0224112066334,0.948851552732,0.31434146353,-0.0191810502916
0.39893463254,-0.0948964133859,-0.401844888926,-2.45179224014,-0.127559885383,2.33826732635,-0.550865411758,0.0392588153481,0.000432388478657,-8.51931908983e-05,0.000444148725364,-0.000186093253433,-8.00649795565e-05,0.0168565250933,-0.000235183470068,0.465503278672,-0.0086227120087,0.218044463182,0.022441701218,0.948853484658,0.31434129163,-0.0190522115158
0.398935884237,-0.0948899164796,-0.401843100786,-2.45178675652,-0.127560153604,2.33839631081,-0.550864398479,0.0392588153481,6.75030751154e-05,0.000565591210034,-0.000302767701214,0.000544749316759,1.79034373105e-07,0.0105251818895,-0.000103007354483,0.465531449486,-0.00861875862949,0.218054048636,0.0224567726926,0.948853371674,0.314344054636,-0.0189944051609
0.398937314749,-0.0948776751757,-0.401843130589,-2.45178890228,-0.127559691668,2.33852219582,-0.550864219666,0.0392588153481,-0.000786870368756,0.000602892134339,-0.000426829850767,0.000155779416673,1.83855863725e-05,0.00130023190286,-0.000285328394966,0.465558866154,-0.00861539544418,0.218058788994,0.0224721937885,0.948853367263,0.314346496703,-0.0189358823208
0.39893463254,-0.0948742851615,-0.401846468449,-2.45178866386,-0.127560272813,2.33862924576,-0.550864815712,0.0392588153481,0.000153046261403,-0.00043630800792,0.000623679487035,0.000176099769305,-3.2443953387e-05,0.00287213432603,-3.39162979799e-05,0.465582099757,-0.00861578895979,0.218066169665,0.0224845915951,0.948854342018,0.314345697828,-0.0188855161401
0.398933410645,-0.0948779881001,-0.401846259832,-2.45179152489,-0.127560302615,2.33870816231,-0.550866484642,0.0392588153481,-0.000237412459683,0.000739857146982,-0.000105302468,0.000750570325181,-1.43437858924e-07,0.00507433246821,-0.000315458193654,0.465597423672,-0.00861399915797,0.218072668593,0.0224923229131,0.948854389396,0.31434719137,-0.0188490344882
0.398937046528,-0.0948769301176,-0.401846021414,-2.45178985596,-0.127560466528,2.33879160881,-0.550865590572,0.0392588153481,0.000133728579385,0.000151875676238,-0.000341384671628,-0.000307185779093,6.5847132646e-05,0.00062058318872,2.46815525315e-05,0.465616891609,-0.00861047363675,0.21808007357,0.022502597028,0.948854117484,0.31434976299,-0.0188075266009
0.398940950632,-0.094873920083,-0.401841968298,-2.45179271698,-0.127560466528,2.33885550499,-0.550867557526,0.0392588153481,0.000167272388353,0.00378371379338,0.00165233889129,-0.00019219906244,5.46346163901e-05,0.00252783088945,-0.000353993644239,0.465630176124,-0.00860532477661,0.218083001789,0.0225102077156,0.948852604486,0.314355583093,-0.0187774486011
0.398939400911,-0.0948744639754,-0.401843756437,-2.45179343224,-0.127561420202,2.33889889717,-0.550867259502,0.0392588153481,0.000118848904094,0.000295975012705,0.000231789075769,0.000247253308771,-0.000145941754454,0.000199384812731,2.61447403318e-05,0.465639006264,-0.00860604348352,0.218086469424,0.0225150014375,0.948853200839,0.314354637725,-0.0187573824648
0.398937225342,-0.0948738753796,-0.401843488216,-2.45179605484,-0.127561122179,2.33897256851,-0.5508685112,0.0329607278109,0.000170927494764,-0.00012141449406,-0.000392591464333,-0.000607635593042,0.000156516922289,0.00422636652365,0.0002176733542,0.465654417549,-0.00860493960586,0.218091200448,0.0225231718901,0.948853394503,0.314355563284,-0.0187222324887
0.398937195539,-0.0948741957545,-0.401843339205,-2.4517967701,-0.12755933404,2.33900237083,-0.550868093967,0.0329607278109,2.40983663389e-05,0.000530424935278,0.000113044574391,-0.000239676388446,-3.7922316551e-05,0.00300811883062,0.000762974319514,0.46566068058,-0.00860397070898,0.218093484352,0.0225258541727,0.94885371054,0.314355279694,-0.0187077445193
0.3989379704,-0.094872802496,-0.401844441891,-2.45179796219,-0.127561375499,2.33901906013,-0.550866603851,0.0329607278109,0.000199407018954,0.000691119872499,-0.000136931572342,-0.000151142303366,-0.000131587294163,0.000167698890436,8.77267575561e-06,0.465663693663,-0.00860394677416,0.218093762846,0.022528290727,0.9488537504,0.314355382604,-0.0187010584006
0.398935765028,-0.0948754623532,-0.40184417367,-2.45178842545,-0.127562865615,2.33904957771,-0.550865590572,0.0329607278109,-0.000156418362167,-0.00139794207644,-0.000144529534737,0.000829603697639,0.000103941936686,0.000525771058165,8.69007781148e-05,0.465673915061,-0.00860419471288,0.218100378892,0.0225334027202,0.948854167936,0.314354866863,-0.0186823745944
0.398933887482,-0.09489697963,-0.401843875647,-2.45176148415,-0.127562731504,2.33924794197,-0.550867021084,0.0329607278109,0.000317566707963,5.16789768881e-05,-0.000193656116608,0.000529121200088,-7.5879470387e-05,0.00479773664847,0.000291804841254,0.465733612426,-0.00859980461256,0.218138514588,0.022560338024,0.94885541295,0.314356518327,-0.0185584357735
0.398934394121,-0.0948957651854,-0.401845306158,-2.45175528526,-0.127564609051,2.33931565285,-0.55086684227,0.0329607278109,-0.000271132128546,0.000194881344214,0.000244587601628,0.000118473937619,4.51407504443e-05,0.000629789836239,-3.59226942237e-05,0.465749969045,-0.00859881552541,0.218145446707,0.0225690558082,0.948855567964,0.314357369645,-0.0185254609289
0.398933023214,-0.094888150692,-0.401843696833,-2.45175528526,-0.127562880516,2.33934473991,-0.550866007805,0.0329607278109,0.000490129168611,0.000155727291713,-0.000337164616212,-0.000694467977155,-2.43369977397e-05,0.000181917886948,-1.99422192964e-05,0.465755629905,-0.00859811119243,0.218144430043,0.0225720751807,0.948855836109,0.314356987345,-0.0185145321173
0.398935168982,-0.0948895066977,-0.401844769716,-2.45174241066,-0.127564564347,2.33943772316,-0.550871312618,0.0329607278109,0.000240047185798,-0.000261889654212,0.000317480647936,0.00111743493471,-3.17553895002e-05,0.00411940691993,0.000212359431316,0.465781783929,-0.00859574763631,0.218158118768,0.0225852740426,0.948855018127,0.314361531889,-0.0184631234846
0.398934960365,-0.0948843806982,-0.40184673667,-2.45173478127,-0.127562969923,2.3394575119,-0.550869524479,0.0329607278109,-1.81501927727e-05,-2.28147055168e-05,2.57962237811e-05,0.000898642872926,-9.97097013169e-05,0.000187860467122,7.99274639576e-05,0.465788882289,-0.00859645678453,0.218160655021,0.022588296788,0.948855919051,0.314359230568,-0.0184523054433
0.398933053017,-0.094879373908,-0.4018484056,-2.45170307159,-0.127564907074,2.33947134018,-0.550868749619,0.0329607278109,-0.000536194711458,0.0028105226811,-0.000895421660971,0.00242979312316,-2.928660615e-05,0.00031486642547,-0.000172219719389,0.465805211432,-0.00859867893562,0.218172669948,0.0225956260676,0.948856809872,0.314357131721,-0.0184332706715
0.398934572935,-0.0948690474033,-0.401848047972,-2.45163440704,-0.127564206719,2.33947753906,-0.550869584084,0.0329607278109,0.000183346666745,-4.27234590461e-05,0.000153795001097,9.20368256629e-05,-6.41614460619e-05,0.000147222250234,0.000478934816783,0.465835459738,-0.00859913775311,0.218197001212,0.0226073325029,0.948857377216,0.314356362129,-0.0184028122414
0.398946464062,-0.0948650017381,-0.401837110519,-2.45146679878,-0.127564370632,2.33948040009,-0.55087018013,0.0319987088442,-0.000463210046291,0.000779418507591,0.000270955788437,0.00903588347137,8.44087771839e-05,3.36706662551e-08,0.000263388530584,0.465909043046,-0.00859140971146,0.218264594005,0.0226349669686,0.948856141251,0.314362719707,-0.01832379949
0.398941785097,-0.0948564559221,-0.401841700077,-2.45130372047,-0.127564504743,2.33947920799,-0.550870001316,0.0319987088442,-6.23423693469e-06,0.00124335952569,-0.000246023468208,0.0131252091378,-0.000109104956209,-0.000113120826427,5.43872156413e-05,0.465978931199,-0.00859867088721,0.218327807511,0.0226605725755,0.948859935412,0.314353625513,-0.0182515543469
0.398935526609,-0.0948451906443,-0.401845306158,-2.45112156868,-0.127563729882,2.33947610855,-0.550869464874,0.0319987088442,-0.000337039964506,0.00171475042589,-0.000123313773656,0.0121082682163,1.91222316062e-05,-0.000157087604748,0.000237000902416,0.466061993441,-0.00860706889653,0.218402479711,0.0226908166245,0.948864598967,0.314342265059,-0.0181669963014
0.398927330971,-0.094839528203,-0.401853084564,-2.45082736015,-0.127563431859,2.33946561813,-0.550868928432,0.0319987088442,-0.000443567958428,-0.00156583508942,-0.000503331422806,0.016044780612,-5.93228833168e-05,-0.00255541456863,-6.11397990724e-05,0.466181653292,-0.00861908339021,0.218515137352,0.0227335060673,0.948871137809,0.31432668281,-0.0180412776205
0.398937374353,-0.0948665067554,-0.4018484056,-2.45017671585,-0.127563744783,2.33941626549,-0.5508710742,0.0319987088442,0.00133330200333,-0.0059583298862,0.000601457082666,0.023084634915,-3.03763936245e-05,-0.00147721846588,-0.00547958770767,0.466457440957,-0.00862258671955,0.218790344775,0.022829605233,0.948878304496,0.314315025354,-0.0177436441289
0.398947834969,-0.0949321165681,-0.401836693287,-2.44968509674,-0.127565279603,2.33922767639,-0.550869822502,0.0319987088442,-0.000245963048656,-0.00396544765681,0.00105094874743,0.0376778170466,-9.20819875319e-05,-0.0133062647656,-0.000205131407711,0.466637344895,-0.00862194462696,0.219005351226,0.02288406675,0.948882561373,0.314307981928,-0.0175697580176
0.39894554019,-0.0950240716338,-0.401838690042,-2.44898676872,-0.12756344676,2.33872771263,-0.550870358944,0.0319987088442,-0.000837008235976,-0.00942464359105,-0.000514974643011,0.0450846590102,1.71364354173e-05,-0.0376826189458,-0.000111301524157,0.466841156436,-0.00864278207103,0.219290832342,0.0229323108736,0.948893957898,0.314277483297,-0.0174364263405
0.398935198784,-0.0952294766903,-0.401849210262,-2.44823694229,-0.127562865615,2.33796572685,-0.5508710742,0.0319987088442,-9.45590945776e-05,-0.0119199166074,-0.000284416717477,0.0522152036428,-2.09290737985e-05,-0.0536389127374,3.55597985617e-05,0.467021276653,-0.00867352190047,0.219624295555,0.0229540436965,0.948909565289,0.314233553489,-0.0173499951657
0.398964732885,-0.0959663018584,-0.401829391718,-2.44613933563,-0.12756408751,2.33509850502,-0.55087184906,0.0319987088442,-4.20350661443e-05,-0.0345240235329,-8.85103145265e-05,0.0832781419158,0.000100767960248,-0.122044548392,-0.000830800563563,0.46737993284,-0.00872087686081,0.220567419186,0.0229282722604,0.948937198801,0.31415009405,-0.0173840490123
0.398966819048,-0.0966833978891,-0.401831656694,-2.44442677498,-0.127564370632,2.3325521946,-0.550872206688,0.0319987088442,0.000567923591007,-0.0507248267531,-0.000241792891757,0.114233024418,-6.67108251946e-05,-0.169640272856,-0.00566400820389,0.467637147814,-0.00877834956756,0.22137056657,0.0228773956937,0.948967446775,0.314058505548,-0.0174546415155
0.398978084326,-0.0975683927536,-0.401827007532,-2.44245743752,-0.127564251423,2.3294210434,-0.5508710742,0.0319987088442,0.00168956350535,-0.0579045154154,0.000887024740223,0.137980818748,-8.1660647993e-05,-0.22132179141,-0.000716803653631,0.467892280161,-0.00883958378039,0.222304588407,0.0227932487908,0.949000491007,0.313956411035,-0.0176041908656
0.398997783661,-0.0987984389067,-0.401821196079,-2.4397482872,-0.127565339208,2.32507109642,-0.550871551037,0.0319987088442,0.000141072625411,-0.0801015421748,-0.000151061351062,0.178370043635,-4.14139321947e-06,-0.291054457426,0.00277841510251,0.468230918366,-0.00892341482482,0.223593671128,0.0226719282463,0.949045050357,0.313818050778,-0.0178243304888
0.399009644985,-0.100546494126,-0.401821762323,-2.43595051765,-0.127565979958,2.31849265099,-0.550871014595,0.0319987088442,0.00186493236106,-0.0995493233204,-0.00035199651029,0.225262746215,-1.65015662787e-05,-0.391163736582,-0.000103681442852,0.46861387564,-0.00907227431954,0.225478254393,0.0224302214173,0.949114796712,0.313591766899,-0.0183899769491
0.399082869291,-0.104371331632,-0.401799976826,-2.42816996574,-0.127570807934,2.30498051643,-0.550871133804,0.0319987088442,0.00462241936475,-0.159951418638,0.00166704365984,0.293231129646,0.000162053809618,-0.52467250824,0.000187005818589,0.469346561793,-0.00932232658313,0.229294916493,0.0219394720221,0.949241860274,0.313182597726,-0.0193703495256
0.399192422628,-0.107236556709,-0.401740431786,-2.42285704613,-0.127570971847,2.29547119141,-0.550872325897,0.0319987088442,0.00783203635365,-0.175197258592,0.00665215868503,0.323434352875,-5.58369902137e-05,-0.60302311182,0.000280523439869,0.46975580825,-0.00943778127318,0.231818991075,0.0215862173534,0.949309776991,0.312960680722,-0.0200148579951
0.399352371693,-0.111031711102,-0.401696294546,-2.41581988335,-0.12757204473,2.28285765648,-0.550872385502,0.032972548157,0.0101852109656,-0.208441987634,0.000768840429373,0.3942245543,-2.96112684737e-05,-0.661463618279,-0.000104956925497,0.470292849038,-0.00961593185862,0.235374656189,0.0210821169745,0.949408501677,0.31263603548,-0.0209224830023
0.399512201548,-0.114881791174,-0.401613473892,-2.40866041183,-0.12757524848,2.27107906342,-0.550872504711,0.032972548157,0.00839983765036,-0.234911054373,0.00333063583821,0.436441808939,3.32674899255e-05,-0.71106761694,-0.000402842386393,0.471031534875,-0.00976423177229,0.239092147133,0.0206890797068,0.949506568118,0.31233627564,-0.0213375183608
0.400299668312,-0.12886801362,-0.401120513678,-2.38410401344,-0.127578154206,2.23123073578,-0.55087274313,0.032972548157,0.0249539297074,-0.317553162575,0.0134398974478,0.577364265919,-0.000340930826496,-0.868444561958,0.00109238387085,0.473445329185,-0.0100797865044,0.252362789582,0.019347905822,0.949789860892,0.311507374217,-0.0220914957595
0.400653779507,-0.134355202317,-0.400868356228,-2.37455487251,-0.127578660846,2.21682024002,-0.55087095499,0.032972548157,0.0247002001852,-0.356116145849,0.023120187223,0.608696937561,0.00019029325631,-0.921788215637,-9.88093161141e-05,0.474494460263,-0.0101510804234,0.257686822377,0.0189389578408,0.9498903288,0.311244555383,-0.0218290073346
0.401216179132,-0.142724215984,-0.400267213583,-2.3599152565,-0.127579823136,2.19535708427,-0.550871610641,0.032972548157,0.0279580932111,-0.390678703785,0.0294601600617,0.687274813652,7.27304432075e-05,-0.943466305733,0.000266960676527,0.476207313878,-0.0101688948692,0.266468720679,0.0183628108671,0.950019619605,0.31093761415,-0.0210553873979
0.401558309793,-0.148246824741,-0.399818837643,-2.3499007225,-0.127582728863,2.18180513382,-0.550872325897,0.032972548157,0.0286845825613,-0.389995127916,0.0337059944868,0.722987055779,-0.000799739267677,-0.975463628769,0.000115051945613,0.477323303533,-0.010182225861,0.271630451853,0.0181437297973,0.950098034359,0.310766818388,-0.0202117404813
0.402489542961,-0.160514593124,-0.398648172617,-2.32733154297,-0.127579823136,2.15233612061,-0.550870835781,0.032972548157,0.0340293124318,-0.422918111086,0.0424139387906,0.814707577229,-0.0011253033299,-0.982604026794,-0.00010537563503,0.480020272303,-0.0101008364986,0.284569243893,0.0177072959192,0.950248192568,0.310486797939,-0.0176853664921
0.403141766787,-0.167773962021,-0.397791415453,-2.31369781494,-0.127580597997,2.13543391228,-0.550872504711,0.032972548157,0.0390580147505,-0.427556037903,0.0563411265612,0.796196043491,0.000769524427596,-0.991159915924,9.52115169639e-06,0.481640009777,-0.00996045593532,0.292464251014,0.0175503505009,0.95030226801,0.3104323432,-0.015790649016
0.40391305089,-0.176216185093,-0.396672546864,-2.29750061035,-0.127582266927,2.1166882515,-0.55087018013,0.0335569791496,0.0432778298855,-0.439956277609,0.0636895745993,0.859458208084,-0.00423946091905,-0.981548130512,-1.55763209477e-05,0.483653249515,-0.00975868553485,0.301939988971,0.0175183992716,0.950351043486,0.310415233639,-0.0129762184482
0.404662519693,-0.183257982135,-0.395640343428,-2.28355193138,-0.127579852939,2.10091853142,-0.550870299339,0.0335569791496,0.0495192781091,-0.462194830179,0.0668046250939,0.903243482113,-0.0001917444024,-0.962679564953,0.000482520437799,0.485184109218,-0.00955194786647,0.309557009754,0.0175298175385,0.950364179247,0.310462615755,-0.0106581522156
0.405793994665,-0.192330121994,-0.394332259893,-2.26540398598,-0.127584561706,2.08167767525,-0.55086761713,0.0335569791496,0.0610570535064,-0.444783121347,0.0727283135056,0.889766693115,-0.00040426486521,-0.963015854359,0.000672194990329,0.48756291712,-0.00918415624666,0.321346715131,0.0176918751036,0.950353747808,0.310600901979,-0.00646768600399
0.407428205013,-0.20511727035,-0.392170011997,-2.23954701424,-0.127580612898,2.05560326576,-0.550866961479,0.0335569791496,0.0555464401841,-0.442843288183,0.088937215507,0.903396844864,-0.000401040510042,-0.910948097706,0.000289511663141,0.490387469119,-0.00863115447181,0.336298997612,0.0180441449025,0.950273528655,0.310892707902,-0.000594504522077
0.408287137747,-0.212290421128,-0.390701413155,-2.22476553917,-0.127580970526,2.041431427,-0.550866603851,0.0335569791496,0.0513770282269,-0.448684453964,0.0954506695271,0.941663146019,-0.000618561869487,-0.867476761341,-0.000213520048419,0.491971051537,-0.0082566093328,0.34522506271,0.0183427006667,0.950186310061,0.311126197224,0.00316395239108
0.409238636494,-0.220659583807,-0.388709694147,-2.20716381073,-0.12757897377,2.02525091171,-0.550866782665,0.0335569791496,0.0507008992136,-0.439491420984,0.110689587891,0.90593791008,0.00121513206977,-0.844968795776,2.26476913667e-05,0.493774738102,-0.00775222172254,0.355905834211,0.0187905068308,0.950037350534,0.311469941128,0.00790094333723
0.410290420055,-0.229418992996,-0.386469006538,-2.18874263763,-0.127576231956,2.00903940201,-0.550866246223,0.0336095131934,0.0606770925224,-0.424556136131,0.113555029035,0.896488368511,-0.00095947412774,-0.800850391388,0.000449162762379,0.495543451255,-0.00715140013183,0.367219383992,0.0193350922892,0.949823246677,0.311908947524,0.0132197738652
0.412946611643,-0.248362839222,-0.38115721941,-2.14886832237,-0.127574294806,1.97548449039,-0.550866544247,0.0336095131934,0.047416575253,-0.400437325239,0.123003646731,0.804244995117,-0.000655031355564,-0.663574874401,-9.66576626524e-05,0.498783975814,-0.00553442506824,0.392592676615,0.0206869510082,0.949111165827,0.313201398717,0.0257862073676
0.41370010376,-0.254927575588,-0.37902879715,-2.13508152962,-0.127583131194,1.9644241333,-0.550864577293,0.0336095131934,0.0445372052491,-0.365536212921,0.121829025447,0.764838039875,-0.0013815688435,-0.648454248905,-0.000113223853987,0.499659414305,-0.00496741324583,0.401265791235,0.0212102569523,0.948812194248,0.313670433782,0.0302721605883
0.414330124855,-0.260415226221,-0.37715357542,-2.12370443344,-0.127568408847,1.95511043072,-0.550865292549,0.0336095131934,0.0367777198553,-0.368003278971,0.12396940589,0.767649710178,-0.00151158496737,-0.592500269413,2.55132690654e-05,0.500108605195,-0.00455821883921,0.407039741065,0.0215250432301,0.948593320325,0.314014791081,0.0331978285426
0.415600419044,-0.272083193064,-0.372843056917,-2.10038161278,-0.127571284771,1.93636715412,-0.550864160061,0.0336095131934,0.046544123441,-0.325721383095,0.113612517715,0.643001496792,0.000170641738805,-0.504027545452,5.23247072124e-05,0.501044271477,-0.00330455056032,0.423140796438,0.022478157684,0.947870659126,0.315116744538,0.0416819265008
0.416325628757,-0.276807159185,-0.371173977852,-2.09117102623,-0.127572268248,1.9289342165,-0.550862669945,0.0336095131934,0.0498312599957,-0.311212569475,0.1061321944,0.571500360966,-0.000147970524267,-0.488806635141,-1.69803843164e-05,0.501232345462,-0.00269931571138,0.429933243288,0.0228339048331,0.947513718657,0.315671440534,0.0452538072146
0.417990595102,-0.287097156048,-0.367552250624,-2.07251858711,-0.127572610974,1.9124828577,-0.55086427927,0.0336095131934,0.0384080931544,-0.256939202547,0.0835396498442,0.442948877811,7.06330538378e-05,-0.389629334211,-0.000322235457134,0.501000338821,-0.00156980844288,0.441607128164,0.0232661078578,0.946843705904,0.316768554203,0.0510232062122
0.419789969921,-0.297936350107,-0.364322990179,-2.05601549149,-0.12757474184,1.89501178265,-0.550865352154,0.0336318388581,0.0316638536751,-0.178682163358,0.0459081456065,0.222622141242,-0.000323132058838,-0.298158526421,-8.4662977315e-05,0.499728135999,-0.000541023830999,0.45307753505,0.0232403830063,0.946183277462,0.317915188267,0.0559197890334
0.420196592808,-0.300586491823,-0.363736510277,-2.05288505554,-0.127599850297,1.89023566246,-0.55086773634,0.0336318388581,0.0192194525152,-0.156819090247,0.0319628790021,0.174756199121,-0.00287765054964,-0.285115242004,0.000119940072182,0.499087743484,-0.000401511742384,0.455354999245,0.0230478704801,0.946079521616,0.318147649844,0.0564305505151
0.420463293791,-0.303299188614,-0.363142102957,-2.05009698868,-0.128326490521,1.88472139835,-0.55086606741,0.0336318388581,0.00943644531071,-0.110646739602,0.0200761537999,0.109374113381,-0.0651113539934,-0.263192802668,5.11378675583e-05,0.498219031788,-0.000464365681835,0.457405551682,0.0230613328359,0.945990447118,0.318422010604,0.0563708412297
0.420490652323,-0.30477848649,-0.362982928753,-2.04862809181,-0.129647985101,1.88047897816,-0.550866186619,0.0336318388581,-0.0015633959556,-0.0717326179147,0.0012576902518,0.0676236152649,-0.0915876403451,-0.238658949733,0.000252268015174,0.49745199318,-0.000866174854383,0.458384073378,0.0233671819758,0.945985152336,0.318561200999,0.0555412213882
0.419727057219,-0.305969357491,-0.36340379715,-2.04823708534,-0.135274171829,1.86935007572,-0.550865352154,0.0336318388581,-0.0291060209274,0.0195382740349,-0.0277720000595,-0.0274723097682,-0.171658024192,-0.245255753398,-0.000104174861917,0.495245873546,-0.00278096245433,0.45783297765,0.0247158653948,0.946218185497,0.318633269822,0.0503300157353
0.419203877449,-0.305454462767,-0.363784760237,-2.0487215519,-0.138175159693,1.86575126648,-0.550867676735,0.0336318388581,-0.0422474890947,0.061538092792,-0.0264816414565,-0.0441459715366,-0.198478072882,-0.232013612986,0.000114577465865,0.494469091444,-0.00387396517069,0.45687965978,0.0256778915638,0.946351977814,0.318583935856,0.0475694804993
0.418330430984,-0.304078072309,-0.364462316036,-2.04965281487,-0.142350882292,1.86158597469,-0.550867795944,0.0336318388581,-0.0477162711322,0.0843492075801,-0.0426092296839,-0.0553950332105,-0.233064249158,-0.214858099818,-0.000258236395894,0.493694289965,-0.00533270520917,0.455391419878,0.026997387016,0.946536917609,0.318424120408,0.0441031056452
0.417141646147,-0.302016198635,-0.365632116795,-2.05101084709,-0.147517055273,1.85756933689,-0.550870358944,0.0336318388581,-0.0779656991363,0.11670268327,-0.061975505203,-0.0752760842443,-0.281332969666,-0.189593359828,-0.000124888625578,0.49290197798,-0.00739955006945,0.453317825926,0.0287844068839,0.946805210231,0.31803055153,0.0398487111806
0.413444668055,-0.295401245356,-0.36942666769,-2.05471634865,-0.162592768669,1.84964215755,-0.551021397114,0.0336318388581,-0.0986733064055,0.185452073812,-0.11486081779,-0.0853789746761,-0.409405469894,-0.159774467349,-0.024203972891,0.491390281644,-0.0138157165976,0.447447567767,0.0345584827939,0.947490798624,0.316602797216,0.0288021921702
0.411480903625,-0.292021036148,-0.371592015028,-2.05623459816,-0.170424833894,1.84679949284,-0.551669299603,0.0336318388581,-0.118395611644,0.193607568741,-0.123604029417,-0.0867290124297,-0.46394148469,-0.160405769944,-0.0464561060071,0.490944829379,-0.0170005177795,0.445002193688,0.0374761425809,0.947693951465,0.316042416154,0.024267343795
0.409042656422,-0.288336902857,-0.374120384455,-2.05783295631,-0.179799735546,1.84393119812,-0.552917480469,0.0336318388581,-0.135245800018,0.210451513529,-0.145967289805,-0.082719348371,-0.510519206524,-0.13631798327,-0.0823508873582,0.49046315333,-0.0210471663116,0.442260096618,0.0412196034217,0.947832328788,0.315518798639,0.0190448993731
0.405907064676,-0.283514082432,-0.377532243729,-2.05936312675,-0.191098287702,1.8411860466,-0.555181741714,0.0336318388581,-0.151202574372,0.239677116275,-0.170986190438,-0.0701711773872,-0.540105104446,-0.126815021038,-0.111422993243,0.490095297901,-0.0261897845992,0.439068971694,0.0458071403182,0.947904194982,0.314975420957,0.0130317655244
0.401003152132,-0.277148753405,-0.382892817259,-2.06072473526,-0.207307621837,1.83773219585,-0.559373736382,0.0337375625968,-0.201978191733,0.232737779617,-0.207921087742,-0.0343678258359,-0.63234859705,-0.122587487102,-0.174064189196,0.489672564747,-0.0340520770336,0.435229830709,0.0524088909348,0.947904287527,0.314171606616,0.00519337309333
0.397559255362,-0.273333698511,-0.386410534382,-2.06110477448,-0.217835918069,1.83588302135,-0.56239849329,0.0337375625968,-0.224886730313,0.242761418223,-0.234419479966,-0.0137526048347,-0.664966404438,-0.111988313496,-0.20440672338,0.489485570736,-0.0393313611056,0.433196748335,0.0567526097564,0.947852640589,0.313614607072,0.000625246700508
0.393225044012,-0.268317818642,-0.391373902559,-2.06110596657,-0.230798721313,1.83411216736,-0.566576838493,0.0337375625968,-0.228003650904,0.265573501587,-0.274474024773,0.00333998235874,-0.693964540958,-0.0736973509192,-0.234076634049,0.489399511664,-0.0458156462599,0.430951679121,0.061820909962,0.947780916499,0.312840450709,-0.00451237197722
0.388379901648,-0.263193160295,-0.397476017475,-2.06092166901,-0.245200350881,1.83303594589,-0.57180672884,0.0337375625968,-0.251739352942,0.243343964219,-0.317354619503,0.0123558491468,-0.74158769846,-0.0496607087553,-0.276677936316,0.48936490171,-0.0541217518829,0.428578531541,0.0680385386988,0.947624742178,0.311888004117,-0.010196952505
0.383157223463,-0.25839060545,-0.404221534729,-2.06043076515,-0.260588377714,1.8323611021,-0.57785564661,0.0337375625968,-0.265819966793,0.251418411732,-0.360237896442,0.0427092052996,-0.778402149677,-0.017395099625,-0.32587274909,0.48929751511,-0.0627590707212,0.426686463268,0.074356130944,0.947375350405,0.310988538401,-0.0154025941882
0.377143204212,-0.252995431423,-0.412664860487,-2.05918955803,-0.27697917819,1.83214843273,-0.58485108614,0.0337375625968,-0.305129736662,0.259697884321,-0.433994203806,0.0830295681953,-0.771371304989,-0.00186545948964,-0.34294718504,0.489270202567,-0.0723112753368,0.424993374655,0.0807102004082,0.947220610677,0.309579280059,-0.0204852948786
0.367656886578,-0.245603173971,-0.426283717155,-2.05576515198,-0.300224304199,1.8320902586,-0.596058905125,0.0337375625968,-0.329993098974,0.244843095541,-0.480834245682,0.150535970926,-0.769284069538,-0.000512933009304,-0.403346329927,0.489108739599,-0.0884681558411,0.423336577796,0.0904138520453,0.947122323027,0.306621464159,-0.0277113332117
0.362325698137,-0.241553634405,-0.434367388487,-2.0530166626,-0.312281161547,1.83210527897,-0.602682232857,0.0337375625968,-0.346656560898,0.256161093712,-0.543811380863,0.198229074478,-0.739760100842,-0.00239213742316,-0.423515468836,0.488961379057,-0.097922775663,0.422853384118,0.0955542825614,0.947137826738,0.304649712292,-0.0314303791701
0.356582403183,-0.237356022,-0.443442761898,-2.04943561554,-0.324109524488,1.83210897446,-0.609632253647,0.0337782762945,-0.359256505966,0.259902209044,-0.583278477192,0.247084125876,-0.73786097765,-3.75185045414e-05,-0.452905029058,0.488749515116,-0.106927853802,0.422703690564,0.0999730838631,0.947307812186,0.302353363648,-0.0345793963722
0.349223792553,-0.232143670321,-0.455509543419,-2.0436975956,-0.33867880702,1.83214700222,-0.619031071663,0.0337782762945,-0.376044392586,0.261309802532,-0.616485774517,0.312594234943,-0.711709916592,0.00324056227691,-0.487506449223,0.488416169425,-0.119408745198,0.423099662486,0.105859447862,0.947560949278,0.299078241989,-0.0383956971571
0.337244093418,-0.224332541227,-0.476061046124,-2.0328309536,-0.358950018883,1.832503438,-0.634388208389,0.0337782762945,-0.394294172525,0.249873369932,-0.708164811134,0.384303152561,-0.595452904701,0.00776338763535,-0.506505668163,0.487487672179,-0.139706129435,0.424661256778,0.114049667741,0.948365877902,0.292774748956,-0.0433333703101
0.330192893744,-0.219935581088,-0.488999187946,-2.02565455437,-0.369238734245,1.83272147179,-0.643606126308,0.0337782762945,-0.407807946205,0.23165923357,-0.74768435955,0.424157142639,-0.544621884823,0.0147801358253,-0.519804120064,0.486615106181,-0.151856807059,0.42595054959,0.118173902188,0.949065316851,0.288468741872,-0.0457792293957
0.323603093624,-0.216319397092,-0.501295924187,-2.01840400696,-0.377404868603,1.83306634426,-0.652032852173,0.0337782762945,-0.410890489817,0.224242120981,-0.785709738731,0.46739205718,-0.474484682083,0.0210931263864,-0.539366960526,0.485622902921,-0.163121666337,0.427571906784,0.12150585562,0.949910231649,0.284009328927,-0.0473875472007
0.317046284676,-0.21273714304,-0.513943612576,-2.01075577736,-0.384379386902,1.83345484734,-0.660792350769,0.0337782762945,-0.412388324738,0.221273139119,-0.794679880142,0.495755851269,-0.410416901112,0.0266756787896,-0.55576467514,0.484428515242,-0.174374851065,0.429339559747,0.124378620029,0.950846193071,0.279370547876,-0.0487193254342
0.296643942595,-0.203553050756,-0.555305600166,-1.98583972454,-0.401816427708,1.8347427845,-0.688647925854,0.0337782762945,-0.4208368361,0.141906231642,-0.875839591026,0.516962766647,-0.314019203186,0.0169826801866,-0.591351270676,0.478788716778,-0.209804521071,0.435927777697,0.131658224766,0.954257788357,0.26347544921,-0.0513699577989
0.28276181221,-0.199824795127,-0.586151778698,-1.96847867966,-0.411022603512,1.835693717,-0.709519088268,0.0338209606707,-0.370380431414,0.0748202204704,-0.89222484827,0.495612800121,-0.221533551812,0.0416478924453,-0.594689428806,0.47274701426,-0.234825355725,0.441346511928,0.135401166939,0.95686482728,0.251738162206,-0.0520011892679
0.275338679552,-0.198895215988,-0.604027748108,-1.95905292034,-0.414822995663,1.83643734455,-0.721148610115,0.0338209606707,-0.366823405027,0.0235166419297,-0.895291149616,0.453374445438,-0.16672731936,0.0345069281757,-0.575282752514,0.468636030736,-0.248676146951,0.444592454403,0.136912565154,0.958459260954,0.244824692758,-0.0516881427639
0.264662355185,-0.199040859938,-0.630570828915,-1.94665265083,-0.419526159763,1.83744633198,-0.738352537155,0.0338209606707,-0.349456161261,-0.0231179334223,-0.872966587543,0.38317117095,-0.143868148327,0.0429255068302,-0.572533607483,0.461426455894,-0.2686623197,0.44912818582,0.138434766432,0.960815805013,0.234645288073,-0.0510920028738
0.259231925011,-0.199758633971,-0.644053220749,-1.94054865837,-0.42157331109,1.83818411827,-0.747402787209,0.0338209606707,-0.342884838581,-0.0660193860531,-0.835084855556,0.369914263487,-0.124799899757,0.0412327758968,-0.572066485882,0.457380945639,-0.278695970048,0.451560098606,0.139100664616,0.9619797133,0.229563520166,-0.0504641080679
0.25274091959,-0.201472014189,-0.659428238869,-1.93418157101,-0.423789411783,1.83868324757,-0.758063077927,0.0338209606707,-0.330493301153,-0.112620070577,-0.795869588852,0.312770724297,-0.109792143106,0.0241369046271,-0.558500111103,0.452138459366,-0.290128255149,0.454306197137,0.139572254926,0.963315329402,0.223757369601,-0.0497574219259
0.247206121683,-0.203464269638,-0.672398686409,-1.92921304703,-0.425654560328,1.83898139,-0.767348468304,0.0338209606707,-0.331330090761,-0.128628611565,-0.754111170769,0.268576920033,-0.0984178110957,0.01028276328,-0.547230124474,0.447314244859,-0.299691306504,0.456581052002,0.139830025538,0.964408257867,0.21896821869,-0.049164977503
0.23242379725,-0.212240770459,-0.704202353954,-1.91996383667,-0.429662108421,1.83924651146,-0.792255938053,0.0338767766953,-0.296686530113,-0.222123518586,-0.570587575436,0.133874222636,-0.0818231105804,-0.00413036718965,-0.480324178934,0.433260822452,-0.32294725251,0.461842181313,0.139175147282,0.967085199148,0.207697768478,-0.047308906466
0.227848052979,-0.215908229351,-0.712888062,-1.91815817356,-0.431056052446,1.83923232555,-0.799756586552,0.0338767766953,-0.282773703337,-0.229305326939,-0.518470644951,0.0949346274137,-0.0776221677661,-0.000878168910276,-0.456334531307,0.428733234646,-0.329411676487,0.463310251508,0.138832584881,0.967797487344,0.204732603144,-0.0466700950211
0.222987875342,-0.22012335062,-0.721581161022,-1.91670393944,-0.432516932487,1.83920800686,-0.807741165161,0.0338767766953,-0.265119343996,-0.243499904871,-0.444797933102,0.0722839683294,-0.0761140882969,-0.00241383514367,-0.431788802147,0.423887936604,-0.335920897468,0.464756630115,0.138377538344,0.968495096823,0.201879594255,-0.0459731816189
0.211095750332,-0.232607394457,-0.739476025105,-1.91471576691,-0.435073792934,1.83906424046,-0.827714681625,0.0338767766953,-0.203565150499,-0.234094023705,-0.266606420279,0.0180592257529,-0.0527701489627,-0.004947043024,-0.358427792788,0.412337959209,-0.349782451856,0.468332445481,0.136764640726,0.969919494099,0.196663018237,-0.0433043296367
0.208254739642,-0.236133098602,-0.743113636971,-1.91449511051,-0.435803681612,1.83890807629,-0.833074510098,0.0338767766953,-0.177971750498,-0.242488622665,-0.215897500515,0.0081567177549,-0.0421842597425,-0.00934087485075,-0.346692055464,0.40958945915,-0.35275957172,0.469259841143,0.136378932052,0.970139496993,0.196005463577,-0.0425676074959
0.205410271883,-0.240218088031,-0.746226131916,-1.91431975365,-0.436593741179,1.83871555328,-0.838827013969,0.0338767766953,-0.145112916827,-0.225704357028,-0.157018512487,0.0102231400087,-0.0528479740024,-0.0131394080818,-0.324683487415,0.406902932306,-0.355512503562,0.470385573832,0.13605378937,0.970277788222,0.195755971252,-0.0415930221804
0.2026976794,-0.244218736887,-0.748694956303,-1.91411399841,-0.437662750483,1.8385913372,-0.845089435577,0.0338767766953,-0.122878581285,-0.187026396394,-0.0990354195237,0.00599076598883,-0.0526127554476,-0.00468984339386,-0.309292793274,0.404467966133,-0.357975346464,0.471572740638,0.135949242779,0.970251797422,0.196146985434,-0.0406892219978
0.200510814786,-0.248367339373,-0.750264167786,-1.91376805305,-0.43854829669,1.83846616745,-0.851847231388,0.0338767766953,-0.0653310194612,-0.175812587142,-0.0298090372235,0.0263230782002,-0.0216231755912,-0.00652264337987,-0.284301757812,0.402460373007,-0.359882599283,0.473017924079,0.135956957984,0.970030531493,0.197476855321,-0.0394887940259
0.199608549476,-0.251901209354,-0.75032544136,-1.91290080547,-0.438967883587,1.8382614851,-0.858028829098,0.0338767766953,0.00564758619294,-0.118316553533,0.00766579387709,0.0495260022581,-0.00779631873593,-0.00519011355937,-0.240250945091,0.401683734561,-0.360527801005,0.47464676845,0.136219380934,0.969568451559,0.199828477312,-0.03807725501
0.19979287684,-0.253455042839,-0.750065267086,-1.91202235222,-0.439066469669,1.83823943138,-0.86153793335,0.0338767766953,0.0195356123149,-0.0901166722178,0.0320723354816,0.0646733641624,-0.00699155870825,-0.000139674200909,-0.231770411134,0.401716482655,-0.36052489649,0.47548695865,0.136480090177,0.969255932437,0.201296206468,-0.0373625397345
0.200357362628,-0.254948526621,-0.748386323452,-1.91009831429,-0.439178258181,1.83819174767,-0.866276204586,0.0338767766953,0.0315880402923,-0.0468490347266,0.117640182376,0.11300676316,-0.00952420011163,-0.00729220919311,-0.194201409817,0.402455864268,-0.359949452808,0.477113398523,0.137300092794,0.968564113743,0.204262411501,-0.0361816117402
0.203835010529,-0.255554616451,-0.740885555744,-1.90300428867,-0.439244151115,1.83776199818,-0.874476850033,0.033891223371,0.121533162892,0.0131537104025,0.22066873312,0.196496114135,-0.000222398084588,-0.0121193863451,-0.134453073144,0.406760864333,-0.356450207574,0.481637490088,0.140485076548,0.966489243759,0.212237963528,-0.0334295003856
0.206328690052,-0.255209684372,-0.736455559731,-1.89927911758,-0.439244091511,1.83752024174,-0.876670539379,0.033891223371,0.157649815083,0.026687849313,0.267717242241,0.221252202988,-0.000102099089418,-0.00937419664115,-0.117856785655,0.409496991818,-0.354068480748,0.483849731179,0.142246290589,0.96544673139,0.21598551355,-0.0320758365584
0.209472551942,-0.2545966506,-0.731374382973,-1.89498281479,-0.439243227243,1.83728420734,-0.87832403183,0.033891223371,0.195665627718,0.0442382581532,0.304104030132,0.26004743576,-0.000190250168089,-0.0135907744989,-0.0647265464067,0.412755322752,-0.351183664271,0.486331684548,0.144292700932,0.964283389692,0.220013578706,-0.0305153354642
0.225645288825,-0.249939441681,-0.704088151455,-1.87061285973,-0.439242005348,1.83575665951,-0.879965543747,0.033891223371,0.295214086771,0.099993750453,0.4954020679,0.448585093021,9.09039954422e-05,-0.0211997032166,-0.000151190164615,0.429859623338,-0.335442621657,0.499799881036,0.155464295919,0.958580581892,0.237656862756,-0.0217562861978
0.230540260673,-0.24845173955,-0.695721626282,-1.86267530918,-0.439240634441,1.83548259735,-0.879954636097,0.033891223371,0.308656513691,0.0850358754396,0.542486011982,0.531590819359,-0.000507537042722,-0.0212114620954,-0.00024185863731,0.435026167669,-0.330487577611,0.504154861878,0.159006788366,0.956791959816,0.24272375347,-0.0187394257598
0.236613258719,-0.2466981709,-0.685237288475,-1.85230755806,-0.439236789942,1.83507561684,-0.879895627499,0.033891223371,0.348246008158,0.103768631816,0.574904084206,0.583330273628,0.00060176756233,-0.0125073352829,0.00499981315807,0.441786783885,-0.323803889621,0.510212704776,0.163776688497,0.954358986911,0.249333153131,-0.0144602506088
0.247759580612,-0.242889761925,-0.666718006134,-1.83316981792,-0.439230412245,1.83484053612,-0.878990530968,0.0339043550193,0.382000416517,0.134141430259,0.650563716888,0.697243273258,0.000513378356118,-0.014147461392,0.060074493289,0.452738195845,-0.312603009838,0.5201169275,0.171610256909,0.950297717097,0.259677110217,-0.007208794729
0.253997713327,-0.240823090076,-0.655995070934,-1.82176280022,-0.439227461815,1.83472597599,-0.877619564533,0.0339043550193,0.396760106087,0.132960438728,0.682340681553,0.714950859547,0.000342600629665,-0.0036525959149,0.0954398885369,0.459467007991,-0.30533513987,0.526655050082,0.176587559071,0.947749246611,0.265675251346,-0.00220455014081
0.260924518108,-0.238673895597,-0.644317626953,-1.80930006504,-0.439222484827,1.83480405807,-0.875942111015,0.0339043550193,0.420880258083,0.126487702131,0.702266514301,0.762290418148,-0.000133641602588,-0.00140963459853,0.109960362315,0.465863553369,-0.298093555016,0.533040272712,0.181352328958,0.94521425618,0.271427803858,0.00287917996321
0.269659757614,-0.235684797168,-0.62973600626,-1.79329299927,-0.439213126898,1.83474111557,-0.873151600361,0.0339043550193,0.449765771627,0.153112024069,0.7505453825,0.779284417629,0.0044713281095,0.00623710872605,0.176675096154,0.474187188951,-0.288188618825,0.541575553745,0.187576875601,0.941830094364,0.278703686045,0.00975931156106
0.282478302717,-0.231872007251,-0.60816180706,-1.77020156384,-0.439208716154,1.83481657505,-0.866974651814,0.0339043550193,0.470093935728,0.132676690817,0.787027478218,0.832634747028,0.00142493133899,0.00600645551458,0.260915637016,0.486210719273,-0.272412490846,0.554564249569,0.196589791228,0.936751750684,0.288808537275,0.0209341839804
0.291486561298,-0.229597941041,-0.592888534069,-1.75440180302,-0.439193725586,1.83504593372,-0.861260473728,0.0339043550193,0.481572926044,0.115260981023,0.832332551479,0.861644148827,0.00343789788894,0.00592982349917,0.335441678762,0.493512935659,-0.261826291958,0.562872958044,0.202051170412,0.933530380533,0.294755463355,0.0285581803615
0.299235373735,-0.227775335312,-0.579760789871,-1.74108457565,-0.439174294472,1.83508121967,-0.855451285839,0.0339043550193,0.501091837883,0.107821553946,0.846910834312,0.794870078564,0.00235089706257,0.0157341789454,0.37892845273,0.499787643258,-0.251976911413,0.570276365405,0.206683375871,0.930682426651,0.299745115628,0.0355677972825
0.30826985836,-0.22606806457,-0.564668059349,-1.72645509243,-0.439164429903,1.83530890942,-0.848300933838,0.0339201167226,0.501661658287,0.0893182083964,0.822303056717,0.836892366409,0.00287740211934,0.0104705486447,0.417016357183,0.506614948998,-0.240305639129,0.578596164419,0.211645334069,0.927377939615,0.305378181166,0.0438243748731
0.332564771175,-0.22326490283,-0.523348748684,-1.69066417217,-0.439117521048,1.83560812473,-0.826474130154,0.0339201167226,0.508324086666,0.025448070839,0.868284702301,0.652260601521,0.00106113939546,0.00155800103676,0.498548656702,0.522954761601,-0.206456382978,0.600170742504,0.22299099163,0.918311019592,0.320175357322,0.0668403260967
0.342724353075,-0.223106384277,-0.506167829037,-1.67785584927,-0.439076423645,1.83584451675,-0.816413164139,0.0339201167226,0.498503804207,0.00902078673244,0.848262667656,0.625253915787,0.00310188345611,0.0117164570838,0.504237174988,0.528230366672,-0.192856986563,0.607879083563,0.226412541708,0.914845395095,0.325647596345,0.075821545138
0.350279510021,-0.223063722253,-0.4936812222,-1.66910755634,-0.43898165226,1.83616483212,-0.809256196022,0.0339201167226,0.516592919827,-0.0108359865844,0.852228879929,0.540107667446,0.0118573876098,0.0280080419034,0.449379056692,0.532002663509,-0.182184260428,0.613517886025,0.228731638253,0.912094464198,0.330052613182,0.0826486433849
0.360944926739,-0.22333407402,-0.476053029299,-1.65888023376,-0.438764721155,1.8369910717,-0.80055809021,0.0339201167226,0.500313222408,-0.0316759310663,0.827193200588,0.439085066319,0.00718727335334,0.0411261953413,0.38312959671,0.536819853666,-0.166823653829,0.620534194332,0.231391183502,0.907941529606,0.337187818122,0.091677009127
0.373560100794,-0.224951431155,-0.455918639898,-1.64929187298,-0.438497215509,1.83827126026,-0.791557013988,0.0339201167226,0.50164347887,-0.0733608230948,0.773682117462,0.318123668432,0.0178327541798,0.0428129993379,0.342060148716,0.541429250917,-0.148834767652,0.628052566867,0.233751706735,0.902881570421,0.346082883883,0.101939425907
0.384315520525,-0.226464882493,-0.440321177244,-1.64364349842,-0.438020795584,1.83927500248,-0.784625291824,0.0339201167226,0.504139840603,-0.073421061039,0.703200638294,0.215842738748,0.0249802712351,0.0481425859034,0.321346610785,0.544574225026,-0.134119567664,0.633025941941,0.234841404938,0.898778702594,0.353635339963,0.109491571804
0.392650723457,-0.227853521705,-0.428977936506,-1.64075684547,-0.43764141202,1.83995139599,-0.779201447964,0.0339201167226,0.471463859081,-0.0929831042886,0.643367469311,0.132666528225,0.0161060784012,0.0429316833615,0.313158065081,0.54664834147,-0.12241368105,0.636273811716,0.235222552166,0.895605765936,0.359632931515,0.114999205304
0.401386380196,-0.229884758592,-0.417129427195,-1.6390389204,-0.437189012766,1.84069001675,-0.773517370224,0.0339201167226,0.450154364109,-0.11043933779,0.600462853909,0.0500701926649,0.0268451943994,0.0436649806798,0.279169738293,0.548190687283,-0.111401978112,0.638905816199,0.235239519884,0.892634932096,0.365354351206,0.119922658479
0.419882208109,-0.234149232507,-0.392403393984,-1.63978040218,-0.434861332178,1.84177851677,-0.7615493536,0.0339325927198,0.327083230019,-0.0728332996368,0.43633428216,-0.0513158254325,0.0569124892354,-0.00124585430603,0.227016568184,0.550692961076,-0.0864345570245,0.642283332458,0.233564004443,0.886251577233,0.378621815631,0.129040761316
0.424860775471,-0.235202848911,-0.385969251394,-1.64082360268,-0.434051424265,1.84179759026,-0.757946491241,0.0339325927198,0.298790752888,-0.0606822445989,0.380259424448,-0.0811663419008,0.047478120774,-9.96302842395e-05,0.220143660903,0.551134771078,-0.0797627732863,0.642624959817,0.232764347274,0.884703464968,0.382047446178,0.130997275742
0.429589092731,-0.236050963402,-0.380025029182,-1.64255869389,-0.433117955923,1.84177541733,-0.754394590855,0.0339325927198,0.237150654197,-0.0323799066246,0.295404404402,-0.118675135076,0.0618220753968,0.000405453552958,0.189461499453,0.551501668466,-0.0734435108321,0.642451218482,0.231771959964,0.883334336349,0.385302781597,0.13245367102
0.437866777182,-0.236956819892,-0.369758963585,-1.64995837212,-0.4311209023,1.84170246124,-0.745499372482,0.0339568890631,0.114272199571,-0.00377039122395,0.119506016374,-0.179909959435,0.00991195440292,-0.00543172284961,0.18302962184,0.552060742602,-0.0621320323293,0.639506767982,0.228950585563,0.881684396651,0.390509256089,0.133104375033
0.439489036798,-0.236867696047,-0.368160426617,-1.65371727943,-0.430893033743,1.84159469604,-0.742262780666,0.0339568890631,0.0758359134197,0.00338226906024,0.0716841369867,-0.19861485064,0.00865014642477,-0.00435758987442,0.169936090708,0.552149856516,-0.0600636882669,0.637539851171,0.227966092353,0.8818335453,0.391081653729,0.132121909265
0.440047651529,-0.236718997359,-0.367629557848,-1.65737199783,-0.430659919977,1.84147453308,-0.739696264267,0.0339568890631,0.0186872407794,0.0136758098379,0.0144646270201,-0.237520113587,0.0108211329207,-0.00726650981233,0.167071580887,0.552149592377,-0.0592232028396,0.635525363191,0.227063565246,0.882291391651,0.391008766294,0.130828826754
0.43995013833,-0.236554548144,-0.367741167545,-1.6620554924,-0.430443078279,1.84144115448,-0.736767649651,0.0339568890631,-0.0184823162854,0.00891116261482,-0.0237162020057,-0.252998352051,0.00245446176268,-0.00172506505623,0.144348740578,0.55208039249,-0.0590831966106,0.632927209527,0.226005242012,0.883114605687,0.390371224475,0.128998180525
0.437315881252,-0.235672175884,-0.371970564127,-1.67514514923,-0.430383205414,1.84064924717,-0.730476379395,0.0339568890631,-0.0877387523651,0.030740160495,-0.128263354301,-0.268845766783,-0.000586003821809,-0.0234511066228,0.119522146881,0.551557748899,-0.0624308143863,0.62512919724,0.22327371833,0.886372072831,0.386689285638,0.122330663589
0.435651481152,-0.235229313374,-0.374404072762,-1.67974150181,-0.430390775204,1.8402172327,-0.728518366814,0.0339568890631,-0.106401927769,0.0309660043567,-0.154395833611,-0.27281114459,-0.00020256730204,-0.0312077682465,0.115174405277,0.55127237483,-0.064576663868,0.622243989813,0.222311100299,0.88781704893,0.384768518362,0.119632141436
0.433678090572,-0.234723702073,-0.377215981483,-1.68427562714,-0.430398076773,1.83964061737,-0.726552307606,0.0339568890631,-0.123574070632,0.0312382914126,-0.17543643713,-0.263348758221,-0.00092706317082,-0.0345877185464,0.104397654533,0.550922695405,-0.0671191252552,0.619315852084,0.221328132721,0.889408134735,0.382527276074,0.116790026397
0.431108742952,-0.234111234546,-0.380749970675,-1.68908560276,-0.430411607027,1.83912372589,-0.724850535393,0.0339568890631,-0.143829151988,0.0273919329047,-0.196683093905,-0.25172996521,-0.00035015042522,-0.0192818231881,0.0747090280056,0.550501851668,-0.0703885776569,0.616153067824,0.220312796429,0.891205544575,0.379873615568,0.113626515031
0.426173597574,-0.233115032315,-0.387044370174,-1.69656312466,-0.430426210165,1.83856487274,-0.722315788269,0.0339568890631,-0.179487660527,0.0397326014936,-0.210341453552,-0.246631890535,-0.00028061674675,-0.0189053397626,0.0913071334362,0.549773490898,-0.0760061523272,0.611536230277,0.218859173582,0.894052482161,0.375368949585,0.10894481467
0.422758817673,-0.232378184795,-0.390850573778,-1.70103800297,-0.430432677269,1.838362813,-0.720595002174,0.0340514518321,-0.192114293575,0.0434772782028,-0.212001919746,-0.246266961098,-0.000492510036565,-0.0107921296731,0.0978661626577,0.549214585095,-0.0802931246155,0.60819098337,0.217837998303,0.89618946651,0.371816619153,0.105562531277
0.419699043036,-0.231741935015,-0.394328355789,-1.70501089096,-0.430433124304,1.83825433254,-0.719110429287,0.0340514518321,-0.189193174243,0.0350854285061,-0.226876288652,-0.253382503986,-5.34647260793e-05,-0.00413209199905,0.0888902544975,0.548731873845,-0.0837862328937,0.605531578857,0.217018062432,0.897893080675,0.368923974228,0.102889635874
0.416289150715,-0.231195896864,-0.398441076279,-1.70974850655,-0.430430203676,1.83822643757,-0.71757209301,0.0340514518321,-0.19197678566,0.0242918189615,-0.227618694305,-0.26896366477,0.00305112847127,0.000977138872258,0.0964780598879,0.548060346767,-0.088036208905,0.602307849883,0.215982187738,0.899907639016,0.365484628838,0.0996941401451
0.410099059343,-0.230898082256,-0.405968904495,-1.71926057339,-0.430308938026,1.83822476864,-0.714384496212,0.0340514518321,-0.181128740311,-0.000311769486871,-0.225393712521,-0.313703924417,0.0080223409459,0.000312831340125,0.111496724188,0.546620383977,-0.0951338356605,0.59677228395,0.213981365042,0.903329265735,0.359581845793,0.0943880762362
0.407060652971,-0.230989098549,-0.409847021103,-1.72486746311,-0.429949551821,1.83824110031,-0.712633728981,0.0340514518321,-0.178568482399,-0.00187324604485,-0.228167265654,-0.338474720716,0.0292556900531,-0.000542463792954,0.0970967710018,0.545718240337,-0.0987465968503,0.593556865138,0.21262584256,0.905160552228,0.356521505221,0.0914715352367
0.404227733612,-0.231043323874,-0.413618773222,-1.73042011261,-0.429123580456,1.83822846413,-0.711095511913,0.0340514518321,-0.170463114977,-0.00158891454339,-0.237971395254,-0.357417047024,0.070403881371,-0.000267595634796,0.104910470545,0.544812297547,-0.102089528134,0.590328065017,0.211055766524,0.906924933149,0.353671953886,0.0886497476717
0.401682764292,-0.231113627553,-0.417006850243,-1.73595285416,-0.427904963493,1.83823144436,-0.709492325783,0.0340514518321,-0.170040130615,-0.0148231098428,-0.213536471128,-0.379560619593,0.0884733945131,0.00260421051644,0.113105393946,0.543870873245,-0.105151667079,0.586908063846,0.209187428582,0.908703413713,0.350900181659,0.0858358189768
0.397902965546,-0.231333121657,-0.421505153179,-1.74476909637,-0.425483554602,1.83824658394,-0.706501424313,0.0340514518321,-0.157775223255,-0.00364390737377,-0.190059259534,-0.401133984327,0.130819395185,-0.00803587865084,0.135629057884,0.542543695285,-0.108791721316,0.582105723897,0.206320057358,0.911120715936,0.347198727665,0.0821225797881
0.393686026335,-0.23140835762,-0.427105277777,-1.75791096687,-0.421239972115,1.83827376366,-0.702468812466,0.0340514518321,-0.126610562205,0.008424827829,-0.178184211254,-0.467942625284,0.167437300086,8.28381744213e-05,0.133945152164,0.540664805771,-0.1128959171,0.574562855592,0.201580121502,0.914357687188,0.342715666293,0.0765600826384
0.391618818045,-0.231497809291,-0.430117756128,-1.76667058468,-0.417791068554,1.83832287788,-0.699909210205,0.0340514518321,-0.108520269394,-0.00805693492293,-0.160135254264,-0.493865936995,0.210979774594,0.0121398977935,0.138442352414,0.539491194976,-0.114681697773,0.569581070764,0.198153952613,0.916253511892,0.340389064907,0.0731423077432
0.390179485083,-0.231480106711,-0.432463169098,-1.77422511578,-0.414454042912,1.83840858936,-0.697910428047,0.0340645834804,-0.0861419439316,0.00831219553947,-0.149623334408,-0.520349442959,0.243166953325,-0.00471058487892,0.133668839931,0.538467692444,-0.115864803928,0.564944687933,0.194826386355,0.917859763365,0.3386239963,0.0700708412011
0.388818383217,-0.231472700834,-0.435423403978,-1.78482079506,-0.409468114376,1.83844590187,-0.695474088192,0.0340645834804,-0.0562379807234,0.01035565231,-0.154926419258,-0.578078985214,0.272646069527,0.00435109948739,0.124830305576,0.537217489484,-0.116766657576,0.559193141449,0.190542648617,0.919648963537,0.336954041498,0.066341966529
0.387220621109,-0.230225294828,-0.441395968199,-1.81285071373,-0.394841790199,1.83862125874,-0.689686119556,0.0340645834804,-0.0118118692189,0.0571625567973,-0.106172017753,-0.648178339005,0.374598234892,0.00711661018431,0.118401922286,0.534453308843,-0.116938051445,0.544842510192,0.179677268847,0.923380905305,0.334380041124,0.0572168730219
0.387139171362,-0.228938773274,-0.443213373423,-1.82543444633,-0.386956363916,1.83897256851,-0.687301158905,0.0340645834804,0.00410003727302,0.0879509299994,-0.0779622346163,-0.647824645042,0.433517128229,0.0265939924866,0.117032885551,0.532879193749,-0.115575626263,0.535120088918,0.171973275846,0.925466672626,0.333618433544,0.0513358620855
0.38727965951,-0.22730499506,-0.44424495101,-1.83670091629,-0.379307568073,1.83926773071,-0.685445487499,0.0340645834804,0.00617782538757,0.0976092070341,-0.0534325838089,-0.669093847275,0.461364239454,0.0192098878324,0.107985951006,0.531869314465,-0.113936324858,0.528102081712,0.166308571203,0.926747370374,0.333556574536,0.0471251728565
0.387619793415,-0.22496765852,-0.444955289364,-1.84998250008,-0.369560837746,1.8398733139,-0.683237314224,0.0340645834804,0.0306665655226,0.137041822076,-0.0278949122876,-0.656669676304,0.490121632814,0.0434969365597,0.115840502083,0.530845593212,-0.111734183555,0.520555597394,0.160076477495,0.928016664039,0.333669336656,0.0427243031285
0.39078950882,-0.215713992715,-0.445530354977,-1.88027477264,-0.345590114594,1.84306001663,-0.677382588387,0.0340645834804,0.110577143729,0.260509490967,0.000905527907889,-0.646346747875,0.561188220978,0.0968583598733,0.129427924752,0.528993553397,-0.103371108624,0.499167317198,0.143258878025,0.930735962277,0.335079499827,0.0304826322857
0.393245875835,-0.210713148117,-0.445511311293,-1.89191806316,-0.335245102644,1.84505629539,-0.674942791462,0.0340645834804,0.156535640359,0.295185506344,-0.00172811222728,-0.636789739132,0.593803822994,0.131638213992,0.145135715604,0.528595160217,-0.099192604676,0.490735093352,0.136723975263,0.931497491627,0.3360813553,0.0258514987216
0.396306693554,-0.205106705427,-0.445357978344,-1.90302526951,-0.324445128441,1.84788930416,-0.672200739384,0.0340724624693,0.188320666552,0.342229545116,0.0217837132514,-0.607360243797,0.598016083241,0.180893465877,0.165617480874,0.528449248451,-0.0945380971719,0.482419072818,0.130252925849,0.93214594036,0.337149016519,0.0216485917126
0.407708734274,-0.185482770205,-0.442540049553,-1.9318832159,-0.292812228203,1.86006093025,-0.66190290451,0.0340724624693,0.259346246719,0.442738115788,0.0956298485398,-0.5393922925,0.647980630398,0.308293998241,0.225550025702,0.52933258355,-0.0784462885289,0.459170436754,0.112990875766,0.933287573232,0.340703688045,0.0113297961837
0.412071824074,-0.17814911902,-0.440741628408,-1.94041872025,-0.282680571079,1.86527812481,-0.657979428768,0.0340724624693,0.289060950279,0.462475985289,0.124796383083,-0.521746456623,0.626007854939,0.33356231451,0.248390614986,0.529953838172,-0.0724529049605,0.451814951373,0.10794357304,0.933401333889,0.342109039114,0.00845813074269
0.417773097754,-0.169100135565,-0.438076585531,-1.94975507259,-0.27065962553,1.87181472778,-0.653086721897,0.0340724624693,0.313356429338,0.486182570457,0.160915374756,-0.457904398441,0.634831726551,0.361449599266,0.260031431913,0.530819660133,-0.0648389918354,0.443387619629,0.102233234867,0.933382342222,0.343971946425,0.00539153722187
0.424683958292,-0.158540427685,-0.434272140265,-1.95891952515,-0.257346957922,1.87972617149,-0.647373020649,0.0340724624693,0.337838023901,0.511578500271,0.204794585705,-0.419233202934,0.636450886726,0.390180110931,0.286275148392,0.532035260218,-0.0556991036799,0.434491114269,0.0963363440159,0.933143910584,0.346345412652,0.00257017166314
0.430980205536,-0.149201363325,-0.430087685585,-1.96611809731,-0.245961219072,1.88676095009,-0.64204698801,0.0340724624693,0.358718127012,0.525801002979,0.245991528034,-0.369118094444,0.620978116989,0.390895605087,0.304592370987,0.533131641788,-0.0472306971244,0.427106732922,0.0915478687778,0.932785887357,0.348610525562,0.000420978034516
0.438044577837,-0.138938724995,-0.424945652485,-1.97253322601,-0.234086722136,1.89439535141,-0.635755360126,0.0340724624693,0.382455259562,0.543769419193,0.290847152472,-0.312970638275,0.631408572197,0.416508346796,0.351073920727,0.53444393412,-0.0377667728503,0.419734670309,0.086874371124,0.932321005551,0.351038929456,-0.00143385524059
0.447161465883,-0.126549392939,-0.417673230171,-1.97892570496,-0.219597667456,1.90466725826,-0.62719899416,0.0340724624693,0.402916938066,0.533467769623,0.32817235589,-0.259142935276,0.627093672752,0.471929788589,0.395499974489,0.536366455107,-0.0249301456959,0.411246579141,0.0813912944562,0.931628518737,0.354171148405,-0.00256077835844
0.457415908575,-0.113857582211,-0.408476889133,-1.98427832127,-0.204969957471,1.91589391232,-0.617019474506,0.0340724624693,0.44560366869,0.515081107616,0.418301224709,-0.190146222711,0.586963474751,0.466976851225,0.440802574158,0.538258536393,-0.0115398239529,0.403880482555,0.0766823727183,0.930759856163,0.357488681817,-0.0027831506199
0.464024573565,-0.10610666126,-0.402171850204,-1.9868530035,-0.196159079671,1.92300760746,-0.610286712646,0.0340849384665,0.444585859776,0.511223554611,0.430067241192,-0.15467761457,0.580402970314,0.479272186756,0.46514120698,0.539484176238,-0.0025022469357,0.399520030228,0.0738810930343,0.930121989725,0.359733676339,-0.00251994330724
0.472771883011,-0.0965716764331,-0.393603086472,-1.98926007748,-0.185224756598,1.93221664429,-0.601293921471,0.0340849384665,0.471514970064,0.496401846409,0.470387846231,-0.0954167693853,0.570874392986,0.506249785423,0.497762531042,0.541142372451,0.0102768793666,0.394212888263,0.070330672947,0.929162555861,0.362916308144,-0.00151466064183
0.488624423742,-0.081528313458,-0.377359628677,-1.99120879173,-0.167886912823,1.94887197018,-0.583864808083,0.0340849384665,0.498102217913,0.442990630865,0.522327721119,-0.0209334492683,0.501952111721,0.521798074245,0.597955286503,0.543677601444,0.0309398263089,0.387717914141,0.065715001324,0.927545167973,0.367883365028,0.00182466177184
0.497369974852,-0.0743021294475,-0.368229925632,-1.99134254456,-0.159840583801,1.95764410496,-0.573151409626,0.0340849384665,0.524649560452,0.419193148613,0.547335624695,0.00490405410528,0.456116765738,0.521124899387,0.642372965813,0.544914276877,0.0426431974733,0.3848766296,0.0636296656793,0.926689596641,0.370377432965,0.00426778128791
0.507374703884,-0.0669469684362,-0.357583969831,-1.99108421803,-0.151480555534,1.96771514416,-0.560747563839,0.0340849384665,0.545745551586,0.364513337612,0.588069975376,0.0208926666528,0.437846064568,0.551158189774,0.672779083252,0.546046822255,0.0551855320402,0.382403710599,0.0616310538029,0.925708441086,0.373110497145,0.00735200053338
0.516189932823,-0.0614414326847,-0.347938239574,-1.99075365067,-0.144821211696,1.97688674927,-0.549466967583,0.0340849384665,0.542778968811,0.318790018559,0.600586295128,0.0171730779111,0.386215180159,0.572640895844,0.717689871788,0.546954415662,0.0678655724353,0.380512939739,0.0598044833026,0.924670878,0.375878759497,0.0110611481474
0.542362093925,-0.0490881837904,-0.318968355656,-1.98837327957,-0.12964913249,2.00219249725,-0.51306694746,0.0340849384665,0.564971923828,0.211651027203,0.631401538849,0.0846725925803,0.262460231781,0.470938324928,0.813144207001,0.547951374647,0.102484816247,0.377840261237,0.055791218511,0.921891027315,0.382748478418,0.0225360964733
0.55242484808,-0.0456564575434,-0.307675600052,-1.9865167141,-0.125352352858,2.01046133041,-0.497868537903,0.0340849384665,0.562206506729,0.163002386689,0.626485347748,0.11911740154,0.232753798366,0.447913914919,0.872675955296,0.547719171877,0.115618636002,0.37781402638,0.0545105560166,0.920895554667,0.3850216388,0.0271719343348
0.561904609203,-0.0431552678347,-0.296923995018,-1.98423218727,-0.121563389897,2.01779127121,-0.48295968771,0.0340849384665,0.556875526905,0.136696189642,0.642459094524,0.14798116684,0.217444911599,0.420267611742,0.890242278576,0.547235520256,0.128020915645,0.378391076993,0.0532039101152,0.920022908811,0.386923497164,0.0318966806373
0.573382794857,-0.0409059971571,-0.283563047647,-1.98085188866,-0.117067068815,2.02599549294,-0.464007496834,0.0340895354748,0.544084846973,0.0847440212965,0.63409101963,0.174205183983,0.204206839204,0.35722643137,0.925958156586,0.546229848617,0.143208801177,0.379742820711,0.0513649249653,0.919059375527,0.388911486355,0.0379389536217
0.597134947777,-0.0390866585076,-0.256059288979,-1.97156834602,-0.109190307558,2.03973555565,-0.421349823475,0.0340895354748,0.510427951813,0.00183584180195,0.58865404129,0.244786679745,0.139239042997,0.273561924696,0.985256493092,0.542759554914,0.174226898876,0.384915642113,0.0470658391125,0.917605849893,0.391366568402,0.0511519290878
0.614660918713,-0.0395095907152,-0.236035808921,-1.96140348911,-0.104433074594,2.04802203178,-0.385765820742,0.0340895354748,0.464663237333,-0.0286865308881,0.542357861996,0.309935569763,0.125728085637,0.209394052625,0.987710535526,0.539545976077,0.196882155986,0.391229424412,0.0433822006311,0.917197788567,0.391126993586,0.0623367940015
0.627869904041,-0.0408693626523,-0.220633238554,-1.95180046558,-0.101174868643,2.05404186249,-0.356550037861,0.0340895354748,0.413372188807,-0.0590895451605,0.475571811199,0.309919178486,0.106751799583,0.200015649199,0.957663297653,0.536681075816,0.214721573986,0.397804691382,0.0399403407171,0.917159518617,0.389854345176,0.0723655706916
0.635337293148,-0.0422566793859,-0.212047055364,-1.94600975513,-0.0991227179766,2.05802297592,-0.33827060461,0.0340895354748,0.387456834316,-0.0821525603533,0.434164941311,0.305983394384,0.114887446165,0.222024708986,0.954606413841,0.535092329836,0.223985068688,0.40181057471,0.0376979653754,0.917432041952,0.388295226802,0.078256810127
0.641190707684,-0.0436806380749,-0.20531283319,-1.94111359119,-0.0973038524389,2.06149935722,-0.323340773582,0.0340895354748,0.346676200628,-0.0958090424538,0.407163739204,0.294310033321,0.0931191891432,0.209652945399,0.919325590134,0.533739118036,0.231743736328,0.405555704484,0.0355337635849,0.917729240843,0.386678274728,0.083608035992
0.64689874649,-0.0457172580063,-0.198755711317,-1.9363257885,-0.0959563031793,2.06471633911,-0.307989507914,0.0340895354748,0.319330483675,-0.140799805522,0.357165306807,0.266922056675,0.0641554072499,0.183626577258,0.889677941799,0.532254933762,0.239190323652,0.409588869139,0.033384319873,0.91809883366,0.384774737523,0.089041674875
0.655554711819,-0.0505428463221,-0.188985913992,-1.92888975143,-0.0938123390079,2.07015657425,-0.281937211752,0.0340895354748,0.247742176056,-0.169293642044,0.271544009447,0.208959177136,0.0730973407626,0.174060896039,0.791190385818,0.529810848781,0.250359886748,0.41690480504,0.0294371088212,0.91908818054,0.380423436598,0.0984295767814
0.659617125988,-0.0537619590759,-0.184624224901,-1.92547142506,-0.0924535915256,2.07308149338,-0.268037945032,0.0340895354748,0.20188485086,-0.182480052114,0.217456787825,0.173475027084,0.0748784542084,0.158312171698,0.757211625576,0.528567413392,0.255489740633,0.42091590141,0.0270740312551,0.919861009505,0.377401099307,0.103397920425
0.662760972977,-0.0570722818375,-0.181248426437,-1.92290437222,-0.0912033244967,2.07561421394,-0.255534499884,0.0340934768319,0.161333233118,-0.205046027899,0.184662252665,0.135511785746,0.0604795701802,0.134537994862,0.704841554165,0.527509370801,0.259447195475,0.424496779417,0.0248710549228,0.920741306481,0.374185532697,0.107712877455
0.665182769299,-0.0606819465756,-0.178469121456,-1.9208881855,-0.0904035717249,2.07788276672,-0.244014814496,0.0340934768319,0.120151385665,-0.21913087368,0.145729199052,0.106882989407,0.0310611929744,0.121110841632,0.65780967474,0.526606642954,0.262534211192,0.427941089077,0.0229212301834,0.921643532192,0.370896476299,0.111730122736
0.66858279705,-0.0717164948583,-0.175111845136,-1.91762924194,-0.0892633497715,2.08269906044,-0.21434751153,0.0340934768319,0.0120710767806,-0.228290364146,0.00292341946624,0.0312783233821,0.039918102324,0.074834831059,0.539078474045,0.525297208133,0.266394876537,0.436683732065,0.0182831521812,0.925052733024,0.359487726784,0.121291967771
0.668397188187,-0.0756303369999,-0.175315469503,-1.91725671291,-0.0886676385999,2.08382964134,-0.205404698849,0.0340934768319,-0.0271186996251,-0.229980379343,-0.0248179286718,0.0170246269554,0.0317373201251,0.0594683513045,0.517186224461,0.525285256385,0.266196240511,0.439139919139,0.0168775923126,0.926425941437,0.355148529331,0.123772548276
0.667514622211,-0.0798888579011,-0.17629621923,-1.91715061665,-0.0880448669195,2.08488202095,-0.195692747831,0.0340934768319,-0.0603420399129,-0.212074801326,-0.0770570933819,0.00153231155127,0.0310474541038,0.0536594688892,0.512966096401,0.525550880183,0.265172360953,0.4417990901,0.015334509941,0.928243982743,0.349506825638,0.126384096399
0.666200637817,-0.0832185596228,-0.178005829453,-1.91715824604,-0.0875358358026,2.08578276634,-0.187137067318,0.0340934768319,-0.0973132923245,-0.181128099561,-0.119197331369,-0.000414936221205,0.0289500765502,0.0547969266772,0.499905467033,0.526202060932,0.263425677291,0.44394918867,0.0140274035665,0.930190304838,0.343562971569,0.128505692426
0.659382641315,-0.0902942791581,-0.185676634312,-1.91714441776,-0.0868599265814,2.08789300919,-0.165825143456,0.0340934768319,-0.16714169085,-0.127061188221,-0.219704017043,-0.0040866015479,0.01032102108,0.0294083561748,0.41872549057,0.529665300691,0.255539270084,0.448239582889,0.0116848991386,0.935789656025,0.326394672805,0.132769349091
0.656453430653,-0.0919138044119,-0.189479619265,-1.91716516018,-0.0867878049612,2.08840727806,-0.159105136991,0.0340934768319,-0.190726056695,-0.0768726095557,-0.261410862207,0.00235548615456,0.00099736743141,0.0331083498895,0.417567998171,0.531319973665,0.251887812693,0.449188616541,0.0111908126777,0.93786918974,0.319996224427,0.133710750081
0.652450144291,-0.093010365963,-0.194791302085,-1.91714859009,-0.0867477506399,2.08926320076,-0.151014596224,0.0340934768319,-0.232378005981,-0.0486999899149,-0.299158334732,-0.00194314564578,-0.000313754077069,0.0566387660801,0.433782398701,0.533710407287,0.246905367513,0.449885926847,0.0107745584455,0.940526664229,0.311747299271,0.134562713444
0.640165507793,-0.0932065397501,-0.211720436811,-1.91726994514,-0.0866436213255,2.09320187569,-0.132913067937,0.0340934768319,-0.296528249979,0.0421981848776,-0.425432235003,-0.00539481081069,0.000275224418147,0.12802284956,0.361185461283,0.541389978325,0.231448647464,0.450282478823,0.0103914279109,0.947434145693,0.289329411134,0.136194894702
0.635196626186,-0.0922120884061,-0.218784183264,-1.91738462448,-0.0866157487035,2.09535074234,-0.127188876271,0.0340934768319,-0.324908584356,0.0788729861379,-0.443693816662,-0.00647827237844,0.00059222226264,0.1394495368,0.350901275873,0.544806990736,0.22472038218,0.449831266764,0.0105145272243,0.950058395758,0.280390353498,0.136600654176
0.628735303879,-0.090473510325,-0.227630123496,-1.91759324074,-0.0865154713392,2.09818077087,-0.12046674639,0.0340987294912,-0.359588772058,0.102322094142,-0.492836743593,-0.00818987563252,0.00956539623439,0.151701003313,0.354624092579,0.548622763516,0.217066674112,0.449046642358,0.0107549672487,0.952886775883,0.270479339945,0.136865077284
0.621275961399,-0.0878826752305,-0.237846523523,-1.91776680946,-0.0864142477512,2.10130214691,-0.113234326243,0.0340987294912,-0.382945269346,0.150344148278,-0.528294026852,-0.00275014899671,0.00344982091337,0.163259103894,0.355683475733,0.55315765585,0.207704922611,0.447782009926,0.0112174528921,0.956154875871,0.25865946276,0.136884272708
0.609466552734,-0.0827023014426,-0.254280179739,-1.9177839756,-0.0863283276558,2.10605978966,-0.103571712971,0.0340987294912,-0.437605112791,0.206838771701,-0.605786800385,0.00168886035681,0.00192980980501,0.170661479235,0.288115590811,0.560172639211,0.192616608365,0.445275923775,0.0123574225367,0.960892771375,0.240654250839,0.136447452422
0.603864192963,-0.0798141881824,-0.262164950371,-1.91778433323,-0.0863020122051,2.10837745667,-0.100019618869,0.0340987294912,-0.425291180611,0.227642118931,-0.612296640873,-0.00126260658726,0.00140698859468,0.180602431297,0.265494853258,0.56317202948,0.185920564597,0.443971070523,0.0130181690472,0.962773942272,0.233179076387,0.136104303323
0.594997644424,-0.074835665524,-0.274926930666,-1.91781175137,-0.0862793251872,2.11195397377,-0.0947983339429,0.0340987294912,-0.449801653624,0.267151623964,-0.65150398016,0.000114518807095,0.000807400618214,0.180320978165,0.252647787333,0.568418998394,0.173625139069,0.44135072943,0.0143768161918,0.966022008,0.219794203904,0.135223129824
0.58540481329,-0.0691416114569,-0.288697004318,-1.9178019762,-0.0862550288439,2.11559772491,-0.0897644981742,0.0340987294912,-0.48994654417,0.297203063965,-0.707160532475,0.000158340204507,0.00121905351989,0.188245713711,0.241425067186,0.573267019268,0.161478983224,0.438616682807,0.0158610897251,0.968979973353,0.206963383155,0.134135732746
0.569570064545,-0.0589971579611,-0.310979455709,-1.91783225536,-0.0862319543958,2.12168836594,-0.0823062136769,0.0340987294912,-0.526967585087,0.348778486252,-0.749276041985,0.000353396026185,0.0006581164198,0.193173930049,0.231926381588,0.581273214535,0.139673444291,0.433298565842,0.01883541091,0.973757475688,0.184539083162,0.131859517356
0.559978961945,-0.0526085086167,-0.324809670448,-1.91792035103,-0.0861892998219,2.12524366379,-0.0782511979342,0.0341026708484,-0.538205981255,0.36468744278,-0.780214726925,-0.0102851651609,0.00116816384252,0.205223828554,0.224822402,0.585579553516,0.126507994043,0.429993464961,0.0207427512398,0.976326282568,0.171403815436,0.130297582427
0.551747083664,-0.0468846745789,-0.336661070585,-1.91812229156,-0.0861650779843,2.12847113609,-0.0750238522887,0.0341026708484,-0.552066624165,0.395051121712,-0.781464338303,-0.0121882334352,9.59349708864e-05,0.216672852635,0.207855910063,0.589038721455,0.115137678983,0.426995377223,0.0224848217888,0.978367850892,0.160259229771,0.128871098776
0.543955206871,-0.041434571147,-0.347820490599,-1.91836690903,-0.0861383453012,2.13169145584,-0.0721325725317,0.0341026708484,-0.560393095016,0.388707965612,-0.819206297398,-0.0271768644452,0.00303457165137,0.242794260383,0.19566655159,0.592947535387,0.101202318157,0.423341219118,0.0246691048197,0.980641801933,0.146806535172,0.127204294329
0.513410687447,-0.0210763327777,-0.390737205744,-1.92079031467,-0.0860042646527,2.14521121979,-0.0639786422253,0.0341026708484,-0.603102743626,0.385212749243,-0.839595496655,-0.0699594169855,0.00221749232151,0.26752153039,0.125426307321,0.601722278814,0.061813546204,0.413079514223,0.031094575211,0.985776044849,0.110691514474,0.122581014496
0.502474606037,-0.0142057947814,-0.405715733767,-1.92211449146,-0.0859496220946,2.15010309219,-0.0616149939597,0.0341026708484,-0.604220092297,0.376375347376,-0.80639141798,-0.0838722512126,0.00312498537824,0.280128329992,0.135679736733,0.60421121323,0.0465874321906,0.409186189503,0.0336191926088,0.987345137567,0.0971147926732,0.120780983408
0.492822408676,-0.00848150346428,-0.418904453516,-1.92361915112,-0.085860453546,2.15455913544,-0.0594170130789,0.0341026708484,-0.589935421944,0.351881802082,-0.812004387379,-0.09766998142,0.00583367142826,0.280012369156,0.135285690427,0.605980866974,0.033088422636,0.405811609154,0.0357957532457,0.98856560923,0.0850694455712,0.119247177854
0.480444043875,-0.0013110168511,-0.436396718025,-1.92588949203,-0.0856346040964,2.16053342819,-0.0567763336003,0.0341026708484,-0.601501941681,0.327318251133,-0.843545794487,-0.116415627301,0.0167189277709,0.279606640339,0.12059995532,0.607734421333,0.0153563074228,0.401478949757,0.0385999229822,0.989917169231,0.0693930651397,0.117297255792
0.462785929441,0.00790787022561,-0.460323542356,-1.92969989777,-0.0851534679532,2.16865301132,-0.0532112382352,0.0341026708484,-0.586100578308,0.27764737606,-0.778026163578,-0.133359357715,0.0179818179458,0.268357932568,0.126002818346,0.608995194949,-0.00945555594195,0.395587202286,0.0423770278462,0.991379737714,0.0475485037307,0.114496911101
0.45280906558,0.0123380171135,-0.473432838917,-1.93208491802,-0.0848014205694,2.17333817482,-0.0511730276048,0.0341026708484,-0.573453247547,0.24379992485,-0.767286777496,-0.146248728037,0.0221392549574,0.284033894539,0.109035216272,0.609153264352,-0.0232715438863,0.392615893145,0.044333127695,0.991952609254,0.0353451212065,0.113204756476
0.442822307348,0.0164361186326,-0.48652356863,-1.93473362923,-0.0843265578151,2.17825198174,-0.0492723099887,0.0341059528291,-0.548958539963,0.215213045478,-0.709978580475,-0.146878674626,0.0279258862138,0.258105605841,0.104487866163,0.608937409626,-0.0370836429585,0.389745460131,0.0461988247263,0.992358454155,0.0231777366086,0.112040882207
0.428316146135,0.0212144516408,-0.505215883255,-1.93870270252,-0.083635956049,2.18460607529,-0.0463810190558,0.0341059528291,-0.516036093235,0.14289945364,-0.672206878662,-0.147116571665,0.0195611454546,0.221511781216,0.109851785004,0.607809991155,-0.0569812061999,0.386082764701,0.0486706495481,0.992675562009,0.00553034750984,0.110434647726
0.423280060291,0.0225380752236,-0.511714994907,-1.94017183781,-0.0833509266376,2.18671298027,-0.0452997162938,0.0341059528291,-0.493059486151,0.122945919633,-0.63918274641,-0.141656696796,0.0292407665402,0.210320279002,0.0997189730406,0.60726420518,-0.0632148629507,0.385048594981,0.0493672162367,0.992706682478,-6.29914921809e-05,0.10998325443
0.402680963278,0.0253146514297,-0.538640916348,-1.94623732567,-0.081446506083,2.19453597069,-0.0401862487197,0.0341059528291,-0.395063102245,0.0212258305401,-0.546634674072,-0.113643281162,0.0548137463629,0.15427711606,0.130867496133,0.603547066612,-0.0922214376473,0.381555133761,0.0517195684847,0.992366318694,-0.0268401464746,0.108691223169
0.395792096853,0.0252542831004,-0.547933578491,-1.94812083244,-0.0805367901921,2.19712710381,-0.0378435328603,0.0341059528291,-0.359860271215,-0.0174745116383,-0.478882521391,-0.0903511717916,0.0495882444084,0.136744886637,0.117481969297,0.601987877776,-0.101817473545,0.381018623432,0.0521587152246,0.992035355799,-0.0361619460536,0.108800894426
0.389628112316,0.0248913280666,-0.556102573872,-1.94938802719,-0.0794472098351,2.1992893219,-0.0357291437685,0.0341059528291,-0.328370630741,-0.033245138824,-0.43735268712,-0.0505458824337,0.0733858346939,0.101759016514,0.116951882839,0.600549578295,-0.110279802254,0.380891024305,0.0523792725923,0.99164138624,-0.0445280590334,0.109183444511
0.37714150548,0.02178077586,-0.573653101921,-1.95022833347,-0.0765337496996,2.20309972763,-0.0290426444262,0.0341059528291,-0.216750830412,-0.0802842006087,-0.312525957823,0.00296312314458,0.0577152408659,0.0864786729217,0.154095262289,0.597391581752,-0.127981794047,0.382663168683,0.0520513337077,0.990349376649,-0.0634638164866,0.111674144388
0.370742172003,0.0176185723394,-0.582663714886,-1.94999909401,-0.0732862353325,2.20703220367,-0.0235200300813,0.0341092348099,-0.133179336786,-0.141887009144,-0.180802479386,0.00771276839077,0.102511331439,0.105758033693,0.158674389124,0.596030634662,-0.136949728015,0.385459168692,0.0506071055629,0.989194246472,-0.0747093471702,0.115551619445
0.367048203945,0.0109098386019,-0.587903618813,-1.94848072529,-0.0678881034255,2.21176719666,-0.0144727351144,0.0341092348099,-0.0236273761839,-0.143305659294,-0.0619531795382,0.06122963503,0.139381840825,0.0994764268398,0.211621522903,0.595886058129,-0.142026703778,0.390519103761,0.0470075170654,0.987692964114,-0.0854879124962,0.122248593015
0.366959869862,0.00815297197551,-0.588574528694,-1.94711887836,-0.0648899748921,2.21326136589,-0.0106535814703,0.0341092348099,0.00705657573417,-0.161264687777,-0.0151419984177,0.0881250426173,0.180103629827,0.0718264207244,0.211857289076,0.596284786617,-0.142215988864,0.392581378316,0.0452757732285,0.987213947547,-0.0882141882102,0.124807783504
0.367271840572,0.00569470459595,-0.588460683823,-1.94539511204,-0.0620847530663,2.21439766884,-0.00706544518471,0.0341092348099,0.0348968841136,-0.145764902234,0.0166144873947,0.126817524433,0.176201060414,0.0699895769358,0.230689302087,0.596915022912,-0.141804616676,0.394875342469,0.0434381383207,0.986734721878,-0.0905549528068,0.12754417666
0.368399649858,0.00298604159616,-0.587835371494,-1.94240176678,-0.0584805123508,2.21558690071,-0.00249408953823,0.0341092348099,0.0752107128501,-0.126204371452,0.0447660498321,0.1743735075,0.179162532091,0.05291056633,0.233578115702,0.59811345625,-0.140503731914,0.398141214776,0.0409995271591,0.98611469805,-0.0930381074227,0.131304041545
0.37366387248,-0.00329170236364,-0.58383333683,-1.9321526289,-0.0492824837565,2.21759533882,0.00873151887208,0.0341138318181,0.137870624661,-0.114510573447,0.122148543596,0.260573625565,0.192729994655,0.041426371783,0.219124481082,0.601973710763,-0.134680140097,0.406873614471,0.0350230378733,0.984717615751,-0.0963977178952,0.140755403908
0.376429498196,-0.00513559766114,-0.581505954266,-1.92715990543,-0.0455996990204,2.21840548515,0.0124604497105,0.0341138318181,0.168447718024,-0.0931909382343,0.139294579625,0.294959783554,0.214917778969,0.0372742377222,0.201955348253,0.603927903391,-0.131497377896,0.410598252128,0.0326827697251,0.984192438193,-0.0966874401053,0.144736380323
0.379601985216,-0.00662261433899,-0.579080998898,-1.92191410065,-0.0418636798859,2.21908140182,0.0157469045371,0.0341138318181,0.197331815958,-0.0877499133348,0.147655650973,0.325401902199,0.22513858974,0.0371357277036,0.19525718689,0.60596671787,-0.127986068045,0.414272032869,0.0303674808857,0.983708180296,-0.0965039248152,0.148603581096
0.383908420801,-0.00842945929617,-0.57590419054,-1.91442537308,-0.0372150242329,2.2199883461,0.0200551822782,0.0341138318181,0.208756282926,-0.0720958411694,0.155517160892,0.377677500248,0.205925032496,0.0411159396172,0.212838813663,0.608599912162,-0.12355014552,0.419123681465,0.0275725202531,0.983054110618,-0.0961373528447,0.153629361807
0.388141661882,-0.00979733746499,-0.572516620159,-1.90656673908,-0.0331509485841,2.22083711624,0.0244747009128,0.0341138318181,0.211272567511,-0.0703311339021,0.184250324965,0.410381764174,0.210029706359,0.0386136472225,0.231445163488,0.611537134171,-0.118609745458,0.424468224326,0.0247972141315,0.982318460671,-0.0955450828623,0.159080724267
