imanlab/tactile_prediction_flat_dataset/train/data_sample_2021-11-24-16-18-59/robot_state.csv
position_panda_joint1,position_panda_joint2,position_panda_joint3,position_panda_joint4,position_panda_joint5,position_panda_joint6,position_panda_joint7,position_panda_finger,velocity_panda_joint1,velocity_panda_joint2,velocity_panda_joint3,velocity_panda_joint4,velocity_panda_joint5,velocity_panda_joint6,velocity_panda_joint7,ee_state_position_x,ee_state_position_y,ee_state_position_z,ee_state_orientation_x,ee_state_orientation_y,ee_state_orientation_z,ee_state_orientation_w
0.157631918788,0.130777835846,-0.148325949907,-2.5111105442,0.0129629708827,2.64021754265,-0.642102003098,0.0778931453824,-0.000343148829415,0.000229220051551,-0.00110347394366,0.000175819091965,5.51316079509e-05,2.92544482363e-05,0.000340322294505,0.467368742163,0.00118315253379,0.119578631785,0.00617733376765,0.949012788486,0.315170095099,-0.00209252999703
0.157639473677,0.130774483085,-0.148321464658,-2.51109695435,0.0129630286247,2.64021849632,-0.642104029655,0.0778931453824,0.000589518807828,0.000254957238212,0.00139857747126,-0.000145430676639,1.04038535937e-05,5.06375617988e-05,7.37648861104e-06,0.467376637174,0.00118916438663,0.119584906343,0.00617953846768,0.949010565025,0.315176804267,-0.00208387032602
0.157645761967,0.130771368742,-0.148312821984,-2.51108932495,0.0129630044103,2.64022064209,-0.642101943493,0.0778931453824,0.000775284948759,-5.31394289283e-05,0.000911509385332,0.000586034380831,0.000122092824313,-0.000145209633047,-0.000688435568009,0.467381645285,0.00119654392906,0.119589081965,0.00618076114831,0.94900853986,0.315182919864,-0.00207754154814
0.157652258873,0.130777642131,-0.148295253515,-2.51108050346,0.0129632120952,2.64022111893,-0.642103672028,0.0778931453824,-0.0003976742737,-7.83758514444e-05,0.000271216209512,-0.000142479242641,-4.52129506812e-06,1.83056854439e-05,6.35593169136e-05,0.467384874434,0.00120810736907,0.119589102613,0.00618051874809,0.949004506849,0.315195078217,-0.00207593953396
0.157653093338,0.13077814877,-0.148187324405,-2.51106572151,0.0129634933546,2.64022159576,-0.642106235027,0.0778931453824,-0.000199235466425,0.00052583264187,0.00130683917087,0.000206319440622,5.32071462658e-05,0.000138924704515,-0.000175417080754,0.4673918957,0.00126164870925,0.119592990759,0.00617590910736,0.948987155468,0.315247462007,-0.00206743565397
0.157651782036,0.130773603916,-0.148126125336,-2.51105999947,0.0129631944001,2.64022350311,-0.642103135586,0.0778931453824,7.7024269558e-05,-9.74713912001e-05,0.00493658473715,0.000736745190807,6.76930067129e-05,3.92403635487e-05,9.3946015113e-05,0.467395880996,0.00129129311485,0.119596654569,0.00617364709241,0.948978261161,0.315274323305,-0.00206074694996
0.157652884722,0.130772054195,-0.148061454296,-2.51105093956,0.0129630751908,2.64022445679,-0.642102062702,0.0778931453824,-0.000351409194991,-0.000213100429391,0.00568746123463,-4.05932405556e-06,-5.39435641258e-05,-0.000113537003926,-4.19508105551e-05,0.467400724004,0.00132371504981,0.119599969634,0.00617123992865,0.948968139634,0.315304876505,-0.00205433628654
0.157649576664,0.130775138736,-0.147758990526,-2.51103448868,0.012963459827,2.64022660255,-0.642103850842,0.0778931453824,-0.00012158354366,0.00070969236549,0.0104797622189,-0.000286100374069,0.00013981302618,-2.56535076915e-05,0.000239911474637,0.467407297433,0.00147075894415,0.119601565386,0.00615459240581,0.948921219886,0.315446454786,-0.00204286415511
0.157655417919,0.130774885416,-0.147582754493,-2.51102972031,0.0129636600614,2.64022636414,-0.642103254795,0.0778931453824,0.000444706878625,-0.000785837124567,0.00925123784691,0.00189475819934,-5.69949406781e-05,9.52367045102e-05,0.000250154378591,0.467408715669,0.00156007638526,0.11960165318,0.00614410377985,0.948892914905,0.3155318236,-0.00203814061732
0.157658353448,0.130773946643,-0.147416219115,-2.51102566719,0.0129635911435,2.64022660255,-0.642102241516,0.0778931453824,0.000424761528848,0.000449359213235,0.00982842221856,0.000389535882277,4.7383884521e-05,-1.22494366224e-05,-0.000272088072961,0.467410060528,0.00164328123219,0.119601945782,0.00613430962294,0.948866604954,0.315611155391,-0.00203335441053
0.157658338547,0.130775406957,-0.147186145186,-2.51101851463,0.0129645848647,2.640229702,-0.642102539539,0.0778931453824,-0.000596267462242,0.000754069769755,0.011767687276,0.00149872223847,1.17296558528e-05,-5.37544146937e-05,-7.37933587516e-05,0.46741272957,0.001756290852,0.119601858181,0.00612097380986,0.948830762749,0.315719198709,-0.00202598051484
0.15766787529,0.130774319172,-0.146851420403,-2.5110168457,0.0129629615694,2.64022874832,-0.642103374004,0.0778931453824,0.000106206862256,0.000208841418498,0.00849663373083,0.000173888780409,-2.32190468523e-05,-4.59332404716e-05,-0.000257131818216,0.467411520299,0.00192507693821,0.119599728685,0.00610034698724,0.948776620183,0.315882300063,-0.00202063297704
0.157674431801,0.13077776134,-0.146692976356,-2.51101779938,0.0129626095295,2.64022827148,-0.642101287842,0.0778931453824,0.000262004352408,0.000128574843984,0.00937105435878,5.43532587471e-06,-4.50299885415e-05,4.65526245534e-05,3.79703010367e-06,0.46740918433,0.00200578398068,0.11959629176,0.00608990113657,0.948751106786,0.315959121299,-0.00202084973697
0.157685384154,0.130777031183,-0.146545797586,-2.5110168457,0.0129631441087,2.64022803307,-0.642102897167,0.0778931453824,-0.000194706168259,0.0003310124157,0.010681387037,0.00022913061548,-2.21308782784e-05,8.63316163304e-05,-0.00024710939033,0.467408814227,0.00208320495541,0.119595566728,0.00608063582309,0.94872619556,0.316034110204,-0.00201806901793
0.157701820135,0.13077288866,-0.146399319172,-2.51101303101,0.0129626989365,2.64022922516,-0.642102599144,0.0778924897313,0.00151622213889,6.19599377387e-05,0.00338876550086,-1.01068771983e-05,6.91701961841e-06,0.000105957857159,0.000205077289138,0.467410933489,0.00216297131588,0.119597538508,0.00607258371388,0.948700683296,0.316110882894,-0.00201162757951
0.157752543688,0.130778968334,-0.146137565374,-2.51101326942,0.0129627175629,2.64023089409,-0.642103016376,0.0778924897313,0.00181959115434,0.000239780667471,0.00406592898071,-0.000247309246333,-7.8523546108e-05,1.42384969877e-05,2.44365892286e-05,0.467408055828,0.00231497131282,0.119592364058,0.00605578379876,0.948651659705,0.316258303797,-0.00201022115518
0.157764673233,0.130776420236,-0.146078258753,-2.51101565361,0.0129635212943,2.64023089409,-0.642104208469,0.0778924897313,0.000471969455248,9.74689755822e-05,0.00249346089549,1.3342631064e-05,-8.09207340353e-05,0.000114980939543,0.000339263235219,0.467407039271,0.00235172231882,0.119592038004,0.00605162745489,0.948639789528,0.316293994356,-0.00200906747309
0.157776400447,0.130776211619,-0.146028086543,-2.51101732254,0.0129627715796,2.640229702,-0.642103552818,0.0778924897313,-0.000423801364377,-0.000863922585268,0.00201508146711,-1.38406667247e-05,7.25782228983e-05,2.67955601885e-05,-0.000268092902843,0.467405494772,0.00237990388551,0.119591120057,0.00604828313241,0.948630697533,0.316321321456,-0.00200978845354
0.157784312963,0.130769997835,-0.145995363593,-2.51101326942,0.0129638621584,2.64023184776,-0.642103433609,0.0778924897313,0.00128618872259,-0.000370758818462,0.00200846139342,0.00011264965724,7.79890615377e-05,1.70826092472e-06,0.000404538557632,0.467409401144,0.00240095347458,0.119595605685,0.00604738999661,0.94862422989,0.316340779021,-0.00200268767165
0.157792970538,0.130770266056,-0.145961642265,-2.51100993156,0.0129636107013,2.64023447037,-0.642103970051,0.0778931453824,0.000148922103108,-9.11803217605e-05,0.000800309528131,-0.000175361928996,2.26775609917e-05,-4.28827879659e-05,0.000288134731818,0.467411117524,0.00242059438741,0.11959621831,0.00604626012598,0.948617722401,0.316360330904,-0.00200005098063
0.157795280218,0.130776941776,-0.145953699946,-2.5110104084,0.0129636023194,2.64023375511,-0.642105102539,0.0778931453824,-0.000181778013939,-0.000134988120408,-0.000186060642591,-3.11358526233e-05,-9.123361815e-05,-9.49063687585e-05,0.000453865883173,0.467409248485,0.0024253413497,0.119592833316,0.00604502989242,0.948615925953,0.316365717358,-0.00200379918892
0.15779209137,0.130781531334,-0.14594873786,-2.51101303101,0.0129631729797,2.64023375511,-0.64210319519,0.0778931453824,0.000164630488143,-0.000480799557408,-6.01104693487e-05,-0.000760677969083,7.13978952263e-05,-2.84812704194e-05,0.000156342051923,0.467406902001,0.00242608593802,0.119589763054,0.00604403846697,0.94861589393,0.316365810241,-0.00200728201274
0.157793670893,0.130779653788,-0.145944580436,-2.51101469994,0.0129638081416,2.64023327827,-0.64210242033,0.0778931453824,-0.000143072524224,6.05648237979e-05,-0.000393886963138,-0.000191078594071,8.21100402391e-05,2.30051937251e-05,-0.000230617108173,0.467406300024,0.00242892300881,0.11958997438,0.00604345793494,0.948615211687,0.316367867134,-0.00200726350827
0.157807573676,0.130779474974,-0.145913079381,-2.51100564003,0.0129634942859,2.64023590088,-0.642103254795,0.0778931453824,-0.000313214288326,0.00125338358339,0.00159338081721,0.00193177256733,3.45815715264e-05,-0.000187198966159,8.03726288723e-05,0.467411339285,0.00245100681977,0.119593119441,0.00604335131177,0.948607887326,0.316389868697,-0.00200117049121
0.157805681229,0.130784407258,-0.145908504725,-2.51100468636,0.0129641285166,2.64023685455,-0.642102897167,0.0778931453824,0.000239570406848,0.000468185840873,0.0014870146988,0.000259913300397,-5.63682624488e-05,1.48523372445e-06,0.000371626607375,0.467410974224,0.00245223451012,0.119591210876,0.00604280799178,0.948607606312,0.316390712638,-0.00200258915341
0.157806128263,0.13078533113,-0.145904973149,-2.51100730896,0.0129635669291,2.64023828506,-0.642102837563,0.0778931453824,-7.06657083356e-05,-0.000174624568899,0.000638787576463,-0.000610678864177,-2.47297230089e-05,-9.91213346424e-06,0.000435650232248,0.467409714365,0.00245409760652,0.119589973276,0.00604246356072,0.948606916035,0.316392782349,-0.0020036093818
0.157811194658,0.130771324039,-0.145886451006,-2.51100039482,0.0129639441147,2.64024043083,-0.642103791237,0.0778931453824,-4.35110268882e-05,0.000799042230938,0.00146456249058,-1.07160276457e-05,6.23747764621e-05,-4.16158900407e-06,7.86787713878e-05,0.467416564984,0.00246641071691,0.119598847221,0.00604365956757,0.94860315271,0.316404115387,-0.00199206009681
0.157813355327,0.130770638585,-0.145874679089,-2.51099729538,0.0129632689059,2.64024066925,-0.642103791237,0.0778931453824,9.75422153715e-05,0.000711776548997,0.00101897038985,-0.000483663810883,-0.000125035250676,-3.53172545147e-05,0.000130578642711,0.467418275903,0.00247296856533,0.119600142696,0.00604371583814,0.948600839018,0.316411063485,-0.00199005177617
0.157808870077,0.130774050951,-0.14585223794,-2.51100611687,0.0129642300308,2.64023900032,-0.642102062702,0.0778931453824,0.000196183333173,0.000619407510385,0.00164395547472,-0.000709731946699,-8.06650859886e-05,-0.000133990077302,0.000172463463969,0.467413515012,0.00248025643265,0.119596166059,0.00604083028404,0.948598824159,0.316417126926,-0.00199515693071
0.157808512449,0.130776271224,-0.145824179053,-2.51100873947,0.012964152731,2.64023900032,-0.642104685307,0.0778931453824,-0.00037100125337,-0.000240791356191,0.00330481096171,-0.000467688747449,-6.90789283908e-06,0.00010371877579,7.84790827311e-05,0.467410484747,0.00249517637489,0.119592980241,0.00603784936148,0.948593700758,0.316432523005,-0.00199833210094
0.15780928731,0.130774393678,-0.14578795433,-2.51100420952,0.0129631580785,2.64023828506,-0.642101764679,0.0778931453824,0.000812386570033,0.000219361769268,0.0014280845644,0.00337415165268,-4.88767473144e-05,0.000225325624342,-0.000218035653234,0.46741289639,0.00251432999563,0.119595021815,0.00603648218166,0.948587881462,0.316450013892,-0.00199509970144
0.157814353704,0.130771577358,-0.14573314786,-2.51100254059,0.0129644572735,2.64024019241,-0.64210319519,0.0778931453824,-0.00052014621906,0.000300620013149,0.000326508976286,0.000257309380686,2.82922537735e-05,0.000115918657684,-9.60748220677e-05,0.467414293587,0.00254284492603,0.119596548245,0.00603353498755,0.948578801355,0.316477311742,-0.00199120993169
0.157813251019,0.130772292614,-0.145706549287,-2.51099872589,0.0129654463381,2.64024019241,-0.642104148865,0.0778931453824,-0.000467127771117,-0.000195744622033,0.000813901773654,0.000263942434685,8.57449995237e-05,-9.66907609836e-05,-0.000344761792803,0.467415930489,0.00255544182906,0.119597286533,0.00603214458482,0.948574791819,0.316489367731,-0.00198931146255
0.157810777426,0.130776122212,-0.145680129528,-2.51099967957,0.0129641778767,2.64023971558,-0.642102777958,0.0778924897313,0.000183188531082,-0.00325976521708,0.0036233200226,-0.000425354635809,6.05112109042e-05,-1.58979164553e-05,3.96992945753e-05,0.467414234263,0.00256764284802,0.119594747889,0.00603010349287,0.948570877441,0.316501122469,-0.00199185554456
0.157813251019,0.130781248212,-0.145652160048,-2.51099801064,0.0129644973204,2.64024090767,-0.642105400562,0.0778924897313,0.000122846613522,-0.000479960785015,0.000384129409213,0.000411207729485,9.41794642131e-05,-1.93862142623e-05,0.00023007337586,0.467414027357,0.00258093027389,0.119592864094,0.0060284692588,0.94856617662,0.316515236858,-0.00199265085033
0.15781763196,0.130779147148,-0.145573586226,-2.51099896431,0.012964900583,2.64024019241,-0.642103552818,0.0778924897313,0.000111422144982,-4.05244609283e-05,-1.30404887386e-05,0.000398672156734,-2.15664636016e-06,9.02547908481e-05,-0.000419293704908,0.467413428712,0.002622513528,0.11959280828,0.00602325556471,0.948553292506,0.316553956223,-0.00199101895042
0.157819092274,0.130771070719,-0.145486265421,-2.5110001564,0.0129638426006,2.64024305344,-0.642104446888,0.0778924897313,0.000287891947664,-0.000500846304931,0.00290397857316,0.000241434783675,-1.3168818441e-05,1.99235601031e-05,-0.000426266517024,0.467414527616,0.00266629199383,0.119595574162,0.00601889538565,0.948539110951,0.316596567931,-0.0019851343506
0.157817780972,0.130770087242,-0.145420044661,-2.51099467278,0.012966231443,2.64024376869,-0.642100036144,0.0778924897313,-0.000187638215721,-0.000783512950875,0.00261515425518,-0.000284504698357,5.84033805353e-05,-1.72868033133e-06,0.000259071122855,0.467417258775,0.00269836268473,0.119597369712,0.00601518698806,0.948529972545,0.316624044619,-0.00198059762521
0.157819896936,0.130774453282,-0.14534959197,-2.51100444794,0.0129642505199,2.64024209976,-0.642102837563,0.0778924897313,0.000610492832493,0.000825923983939,0.000248351396294,-0.000441410898929,-6.66231135256e-05,1.4968763935e-05,0.000184845019248,0.467410425571,0.00273359996065,0.11959118601,0.00600907053865,0.948517897551,0.316660289658,-0.00198739505852
0.157813832164,0.130774527788,-0.145283982158,-2.5110001564,0.0129647646099,2.64024233818,-0.642105162144,0.0778924897313,0.00143301312346,0.000523610040545,0.00391052151099,0.000709535204805,-7.076305792e-06,-1.85140124813e-05,0.000276558712358,0.467412227468,0.0027630439514,0.11959204663,0.00600547278825,0.948508277408,0.316689191438,-0.00198436381518
0.157815858722,0.130775541067,-0.145221173763,-2.51099085808,0.0129665248096,2.64024591446,-0.642103493214,0.0778924897313,0.000141513897688,-0.000420225755079,0.00404572300613,0.000353631709004,-5.17500529895e-06,7.64463184169e-05,0.000239196815528,0.467417141626,0.00279497222298,0.119594519004,0.00600298895325,0.948498606589,0.316718243385,-0.00197773077604
0.157816499472,0.130773887038,-0.144937127829,-2.51099300385,0.0129657611251,2.64024448395,-0.642103075981,0.0778924897313,-0.000239606306423,-0.000224326358875,0.00920329894871,0.00251909974031,-1.67703110492e-05,3.43764440913e-05,2.64690588665e-05,0.467414018827,0.00293471416876,0.119591801704,0.00598475717902,0.948453969301,0.316852253694,-0.00197479534218
0.157816559076,0.130775228143,-0.144784539938,-2.51099085808,0.0129674365744,2.6402451992,-0.642102777958,0.0778924897313,-0.00013403785124,-0.000227531301789,0.00890418235213,-0.000368638167856,-9.47182627442e-07,-0.000486281089252,-0.000432164291851,0.467414067692,0.00300519761188,0.119590735686,0.00597574804769,0.948431764225,0.316918901625,-0.00197193462687
0.157815054059,0.130775973201,-0.144592657685,-2.51099705696,0.0129677355289,2.64024448395,-0.642103254795,0.0778924897313,-0.00021730644221,0.000388497923268,0.00966404564679,3.38978861691e-05,9.69517132035e-05,-9.90965236269e-06,-0.00017015611229,0.467408954273,0.00310306960555,0.119586273873,0.00596170260336,0.948400456849,0.317012837106,-0.00197290376399
0.157814010978,0.130775257945,-0.144256383181,-2.51099491119,0.0129660172388,2.64024543762,-0.642104268074,0.0778924897313,4.08854721172e-05,-0.000308991468046,0.0139967119321,0.000471029488835,-8.24441449367e-05,9.23670013435e-05,-0.000360080768587,0.46740789178,0.00326766720176,0.119584345385,0.00594132524195,0.948347478433,0.317171708818,-0.00196662602341
0.157821580768,0.130775272846,-0.143974885345,-2.51099133492,0.0129674952477,2.6402451992,-0.6421007514,0.0778924897313,0.000355432217475,0.000402068777476,0.0135718714446,-0.000273181911325,6.65653351462e-05,3.10133655148e-05,-0.000109619104478,0.467407493359,0.00340948406857,0.119582974388,0.00592367306468,0.948302868638,0.317305426041,-0.00196105184513
0.157826900482,0.130775108933,-0.143801152706,-2.51099348068,0.0129656679928,2.64024472237,-0.642104208469,0.0778924897313,0.000315579294693,-0.000113716399937,0.0124754393473,0.000286490423605,-1.2899927242e-05,-5.66284734305e-06,0.000273341371212,0.467404994466,0.00350414598324,0.11958072108,0.00591190380176,0.948271708767,0.317398764001,-0.00195960306458
0.157839119434,0.130774304271,-0.143543884158,-2.51099228859,0.0129673564807,2.64024472237,-0.642104446888,0.0778924897313,0.000874890072737,0.000531012832653,0.0171366035938,0.000261580687948,-2.39501014221e-06,0.000100268996903,0.000229741810472,0.467403650058,0.00362927374476,0.119579117684,0.00589627819655,0.948231819857,0.317518229464,-0.00195534157815
0.1580042243,0.130772948265,-0.142871886492,-2.51099896431,0.0129662854597,2.64024496078,-0.642102718353,0.0778931453824,0.00876836664975,-0.00328433187678,0.0114962765947,-0.000111885165097,-2.02783994609e-05,-0.000126162354718,-0.00011668663501,0.467394415931,0.00403624054276,0.119571354779,0.00585325790764,0.948100130536,0.317912073061,-0.00194816312405
0.158139407635,0.130771532655,-0.142684027553,-2.51099681854,0.0129668358713,2.64024496078,-0.642102897167,0.0778931453824,0.00790281221271,4.36278351117e-05,0.0107676843181,-4.39894974988e-05,5.12400984007e-05,-5.45316615899e-05,0.00045413672342,0.467393794806,0.0041824250316,0.119571216729,0.00584246741926,0.948052153068,0.318055345224,-0.00194363064035
0.158306241035,0.130770474672,-0.14249676466,-2.51099395752,0.0129654379562,2.64024496078,-0.642102360725,0.0778931453824,0.00716699194163,0.000147374521475,0.00769358500838,9.80020486168e-05,1.51804097186e-05,5.77814862481e-05,0.000231257246924,0.467393046742,0.00436167799021,0.119570826444,0.0058309431815,0.947993015491,0.318231808769,-0.00193862304387
0.158470466733,0.130772337317,-0.142303690314,-2.51099157333,0.012965596281,2.64024496078,-0.642103791237,0.0778931453824,0.00697908177972,0.00352994911373,0.00888721738011,-0.000537710089702,0.000125524864416,-4.51316627732e-05,0.000117169176519,0.467390965196,0.0045420001572,0.119568530899,0.00581827062906,0.947933358256,0.318409718923,-0.0019356175465
0.158881098032,0.130787447095,-0.141905367374,-2.51099300385,0.0129653429613,2.64024448395,-0.642103075981,0.0778931453824,0.00484924903139,-0.000436321599409,0.00559143535793,0.000237573141931,-9.43041377468e-05,-4.61881936644e-05,0.000188099162187,0.467381868711,0.0049201031091,0.119557928405,0.00579272697463,0.947808146307,0.318782699742,-0.00193704485507
0.159038171172,0.130784034729,-0.141801387072,-2.51099157333,0.0129659185186,2.64024496078,-0.642104566097,0.0778931453824,0.00835241284221,-0.000420022784965,0.00513561489061,-0.000134363319376,9.94992005872e-05,-3.47341701854e-05,-0.00012469093781,0.467381675882,0.00504471284131,0.119559104233,0.00578673017139,0.947766552151,0.318906477427,-0.00193254276238
0.15921831131,0.130775481462,-0.141666173935,-2.51099443436,0.0129672372714,2.64024496078,-0.642104744911,0.0778931453824,0.0109857106581,-0.000764058844652,0.00349704222754,0.000258747371845,6.06744797551e-05,-8.00923735369e-05,-0.000470087077701,0.467379796871,0.00519555991118,0.119560854839,0.00577831119451,0.947716663465,0.319054889322,-0.00192722570649
0.159666180611,0.130775392056,-0.141332164407,-2.51099491119,0.0129657974467,2.64024472237,-0.642103493214,0.0778931453824,0.00808060914278,0.00012300243543,0.00711961369962,-0.000756312918384,-0.000217165783397,7.48360835132e-05,-3.40727638104e-05,0.467373848931,0.00556879185495,0.119557710732,0.00575780796596,0.947592430311,0.319424075572,-0.00192179586597
0.159823834896,0.130779147148,-0.141222789884,-2.51099896431,0.0129660116509,2.64024472237,-0.642103254795,0.0778931453824,0.00844556093216,-8.16917327029e-06,0.00539686065167,-0.000358294084435,-9.65612125583e-05,-5.67873357795e-05,0.000212261045817,0.467368983372,0.00569597431001,0.119553596384,0.00575006253568,0.947550032589,0.319549952096,-0.00192362297698
0.15999160707,0.130777657032,-0.141128972173,-2.51099467278,0.0129662388936,2.64024472237,-0.642104685307,0.0778931453824,0.0106560504064,0.000380070676329,0.00756549835205,0.000455171393696,-2.3125550797e-05,4.76504101243e-05,0.000278870487818,0.467369866716,0.00583189788535,0.119555268185,0.00574457982739,0.947504408951,0.319685336454,-0.00191837574596
0.160659909248,0.130777701735,-0.140893653035,-2.51099252701,0.0129659734666,2.64024496078,-0.642104744911,0.0778931453824,0.0145838595927,-0.000250523968134,0.00304191885516,-5.64908841625e-05,-0.0001632138883,-5.70571828575e-05,3.81814134016e-05,0.467364257555,0.00624844291127,0.119553557022,0.00573113998231,0.94736401063,0.320101430844,-0.00191286648362
0.160884067416,0.130775332451,-0.140832304955,-2.51099395752,0.012966927141,2.6402451992,-0.642103552818,0.0778931453824,0.0128124291077,-0.000593852077145,0.00145883799996,-0.000548912445083,4.66844721814e-05,-9.98244013317e-06,0.000129835127154,0.467361997381,0.00638340262401,0.11955363133,0.00572726816233,0.947318742707,0.320235455516,-0.00191071592421
0.161072060466,0.130776077509,-0.140771076083,-2.51099514961,0.0129665359855,2.64024543762,-0.642103075981,0.0778931453824,0.0159675199538,-0.000195353029994,0.00281200627796,0.000245929753873,4.05724858865e-06,-6.98434496371e-06,-0.000628044130281,0.467359402331,0.00650126066413,0.11955234968,0.00572345435169,0.947278957496,0.320353195055,-0.00191019952848
0.161336377263,0.130778312683,-0.140665575862,-2.51099300385,0.0129660312086,2.6402451992,-0.642102897167,0.0778931453824,0.0107210269198,0.000720374926459,0.00489840330556,0.000444413395599,1.84905293281e-05,-0.000119738360809,0.000631715287454,0.467357122725,0.00668416747842,0.119551134788,0.00571694192981,0.947217277113,0.320535653876,-0.00190808735986
0.161668553948,0.130777224898,-0.140552476048,-2.51099157333,0.0129661653191,2.64024591446,-0.642104506493,0.0778931453824,0.0116518130526,-0.00047306981287,0.00106712628622,2.64057398454e-05,-0.000134625472128,-7.3558963777e-05,-0.000220304340473,0.46735468858,0.0068873483732,0.119551141842,0.00571076914108,0.947148404371,0.320739241318,-0.00190420077482
0.161875277758,0.130777955055,-0.140493258834,-2.51099395752,0.0129659771919,2.64024734497,-0.642102897167,0.0778931453824,0.0108821457252,0.000335942313541,0.000742106232792,-0.000129778578412,9.20678357943e-05,3.29784888891e-05,0.00248302123509,0.467351507754,0.0070129591748,0.119549579964,0.00570706251812,0.947106082482,0.320864260735,-0.0019036370269
0.162080869079,0.130775943398,-0.140440002084,-2.51099419594,0.0129667026922,2.64024543762,-0.642104029655,0.0778931453824,0.0113456705585,-0.000349579640897,0.00405947398394,-0.000204367752303,6.91839086358e-05,-7.61962883189e-06,0.0002240157919,0.467349323648,0.0071352609629,0.119549784916,0.00570355022512,0.947064564899,0.320986853855,-0.00190230597721
0.162307217717,0.130775585771,-0.140393614769,-2.51099276543,0.012966291979,2.64024591446,-0.642104566097,0.0778931453824,0.012249504216,0.000375257746782,0.00187756703235,0.000297001068247,-3.32281306328e-05,-5.05409079778e-05,9.44050188991e-05,0.467348116248,0.00727115026662,0.119550136359,0.00570117932507,0.947018193641,0.321123696206,-0.00189970797653
0.162697911263,0.130776166916,-0.140323519707,-2.51099348068,0.0129654528573,2.64024567604,-0.642103910446,0.0778931453824,0.00787859037519,0.000828889664263,0.0040427534841,0.000471188308438,-1.10377304736e-05,5.68514224142e-05,2.8023017876e-05,0.467343820646,0.00748077704598,0.119548911349,0.00569716442915,0.946946814964,0.321334197491,-0.00189872545128
0.16284494102,0.130777969956,-0.140275985003,-2.51099610329,0.0129665127024,2.64024782181,-0.642103910446,0.0778931453824,0.00856189057231,0.000374090421246,0.00338126323186,9.38251378102e-06,-1.40893662319e-05,-3.83026781492e-05,-7.11491084076e-05,0.467340881608,0.00757274813351,0.119546938602,0.00569384278697,0.946915783366,0.321425689666,-0.00189870420893
0.162964686751,0.130775257945,-0.140215903521,-2.51099729538,0.0129657834768,2.64024662971,-0.642104923725,0.0778931453824,0.0029904677067,-0.000253468228038,0.00437051290646,-0.000367036147509,-4.17649562223e-06,-0.000220948058995,0.000159970644745,0.467338940261,0.00765824577832,0.119547142071,0.00569017269647,0.946886722776,0.321511361681,-0.00189740960941
0.163030952215,0.130775615573,-0.14014954865,-2.51099658012,0.012966147624,2.64024782181,-0.642104506493,0.0778931453824,0.00530826440081,5.657955262e-05,0.00294630415738,-0.000103791571746,9.35340940487e-05,8.49665666465e-05,-0.000259567867033,0.467338277982,0.0077261683246,0.119546830456,0.00568606658455,0.94686410303,0.321578056999,-0.00189525334281
0.163150310516,0.130773633718,-0.140074729919,-2.5109937191,0.012964066118,2.6402451992,-0.642103791237,0.0778931453824,0.00705773103982,-0.0018581005279,0.00318061374128,0.000123243196867,-0.000106441184471,-3.44037403011e-06,8.00351845101e-05,0.467337657873,0.00781435423659,0.119547744517,0.0056822384051,0.946834352643,0.321665720902,-0.00189327928937
0.163228988647,0.130777731538,-0.139995783567,-2.5109910965,0.0129648959264,2.64024543762,-0.642104446888,0.0778931453824,0.0015550267417,-0.000323035696056,0.000226919873967,-0.000359342637239,4.90212732984e-05,-5.03320588905e-05,-0.000531544152182,0.467336610243,0.00788980275616,0.11954607252,0.00567721259412,0.946809135978,0.321740030292,-0.00189258605399
0.163243472576,0.130782574415,-0.139966011047,-2.51099491119,0.0129676880315,2.64024591446,-0.642104685307,0.0778931453824,8.60446307342e-05,-4.12856097682e-05,0.000361315935152,-0.000348451489117,2.86459999188e-06,-9.12040377443e-06,-0.00198136316612,0.467333365697,0.00791031720987,0.119542348754,0.00567385154898,0.946802686643,0.321759048781,-0.00189583521478
0.163251310587,0.130784526467,-0.139959976077,-2.51099729538,0.0129653997719,2.64024806023,-0.64210575819,0.0778931453824,0.000207789271371,-0.000139703362947,-0.000285096582957,0.000155082540005,0.000122142577311,0.000165706907865,-0.00031167009729,0.467331936343,0.00791748085733,0.119540706007,0.00567377273524,0.946799706545,0.321767811958,-0.00189706755269
0.163250699639,0.130780503154,-0.139956429601,-2.51099634171,0.0129661513492,2.64025759697,-0.64210921526,0.0778931453824,-0.000900054350495,-0.000129446809296,-6.71620800858e-05,0.00025104964152,-0.000156758746016,-0.000272068631602,0.000127622275613,0.467335324696,0.0079191520899,0.119543702371,0.00567531947037,0.94679878605,0.321770534811,-0.00188999956869
0.163256168365,0.130770340562,-0.139954939485,-2.51099276543,0.0129677476361,2.64026856422,-0.642108440399,0.0778938010335,0.000354628573405,-0.000529165437911,0.000624345499091,-0.000425141042797,-0.000104602077045,0.000179252092494,3.4547640098e-05,0.467341649181,0.00792294720117,0.119550585575,0.00567792884157,0.946798018004,0.32177281953,-0.0018779053466
0.163260087371,0.130773618817,-0.139951840043,-2.51099324226,0.0129678361118,2.64027404785,-0.642110466957,0.0778938010335,-0.000143895318615,0.00352151901461,0.000252418132732,-0.000377899588784,3.18635502481e-05,-0.000208191908314,-5.59760846954e-05,0.467341844056,0.00792620121911,0.119549360169,0.00567822280123,0.946796571872,0.321777074235,-0.00187708864827
0.163263991475,0.130775302649,-0.139949038625,-2.51099586487,0.0129679935053,2.64027714729,-0.642110824585,0.0778938010335,-0.000424602883868,0.000927474175114,-0.00011096221715,1.4030127204e-05,3.73430848413e-05,-3.08338458126e-05,-0.000393761496525,0.467340749485,0.0079293093169,0.119547925228,0.00567796294659,0.94679546248,0.321780339877,-0.00187763701574
0.163265109062,0.13078135252,-0.139945045114,-2.51099681854,0.0129681266844,2.64028072357,-0.642110049725,0.0778938010335,0.000181603376404,0.000873917830177,-0.000363538711099,-0.000147479076986,-3.27305970131e-05,2.15913842112e-05,-0.000114877759188,0.467339708045,0.00793158152827,0.119545078047,0.00567759713574,0.946794780699,0.321782342629,-0.0018793063483
0.16327047348,0.130779013038,-0.139941230416,-2.51099443436,0.0129675362259,2.64028477669,-0.642109692097,0.0778938010335,0.00053988880245,0.000363592174836,0.000422191864345,0.000279126543319,-0.000154220222612,0.000224944364163,-0.000239207103732,0.467342228621,0.00793608647163,0.119547304629,0.00567866917022,0.946793278659,0.321786767939,-0.00187506527881
0.163274183869,0.130776792765,-0.139934256673,-2.51099181175,0.0129677793011,2.64028811455,-0.642111539841,0.0778938010335,0.00128920015413,0.000365413259715,0.00168766279239,-0.000238380132942,-0.00010018505418,0.000683016027324,-0.000173484426341,0.46734466407,0.00794138993388,0.11954946702,0.00567926272731,0.946791303831,0.321792591528,-0.00187101365347
0.163277477026,0.130777060986,-0.139932125807,-2.51098966599,0.0129675948992,2.64028954506,-0.642112195492,0.0778938010335,-8.83926713868e-06,0.000132402667077,-1.7540751287e-05,-7.7372053056e-05,-6.38150277155e-06,0.000131463399157,-6.62688325974e-05,0.467345975243,0.00794400659727,0.119550189674,0.00567969161058,0.946790297165,0.321795555057,-0.0018694198352
0.163279414177,0.13077698648,-0.139933079481,-2.51099348068,0.0129667762667,2.64029192924,-0.642112076283,0.0778938010335,4.79950176668e-05,8.44243550091e-05,-0.000197926608962,-0.000267475639703,6.28107518423e-05,1.95264474314e-05,0.000213911538594,0.46734454186,0.00794436061566,0.119549127637,0.0056797459258,0.946790045009,0.321796291814,-0.00187013964095
0.163284942508,0.130776643753,-0.139925196767,-2.51099300385,0.0129662426189,2.64029216766,-0.642111480236,0.07463016361,8.83873290149e-05,-0.000367512344383,-7.9484510934e-05,-0.000335431250278,0.000153664936079,0.000267490657279,0.000125003309222,0.467344753506,0.00795058574346,0.119549355276,0.00567953859556,0.946788028853,0.321802230432,-0.0018696094143
0.163290441036,0.130776673555,-0.13992010057,-2.51099276543,0.0129678416997,2.64029717445,-0.642112314701,0.07463016361,0.000280566629954,-0.000131851178594,-0.000267660507234,4.51234409411e-05,6.45670079393e-05,-1.88353023987e-05,8.1443840827e-06,0.467345876201,0.00795595920687,0.11954986474,0.00567963415641,0.946786312263,0.3218072951,-0.00186686256905
0.163295850158,0.130777001381,-0.139912351966,-2.51099252701,0.012967328541,2.64029860497,-0.642113566399,0.07463016361,0.00135425617918,0.000790407357272,0.00034463359043,-0.000452004635008,2.14258907363e-05,2.56677722064e-05,-0.000183146636118,0.467346104319,0.00796227467942,0.119549852537,0.0056794936213,0.946783931649,0.321814305592,-0.00186615346605
0.163300082088,0.13077890873,-0.139905333519,-2.51099538803,0.0129673732445,2.64029884338,-0.642113745213,0.07463016361,0.000146095189848,-1.09549710032e-05,6.90390515956e-05,-0.000676764058881,-1.28414112623e-05,8.45025624585e-06,-0.000232618054724,0.467344157997,0.00796757903456,0.119547942896,0.00567849618325,0.946782113671,0.321819659584,-0.00186823654205
0.163308739662,0.130777522922,-0.139892265201,-2.51099801064,0.0129683660343,2.64030313492,-0.64211332798,0.07463016361,0.000337795179803,0.00071173615288,0.000224409799557,5.07722324983e-05,-0.000236212377786,-0.000113053705718,0.00234350608662,0.467343804829,0.00797808243739,0.11954794084,0.00567783581797,0.946778851638,0.321829278019,-0.00186648569843
0.163309931755,0.130776658654,-0.139886662364,-2.51099658012,0.0129679543898,2.64030480385,-0.642114460468,0.07463016361,-0.000166798141436,0.000475217471831,0.000121533725178,-0.000107122017653,-9.87347739283e-05,1.1102388271e-05,-0.000266441493295,0.467345011211,0.0079814416874,0.119548930842,0.00567811663293,0.946777523829,0.321833190561,-0.00186453915746
0.163314387202,0.130775794387,-0.139879643917,-2.51099252701,0.0129680586979,2.64030766487,-0.642113149166,0.07463016361,0.000134332149173,0.000441309734015,-0.000114100999781,0.00013237533858,-5.40529508726e-05,-0.000134669462568,0.000465845485451,0.467347725589,0.00798750501593,0.11955079678,0.00567874643205,0.946775731875,0.321838472516,-0.00186082453115
0.163318991661,0.130778938532,-0.139869496226,-2.51099228859,0.0129674402997,2.64030861855,-0.64211332798,0.07463016361,0.000112702800834,0.00111284432933,0.000213375809835,2.55637587543e-05,1.50773630594e-05,0.00273976568133,0.000196385270101,0.467347294394,0.00799410422477,0.119549539317,0.00567819857788,0.946773427007,0.321845258126,-0.00186158117609
0.163339346647,0.130778089166,-0.139829203486,-2.51099348068,0.0129680540413,2.64030957222,-0.642114639282,0.07463016361,0.000239926594077,-2.18444311031e-05,0.000242131893174,-8.07543547126e-05,-1.44216528497e-05,-0.000135739101097,-0.00578736048192,0.467346401588,0.00802342141873,0.119549247078,0.00567556107919,0.94676361525,0.321874171963,-0.00186063315178
0.163342148066,0.130778446794,-0.139816462994,-2.51099514961,0.0129682971165,2.64031147957,-0.642113208771,0.07463016361,-0.000123056859593,-5.40773144166e-05,0.000329965609126,3.57394928869e-05,-2.1394869691e-05,-6.66578271193e-05,0.000301757681882,0.46734570133,0.00803095418871,0.119548561016,0.00567471857904,0.946761401626,0.321880698708,-0.00186049657468
0.16334348917,0.130775824189,-0.1398114115,-2.51099491119,0.0129673443735,2.64031267166,-0.642113506794,0.0684542134404,-0.000417587260017,8.27667026897e-05,0.000263649562839,-0.000253231846727,-7.48437960283e-05,5.07758340973e-05,-0.000196019027499,0.467346564188,0.00803413388575,0.119549916347,0.00567505066525,0.94676019977,0.321884239297,-0.00185852447299
0.16334541142,0.130779743195,-0.139806389809,-2.51099848747,0.0129677662626,2.64031100273,-0.642113864422,0.0684542134404,-0.000237743151956,-6.75833653077e-05,0.00025999211357,-0.000387665990274,0.000132246757858,6.95388444001e-05,-1.00044962892e-05,0.467343450136,0.00803729813919,0.119546679693,0.00567352545878,0.946759096459,0.321887486318,-0.00186285308324
0.163353860378,0.130779385567,-0.139799118042,-2.51099777222,0.0129671515897,2.64031195641,-0.642114877701,0.0684542134404,-8.79104918567e-05,-0.000157053174917,0.00254449457861,1.73005355464e-05,2.17339620576e-05,0.000114141155791,-0.000210734360735,0.467343944659,0.00804482838419,0.119547111203,0.0056734947145,0.946756326312,0.32189564054,-0.00186180997835
0.163358107209,0.130778491497,-0.139792218804,-2.51099443436,0.0129675036296,2.64031362534,-0.64211422205,0.0684542134404,0.000307272508508,-0.000432122207712,0.000160452284035,0.000146973310621,2.00550039153e-06,-0.000143639350426,0.000212762082811,0.467346169849,0.00805058522409,0.11954901809,0.00567379743561,0.946754618423,0.321900676617,-0.00185865518799
0.163366645575,0.13077686727,-0.139782309532,-2.51099491119,0.0129675343633,2.64031267166,-0.642114877701,0.0684542134404,0.00218178122304,-0.000326977140503,0.00280084088445,0.000189613332623,2.05989763344e-05,0.000111441280751,0.000189026715816,0.467345794191,0.0080592088848,0.119549175621,0.00567309722823,0.946751643905,0.321909437788,-0.00185857021116
0.16337531805,0.13077814877,-0.139775916934,-2.51099610329,0.0129674803466,2.6403131485,-0.64211255312,0.0684542134404,-5.86843088968e-05,-0.000719135277905,0.000110899411084,-0.000137350492878,7.10635576979e-05,8.83927277755e-05,-0.000976231822278,0.467344863802,0.00806633272378,0.119548157311,0.00567250548829,0.946749596612,0.321915464371,-0.00185943120558
0.163387179375,0.130778864026,-0.139765650034,-2.51099658012,0.0129671161994,2.64031434059,-0.642113864422,0.0684542134404,0.000195040207473,-0.000185298194992,-0.000123895020806,0.000137065988383,-4.96102875331e-05,-3.88711196138e-05,0.000536267645657,0.46734450396,0.00807687585233,0.119547676075,0.00567200191285,0.946745788326,0.321926673882,-0.00185930434111
0.163388222456,0.130779311061,-0.139761164784,-2.51099514961,0.012967960909,2.64031434059,-0.642115056515,0.0684542134404,-2.38589163928e-05,0.000189115206013,-0.000409610453062,0.000523537455592,3.25893561239e-05,7.63723801356e-05,0.000157958173077,0.467344986087,0.00807966008905,0.119547806851,0.00567169883732,0.94674479791,0.321929594941,-0.00185877707422
0.163391038775,0.130780026317,-0.139756813645,-2.51099467278,0.0129680084065,2.64031600952,-0.642113924026,0.0684542134404,0.000186840465176,-8.68542338139e-06,0.000304825138301,0.00026408926351,5.02672264702e-05,3.1402654713e-05,-0.00265209074132,0.46734546623,0.00808304429791,0.11954786423,0.00567168947722,0.946743870645,0.321932326662,-0.00185797550273
0.163395911455,0.13077814877,-0.139754101634,-2.51099324226,0.0129683269188,2.64031672478,-0.642113268375,0.0684542134404,0.000311364157824,-0.000294413475785,0.000480444607092,-0.0012377302628,0.00445487862453,5.4316027672e-05,-0.00019706976309,0.46734668269,0.00808675690003,0.11954926437,0.00567192771618,0.946742804506,0.32193546945,-0.00185594997892
0.163408055902,0.130780607462,-0.139748647809,-2.51099824905,0.0129675958306,2.64031672478,-0.642114758492,0.0681514963508,0.00198152894154,-0.000276686594589,2.4980166927e-05,4.55382396467e-05,1.91901563085e-05,-8.40879074531e-05,-3.35409204126e-05,0.467343565835,0.00809509867343,0.119546502118,0.00567083462281,0.946739578547,0.321944956008,-0.00185931097187
0.163411602378,0.130778610706,-0.139746457338,-2.51099538803,0.0129673099145,2.64031744003,-0.642113089561,0.0681514963508,-0.000246168579906,-0.000198724810616,-5.43315436516e-05,-0.000152620166773,-9.10960588953e-05,7.35826106393e-05,3.67818756786e-05,0.467345412562,0.00809775930723,0.119548306503,0.00567144204224,0.946738948018,0.32194681403,-0.00185679169516
0.16341394186,0.130778178573,-0.139745295048,-2.51099705696,0.0129680559039,2.64031815529,-0.642112612724,0.0681514963508,0.00029584162985,-0.000122749697766,-0.000380013749236,-0.000202000286663,8.11688223621e-05,-9.12542309379e-05,0.000160798736033,0.467344765426,0.00809943007781,0.11954798339,0.00567109810739,0.946738572532,0.321947923331,-0.00185695392448
0.163423851132,0.130778685212,-0.139733165503,-2.51099610329,0.0129678407684,2.64031910896,-0.642113924026,0.0681514963508,0.000463914795546,-0.000230989287957,0.00189857801888,0.000417954724981,-9.68672757153e-05,-8.35096070659e-05,5.26475159859e-05,0.467345126886,0.00811001292579,0.119548054221,0.00567063423716,0.946734800458,0.321959028453,-0.00185612388769
0.163422897458,0.130780845881,-0.139733716846,-2.51099538803,0.0129677820951,2.64032006264,-0.642114043236,0.0681514963508,5.220633102e-05,0.000280978681985,-0.000213500199607,-0.000545882037841,-2.08819092222e-05,-0.00020205884357,0.000514439656399,0.467345740669,0.00810930070589,0.119547967288,0.00567086550189,0.94673493034,0.321958644321,-0.0018558001878
0.163427531719,0.130778759718,-0.139731064439,-2.51099586487,0.0129677969962,2.64032006264,-0.642114400864,0.0679564625025,0.00059334904654,0.000427928811405,0.000668216089252,6.80021476001e-05,8.73393510119e-05,-0.000145460260683,-0.00424613012001,0.46734538676,0.00811276883011,0.119548167241,0.00567069084246,0.946733788867,0.321962005323,-0.00185555934868
0.163436487317,0.130780085921,-0.139720633626,-2.51099443436,0.0129677262157,2.64032173157,-0.642113685608,0.0679564625025,0.000285194051685,-1.19869480386e-06,0.000730688334443,2.6497471481e-05,8.11319769127e-05,2.70944456133e-05,-0.000515956198797,0.467346006982,0.00812205980908,0.119548101416,0.00567041739671,0.9467307848,0.321970849178,-0.00185457468884
0.163441210985,0.130780398846,-0.139709293842,-2.51099538803,0.0129678668454,2.64032149315,-0.642113804817,0.0679564625025,0.000242157664616,-0.000368588458514,-7.70702026784e-05,-0.00155465689022,1.21108341773e-05,-5.04178933625e-05,-0.0047147735022,0.467345215749,0.00812980707699,0.119547506334,0.00566946596758,0.946728220778,0.321978401997,-0.00185512078283
0.163441225886,0.130779609084,-0.139707699418,-2.51099896431,0.0129680559039,2.64032173157,-0.642115294933,0.0679564625025,0.00232190894894,-0.00334902317263,8.7388769316e-05,9.95966547634e-06,0.00309582264163,0.000315140001476,-1.47576874951e-05,0.467343569149,0.00813056194105,0.119546645499,0.00566888856074,0.946727759238,0.321979762497,-0.00185629263946
0.16343909502,0.130777642131,-0.139708161354,-2.51099491119,0.0129684424028,2.64032268524,-0.642115533352,0.0679564625025,-7.19680683687e-05,0.000301450199913,0.000224452189286,-0.000322565552779,-0.000129392981762,2.92788463412e-05,0.00310677150264,0.467346306071,0.00812949983163,0.11954904018,0.00566974048733,0.946728186556,0.321978510473,-0.00185291809538
0.163448423147,0.13078032434,-0.139697209001,-2.51099610329,0.0129676740617,2.64032268524,-0.642112672329,0.0679564625025,-0.000312194781145,0.00119255017489,4.46324665972e-05,-0.000107012223452,0.00012547840015,9.31763061089e-05,0.00286360085011,0.467344912702,0.00813909740554,0.119547291983,0.00566883504967,0.946725290094,0.321987032706,-0.00185468674778
0.163450479507,0.130779922009,-0.139694094658,-2.51099538803,0.012968448922,2.64032292366,-0.642112255096,0.0679564625025,0.000378474389436,-0.000147600047057,-0.000571874319576,-1.29215786728e-05,0.00301191909239,4.16543589381e-05,-1.14101112558e-05,0.467345362339,0.00814163736954,0.119547717697,0.00566863989653,0.946724639571,0.321988953228,-0.00185392513719
0.163450047374,0.130778878927,-0.139691829681,-2.51099586487,0.0129679590464,2.64032483101,-0.642114639282,0.0679564625025,-0.000283833040157,0.00257763196714,0.000196610679268,0.000191064755199,0.000133414549055,0.000232997961575,0.000399069947889,0.467345183248,0.00814253708196,0.119547642473,0.0056687057858,0.946723867318,0.321991224203,-0.00185365824712
0.163455173373,0.130776256323,-0.139686495066,-2.51099443436,0.0129676032811,2.64032649994,-0.642114937305,0.0679564625025,-4.21785080107e-06,0.0002996486146,0.000251493213,5.65886330151e-05,0.000541495392099,8.66863483679e-05,-0.000166333062225,0.467347275708,0.00814769727804,0.119549989178,0.0056693473602,0.946722120853,0.321996369356,-0.00184991817419
0.163457006216,0.130778759718,-0.139683350921,-2.51099467278,0.0129680605605,2.64032745361,-0.642114341259,0.0679564625025,0.000595755060203,0.000860677275341,-0.000174500630237,-0.000278744031675,4.63900832983e-05,-9.40407117014e-05,1.51512003868e-05,0.467346343641,0.00815013242881,0.119548229727,0.00566891291467,0.946721340285,0.32199866331,-0.00185142916736
0.163460791111,0.130780339241,-0.139679908752,-2.51099514961,0.0129679786041,2.64032697678,-0.642114520073,0.0679564625025,-0.000577600032557,-0.00295785604976,-0.000233450467931,-0.00019402174803,0.000106958548713,-0.000164737255545,6.45149993943e-05,0.467346022272,0.00815341234501,0.11954783791,0.00566848283858,0.946720283322,0.322001775709,-0.00185191195975
0.163461789489,0.130779907107,-0.139677286148,-2.51099514961,0.0129681574181,2.64032697678,-0.642113149166,0.0679794475436,0.000144539735629,0.00101448723581,0.000525957497302,0.000177407535375,2.04102998396e-05,3.34386495524e-05,-0.000110967070214,0.467346257043,0.0081549864044,0.11954841198,0.00566842359831,0.94672003175,0.322002520302,-0.001851233133
0.163460880518,0.13077801466,-0.139675050974,-2.51099514961,0.0129677643999,2.64032745361,-0.642113864422,0.0679794475436,-4.01393263019e-05,0.000259074004134,0.000311729876557,8.20686982479e-05,9.11148890737e-05,9.54504866968e-06,-0.000348018249497,0.467346554328,0.00815591507841,0.119548911845,0.00566848819281,0.946719572938,0.322003872403,-0.0018504874661
0.163460716605,0.130779385567,-0.139675751328,-2.51099395752,0.0129679711536,2.64032745361,-0.642114639282,0.0679794475436,0.000260026194155,-0.000868355389684,-0.000493346480653,-0.000372300652089,-0.000154146822751,5.13752565894e-05,0.000204891941394,0.467347173331,0.00815544290182,0.119549500029,0.0056688092691,0.946719636934,0.322003682529,-0.00184980310612
0.163463205099,0.130778178573,-0.139673635364,-2.51099729538,0.0129675157368,2.64032721519,-0.642114341259,0.0679794475436,-5.85077323194e-05,7.66746743466e-05,-8.14503728179e-05,0.000803812115919,-3.0526160117e-05,9.63627917372e-06,-0.000260884524323,0.467345323957,0.0081576415644,0.119548062897,0.00566808650794,0.946718865111,0.322005953566,-0.00185170042009
0.163462385535,0.130779668689,-0.139673620462,-2.51099491119,0.0129680633545,2.64032793045,-0.642113626003,0.0679794475436,3.20550134347e-05,-0.000285335991066,-0.00233539449982,-5.0160146202e-05,8.66517875693e-05,0.000235153405811,0.000118481009849,0.467346435234,0.0081573598712,0.119548332111,0.00566829346245,0.946719154246,0.32200510486,-0.0018508285759
0.163465902209,0.130777299404,-0.139669075608,-2.51099419594,0.0129679804668,2.64032793045,-0.642114758492,0.0679794475436,-0.000206910961424,-0.000610349467024,0.000152308130055,-0.000454442953924,1.31280639835e-05,5.50256800125e-07,-0.000154601584654,0.467347097775,0.00816117587032,0.119549554147,0.00566832444006,0.946717728432,0.322009304608,-0.00184937963768
0.163468956947,0.130778685212,-0.139662012458,-2.51099538803,0.0129684815183,2.64033102989,-0.642113745213,0.0679794475436,-0.000197825211217,-0.000612284929957,4.1975206841e-05,-0.000487424142193,7.60356342653e-05,-2.3052769393e-05,0.000280019565253,0.467346842454,0.00816609580342,0.119548718377,0.00566796807874,0.946716313303,0.322013473684,-0.00184897742167
0.163470551372,0.130778953433,-0.139660418034,-2.51099395752,0.0129682393745,2.64033079147,-0.642114460468,0.0679794475436,0.000180702307262,0.000171542997123,0.00012564806093,5.51319135411e-05,-4.50899970019e-05,6.20140344836e-05,-4.0811704821e-05,0.467347438641,0.00816763385547,0.119549052437,0.00566807745479,0.946715650039,0.322015424282,-0.00184853504299
0.16347168386,0.130779415369,-0.139656409621,-2.51099705696,0.0129677597433,2.64033126831,-0.642114281654,0.0679794475436,-0.000237824991927,0.00129633618053,-0.000105585124402,-0.000372208131012,0.00449400441721,5.06687865709e-05,0.000600042636506,0.467345787197,0.00817004357795,0.119547776935,0.00566750741366,0.946714794506,0.322017941167,-0.00184999428693
0.163472220302,0.130779013038,-0.139655709267,-2.51099514961,0.0129678919911,2.64033198357,-0.642116069794,0.0679794475436,-0.000470126542496,0.000746913487092,0.000896678247955,-4.15543718191e-06,-4.68659418402e-05,3.95950337406e-05,0.000164980432601,0.467346999194,0.0081706951386,0.119548677183,0.00566785962835,0.946714323712,0.322019327485,-0.0018485294864
0.163472250104,0.130780294538,-0.139655426145,-2.5109975338,0.0129678063095,2.64033198357,-0.642114341259,0.0659523159266,0.000136266928166,0.000487485667691,0.000100598139397,-3.99978380301e-05,-7.40713294363e-05,-6.15105454926e-05,-0.000270530028502,0.467345495608,0.00817075543391,0.119547260191,0.00566740241692,0.946714542746,0.322018681432,-0.00185029711074
0.163472950459,0.130778238177,-0.139654263854,-2.51099467278,0.0129680382088,2.64033079147,-0.642115294933,0.0659523159266,8.71076626936e-05,0.000396659132093,-0.000472936750157,3.44415457221e-05,0.000109259504825,-0.000575329642743,-0.000279055850115,0.467347123056,0.00817178116171,0.119549082134,0.00566768635466,0.9467141228,0.322019921648,-0.00184845161245
0.163479879498,0.130781710148,-0.139645606279,-2.51100969315,0.0129687916487,2.64032363892,-0.642114460468,0.0659523159266,0.000356773904059,-6.47945489618e-06,0.00044532836182,-0.00137889990583,-8.44553505885e-05,0.000213372681173,-9.75307484623e-05,0.467336910868,0.0081788525301,0.119541592365,0.00566334376111,0.946711900794,0.322026460907,-0.00186053655866
0.163488253951,0.13078199327,-0.139637202024,-2.51101636887,0.0129680717364,2.64032530785,-0.642115116119,0.0659523159266,0.000452419975773,-0.000792247825302,-0.000219555688091,0.000224435163545,0.000147736878716,4.55762383353e-05,8.27449766803e-05,0.467333598386,0.00818673983132,0.119539232799,0.0056622213174,0.946709016263,0.322034946454,-0.00186298844774
0.163489177823,0.13078173995,-0.139628887177,-2.51101064682,0.012968076393,2.64032411575,-0.642113983631,0.0659523159266,0.000218178916839,-5.02358743688e-05,0.000866872665938,-1.34013553179e-05,-7.18573528502e-06,-4.84146330564e-05,-0.000147862621816,0.467336229774,0.00819136644067,0.1195411438,0.00566238472866,0.946707716461,0.322038778592,-0.00186058149001
0.163489639759,0.130780979991,-0.139625310898,-2.51100802422,0.0129678929225,2.64032459259,-0.642113924026,0.0659523159266,0.000402093864977,0.00060311408015,4.00940843974e-05,0.000589858507738,3.85316161555e-05,1.79712660611e-05,1.11954113891e-05,0.467338203808,0.00819388738711,0.11954275469,0.00566285654249,0.946706967076,0.322040987761,-0.00185807343464
0.163493856788,0.130782812834,-0.139622867107,-2.51100564003,0.0129686053842,2.6403260231,-0.642115235329,0.0659523159266,0.000434944842709,0.000403113168431,6.88608270139e-06,0.000192172097741,4.98607769259e-05,-2.97401438729e-05,-5.3084375395e-05,0.467338889565,0.00819658913245,0.119542487846,0.00566283930411,0.946705864997,0.322044230088,-0.00185768299629
0.16349837184,0.130779519677,-0.13961148262,-2.51100540161,0.0129683734849,2.64032554626,-0.642114639282,0.0639678686857,-0.000397295865696,6.59931174596e-05,-0.000203096831683,0.000220751404413,-0.000110733162728,-1.91829840333e-05,-0.000546395138372,0.467339420637,0.00820439741107,0.119543950127,0.0056624063736,0.946703391814,0.322051517547,-0.00185602149423
0.163501307368,0.130780786276,-0.139609068632,-2.51100468636,0.012968015857,2.64032721519,-0.642114341259,0.0639678686857,0.000402267236495,0.000758343783673,0.000771093356889,0.000283095607301,8.38216510601e-05,-0.000225295792916,-0.000423574470915,0.467339833767,0.00820692055794,0.119543736525,0.00566259864778,0.946702526845,0.322054059843,-0.00185549707197
0.163501545787,0.130780503154,-0.139599502087,-2.51100564003,0.0129680801183,2.64032697678,-0.642114400864,0.0639678686857,-0.000102388337837,0.000298452127026,0.00018875898968,-0.000174789616722,2.52911122516e-05,-4.38005372416e-05,0.000569776515476,0.467339226032,0.00821171974168,0.119543432907,0.0056618217575,0.946700966436,0.322058658709,-0.00185579151866
0.163503795862,0.130780830979,-0.139593705535,-2.51100635529,0.0129678146914,2.64032793045,-0.642114043236,0.0639678686857,0.00012279067596,-0.000328995083692,6.27672852715e-06,-0.000250322947977,7.97358552518e-06,0.000138042145409,0.00386253860779,0.46733890499,0.00821558760703,0.119543067368,0.00566153098484,0.946699700416,0.322062385391,-0.0018557759212
0.163504421711,0.130778178573,-0.139590635896,-2.51100611687,0.0129682393745,2.6403260231,-0.642114043236,0.0639678686857,-0.000359226978617,0.00053033005679,0.000110643763037,-0.000300191779388,-0.00017586175818,-0.000111107925477,-8.38030027808e-05,0.467339124734,0.00821748763609,0.119544180973,0.00566119811579,0.946699176162,0.322063935681,-0.00185518508453
0.163507014513,0.130780041218,-0.139587923884,-2.51100540161,0.012968194671,2.6403260231,-0.642116725445,0.0639678686857,-1.39623789437e-05,0.000572426710278,-8.75445111888e-05,0.00232383795083,7.37296286388e-05,-0.000109585700557,0.000169319886481,0.467339045738,0.0082199782073,0.119543542144,0.00566099047634,0.946697884339,0.322067733451,-0.00185572963288
0.163510620594,0.130781874061,-0.139582619071,-2.5110104084,0.0129691874608,2.64032578468,-0.642113983631,0.0639678686857,3.7376255932e-05,0.000228479111684,0.000332135066856,-0.000250503304414,-8.21028515929e-05,3.50667942257e-05,-0.000298633647617,0.46733592738,0.00822413416142,0.119540900314,0.0056595006605,0.946697048907,0.322070196632,-0.00185897071667
0.163511320949,0.130780979991,-0.139576971531,-2.5110065937,0.0129683772102,2.64032483101,-0.642114281654,0.0639678686857,-0.000146819715155,-2.12588292925e-05,0.000732884451281,-4.01479919674e-05,-3.1462390325e-05,0.000113873393275,-5.87269714742e-05,0.467337797624,0.00822731109368,0.119542495065,0.00565982199996,0.946695867667,0.322073673635,-0.00185714769511
0.163515120745,0.130780726671,-0.139573395252,-2.51100635529,0.0129682663828,2.64032387733,-0.64211577177,0.0639678686857,0.00096480816137,0.000432029482909,0.000290065276204,-1.56939840963e-05,3.53286668542e-05,-5.94370831095e-05,3.49602378265e-05,0.467337688534,0.00823084856771,0.119542578831,0.005659531548,0.946694431019,0.322077900584,-0.00185731622352
0.163520008326,0.130781874061,-0.139567136765,-2.51100969315,0.0129679804668,2.64032459259,-0.642113745213,0.0639678686857,-0.000323760556057,0.000888247217517,0.0035109941382,0.000121190962091,3.1681083783e-05,6.8836598075e-05,-0.000252723228186,0.467335762036,0.00823609530642,0.119540905184,0.00565872524477,0.946692936562,0.322082297405,-0.0018590529617
0.163522899151,0.130780890584,-0.139563500881,-2.51100754738,0.0129678826779,2.64032697678,-0.642116248608,0.0638588666916,1.05750177681e-05,7.16286740499e-05,-3.39853431797e-05,0.000244296330493,-3.88799417124e-05,0.00013088704145,-0.000206932090805,0.467337528203,0.00823931319269,0.119542277253,0.00565928612929,0.946691469607,0.322086614814,-0.00185636755219
0.163519278169,0.13078096509,-0.13956271112,-2.5110077858,0.0129681583494,2.64032459259,-0.642116069794,0.0638588666916,-0.000314576405799,0.000350178306689,-0.000321306433761,-0.000370500551071,0.000194223815924,-3.6239183828e-05,8.14573213574e-05,0.467336887156,0.00823799947645,0.119541943745,0.00565876005779,0.94669199764,0.322085064757,-0.00185762974285
0.163524150848,0.130782261491,-0.139556288719,-2.51100897789,0.0129681276157,2.64032387733,-0.642115652561,0.0638588666916,5.53967875021e-05,-0.000104287733848,0.000385572318919,-0.000122333905892,-1.49768502524e-05,2.67517116299e-05,-0.000124137091916,0.467335720824,0.00824335710294,0.119540813469,0.00565797043544,0.946690253676,0.322090196185,-0.00185907902822
0.163529962301,0.130781829357,-0.139550298452,-2.51100802422,0.012968624942,2.64032483101,-0.642117381096,0.0638588666916,0.00136300444137,0.000503340619616,0.000348796282196,6.96915813023e-05,1.57172562467e-05,2.0150839191e-05,-9.64317005128e-05,0.46733638839,0.00824906428231,0.119541372717,0.00565780608906,0.946688153745,0.322096378367,-0.00185782683734
0.163533300161,0.130780413747,-0.139539346099,-2.51100802422,0.0129686873406,2.64032459259,-0.642113506794,0.0638588666916,-8.30078424769e-05,2.71637163678e-05,0.000233756029047,0.000253336591413,5.34940845682e-05,9.94906986307e-06,8.18488333607e-05,0.467336467507,0.00825604969719,0.119541909321,0.00565718318158,0.946686506175,0.322101236084,-0.00185706916844
0.163535282016,0.130779802799,-0.139536127448,-2.51100468636,0.0129686482251,2.64032626152,-0.642116189003,0.0638588666916,-0.000299156672554,0.000800517213065,0.000389239023207,0.000458909606095,5.60069966014e-05,-6.25186075922e-05,0.000434478046373,0.467338626209,0.00825864680307,0.119543460808,0.00565779282703,0.946685229445,0.32210499349,-0.00185434292276
0.163535416126,0.130781665444,-0.139535978436,-2.51100564003,0.0129683427513,2.64032769203,-0.642114877701,0.0638588666916,2.13279654417e-05,6.32058436167e-05,-0.000125427075545,0.000166542740772,-8.3566592366e-05,6.12413859926e-05,0.000196487264475,0.467338052306,0.00825869678061,0.119542395332,0.00565778068344,0.946685349644,0.322104636338,-0.00185505388407
0.163538008928,0.1307849437,-0.139533236623,-2.51100730896,0.0129688428715,2.64032554626,-0.642115950584,0.0638588666916,0.000101154408185,0.000971197267063,-5.70809534111e-05,-0.00027543673059,-4.69563565275e-05,-5.8884768805e-05,-0.000249750242801,0.467335974586,0.0082611134554,0.119540090753,0.00565664575656,0.946684394461,0.322107444263,-0.00185840805536
0.163535967469,0.130784749985,-0.139531552792,-2.51100707054,0.0129684861749,2.64032697678,-0.64211499691,0.0634707733989,-0.000292899843771,-0.000242017253186,0.000418596842792,6.53939205222e-05,0.000145514102769,-5.05423740833e-05,0.000380383833544,0.467336447193,0.0082609929878,0.119540373587,0.00565689161558,0.946684556133,0.322106969873,-0.00185752624107
0.16353982687,0.130784928799,-0.139527708292,-2.51101183891,0.0129688968882,2.6403260231,-0.642116725445,0.0634707733989,0.000996496877633,-0.00267083570361,6.12579378867e-06,-0.000403645448387,-0.000267398456344,0.000675699440762,-0.000113283917017,0.467333659906,0.00826459317766,0.11953852907,0.00565568349388,0.946683111993,0.322111219697,-0.00186025414545
0.163545697927,0.130783185363,-0.139520794153,-2.5110077858,0.012967438437,2.64032816887,-0.642114877701,0.0634707733989,-0.000463381351437,0.000183563111932,-0.00363310147077,0.000774028128944,-3.00290139421e-05,-0.000225038078497,-0.000430728454376,0.467336451818,0.00827083691258,0.119540860506,0.00565666277742,0.946681146932,0.32211699977,-0.00185643649523
0.16354636848,0.130782470107,-0.1395175457,-2.51099538803,0.0129693513736,2.64033031464,-0.642114758492,0.0634707733989,0.000181122682989,0.00326791242696,0.000467048230348,-0.000657725555357,-6.43232851871e-05,-0.000105516344775,-0.000424852943979,0.467343420175,0.00827307072036,0.1195456244,0.00565826018465,0.946680788402,0.322118068445,-0.0018489540735
0.163547188044,0.130788058043,-0.13950945437,-2.51101064682,0.0129683269188,2.64032864571,-0.642114460468,0.0634707733989,0.000116527866339,0.000292929500574,-0.000109933687781,0.000150196821778,2.8245307476e-05,8.38970736368e-05,0.000191148588783,0.46733389699,0.00827690139818,0.119537562126,0.00565499163865,0.946679292282,0.322122460633,-0.00185975214192
0.163547888398,0.130785912275,-0.139507591724,-2.51100230217,0.0129689546302,2.64032959938,-0.642116069794,0.0634707733989,2.32515849348e-05,-0.00295024435036,-2.61258946921e-06,0.000547573377844,7.15880014468e-05,0.000132883316837,0.000211622231291,0.467338832669,0.008278399745,0.119541498146,0.00565629664929,0.94667869901,0.32212421335,-0.00185418730717
0.163549140096,0.130784571171,-0.139503970742,-2.5110001564,0.0129684638232,2.64032864571,-0.642117679119,0.0626578181982,0.000100000681414,0.000344821455656,0.000176849483978,-0.000181296825758,0.000112349327537,-0.000236421779846,-0.000249200529652,0.467340053597,0.00828065081998,0.119542853627,0.00565656747208,0.946677669867,0.322127241337,-0.00185275373387
0.163550302386,0.130785569549,-0.13950252533,-2.51100969315,0.0129685904831,2.64032888412,-0.64211589098,0.0626578181982,0.00058534037089,0.000812685582787,0.00066536932718,8.43509260449e-05,5.45281691302e-05,0.000109621345473,-0.000479241338326,0.4673348511,0.0082818709123,0.119539001174,0.00565487652133,0.946677495138,0.322127755244,-0.00185783784691
0.163567602634,0.130783692002,-0.139473572373,-2.51099252701,0.0129686202854,2.64033722878,-0.642116189003,0.0626578181982,-0.000305463589029,0.000236060062889,-0.000159745424753,-0.000120827615319,-9.01659441297e-05,1.62503456522e-05,-1.51740387082e-05,0.467344934895,0.00830560582483,0.119545718564,0.00565684559933,0.94666959611,0.322151008246,-0.00184485051579
0.163573980331,0.130784317851,-0.139456957579,-2.51099586487,0.0129691483453,2.64033818245,-0.642116606236,0.0626578181982,0.000221854803385,0.00108690944035,0.00309422658756,-0.000135265407152,-9.02177562239e-05,7.85538359196e-05,0.000341890437994,0.467343506011,0.00831566569003,0.119544761259,0.00565548154738,0.946666350572,0.322160565749,-0.00184547778466
0.163581103086,0.130783766508,-0.139442279935,-2.51099729538,0.0129683110863,2.64033865929,-0.642117381096,0.0626578181982,0.000191852406715,-0.000873940065503,0.000291207805276,0.00023689182126,-3.22737832903e-05,-4.62405405415e-05,-5.81335334573e-05,0.467342742032,0.00832616851294,0.119544435378,0.00565465290654,0.946662622971,0.322171533428,-0.00184551022374
0.163588404655,0.130784019828,-0.139393553138,-2.51099205017,0.0129684908316,2.64034748077,-0.642117917538,0.0626578181982,-0.000102747057099,0.000122063138406,0.000313365162583,0.000323614309309,-2.73562673101e-05,0.000525016570464,-0.000423420569859,0.467346641278,0.00835363071261,0.119546471176,0.00565365198374,0.946653601367,0.3221981002,-0.00183824742945
0.163591295481,0.130783930421,-0.139382451773,-2.51099300385,0.0129690906033,2.6403491497,-0.642117142677,0.0626578181982,0.000125297694467,-3.28064197674e-05,0.000193975647562,0.000771238352172,4.15871472796e-05,-0.00011762912618,3.36204320774e-05,0.467346366882,0.00836043885784,0.119546232168,0.00565293778078,0.946651577056,0.322204063679,-0.00183765882896
0.163594126701,0.130781471729,-0.139377042651,-2.51099181175,0.0129673145711,2.64035201073,-0.642117083073,0.0626578181982,-0.000191566374269,0.000124468191643,-0.000236796302488,-8.24326343718e-06,7.13219560566e-05,-6.33541640127e-05,-0.000464012409793,0.46734793948,0.00836443295761,0.119547962842,0.00565374687235,0.946650082574,0.322208456747,-0.00183477465196
0.163597464561,0.13078340888,-0.139370083809,-2.51099300385,0.0129691176116,2.64035558701,-0.642117798328,0.0626578181982,6.24174936092e-05,0.000182096933713,0.000971224450041,-0.000414418202126,8.90079027158e-05,-2.02066621569e-05,0.000100241035398,0.467347675996,0.00836943779759,0.119546930343,0.00565318934687,0.946648504703,0.322213105806,-0.00183415605204
0.16360001266,0.130783885717,-0.139365926385,-2.51099157333,0.0129680745304,2.64036345482,-0.642117261887,0.0619092211127,-0.000172134852619,0.00124371738639,-0.000377752410714,-4.06757171731e-05,-6.5207955231e-06,-5.60117914574e-05,-0.000603198772296,0.467349961992,0.00837268346288,0.119547858847,0.00565455536204,0.946647358222,0.322216473863,-0.00182998235415
0.163602039218,0.1307862252,-0.139362096786,-2.51099157333,0.0129686156288,2.64036989212,-0.642118155956,0.0619092211127,-0.000119359676319,0.000463089032564,0.000362608232535,0.00295713776723,-8.67703420226e-06,-4.62181960756e-05,-3.86287283618e-05,0.467350812478,0.00837547060115,0.119547309291,0.00565499303593,0.946646345097,0.322219454021,-0.00182797878329
0.163603812456,0.130785852671,-0.139361634851,-2.51099324226,0.0129689387977,2.64037895203,-0.642119467258,0.0619092211127,3.65062223864e-05,0.000110678935016,0.000216456959606,0.000213013918255,-0.000218629313167,-5.00878195453e-05,0.000164304801729,0.467351992877,0.0083765530916,0.119547699306,0.00565607165901,0.946645815634,0.32222101172,-0.0018242508605
0.163603052497,0.130787208676,-0.139359936118,-2.51099920273,0.0129684619606,2.64050102234,-0.642118513584,0.0619092211127,4.75687083963e-05,0.000914900854696,0.00273073394783,-0.00228505930863,-5.26346775587e-05,0.0229089707136,0.000218875065912,0.467375345451,0.00837735886695,0.119555746084,0.00567392692256,0.946645643484,0.322221507624,-0.00176972822579
0.163611352444,0.130791559815,-0.139353334904,-2.51101016998,0.0129698291421,2.64090895653,-0.64211922884,0.0619092211127,0.0024708788842,0.000201057890081,0.00126364605967,0.00120595807675,-0.000317047670251,0.018469825387,-0.000426738843089,0.467457927819,0.00838583539491,0.119585818806,0.00573421617372,0.946642927353,0.322229391833,-0.00158290406221
0.16363312304,0.13078379631,-0.139334574342,-2.51098275185,0.0129701802507,2.64118552208,-0.642118036747,0.0619092211127,0.000200509661227,-0.000188681369764,0.00061182200443,-0.00111491675489,-7.82052447903e-05,0.00486643845215,7.5496835052e-05,0.46753382137,0.00840717685117,0.119623077665,0.00578039449424,0.946636313951,0.322248691425,-0.00143412444947
0.163639113307,0.130787849426,-0.139323875308,-2.51100707054,0.0129683557898,2.64125919342,-0.642118453979,0.0619092211127,0.000932512048166,-0.000281518034171,0.000245229428401,0.00115197477862,-3.94306589442e-05,0.00285710394382,-7.69097532611e-05,0.467536363382,0.00841487202211,0.119619217077,0.00578755469972,0.946633277358,0.322257577797,-0.00141267437504
0.163644820452,0.130788907409,-0.139320790768,-2.51100301743,0.0129690207541,2.64128017426,-0.642119824886,0.0619092211127,-0.000152105654706,3.23813328578e-05,0.000117496296298,0.000443481374532,-2.69958327408e-05,4.86289536639e-05,0.000289040501229,0.467542735497,0.00841920206087,0.119621948376,0.00579096754437,0.94663170563,0.322262183596,-0.00140117927704
0.163650482893,0.130790010095,-0.139315530658,-2.51099252701,0.0129700982943,2.64132213593,-0.642115712166,0.0619092211127,0.000135470982059,-0.000560917484108,-0.000299305625958,-0.000573333236389,8.19879642222e-06,0.00454734824598,4.60811425e-05,0.467558045516,0.00842513349617,0.119629373734,0.00579922055492,0.946630534408,0.32226559284,-0.00137394600829
0.163662776351,0.130790010095,-0.139306366444,-2.51100683212,0.0129698440433,2.64139771461,-0.642118513584,0.0619092211127,0.000863716006279,0.000822405680083,-0.000446855381597,0.000183128999197,0.000127230247017,0.00130747945514,0.000271648343187,0.467565895169,0.00843487732919,0.119630567471,0.00580719845618,0.94662678111,0.322276585555,-0.00134752484444
0.163666680455,0.130786255002,-0.139299854636,-2.51100206375,0.0129686128348,2.64140868187,-0.642117202282,0.0619092211127,1.70243783941e-05,0.00206011440605,-6.02234504186e-05,0.000335795688443,-2.60448268818e-06,0.00272411573678,-0.000172570085851,0.467571459124,0.00844033483545,0.119634654789,0.00580994827141,0.94662505859,0.32228163529,-0.00133798097812
0.163673222065,0.130791798234,-0.13929246366,-2.51100230217,0.0129690626636,2.6414296627,-0.642118871212,0.0619092211127,-0.000307832233375,-0.000141400305438,0.00559763424098,4.49116987511e-06,-3.99275886593e-05,3.47061431967e-05,-0.00137349916622,0.467574610516,0.00844692497422,0.119633793148,0.0058121290793,0.946622590494,0.322288875454,-0.00133070268639
0.163679376245,0.130791962147,-0.139289826155,-2.5110039711,0.0129693523049,2.64144539833,-0.642118275166,0.0611481443048,0.000401270808652,-0.000112323752546,0.00157119613141,-0.000170759376488,-0.000144558332977,-6.74165494274e-05,3.9571452362e-05,0.467577073121,0.00845113289694,0.119634506475,0.00581406746429,0.946621300145,0.322292657986,-0.00132401938639
0.163683712482,0.130795404315,-0.139287486672,-2.51100373268,0.0129695609212,2.64146614075,-0.642117321491,0.0611481443048,-0.00013295467943,-4.43501121481e-05,-0.000162012991495,0.000135471404064,-6.76122654113e-05,0.00211011781357,-5.78374456381e-05,0.467580944362,0.00845428613869,0.119634805347,0.00581683111349,0.946620382338,0.322295338009,-0.00131567627472
0.163692548871,0.130792781711,-0.139283254743,-2.51100468636,0.0129700265825,2.64148283005,-0.6421200037,0.0611481443048,0.000592224358115,-0.000380796671379,0.000114246227895,-3.50657501258e-05,-2.09002137126e-05,3.30815673806e-05,9.59435419645e-05,0.467584527716,0.00846065089847,0.119637124842,0.00581910933876,0.946617902671,0.322302616027,-0.00130679025547
0.163691788912,0.130791902542,-0.139282032847,-2.51100468636,0.0129704531282,2.64149188995,-0.642119169235,0.0611481443048,0.000201968316105,-0.000515119056217,0.000123802747112,0.000309007009491,6.332751218e-05,-5.57512612431e-06,-4.9311100156e-05,0.467586686156,0.00846097565017,0.119638320116,0.00582040544277,0.946618015629,0.322302280251,-0.00130199869854
0.163691967726,0.130794078112,-0.139281094074,-2.51100468636,0.0129690058529,2.64149975777,-0.642117321491,0.0611481443048,-0.000224349845666,-0.000442254415248,0.000112708563393,-0.000369120331015,-3.43259198416e-05,4.29103674833e-05,-0.000145689889905,0.467587937086,0.00846143710281,0.119637999866,0.0058217129155,0.946617916325,0.322302558694,-0.00129942245239
0.163696199656,0.130792438984,-0.139278799295,-2.51100492477,0.0129684042186,2.64151144028,-0.642118632793,0.0611481443048,0.000447151542176,0.000349805050064,0.000105462728243,0.000215581589146,-5.52985984541e-05,0.00157980259974,-1.26219074446e-05,0.467590650806,0.00846462698968,0.119639686845,0.00582360802574,0.946616559376,0.322306534966,-0.0012931785573
0.163704738021,0.130791142583,-0.139273583889,-2.51100325584,0.0129693280905,2.64152908325,-0.642119348049,0.0611481443048,0.000284401437966,-0.00203826813959,-0.000669174245559,0.000664857216179,1.04675900729e-05,-2.70640157396e-05,5.17208172823e-05,0.467596732594,0.00847155202504,0.119643385675,0.00582678582864,0.946614347854,0.322313020247,-0.00128127698315
0.163706228137,0.130783483386,-0.139269024134,-2.51098775864,0.0129691800103,2.64156460762,-0.642117977142,0.0611481443048,0.000212309896597,0.0015178155154,-0.00011098694813,0.000155394678586,-2.14966148633e-05,0.00746768014506,7.16187350918e-05,0.467612813875,0.00847500471851,0.119654358204,0.0058343153823,0.946613507616,0.322315454907,-0.0012550616161
0.163711190224,0.130778312683,-0.139264523983,-2.51098966599,0.0129704875872,2.64165759087,-0.642117083073,0.0611481443048,-0.000215623018448,0.000478195521282,0.000361117621651,-0.00104273611214,6.67687272653e-05,0.00774770230055,-0.000213124265429,0.4676319006,0.00847972678153,0.119664174405,0.0058471797409,0.946612388408,0.322318672681,-0.00121224198729
0.163718178868,0.130782186985,-0.139255732298,-2.51099967957,0.0129702901468,2.64180898666,-0.642116963863,0.0611264742911,0.000281381973764,-3.05601170112e-05,0.000805391697213,-0.000675561022945,3.42452294717e-05,0.00406807893887,-0.000172078085598,0.467660146125,0.00848798287522,0.119672302374,0.0058692853167,0.946609501649,0.322326999742,-0.00114359239344
0.16372603178,0.130791321397,-0.139247745275,-2.51099824905,0.0129712224007,2.64186930656,-0.642117798328,0.0611264742911,0.000217194639845,0.000289004092338,0.000890395778697,0.000100107557955,2.53271336987e-05,0.00276902224869,0.000251047487836,0.467671990761,0.00849556568377,0.119673824882,0.00587734622317,0.946606869807,0.322334669895,-0.0011185291187
0.163724809885,0.130788564682,-0.139242827892,-2.51099967957,0.0129704251885,2.64189577103,-0.642116308212,0.0611264742911,0.000551830220502,0.000467847305117,0.000362344813766,0.000194331529201,-6.59610668663e-05,-9.1443551355e-05,-7.89079495007e-05,0.467677965257,0.00849808571042,0.119677037145,0.005881497941,0.946606199723,0.32233660973,-0.00110469205616
0.163735955954,0.130762070417,-0.139232501388,-2.51098155975,0.0129704903811,2.64199781418,-0.642119348049,0.0611264742911,-0.000128807892906,-0.000861264066771,0.000346639077179,-0.000108199717943,-0.000182673960808,0.00746323820204,-1.46964048326e-05,0.467714592294,0.0085095526663,0.119704339976,0.005901265455,0.946602305678,0.32234791566,-0.00103484747316
0.163745671511,0.130745872855,-0.139222472906,-2.5109808445,0.0129710696638,2.64209961891,-0.642118155956,0.0611264742911,7.10531967343e-05,0.000317824567901,-0.00308209378272,0.000401205004891,-0.000197316359845,0.00854557007551,0.000226594827836,0.46774043244,0.00852004126115,0.119720991972,0.00591764872845,0.946599290791,0.322356646478,-0.000977889535845
0.16375502944,0.130751818419,-0.139208421111,-2.5109834671,0.0129691548645,2.64223098755,-0.642117679119,0.0611264742911,0.000170062921825,0.00404064636678,0.00310771074146,0.000297319784295,-8.43038360472e-05,0.00893290527165,0.000291947799269,0.467766310759,0.00853155959521,0.119728824001,0.00593659452875,0.946595162908,0.322368591157,-0.000919526054404
0.163758277893,0.130758523941,-0.139198318124,-2.51098012924,0.0129702230915,2.64229512215,-0.642118453979,0.0611264742911,-0.00016058087931,0.00033727104892,-0.000270060932962,0.000249756471021,5.93197692069e-05,0.00406698230654,5.67212264286e-05,0.467781107179,0.00853835580202,0.11973259163,0.0059459581589,0.946592896391,0.322375158553,-0.000889336313265
0.163766592741,0.130763038993,-0.139179989696,-2.51098680496,0.0129691055045,2.64235377312,-0.642119705677,0.0611264742911,-0.00139606790617,0.00030039268313,0.00174101535231,0.000200923735974,-4.90236343467e-05,0.00325465598144,9.89221880445e-05,0.46778837962,0.00855083635413,0.119733007591,0.00595212735549,0.946588324548,0.322388525879,-0.000868376929411
0.163768544793,0.130757048726,-0.139168262482,-2.51098418236,0.0129705220461,2.64237761497,-0.642118275166,0.0593147315085,0.00149389600847,-1.56951355166e-05,-2.92808508675e-05,6.4594350988e-05,7.44811914046e-05,3.34799369739e-05,-0.000244957598625,0.467796283293,0.00855806537065,0.119738766381,0.00595582421433,0.946586468349,0.322393951301,-0.000852026318155
0.163771301508,0.130757912993,-0.139157965779,-2.51098275185,0.0129686836153,2.64240837097,-0.642119169235,0.0593147315085,-0.000323570187902,-9.84217040241e-05,6.34709431324e-05,0.000493528787047,-3.04561635858e-05,0.00330415042117,0.000142316916026,0.467803410923,0.00856448951208,0.119741489913,0.00596047473385,0.946583926835,0.322401366448,-0.000837138107335
0.163769483566,0.130764439702,-0.139150157571,-2.51098775864,0.0129701616243,2.64245271683,-0.642118632793,0.0593147315085,0.000366983877029,6.99558368069e-05,0.00206185877323,-0.000420311465859,4.43565186288e-05,0.00106442871038,0.000500911730342,0.467809071002,0.00856737712677,0.119740593155,0.00596520435854,0.946583214232,0.322403411573,-0.000821441757066
0.163769111037,0.130762606859,-0.139146462083,-2.51098632812,0.0129691902548,2.64251446724,-0.642117679119,0.0593147315085,0.000479062116938,0.00043466623174,0.000845409114845,-1.5365303625e-05,-8.68063434609e-05,0.000187386161997,0.00017476476205,0.467823658982,0.00856934277306,0.11974736589,0.00597508380039,0.946582607734,0.322405086638,-0.000790510630508
0.163774475455,0.13076390326,-0.139144316316,-2.51098585129,0.0129705993459,2.64253306389,-0.642119169235,0.0593147315085,0.000266561721219,0.000544356007595,-0.000378953234758,0.000583226094022,-9.00354934856e-05,0.00262651988305,-0.000690318760462,0.467827625959,0.00857298777789,0.119748556203,0.00597746325467,0.946581332105,0.322408808683,-0.000781929866713
0.163774371147,0.130768448114,-0.139137402177,-2.5109872818,0.012971226126,2.64256286621,-0.64211755991,0.0593147315085,-0.000148111415911,-6.24956010142e-05,0.000110630782729,0.000392939080484,-7.49732407712e-06,0.00276653538458,8.71958109201e-05,0.467832362367,0.00857629229912,0.119748533769,0.00598089427317,0.946580550835,0.322411066265,-0.000770534483677
0.163773015141,0.130767181516,-0.139133393764,-2.51099014282,0.0129692787305,2.64258122444,-0.642117500305,0.0593147315085,-0.00022628014267,-0.000422606652137,0.00310822180472,-0.000410495791584,-0.000133485227707,0.00283624557778,-0.000252229016041,0.467835129866,0.00857763884153,0.119749722069,0.00598359131505,0.946579842661,0.322413114137,-0.000762642760344
0.163771778345,0.130766168237,-0.139132425189,-2.5109910965,0.0129701253027,2.64259290695,-0.642118394375,0.0593147315085,-0.000490056409035,0.000296499434626,-0.000276061793556,0.000291097821901,0.000110778972157,0.000400721270125,-4.79733425891e-05,0.467837404652,0.00857762509704,0.119750886861,0.00598508034866,0.9465798502,0.322413077731,-0.000756970684742
0.163769796491,0.130768492818,-0.139135062695,-2.51098847389,0.0129699865356,2.6426076889,-0.642118155956,0.0593147315085,-0.000758863810915,0.000329245900502,0.0013341056183,-9.30361566134e-05,6.16987526882e-05,0.000427421618951,-2.09108711715e-05,0.467841553068,0.00857543099079,0.119752047433,0.00598776170987,0.946580578369,0.322410906641,-0.000749887549311
0.163771659136,0.130773812532,-0.139132082462,-2.51099205017,0.0129694165662,2.64262843132,-0.642118215561,0.0593147315085,-0.00050569610903,0.000579830666538,0.000105807514046,-9.85819497146e-05,2.89951385639e-05,0.000559750420507,6.62060556351e-05,0.467843072779,0.0085775832279,0.119750159249,0.00598993477181,0.946579685155,0.322413501522,-0.000744351358093
0.163776382804,0.130772605538,-0.139127314091,-2.51099252701,0.0129689322785,2.64263939857,-0.642116367817,0.0592549741268,-0.000262070359895,-0.000106324441731,-0.000198682348127,-4.06001818192e-05,-0.000128407686134,0.000343302206602,9.48144315771e-06,0.467845377528,0.0085822012681,0.119751481984,0.00599146292928,0.946578377829,0.322417324255,-0.000738720181658
0.163777381182,0.130770742893,-0.139127328992,-2.51098656654,0.0129681667313,2.64265394211,-0.642117023468,0.0592549741268,-7.87637254689e-05,0.000121797238535,0.00063118111575,0.000545768241864,-5.87345821259e-05,0.000155457702931,0.000398460513679,0.467852016315,0.00858288257399,0.119755689582,0.00599492287353,0.946577969258,0.322418483616,-0.0007280979518
0.163774639368,0.130755245686,-0.139128267765,-2.51097416878,0.0129699623212,2.64268898964,-0.642118930817,0.0592549741268,0.000329938338837,-0.00205317279324,-7.78486210038e-05,0.000580992083997,0.00014858180657,0.00290712038986,0.000141902986798,0.467869371221,0.00858211682802,0.119770254786,0.00600309800474,0.946578439211,0.322417018869,-0.000697758878192
0.163785159588,0.130733564496,-0.139115616679,-2.51096153259,0.012968737632,2.6429066658,-0.642118573189,0.0592549741268,0.00154149823356,0.000190941020264,0.000563956564292,-0.000531865225639,9.4349074061e-05,0.000394050672185,0.000107799060061,0.467927807134,0.00859513911861,0.119803819214,0.00603982485251,0.946574257422,0.32242884796,-0.000577401541154
0.163785561919,0.130736917257,-0.139111921191,-2.51095676422,0.0129714393988,2.64292764664,-0.642115533352,0.0580939874053,5.84062363487e-05,-0.00137258612085,1.66221852851e-05,-0.000352751463652,-2.33021419263e-05,0.000362691789633,-0.000156822236022,0.467934096776,0.00859728255772,0.119805738066,0.00604264919186,0.946574431316,0.322428303809,-0.000566534026961
0.163787811995,0.130738422275,-0.139108747244,-2.51095700264,0.0129710221663,2.64294791222,-0.642119467258,0.0580939874053,-0.000202875686227,0.00261989445426,0.00112553779036,-9.99787152978e-05,-3.71908281522e-05,0.000154929395649,-0.000193430198124,0.467939183871,0.00860077696095,0.119807796585,0.00604603206469,0.946572525168,0.322433854794,-0.000555935373016
0.163790225983,0.13073694706,-0.139107748866,-2.51095342636,0.0129694472998,2.64295983315,-0.642118036747,0.0580939874053,-0.000189126119949,0.000543411530089,-2.39581149799e-05,-0.000465969234938,0.00011893644114,-0.000114056078019,-0.000327295274474,0.467943706755,0.00860166912142,0.119809905216,0.00604860164107,0.946572424455,0.322434116015,-0.000547902417975
0.163790076971,0.130739375949,-0.139105796814,-2.51095199585,0.0129707185552,2.64297485352,-0.642118632793,0.0580939874053,0.000233188053244,0.00294219981879,-5.23799963048e-06,0.000144680932863,-2.3919472369e-05,-5.88535949646e-05,7.75708122092e-06,0.467946244963,0.00860259175201,0.119810373855,0.00605021591847,0.946572035138,0.322435236961,-0.000542987732693
0.16379122436,0.130742698908,-0.139103859663,-2.51094937325,0.0129690198228,2.64298772812,-0.642118275166,0.0580939874053,0.000541367568076,0.00041226419853,-0.000109909320599,2.93146467811e-06,6.2939732743e-05,-6.42788145342e-05,0.000157728834893,0.467949679669,0.0086040240658,0.119810864675,0.00605258368677,0.946571326497,0.322437282316,-0.000537351077577
0.163794487715,0.130739077926,-0.139102727175,-2.51095056534,0.0129706263542,2.64301395416,-0.642118453979,0.0580939874053,-0.000272780656815,-0.00269758142531,6.27023327979e-05,0.000405163213145,-0.000110349283204,0.00234822672792,-5.32694093636e-06,0.467955519331,0.00860636486925,0.119814442698,0.0060563136974,0.946570784246,0.322438826908,-0.000523513937856
0.163793906569,0.130741238594,-0.139102250338,-2.5109500885,0.0129714189097,2.64302039146,-0.642118096352,0.0580939874053,1.90886894416e-05,0.00333811808378,0.000454405002529,-0.000328348047333,1.40879055834e-05,0.000160360810696,-0.000396961957449,0.467956869965,0.00860644622179,0.119814233261,0.00605702114003,0.946570908243,0.322438453904,-0.000520860595094
0.16379404068,0.130743011832,-0.139102488756,-2.51094579697,0.0129692098126,2.64302873611,-0.642118632793,0.0580939874053,-1.30737707877e-05,-0.000560292799491,0.00117673259228,-9.70243490883e-05,1.89207344192e-06,0.000395756418584,-0.000144374833326,0.467960481664,0.00860646152874,0.119815703362,0.0060593108709,0.946570507609,0.322439594796,-0.000516015928489
0.16379904747,0.130741342902,-0.139096707106,-2.5109474659,0.0129709290341,2.64305186272,-0.642118513584,0.0580939874053,0.000827101874165,0.000362145801773,0.000402537756599,-0.00250619486906,-0.000115559494589,0.00015129406529,7.27478618501e-05,0.467964814182,0.00861160706257,0.119817769513,0.00606198726694,0.946569052116,0.322443834713,-0.000505004376778
0.163798898458,0.130745261908,-0.139096051455,-2.51094722748,0.0129694975913,2.64305996895,-0.642118632793,0.0580296330154,0.000116691051517,0.000893996329978,-0.000342542363796,-0.000346785353031,-0.000118655669212,-0.000126937695313,-0.000126867525978,0.467965879068,0.00861172291235,0.119816749845,0.00606323604987,0.946568731307,0.322444756028,-0.000503069762039
0.163799226284,0.130752399564,-0.139097079635,-2.51095032692,0.0129710333422,2.64306497574,-0.642117977142,0.0580296330154,-6.74820785207e-06,0.000934110605158,-0.000223552735406,-0.000526230607647,2.45365299634e-05,-3.93808695662e-05,-0.000228920296649,0.467963884854,0.00861112547606,0.119812826151,0.00606268001558,0.946569162095,0.32244349793,-0.000505582185749
0.163799196482,0.130756646395,-0.139098599553,-2.51095366478,0.0129719609395,2.64307141304,-0.642116785049,0.0580296330154,0.000121161450807,0.00014472877956,-0.000222901857342,-0.000228197895922,1.35859609145e-05,-0.000135257010697,9.39819437917e-05,0.467962698353,0.00861020422958,0.119810290182,0.00606271568913,0.946569729029,0.322441832057,-0.000506154901098
0.163800626993,0.130762413144,-0.139096811414,-2.51095795631,0.0129710529,2.64307546616,-0.642118930817,0.0580296330154,-0.000135893205879,0.00024693144951,-7.90930425865e-05,-4.02914338338e-05,-1.22868877952e-05,4.08512460126e-05,6.41360602458e-05,0.467960123892,0.00861145999346,0.119806481101,0.00606232153201,0.946568737873,0.322444744377,-0.000509167095978
0.163801342249,0.130769640207,-0.139092326164,-2.51096200943,0.012971540913,2.64307641983,-0.642118752003,0.0580296330154,0.000588837254327,0.000352034257958,0.000264186150162,-0.000288261595415,-4.56425732409e-06,6.62303064018e-05,-0.000225745010539,0.467956657597,0.00861368545258,0.119801779205,0.00606087543768,0.946568009393,0.322446902236,-0.00051411128543
0.163800626993,0.130774319172,-0.139093950391,-2.51096367836,0.0129708368331,2.64307904243,-0.642116069794,0.0580296330154,-0.00250635133125,0.00111601012759,-6.22006336926e-05,-0.000130255095428,-8.006230928e-05,-6.8426670623e-06,0.000180310191354,0.467955414197,0.00861234901788,0.119799282989,0.00606091303931,0.946568712161,0.322444835412,-0.000516038519836
0.163797438145,0.130777046084,-0.139096975327,-2.51096582413,0.0129714459181,2.64308047295,-0.642117619514,0.0580296330154,0.00248573161662,0.000471180537716,0.00276979221962,1.7201382434e-05,1.26079949041e-05,-0.000109146880277,-0.000314609293127,0.467954113889,0.00860925625364,0.119797432442,0.00606064521733,0.94656954697,0.322442387048,-0.000517736528669
0.16379493475,0.130787014961,-0.139097079635,-2.51096582413,0.0129714347422,2.64308452606,-0.642118990421,0.0580296330154,-0.000523300725035,0.000547458068468,0.000319031649269,-0.000463131000288,3.24105276377e-05,3.19920741276e-06,0.000334591255523,0.467952926335,0.00860770374519,0.119793175935,0.00606046265422,0.946569730595,0.322441846588,-0.000520740036902
0.163794204593,0.130786925554,-0.139097809792,-2.51096892357,0.012970963493,2.64308547974,-0.642115652561,0.0580296330154,0.00014592554362,-0.00234390585683,-5.49420947209e-05,-0.000429941283073,2.06112308661e-05,0.000641591846943,0.000311916635837,0.46795157168,0.00860693677607,0.1197922381,0.00606031014553,0.946570442083,0.322439759134,-0.000521759794268
0.163796067238,0.130785956979,-0.139096081257,-2.51096987724,0.0129714366049,2.64308547974,-0.642117083073,0.058885268867,-0.000108508618723,-0.000260199536569,-0.000226392439799,0.000238073887886,0.000114824390039,3.72130452888e-05,0.000361684767995,0.467951244901,0.00860868574584,0.119792341863,0.00606002935732,0.946569706289,0.322441924572,-0.000521676086472
0.16380046308,0.130788713694,-0.13909329474,-2.51096749306,0.0129709718749,2.64309167862,-0.642119109631,0.058885268867,0.000188610560144,0.000808175071143,7.69713369664e-05,-0.000142904566019,7.20975440345e-05,-0.00017015991034,5.04549825564e-05,0.467953176019,0.00861207635177,0.119792413292,0.00606104299077,0.946568141965,0.322446502176,-0.000518940084485
0.16379751265,0.130789756775,-0.139094755054,-2.51096844673,0.0129703087732,2.64309215546,-0.642117202282,0.058885268867,-0.000608683098108,-9.0521738457e-05,0.00209703692235,0.000279064057395,-2.86871500066e-06,0.0014476487413,-8.22776200948e-05,0.467952613943,0.00860990699285,0.119791656289,0.00606113307656,0.946569064205,0.322443791841,-0.000519756804617
0.163784012198,0.130786627531,-0.139104053378,-2.51097083092,0.0129720959812,2.64309334755,-0.64211755991,0.058885268867,0.000135485985084,-0.000297017657431,-0.000372447015252,-0.000162048730999,0.000143589859363,0.000144230143633,-2.77822218777e-05,0.467952540583,0.00859913643325,0.11979246935,0.00606140446279,0.946572927619,0.322432446556,-0.000518816920983
0.163789585233,0.130788192153,-0.139101862907,-2.51097106934,0.0129716889933,2.64309573174,-0.642116725445,0.058885268867,0.000877325190231,0.000203746996704,0.000464270618977,0.000299548992189,-7.21899632481e-05,-6.61910817144e-05,-1.46047468661e-05,0.467952533613,0.00860276055925,0.119791854442,0.00606156258007,0.946571751875,0.322435895652,-0.000518550311071
0.163795083761,0.130791202188,-0.139096707106,-2.5109629631,0.0129713276401,2.64309763908,-0.642119288445,0.058885268867,2.08330789064e-06,0.000503917806782,-0.000134471352794,-0.000501505914144,1.41574237205e-05,-0.000149608284119,-0.000245055969572,0.467956382622,0.00860791941108,0.119793383381,0.00606257003682,0.946569552226,0.322442339486,-0.000515207177816
0.163792148232,0.130789414048,-0.139098525047,-2.51096367836,0.0129710668698,2.64309978485,-0.642119050026,0.058885268867,-0.00351837556809,0.000305143854348,-0.000187543482753,0.000457282440038,-0.000106816893094,2.72785564448e-05,0.000307993206661,0.467956908421,0.00860570244903,0.119794170734,0.00606311614987,0.946570316301,0.322440088577,-0.000513699089649
0.163792714477,0.130788967013,-0.139098539948,-2.51096701622,0.0129713490605,2.64310097694,-0.642117023468,0.058885268867,-0.000254437705735,-0.00072432809975,-0.000113332840556,-0.000535007275175,-9.23482220969e-05,-7.98998880782e-05,-0.000148581064423,0.467955537411,0.00860592303014,0.119793330727,0.0060627772391,0.946570601442,0.322439256637,-0.000514475508054
0.163797661662,0.130786851048,-0.139094784856,-2.51096940041,0.0129709728062,2.64310193062,-0.642118096352,0.058885268867,0.000150286577991,-0.000181115829037,-0.000201780916541,1.84125765372e-05,-0.000158734357683,3.57375574822e-06,-0.000185469092685,0.467954870309,0.00861010388459,0.119793538682,0.00606258855018,0.946568984553,0.322444007403,-0.000514081829861
0.163791686296,0.13077108562,-0.139099821448,-2.51095366478,0.0129703748971,2.64310741425,-0.64211755991,0.058885268867,-0.00046240381198,-0.000728348852135,-0.000556371756829,0.00523972278461,8.00788475317e-05,5.76903803449e-05,1.71980682353e-05,0.467967616496,0.00860569576464,0.119806804494,0.00606752611213,0.946570714333,0.32243886436,-0.000496318757419
0.163789585233,0.130753234029,-0.139099240303,-2.51094055176,0.0129717560485,2.64311242104,-0.642117202282,0.058885268867,0.000266947492491,-0.00134214572608,0.00395047524944,0.000986493541859,0.000241834786721,0.00024376132933,0.000560002517886,0.467979237075,0.00860593444362,0.119820038616,0.0060713618871,0.946571186335,0.322437433058,-0.000478765799039
0.163795232773,0.130744621158,-0.139096438885,-2.51093626022,0.0129704345018,2.64311861992,-0.642119467258,0.058885268867,0.000688688014634,0.000328101828927,0.000341908918926,0.000454148830613,-4.66628298454e-05,0.000145432291902,-0.000167331076227,0.467984532224,0.00861032741094,0.119826034599,0.00607378443969,0.94656926024,0.322443055284,-0.000469573753336
0.16380263865,0.130742013454,-0.139091953635,-2.51093149185,0.0129716284573,2.64312577248,-0.642118573189,0.058885268867,-8.21370194899e-05,0.000472749932669,-0.000149072759086,0.000114965056127,0.000106466155557,0.00148199114483,-5.77238133701e-05,0.467989302725,0.00861628771899,0.119829536636,0.00607541753969,0.946567591358,0.322447934535,-0.000462054657161
0.163802832365,0.130743667483,-0.139090642333,-2.51092886925,0.0129695981741,2.64313769341,-0.642117321491,0.059183396399,0.00034846944618,-0.00010798178846,0.000222759394092,0.000297028396744,0.000184852804523,-2.69309639407e-05,0.000130213215016,0.467992573967,0.00861696798985,0.119830668342,0.00607772759143,0.946567287454,0.3224487911,-0.000456459960989
0.163803219795,0.130741938949,-0.139089822769,-2.51092529297,0.0129695693031,2.64313960075,-0.642118513584,0.059183396399,5.99713384872e-05,-0.00366915087216,3.72568283638e-05,0.000105076891487,5.84682784392e-05,-7.03642672306e-06,0.000170303464984,0.467995184407,0.00861768947914,0.119832865896,0.00607864987337,0.946566886775,0.322449954828,-0.000452986857268
0.163800343871,0.130746051669,-0.139090374112,-2.51092553139,0.0129714524373,2.64314222336,-0.642116844654,0.059183396399,1.59364954015e-05,-0.000463387288619,-0.000282067863736,0.000160810726811,2.13804796658e-05,-4.24056415795e-05,-0.000378869619453,0.467994801344,0.00861598765633,0.119831115496,0.00607828963477,0.946567969778,0.322446781322,-0.000453749206565
0.16379801929,0.130746528506,-0.139091745019,-2.51092123985,0.0129706971347,2.64314365387,-0.642118394375,0.059183396399,-0.000200353126274,0.000742922362406,4.98083318234e-05,-4.9373084039e-05,-3.33168691213e-06,0.000441148498794,0.000564179557841,0.467997264724,0.00861427891885,0.119832516054,0.00607936892581,0.946568191541,0.322446113349,-0.00045134413211
0.163802042603,0.130744710565,-0.139088973403,-2.51092100143,0.0129704969004,2.64314627647,-0.642119109631,0.059183396399,0.000290527037578,0.000326293724356,0.000673973874655,9.51785114012e-06,-0.000115931783512,4.37132221123e-05,0.000260965141933,0.467998272738,0.00861759730789,0.119833648356,0.00607982666961,0.946566953383,0.32244974261,-0.000449053724233
0.16380186379,0.130743041635,-0.139088958502,-2.51092028618,0.0129697760567,2.64314699173,-0.642118573189,0.059183396399,-0.000105084473034,0.000927542743739,-0.000104990242107,-9.0909352366e-06,-8.1035628682e-05,-0.000156630892889,0.000280115462374,0.467999150556,0.00861757624582,0.119834731843,0.00608034309534,0.946566961517,0.322449711014,-0.000447602828559
0.163800984621,0.130744829774,-0.139089792967,-2.51091909409,0.0129707539454,2.64314746857,-0.642117977142,0.0579528026283,-4.88753357786e-07,-0.000279984233202,-0.000230804667808,-0.000327432149788,-0.000163685035659,3.67204229406e-05,-0.000557168619707,0.467999598299,0.0086166708977,0.119834552408,0.0060803267511,0.946567444404,0.322448294016,-0.000447432976595
0.163796946406,0.130746781826,-0.139090448618,-2.51091980934,0.0129702454433,2.64314866066,-0.642117857933,0.0579528026283,-0.000136528760777,-0.000420907948865,0.000157355287229,0.000116018556582,9.91709457594e-05,8.0425212218e-05,-9.69802640611e-05,0.467999036452,0.00861444187525,0.119833325245,0.00608035331544,0.946568167629,0.322446169057,-0.000448423643915
0.163799643517,0.130753055215,-0.139089003205,-2.51092743874,0.0129715278745,2.64315080643,-0.64211833477,0.0579528026283,-0.000270605261903,0.00117459776811,-0.00329893012531,-3.34365759045e-05,-2.8449589081e-05,7.69928083173e-05,0.000113796777441,0.467994210271,0.00861609107026,0.119827961672,0.00607865129488,0.946567620492,0.322447799486,-0.000454014187949
0.163797944784,0.13075967133,-0.139088734984,-2.51092600822,0.0129703525454,2.64315199852,-0.642117917538,0.0579528026283,0.000130524698761,0.000406490726164,-0.000385741033824,0.00341805466451,6.38937344775e-05,4.13495763496e-05,-0.000280484266113,0.467993835098,0.00861508810753,0.119825317327,0.00607875731333,0.946567752456,0.322447406891,-0.000456286038229
0.163800522685,0.130770817399,-0.139089345932,-2.51092863083,0.0129726650193,2.64315247536,-0.642118036747,0.0579528026283,6.59441720927e-05,0.00102049496491,-0.000292990560411,-0.00324224610813,4.23499113822e-05,-0.00021012504294,0.000136544462293,0.467990221334,0.00861573147896,0.119819474261,0.00607704078285,0.946567731435,0.322447492155,-0.000462464630704
0.163798496127,0.130769580603,-0.139087513089,-2.51093316078,0.0129714105278,2.64315247536,-0.642117917538,0.0579528026283,0.000254787068116,0.000140952746733,0.000120084107039,-0.000154540888616,8.84428809513e-05,-7.65484128351e-06,0.000272960023722,0.467988139941,0.00861560362929,0.119818466724,0.00607663459969,0.946567618622,0.32244782864,-0.00046409323376
0.163798540831,0.130775615573,-0.13909034431,-2.51093459129,0.0129716135561,2.64315223694,-0.642117500305,0.0579528026283,0.00011850707233,0.000264993315795,-0.000216240587179,0.000304119545035,9.22880717553e-05,0.000363509869203,-2.08473284147e-05,0.467986117479,0.00861399996775,0.119815181542,0.00607602604018,0.946568158887,0.322446248633,-0.000467887887174
0.163794234395,0.13078571856,-0.139090836048,-2.51093840599,0.0129715679213,2.64315080643,-0.642119109631,0.0579528026283,-0.00107250164729,0.00101260270458,0.000282789522316,-0.000427447841503,0.000119173237181,-0.000190286067664,-0.000136358794407,0.467981756368,0.00861130973148,0.119809062724,0.00607445040991,0.946568670515,0.3224447654,-0.000475400240293
0.163794055581,0.130790114403,-0.139090254903,-2.51094031334,0.0129718147218,2.64315342903,-0.642118036747,0.0579528026283,0.000598870101385,-0.00034452858381,0.000879491155501,-0.000101819990959,3.69306617358e-05,1.22197352539e-05,0.000163553399034,0.467980415794,0.00861133928207,0.119806595374,0.00607411809704,0.946568812376,0.322444352552,-0.000477201986573
0.16379481554,0.13078981638,-0.139090254903,-2.51094436646,0.0129707427695,2.64315128326,-0.642116844654,0.0579528026283,-0.000736581219826,-0.00092056801077,0.00233186245896,-0.000166139172507,-6.23159648967e-05,5.98768165219e-05,-7.2994371294e-05,0.467977913341,0.00861158745058,0.119805143813,0.00607345176817,0.946568743168,0.322444563992,-0.00048008593146
0.163793697953,0.130793228745,-0.139091715217,-2.51094269753,0.0129716554657,2.64315295219,-0.642118275166,0.0579528026283,-0.000411569111748,0.000485983822728,-0.000114803966426,0.000301331107039,7.47170852264e-05,-1.92499337572e-05,0.000184520948096,0.467978449414,0.00861029294583,0.119804300371,0.00607356408431,0.946569046399,0.322443671632,-0.000480136762408
0.163790792227,0.130800530314,-0.139092028141,-2.51094079018,0.0129721723497,2.64315271378,-0.642117738724,0.0579528026283,4.72212122986e-05,0.000162860596902,-2.4555998607e-05,2.57950468949e-05,7.81142152846e-05,-5.0897768233e-05,-9.54774150159e-05,0.467977873733,0.0086085760424,0.119801559066,0.00607311545796,0.946569715165,0.322441712694,-0.000482913203892
0.163792535663,0.130797043443,-0.139091581106,-2.5109436512,0.0129710081965,2.64315295219,-0.642117440701,0.0579528026283,0.0002821139351,-0.000460313225631,0.000407666608226,-0.000524050847162,0.000135841270094,3.09973329422e-05,-2.93053872156e-05,0.467977163829,0.00860964589174,0.119802203381,0.00607324804285,0.946569254161,0.322443064114,-0.000482522126538
0.163795441389,0.130794137716,-0.139089167118,-2.5109436512,0.0129718836397,2.64315533638,-0.642117977142,0.0588255114853,-4.57931528217e-05,-0.000163871605764,-0.000202145718504,0.000332256167894,-3.63987346645e-05,6.40668949927e-05,0.000260127242655,0.467978239556,0.00861232703963,0.119803738714,0.00607350096158,0.946568437573,0.322445460523,-0.000479847879421
0.16379378736,0.130794420838,-0.139088883996,-2.51094532013,0.0129707893357,2.64315485954,-0.642117738724,0.0588255114853,-0.000146623759065,0.0031353267841,0.000281440414255,2.07332086575e-05,1.66049849213e-05,0.000138685863931,-8.70858566486e-05,0.467977226216,0.00861161758584,0.119802986815,0.00607338575099,0.946568546125,0.32244514217,-0.000481094915133
0.163792863488,0.13079610467,-0.139092415571,-2.51094555855,0.0129722636193,2.64315366745,-0.642117440701,0.0588255114853,-0.000613338605035,0.000292105949484,-0.00253603304736,-9.44590574363e-05,-0.000127581573906,-7.56560548325e-05,-4.91606333526e-05,0.467976541913,0.00860942192094,0.119802049785,0.00607291970283,0.946569518169,0.32244229524,-0.000482543711817
0.16378697753,0.130794242024,-0.139093846083,-2.5109436512,0.0129727954045,2.64315366745,-0.642117142677,0.0588255114853,-0.000519714376424,-1.24768384921e-05,7.20286916476e-05,0.000272647215752,-0.000139714786201,0.000109389780846,0.000400848279241,0.467978117885,0.00860601586121,0.119803589228,0.00607352589466,0.946570858856,0.322438350892,-0.000480634751796
0.163787662983,0.130795419216,-0.139094501734,-2.51094317436,0.0129713742062,2.64315295219,-0.642116367817,0.0588255114853,0.000196515960852,-0.00264759291895,6.34636162431e-05,0.000562637520488,0.000101011624793,-3.15751094604e-05,-0.000281547312625,0.467977831292,0.00860600618226,0.119803145981,0.00607355518803,0.946570730656,0.322438725375,-0.000481516956999
0.163801923394,0.130795523524,-0.139087185264,-2.51094102859,0.0129714133218,2.64315223694,-0.642118394375,0.05917551741,-0.000416343798861,1.52127704496e-05,0.00324481236748,-0.000176787463715,-3.27395027853e-05,-0.00389916752465,1.85431017599e-05,0.467978540789,0.00861631163005,0.119803710625,0.00607328090449,0.946566939259,0.322449861737,-0.000480744133468
0.163796231151,0.13079315424,-0.139090910554,-2.51093697548,0.0129718352109,2.64315009117,-0.64211755991,0.05917551741,-0.000747336482164,-0.000260854838416,-0.000291463336907,-0.000510493293405,-0.000162196200108,-4.62507305201e-05,-0.000126306520542,0.467980757138,0.00861198139925,0.119806050332,0.00607388903536,0.946568640518,0.32244485916,-0.000478695035305
0.163784295321,0.130794167519,-0.139095634222,-2.51093316078,0.0129731474444,2.64314198494,-0.642116606236,0.05917551741,-0.00238590524532,5.32599005965e-05,7.0667862019e-05,-0.000143777288031,7.12738037691e-05,0.000123331512441,8.70148069225e-05,0.467980901826,0.00860411561714,0.119806221527,0.00607312503524,0.946571661762,0.322436000489,-0.000481226985219
0.163782998919,0.130795165896,-0.13909702003,-2.51091980934,0.0129725728184,2.64311313629,-0.642116963863,0.05917551741,-0.00106927216984,-0.00174225284718,0.000238649023231,-0.000106338848127,-5.31898913323e-05,-0.00264134909958,0.000176088520675,0.467981295519,0.00860291726478,0.119807826308,0.00607079785103,0.946571963486,0.322435146645,-0.000489134717683
0.163795262575,0.130797877908,-0.139089733362,-2.51077365875,0.0129721136764,2.64284396172,-0.642116844654,0.05917551741,0.000303986947984,0.000516407832038,-7.52429696149e-05,0.010641942732,-0.000265775102889,-0.0143805444241,0.000133522655233,0.46799700159,0.00861385750141,0.119833133674,0.00605043527961,0.946568831888,0.322444626915,-0.000548628911796
0.163793459535,0.130798667669,-0.139089465141,-2.51058244705,0.0129706682637,2.64242839813,-0.642116367817,0.05917551741,-0.000494880427141,0.000758047797717,0.000173894455656,0.00910049676895,6.92388057359e-05,-0.033238556236,0.000103107347968,0.468004638924,0.00861529305035,0.119860160887,0.00601828288392,0.94656888943,0.322444879875,-0.000645727950643
0.163791447878,0.130812868476,-0.139090806246,-2.51026344299,0.0129705518484,2.64158964157,-0.642116308212,0.05917551741,-0.000116081784654,0.00128149904776,0.000248447235208,0.0216749701649,-2.23016395466e-05,-0.0622730217874,0.000187363548321,0.467982533571,0.00861568198278,0.119891404802,0.00593201810546,0.946570090861,0.322442316289,-0.000909177523001
0.163794621825,0.130801722407,-0.139086902142,-2.50975823402,0.0129685476422,2.64013290405,-0.642117023468,0.05917551741,0.000264202069957,-0.00257526268251,-0.000250711163972,0.0362771227956,3.54214389517e-05,-0.102488435805,-0.000276800506981,0.467926437289,0.00862316511805,0.119942346114,0.00578354381542,0.946569312738,0.322445730747,-0.00135543898592
