imanlab/tactile_prediction_flat_dataset/test/data_sample_2021-11-25-13-39-50/robot_state.csv
position_panda_joint1,position_panda_joint2,position_panda_joint3,position_panda_joint4,position_panda_joint5,position_panda_joint6,position_panda_joint7,position_panda_finger,velocity_panda_joint1,velocity_panda_joint2,velocity_panda_joint3,velocity_panda_joint4,velocity_panda_joint5,velocity_panda_joint6,velocity_panda_joint7,ee_state_position_x,ee_state_position_y,ee_state_position_z,ee_state_orientation_x,ee_state_orientation_y,ee_state_orientation_z,ee_state_orientation_w
0.0136104151607,0.00332920020446,-0.0349925495684,-2.50760698318,0.117756709456,2.51121497154,-0.891837179661,0.0490103177726,0.000914913078304,-0.000633872754406,-0.000249266537139,0.000294961908367,7.18194351066e-05,0.000221331021748,0.000118664524052,0.465041942533,-0.00314818932817,0.168499363698,-0.0310231075745,0.925244026749,0.377788212405,0.015398831514
0.0136077273637,0.00332692079246,-0.0349952578545,-2.50760650635,0.117757722735,2.51121377945,-0.891836702824,0.0490103177726,-0.000371350004571,5.09333076479e-05,-0.000656034215353,-0.000483015610371,-0.000240068286075,-2.7836758818e-05,0.000199593981961,0.465042277479,-0.00315060417693,0.168500505699,-0.0310231099616,0.92524525128,0.377785173916,0.0153997949824
0.0136049129069,0.00333289825357,-0.0349952541292,-2.50760674477,0.117757588625,2.51121330261,-0.891836464405,0.0490103177726,-0.00021663068037,-0.000392513233237,-0.000169051840203,-0.000574003905058,-4.98570225318e-05,9.55805298872e-05,7.49493046897e-05,0.465041066535,-0.0031519149012,0.168497593414,-0.0310243086032,0.925245853609,0.377783725665,0.015396719132
0.0136074749753,0.00333060673438,-0.0349940434098,-2.50760793686,0.117759250104,2.51121306419,-0.8918364048,0.0490103177726,-0.00242869951762,-0.000332825700752,0.000229260942433,7.84903095337e-05,9.55309315032e-06,-7.79402689659e-05,0.000134496862302,0.465040842431,-0.00315003941954,0.168498189997,-0.0310246548942,0.925245379228,0.377784835742,0.0153972910634
0.0136081259698,0.00332911475562,-0.0349939316511,-2.50760817528,0.117757178843,2.51121330261,-0.891837835312,0.0490103177726,-0.000162754105986,0.00470101227984,0.000660544261336,0.00026620310382,2.32394304476e-05,-0.000131353517645,4.54734072264e-05,0.465041035354,-0.00314956538415,0.168498629161,-0.0310238905873,0.925244612422,0.377786765741,0.0153975553817
0.0136100472882,0.00332851544954,-0.0349929742515,-2.50760507584,0.117756955326,2.51121282578,-0.891836822033,0.0490103177726,5.79150837439e-05,0.000347683526343,-0.00105552293826,0.000374254072085,2.97655678878e-05,-0.000122443569126,-4.53136854048e-05,0.465042590306,-0.0031486151982,0.168500356017,-0.0310232758443,0.925244195399,0.377787767853,0.0153992655794
0.013608712703,0.00332951708697,-0.0349951833487,-2.50760626793,0.117756858468,2.51121163368,-0.891836702824,0.0490103177726,-9.163822142e-06,7.79878973844e-05,0.000279775209492,-0.000529862707481,-5.9535192122e-05,7.53009953769e-06,-0.000211122518522,0.465041200149,-0.00315000924676,0.168498949079,-0.0310240232463,0.925244779092,0.377786357957,0.015397277979
0.0136077711359,0.00333258276805,-0.0349944084883,-2.50760793686,0.117758020759,2.51121234894,-0.891836941242,0.0490103177726,-0.000171577717992,3.03693141177e-05,-0.000453636312159,0.000258911313722,-4.88550176669e-05,-9.35867792577e-05,0.000431990571087,0.465040253916,-0.00315028960612,0.168497047486,-0.0310250352078,0.925245338029,0.377784970371,0.0153956971361
0.0136070623994,0.00332854920998,-0.0349941216409,-2.50760602951,0.11775778234,2.51121091843,-0.891837596893,0.0490103177726,0.000574997102376,0.000126818209537,-0.000137215582072,0.00153536640573,0.000138463699841,-9.81771590887e-05,-0.000400836026529,0.465041619397,-0.00315029932962,0.168499681368,-0.0310240174186,0.92524499052,0.377785810406,0.0153980193692
0.0136070447043,0.00332652055658,-0.0349926389754,-2.50760555267,0.117756776512,2.51121163368,-0.891836941242,0.0490103177726,0.000209332371014,-0.000340205908287,-0.000309328432195,4.69054157293e-06,3.40796614182e-05,-0.000132869667141,0.000205679214559,0.465042390155,-0.00314979502406,0.168501017959,-0.0310231511568,0.925244767032,0.377786367425,0.0153995273838
0.0136097036302,0.00332680600695,-0.0349963083863,-2.50760626793,0.117757715285,2.5112118721,-0.891838490963,0.0490109734237,-1.50966661749e-05,-0.000239295215579,5.15229949087e-05,0.000279162486549,-0.000131971391966,-5.28732452949e-05,0.000257148145465,0.465041999671,-0.00315011673744,0.168500483829,-0.0310234918277,0.925244721162,0.377786467788,0.0153991349518
0.0136076770723,0.00332747329958,-0.0349946096539,-2.5076084137,0.117758415639,2.51121115685,-0.891839027405,0.0490109734237,-0.000214297251659,-0.000219319044845,-0.00028491782723,-0.00022910394182,-8.78074424691e-05,6.33964154986e-05,0.000202838113182,0.465040708107,-0.00315018502403,0.168499295496,-0.0310243937327,0.925244797995,0.37778626676,0.0153976331608
0.0136082861573,0.00333277252503,-0.0349943563342,-2.50760626793,0.117757439613,2.51121139526,-0.891836941242,0.0490109734237,0.00156793475617,0.000178944581421,0.000129356893012,0.000162611526321,-1.41920754686e-05,7.10162275936e-05,0.000191532293684,0.465040914569,-0.00314988124316,0.16849766695,-0.0310246425653,0.925244917048,0.377786017883,0.0153960840815
0.0136065278202,0.00333053967915,-0.0349944382906,-2.5076072216,0.117756672204,2.51121091843,-0.891838908195,0.0490109734237,0.000452796084573,0.000164734068676,5.73433680984e-05,2.09845038626e-05,-4.57898167951e-05,1.38087007144e-05,0.000457634654595,0.465040709496,-0.00315075142537,0.168498296721,-0.0310243074151,0.925244769081,0.377786393445,0.0153964362531
0.0136091848835,0.00332915503532,-0.0349931828678,-2.50760626793,0.117756940424,2.51121091843,-0.891836047173,0.0490109734237,1.64027114806e-05,-0.000291491742246,-0.00238412222825,-0.000158901893883,4.028933472e-05,-6.82503159624e-05,5.04998934048e-05,0.465041495352,-0.00314898344251,0.168499316913,-0.0310239767341,0.925244572712,0.377786858731,0.0153974863803
0.0136067019776,0.00332861160859,-0.0349932275712,-2.50760746002,0.11775714159,2.51121020317,-0.89183652401,0.0490109734237,0.000203882431379,0.000781528826337,-0.000250257784501,8.71655902301e-06,-1.48308354255e-05,-6.37839330011e-05,0.000209246587474,0.465040764421,-0.00315005046848,0.168499041766,-0.0310243302987,0.925245006388,0.377785790898,0.0153969140264
0.013607702218,0.00332869542763,-0.034995470196,-2.50760674477,0.117758274078,2.51121020317,-0.891838550568,0.0490109734237,-0.000326166948071,0.000194029547856,1.69934264704e-05,0.000124751444673,-9.05262786546e-05,0.000171609033714,0.000111327768536,0.465041097768,-0.00315057186547,0.168499280244,-0.0310244739221,0.925245016057,0.377785735646,0.0153973992685
0.013606227003,0.00332999741659,-0.0349953658879,-2.50760602951,0.117756910622,2.51121091843,-0.891835212708,0.0490109734237,-0.000306024041492,-0.000215970503632,-0.000207008692087,-2.56068451563e-05,-7.80692353146e-05,-0.00155289110262,-0.000230641409871,0.465041368774,-0.00315132046858,0.168499004559,-0.031024052015,0.92524572029,0.377784052549,0.0153972271365
0.0136065008119,0.00333233410493,-0.0349936373532,-2.5076084137,0.117758564651,2.5112092495,-0.891835570335,0.0490109734237,-0.00061068602372,0.00042702423525,-0.00040981406346,6.43292878522e-05,0.000160393363331,-0.00214130105451,0.000434759567725,0.465039494891,-0.00315022154403,0.168496869827,-0.031025807567,0.925245535479,0.377784471855,0.0153945071168
0.0136077608913,0.0033296935726,-0.0349947027862,-2.50760698318,0.117757923901,2.51121091843,-0.891837120056,0.0490109734237,-0.000265385082457,-0.000497423519846,-0.00154894602019,0.000463863252662,7.32065600459e-05,-5.165118273e-05,-0.000442971184384,0.46504097462,-0.00315022974953,0.168498786097,-0.0310244569552,0.925245094838,0.37778555798,0.0153970586321
0.0136094642803,0.00332717131823,-0.034992441535,-2.50760674477,0.117758087814,2.51121020317,-0.8918364048,0.0490103177726,0.000406128441682,0.000503759365529,-6.92690809956e-05,-5.60276457691e-05,-7.74429863668e-05,-1.92131265067e-05,7.59058020776e-05,0.465041362273,-0.00314834962468,0.168499988044,-0.0310242045453,0.925244477542,0.377787053058,0.0153979782778
0.0136104281992,0.00332762883045,-0.0349934957922,-2.50760579109,0.117757588625,2.5112092495,-0.891835451126,0.0490103177726,-0.0001758527942,-0.000246331997914,-5.82329266763e-05,0.000177521535079,-6.19978090981e-05,-0.000104757942609,-0.000359382014722,0.465041534238,-0.00314840161655,0.168500054039,-0.0310242019336,0.925244592933,0.377786781739,0.0153977066398
0.0136071657762,0.00332594360225,-0.0349939130247,-2.50760579109,0.117756269872,2.51121091843,-0.891837477684,0.0490103177726,-0.000167915670318,-0.000121031887829,0.000195827597054,-0.00157776090782,-2.04726366064e-05,4.6021577873e-05,9.49860550463e-05,0.465042153243,-0.00315023765573,0.168500977733,-0.0310230984743,0.925244714964,0.377786515149,0.0153991378478
0.0136061627418,0.00333377043717,-0.0349942222238,-2.50760746002,0.117756649852,2.51120901108,-0.89183819294,0.0490103177726,-0.000158836672199,-0.00347785768099,-0.000128470725031,0.000328184076352,1.67615089595e-05,0.000120795921248,-0.000224159666686,0.465039648954,-0.00315076656653,0.16849653734,-0.0310254039066,0.925244942624,0.37778597854,0.0153939781011
0.0136090777814,0.00332841998897,-0.0349931046367,-2.50760698318,0.117757856846,2.51120877266,-0.891835570335,0.0490103177726,5.03485243826e-05,-0.000558967178222,-0.000365961081116,0.000590453040786,7.44616627344e-05,7.45179568185e-05,-0.000247417774517,0.465040727038,-0.00314880663995,0.168499190977,-0.0310247615551,0.925244801646,0.377786268285,0.0153966352329
0.0136087695137,0.00332577107474,-0.034994199872,-2.50760698318,0.117756001651,2.51120901108,-0.891835749149,0.0490103177726,-0.000135075504659,-0.000889082730282,0.000115753566206,3.91600406147e-05,-9.54581628321e-05,3.24716638715e-05,0.000199119007448,0.465041197594,-0.00314956812905,0.168500435968,-0.0310237164945,0.925244747935,0.37778644002,0.0153977548287
0.0136078344658,0.00332550588064,-0.0349941626191,-2.50760602951,0.11775713414,2.51120734215,-0.891837000847,0.0490103177726,0.000406867824495,-0.000163308795891,-0.000273519544862,-0.000159908959176,3.37132805726e-05,-1.34511465149e-05,-3.12211413984e-05,0.465041341607,-0.00314987709149,0.168500782182,-0.0310241640449,0.925244822164,0.377786221033,0.0153977655516
0.0136069431901,0.00332846189849,-0.0349947027862,-2.50760579109,0.117757923901,2.51120638847,-0.891836583614,0.0490103177726,-6.24262656856e-06,-0.000629163696431,-1.64699213201e-05,-0.00301609234884,5.45593757124e-05,4.58678296127e-05,0.000152156397235,0.465040763653,-0.00315047667282,0.168499418804,-0.0310250865392,0.925245299292,0.377785040514,0.0153962005055
0.0136071387678,0.00332409562543,-0.0349947810173,-2.50760602951,0.11775688827,2.51120734215,-0.891836285591,0.0490103177726,0.000294483732432,0.000759540183935,-0.0003447252966,4.04347701988e-05,2.5958453989e-05,-5.03736118844e-05,5.56832746952e-05,0.46504156778,-0.00315049951131,0.168501436921,-0.0310238360544,0.925245159135,0.377785396885,0.01539839854
0.0136076910421,0.00332467257977,-0.0349930152297,-2.50760865211,0.117757216096,2.51120829582,-0.891838431358,0.0490103177726,0.000293653603876,-0.000567129231058,8.07183605502e-05,-0.00343865365721,-4.32211854786e-05,0.000153556160512,0.000480018352391,0.465040619569,-0.00314895284071,0.168500523235,-0.0310242159192,0.925244325693,0.377787429461,0.0153978447594
0.0136071108282,0.00333085819148,-0.0349944867194,-2.50760674477,0.117757491767,2.51120615005,-0.891836345196,0.0490103177726,-5.45808215975e-05,5.26807161805e-05,-2.24183495448e-05,-0.000549632357433,4.30131694884e-05,1.05914950836e-05,0.000375001895009,0.465039858166,-0.00315031105002,0.168497918344,-0.0310256621348,0.925245234175,0.377785222889,0.0153944787249
0.0136083485559,0.00333292060532,-0.0349945761263,-2.50760793686,0.117757119238,2.51120615005,-0.89183819294,0.0490103177726,-0.000133385809022,-0.00104603276122,0.00266259815544,0.000201309230761,-1.15330676635e-05,-5.82797511015e-05,-1.11985245894e-05,0.46503894769,-0.00314979092187,0.168496503204,-0.0310261716969,0.925244639967,0.37778669922,0.0153929353022
0.0136079955846,0.00332475709729,-0.0349942110479,-2.50760650635,0.117757640779,2.51120615005,-0.891836285591,0.0490103177726,0.000180992763489,-0.000226080373977,5.02042857988e-05,-0.000323574204231,-5.37586220162e-06,-0.00013853807468,-7.94803636381e-05,0.465040980832,-0.00314975147116,0.168500846609,-0.0310245499866,0.925244997569,0.37778577357,0.0153974265364
0.0136075476184,0.00333006726578,-0.0349954403937,-2.50760698318,0.117757230997,2.51120615005,-0.891834259033,0.0490103177726,-0.000124638085254,-0.000758128473535,1.67016532941e-05,0.00200381688774,-2.85140977212e-05,-0.000111270310299,7.85858283052e-05,0.465039870416,-0.00315056272049,0.168498194127,-0.0310255068391,0.925245684053,0.377784125688,0.0153946785521
0.0136072821915,0.00333307450637,-0.0349950939417,-2.50760698318,0.117758125067,2.51120591164,-0.891836881638,0.0490103177726,-0.000640180835035,0.000251930789091,7.26329017198e-05,0.000446050893515,9.09355367185e-05,8.73668323038e-05,5.22668524354e-05,0.465039330283,-0.00315047268407,0.168496778703,-0.0310263305695,0.925245323527,0.377784995922,0.0153933310782
0.0136070149019,0.0033300225623,-0.034994084388,-2.50760626793,0.117756910622,2.51120615005,-0.891837000847,0.0490103177726,0.000224120929488,3.10505383823e-05,-4.37181588495e-05,-0.000232811231399,-5.59008112759e-05,-0.000115983690193,-6.48516361252e-05,0.465040221601,-0.00315020474536,0.168498486419,-0.0310252592418,0.925244959013,0.377785907977,0.0153950162855
0.01360758394,0.00332951406017,-0.0349952243268,-2.50760674477,0.117758281529,2.51120638847,-0.891835391521,0.0490103177726,-0.000604859436862,2.77333128906e-05,-0.000364098348655,0.000274826801615,-5.84598310525e-05,0.000107808016764,-6.33481322438e-05,0.465039949689,-0.00315061146655,0.168498514874,-0.0310255506388,0.925245665918,0.377784145919,0.0153951837594
0.0136078670621,0.00332646048628,-0.0349942520261,-2.50760674477,0.117757603526,2.51120567322,-0.891835331917,0.0490103177726,0.000190903534531,-0.000163812685059,-0.000170029437868,0.00265673338436,-2.55299291894e-05,-0.000439461320639,0.000194479696802,0.46504048189,-0.00314981880563,0.168499921971,-0.0310250196196,0.925245216173,0.377785245555,0.015396299246
0.0136078242213,0.00332589470781,-0.0349958464503,-2.50760602951,0.117757573724,2.51120567322,-0.89183562994,0.0490103177726,0.000156066787895,0.000161752308486,-2.70766372523e-06,0.000192169041838,1.7119848053e-05,-7.39648749004e-05,0.000226397125516,0.46504091301,-0.00315058882887,0.168500457798,-0.0310247489321,0.925245455197,0.377784657267,0.0153969155305
0.0136076007038,0.00333237228915,-0.0349937751889,-2.50760626793,0.117757618427,2.51120638847,-0.891837000847,0.0490103177726,-8.36516046547e-05,-0.000364470848581,-0.000355418771505,-0.000403934915084,3.87284708268e-05,0.00125883531291,-9.54665374593e-05,0.465039894439,-0.00314976045992,0.168497417506,-0.0310258250133,0.925244911684,0.377786014532,0.0153941057764
0.0136057594791,0.00333015597425,-0.0349940620363,-2.5076072216,0.117757886648,2.51120591164,-0.891835391521,0.0490103177726,0.000492030405439,0.000281237793388,-0.000474898668472,-0.00063869409496,-4.27659615525e-05,7.90050471551e-05,-1.57812628458e-05,0.465039692717,-0.00315070509805,0.168498043751,-0.031025791407,0.925245642171,0.377784210804,0.0153945335113
0.0136060370132,0.00333191920072,-0.0349955186248,-2.50760769844,0.117758229375,2.51120567322,-0.891836106777,0.0490103177726,-0.000121238910651,-0.000312690419378,0.000281016866211,0.000675673072692,-4.1234157834e-05,5.45484108443e-05,-0.000108670050395,0.465039120601,-0.00315122605733,0.168497022692,-0.031026339343,0.925245794707,0.377783835826,0.0153934633901
0.0136094130576,0.00332852685824,-0.0349939130247,-2.50760650635,0.117757432163,2.51120567322,-0.891834139824,0.0490103177726,-0.000724842539057,-0.000644217710942,-9.82085985015e-05,0.00058296561474,-0.000100522127468,8.38179621496e-05,0.00046619141358,0.465040261251,-0.00314895893344,0.168499051449,-0.0310253284653,0.925245075293,0.377785602783,0.0153953776171
0.0136060724035,0.00332769867964,-0.034993506968,-2.50760769844,0.117757499218,2.51120495796,-0.891835570335,0.0490103177726,-6.03173430136e-05,-0.00120009668171,9.89504114841e-05,-0.00062881060876,-4.17654555349e-05,0.000117372626846,-0.000289478193736,0.465039661076,-0.00315028297778,0.168498919726,-0.0310255715776,0.925245366072,0.377784886865,0.0153949800223
0.0136052649468,0.00332668004557,-0.0349950157106,-2.5076072216,0.117757081985,2.51120615005,-0.89183562994,0.0490103177726,0.000168788115843,0.000305291236145,-0.000173269945662,0.00031749761547,8.61467633513e-05,8.05318195489e-05,3.60856429324e-05,0.465040306236,-0.00315142507294,0.168499677474,-0.0310248722296,0.925245729657,0.377784005098,0.0153961758189
0.0136071788147,0.00333164120093,-0.0349960178137,-2.50760817528,0.11775726825,2.51120495796,-0.891834795475,0.0490103177726,7.4695359217e-05,-0.000553115911316,-0.000160402531037,-0.000580929219723,5.46779301658e-06,-0.000117631920148,-0.000137967610499,0.465038777684,-0.00315095468625,0.168496903902,-0.0310263164341,0.925245779446,0.377783897805,0.0153929058082
0.0136073669419,0.00332858157344,-0.0349932834506,-2.50760698318,0.117756843567,2.51120400429,-0.891835570335,0.0489065647125,-0.000271511235042,-0.000279273692286,-0.00022064242512,9.93205758277e-05,1.19427468235e-05,-4.05431601394e-05,0.000191114813788,0.465039652606,-0.00314959381443,0.168498696327,-0.0310256597072,0.925244980143,0.377785849614,0.0153943715244
0.0136078046635,0.00332854059525,-0.0349933989346,-2.50760579109,0.117758482695,2.51120471954,-0.891835570335,0.0489065647125,0.00011856596393,-0.000663792307023,0.000293386314297,-0.000422788376454,-4.06640829169e-05,-8.06453754194e-05,-8.4353305283e-06,0.465040399005,-0.00314938445835,0.168499239002,-0.0310256778679,0.925245150239,0.377785387274,0.0153954577042
0.0136064114049,0.0033293205779,-0.0349951423705,-2.50760650635,0.117756545544,2.51120448112,-0.891837000847,0.0489065647125,0.000137614872074,0.000695548893418,-7.09758533048e-05,2.67454106506e-05,0.000139484356623,-0.000267302239081,-0.000300877465634,0.465039852636,-0.00315094234878,0.168498575022,-0.0310254704913,0.925245204716,0.377785310681,0.0153944810688
0.0136042712256,0.00332850171253,-0.0349945873022,-2.50760626793,0.117757961154,2.51120376587,-0.891836047173,0.0489065647125,0.00031504483195,-0.000294551602565,6.67764397804e-05,0.0026694140397,-0.000109168075141,3.64091756637e-05,2.31337526202e-05,0.465040141165,-0.00315126010888,0.168499185715,-0.0310257007272,0.92524586121,0.37778366524,0.0153949397273
0.0136059680954,0.00332903605886,-0.0349959433079,-2.50760579109,0.117758378386,2.51120424271,-0.89183562994,0.0489065647125,5.40355722478e-06,0.000258060230408,0.000103728532849,-0.000373238697648,6.30222348263e-05,-6.20008504484e-05,0.000176198765985,0.465040046045,-0.00315145726992,0.168498770654,-0.0310258266851,0.925245967667,0.37778339918,0.015394816683
0.0136064905673,0.00332832592539,-0.0349931232631,-2.50760769844,0.117757163942,2.51120400429,-0.89183485508,0.0489065647125,-0.000231474783504,-0.00047712950618,-0.000320352090057,-0.000206324009923,-0.000123120349599,0.000107048450445,0.000299861538224,0.465039351152,-0.00314990048383,0.168498543637,-0.0310258400397,0.925245299699,0.377785058988,0.0153942041973
0.0136088617146,0.00333193340339,-0.0349930077791,-2.50760912895,0.117758013308,2.51120400429,-0.891836166382,0.0489065647125,-0.000290371768642,-0.00220456114039,7.26722864783e-05,9.68529784586e-05,-2.05939959415e-05,3.00576757581e-05,-0.000617924553808,0.465038084505,-0.00314868867416,0.168496324068,-0.0310270165537,0.925244743106,0.377786416877,0.0153919623797
0.0136079061776,0.00333049381152,-0.0349936373532,-2.50760650635,0.117756672204,2.51120328903,-0.891834616661,0.0489065647125,-0.000590637500864,-0.000605939829256,-2.0985466108e-05,0.000189963015146,3.70226189261e-05,-3.58815195796e-05,-1.76084249688e-05,0.465039411176,-0.00314950428196,0.168497926119,-0.0310260497003,0.925245107157,0.377785548234,0.0153933476039
0.0136038055643,0.00332617410459,-0.0349949449301,-2.50760650635,0.117757230997,2.51120328903,-0.891834795475,0.0489065647125,0.000296533457004,-0.000280574953649,0.0002721309138,-0.000897071848158,-1.52421343955e-05,-5.7618606661e-05,0.000335038377671,0.46504010844,-0.00315197823426,0.168499936866,-0.0310253635653,0.925246140935,0.377782984386,0.0153955153036
0.0136025985703,0.00332917552441,-0.0349951386452,-2.50760817528,0.117758095264,2.51120352745,-0.891835510731,0.0489065647125,-0.000244984694291,-5.56056293135e-05,9.26558350329e-05,-0.000168246566318,8.89579678187e-05,-9.54304705374e-05,-0.000475139473565,0.465038708971,-0.00315264085768,0.168497717306,-0.0310264878982,0.925246438693,0.377782249967,0.015393376069
0.0136051028967,0.00333429290913,-0.0349929556251,-2.50760817528,0.117756441236,2.51120233536,-0.89183485508,0.0489065647125,0.000267577881459,0.00233207177371,0.000289675284876,0.000671987014357,-5.65853188164e-05,2.6386225727e-05,0.000240703229792,0.465037769728,-0.0031504651695,0.16849543907,-0.0310272271391,0.925245465188,0.377784694553,0.0153904050918
0.0136082163081,0.00333220558241,-0.0349936261773,-2.5076072216,0.117757499218,2.51119995117,-0.891834914684,0.0479970797896,0.000273339217529,-0.000515927327797,-0.000185377677553,-0.00154032453429,9.3558417575e-05,9.58015443757e-05,-0.0018340065144,0.465038068228,-0.00314919864327,0.168496569893,-0.0310275287811,0.925245103343,0.377785537046,0.0153908700251
0.0136090656742,0.00332845840603,-0.0349929593503,-2.5076072216,0.117757909,2.51119947433,-0.891834974289,0.0479970797896,-9.10368089535e-06,0.000619642145466,-0.000371278525563,0.000142428383697,-5.12135666213e-05,-0.000137826500577,6.68487846269e-05,0.465038588612,-0.00314844622305,0.168498272229,-0.0310270802052,0.925244831301,0.377786176376,0.0153924353826
0.0136026190594,0.00332667422481,-0.0349956415594,-2.50760626793,0.117757752538,2.51119947433,-0.891832232475,0.0479970797896,0.00011438580259,-0.000162403608556,-0.000109643893666,0.00011573026859,-0.000100996134279,8.21836802061e-05,-0.000554810336325,0.465039310163,-0.00315270769447,0.168499465025,-0.0310264702804,0.925247030128,0.377780786451,0.0153937796818
0.013604529202,0.00333215552382,-0.0349940657616,-2.50760650635,0.117756977677,2.51119947433,-0.891832649708,0.0479970797896,0.000547904346604,-5.1412403991e-05,0.000389576365706,-5.49984979443e-05,5.66430971958e-05,-5.5129527027e-05,-0.000183592826943,0.465038299851,-0.00315114009975,0.168496822377,-0.0310273398436,0.925246226827,0.377782796779,0.0153909735473
0.0136092379689,0.00333103979938,-0.0349945090711,-2.50760650635,0.117756769061,2.51119971275,-0.891833484173,0.0479970797896,-0.000289854971925,0.000328924099449,0.000100489050965,0.000146606165799,-0.000117080300697,-9.3732996902e-05,-2.72940178547e-05,0.465038547164,-0.00314917374701,0.168497361085,-0.0310270491971,0.925245226522,0.377785248423,0.0153915162719
0.0136109143496,0.00332729332149,-0.0349932201207,-2.50760698318,0.11775816977,2.5111989975,-0.891833484173,0.0479970797896,-0.000243100614171,-6.05491477472e-05,-0.000283183879219,0.000170494196936,-0.000106764411612,0.00216012634337,-0.000316226127325,0.465038921027,-0.00314784920843,0.16849909299,-0.0310268246644,0.925244829913,0.37778617141,0.0153931557888
0.0136074200273,0.00332479691133,-0.0349951013923,-2.50760579109,0.117758333683,2.51119947433,-0.891833782196,0.0479970797896,4.51986707048e-05,-0.000746051606257,-0.000131597334985,-0.002483880613,1.22084099985e-06,0.000104223952803,3.48009525624e-05,0.465039868631,-0.00315019083558,0.168500522094,-0.031026216264,0.925245793398,0.377783791072,0.0153948884572
0.013605568558,0.00333435926586,-0.0349956639111,-2.50760912895,0.117757447064,2.51119971275,-0.89183473587,0.0479970797896,0.000114252012281,0.000484953110572,-0.000343890162185,0.000153804925503,-0.000120933895232,-0.000109624350443,7.17709699529e-05,0.465036731367,-0.00315135948042,0.168494820067,-0.0310283070126,0.925246044181,0.377783247049,0.0153889513613
0.0136064859107,0.0033263519872,-0.0349915139377,-2.50760698318,0.117756649852,2.5111989975,-0.891832232475,0.0424016229808,-0.000247575168032,-5.48779244127e-05,-4.30999862147e-05,0.000351281341864,5.71127975491e-06,-9.55111026997e-05,0.000238005217398,0.465038933986,-0.00314902801542,0.168499295917,-0.0310264453838,0.925245361087,0.377784902761,0.0153931284126
0.0136074312031,0.00333104189485,-0.0349955782294,-2.50760579109,0.117757037282,2.51119875908,-0.891834676266,0.0424016229808,-0.000264667993179,-0.000303391687339,-4.15170652559e-05,0.00444684270769,-7.70090628066e-05,1.99018249987e-05,0.000154372028192,0.465038675964,-0.00315047359104,0.168497550963,-0.0310271755275,0.925245570909,0.377784394316,0.0153915232368
0.0136076379567,0.00333178066649,-0.0349923670292,-2.50760746002,0.117757424712,2.51119709015,-0.891833722591,0.0424016229808,0.000115795075544,-0.000146512451465,0.000520345696714,-0.000202273295145,-4.6824960009e-05,-5.34553437319e-05,0.000193673724425,0.465037404234,-0.0031487920824,0.168496426906,-0.0310281859268,0.925245166867,0.377785376438,0.015389668649
0.0136068994179,0.00333325029351,-0.034994341433,-2.50760817528,0.117757841945,2.51119565964,-0.891834020615,0.0424016229808,-0.000460168346763,0.000300823710859,0.000182944233529,1.82110306923e-05,2.96107427857e-05,4.50273619208e-05,1.46070688061e-05,0.465036502845,-0.00314998168811,0.168495347872,-0.0310290257022,0.925245689459,0.377784090204,0.0153881308993
0.0136044258252,0.0033284095116,-0.034995034337,-2.50760674477,0.117758527398,2.51119661331,-0.891832828522,0.0424016229808,0.000173979788087,0.000320125516737,-0.000448565406259,-3.91842004319e-05,-3.01860600302e-05,-8.25279930723e-05,7.17814473319e-05,0.46503818757,-0.00315144906146,0.168498230127,-0.0310277921254,0.925246569105,0.377781896843,0.0153915748556
0.013606117107,0.00332426442765,-0.034993596375,-2.50760555267,0.117756664753,2.5111951828,-0.891831874847,0.0424016229808,-5.87311515119e-05,-3.93196605728e-05,0.000122654571896,0.00356451026164,3.54130497726e-05,0.000127611725475,-0.00022705939773,0.465039128497,-0.0031500579415,0.168500479964,-0.0310266854123,0.925245839214,0.377783712417,0.0153931194315
0.0136058870703,0.00332955946214,-0.034995444119,-2.50760769844,0.117757081985,2.51119637489,-0.891832590103,0.0424016229808,0.000211438862607,0.000301668624161,0.000278215884464,0.000626620429102,0.000121530021715,0.000199905858608,0.000411858200096,0.465037677372,-0.00315087650035,0.16849738495,-0.0310278867285,0.925246261863,0.377782688406,0.0153904249071
0.0136075681075,0.00333169545047,-0.0349930338562,-2.50760555267,0.117757558823,2.51119542122,-0.891831994057,0.0424016229808,0.000396523304516,0.000277172977803,0.00149461661931,-1.91108247236e-05,0.000132730914629,-0.000429298117524,-0.000275510683423,0.465037970311,-0.00314909403114,0.168497049232,-0.0310282362037,0.925245624938,0.377784242872,0.0153898541774
0.0136061133817,0.00333250313997,-0.0349942035973,-2.50760960579,0.117758132517,2.51119303703,-0.89183139801,0.0424016229808,-0.000179835245945,0.00394339673221,0.000342257961165,-0.000245423871092,2.99346884276e-05,-0.000822167959996,-0.000189698534086,0.465035323386,-0.00315015456284,0.16849502112,-0.0310299317599,0.925246377822,0.377782384488,0.0153867902775
0.0136033436283,0.00332615454681,-0.0349961146712,-2.50760793686,0.117757283151,2.51119446754,-0.89183139801,0.0424016229808,-1.62097887824e-06,-0.000117685944133,-0.000169234655914,-0.000216862361412,8.72433010954e-05,-0.000242875772528,0.00022050687403,0.465037505163,-0.0031524419518,0.168498631944,-0.0310277993931,0.925247044975,0.377780754689,0.0153909876277
0.0136036295444,0.00332767888904,-0.0349949784577,-2.50760674477,0.11775675416,2.51119422913,-0.89183062315,0.0424016229808,-5.18882552569e-05,0.0011367687257,-0.000204255382414,-0.00040359000559,-3.98804622819e-05,-5.61277629458e-05,-0.000170361323399,0.465037775929,-0.00315181848193,0.16849835499,-0.0310277772911,0.925246848367,0.377781253056,0.0153906187725
0.0136030949652,0.00332860113122,-0.0349919237196,-2.50760579109,0.117756649852,2.51119470596,-0.891832053661,0.0410193391144,-5.01447175338e-05,-0.000167106321896,0.000359243073035,-5.25636241946e-05,5.07319100507e-06,-1.76340308826e-05,-0.000154223089339,0.465038322029,-0.00315081946822,0.168498467494,-0.0310275362647,0.925246163692,0.377782936141,0.015390952221
0.0136073958129,0.00332888332196,-0.0349935218692,-2.50760698318,0.117757856846,2.51119399071,-0.891830563545,0.0410193391144,0.000507015734911,-0.000257890467765,0.000170068713487,0.000139722978929,7.99305853434e-05,-5.661353498e-05,0.000132403249154,0.465037435464,-0.00314931822919,0.168497687648,-0.0310284362804,0.925246040585,0.377783206313,0.0153899069325
0.0136062763631,0.00332626351155,-0.0349939763546,-2.50760507584,0.117757499218,2.51119422913,-0.891831099987,0.0410193391144,0.000257797742961,-0.000348104629666,-0.00129337562248,-0.00132825528271,-4.23212513851e-05,-2.15586860577e-05,-0.000235216881265,0.465038826525,-0.00315009212503,0.168499652642,-0.0310274099337,0.925246152259,0.377782928146,0.0153920903811
0.0136039182544,0.00332916597836,-0.0349959135056,-2.50760889053,0.117757841945,2.51119184494,-0.891831457615,0.0410193391144,3.4853372199e-05,0.000237557702349,-9.32193361223e-05,0.000217071501538,5.45712646272e-05,6.11368232057e-05,-1.30028074636e-05,0.465035988857,-0.00315196327735,0.168496641739,-0.0310293252714,0.925246979103,0.377780909804,0.0153880637036
0.0136031201109,0.00332974339835,-0.0349960103631,-2.50760769844,0.117757543921,2.5111951828,-0.891831278801,0.0328976884484,-8.61176959006e-05,-0.000202003764571,-0.000489156984258,-4.93980769534e-05,4.69450606033e-05,-3.47672648786e-05,4.33318709838e-05,0.465037185955,-0.00315251535721,0.168497117607,-0.0310283036321,0.925247159166,0.377780483026,0.0153897744238
0.0136066125706,0.00332809868269,-0.0349937155843,-2.50760793686,0.117756918073,2.51119375229,-0.891830205917,0.0328976884484,-0.000411766173784,-2.1275391191e-05,0.000103854996269,-0.000518172630109,3.24502507283e-05,4.12926601712e-05,0.000407665269449,0.4650370455,-0.00314980759063,0.168497664158,-0.0310282870952,0.925246157261,0.377782944579,0.0153896180272
0.0136056263,0.00332841114141,-0.034994982183,-2.50760626793,0.117756970227,2.51119422913,-0.891831278801,0.0328976884484,0.000255506049143,-0.00024619337637,0.00387380481698,0.000299563951558,-8.69281793712e-05,-4.57989626739e-05,0.000419640768087,0.465037892157,-0.00315088574624,0.168498197283,-0.0310278835716,0.925246381288,0.377782392949,0.0153905040715
0.0136053133756,0.00333122070879,-0.0349930860102,-2.50760555267,0.117757633328,2.51119542122,-0.891832053661,0.0328976884484,-0.000140917501994,0.000398589705583,0.00299690989777,-5.16061809321e-05,-7.66406301409e-05,2.29857705563e-05,0.000310344912577,0.465038041636,-0.00315016150445,0.168497270265,-0.0310281509129,0.925246056359,0.377783182383,0.0153901213542
0.0136060127988,0.00333075411618,-0.0349947437644,-2.50760769844,0.117756739259,2.51119399071,-0.891831576824,0.0328976884484,-6.40708094579e-05,0.00115903548431,-0.000197922403459,0.000107338273665,-6.10709594184e-06,5.34204591531e-05,1.74609726855e-06,0.465036768612,-0.00315059138195,0.168496540543,-0.0310285950893,0.925246201197,0.377782852365,0.0153886191698
0.0136056579649,0.00332783698104,-0.0349930599332,-2.50760555267,0.117757894099,2.51119399071,-0.891832351685,0.0328976884484,-0.000176485889824,-1.14913818834e-05,0.000733447901439,0.000299536739476,3.2940726669e-05,-5.66646995139e-05,-0.000301546679111,0.465038290613,-0.00314992146899,0.168498719947,-0.0310279479147,0.92524593031,0.37778346781,0.0153911021442
0.0136045161635,0.00332640483975,-0.0349954888225,-2.5076072216,0.117758437991,2.5111925602,-0.891830146313,0.0328976884484,-0.000174731030711,0.000290854135528,-0.000334749638569,-0.00240224390291,4.77136672998e-05,-0.000211726553971,-0.000158901908435,0.465037406807,-0.00315148667863,0.168498626837,-0.0310284928371,0.925247090067,0.377780608483,0.0153904675474
0.0136048523709,0.00332850846462,-0.0349937938154,-2.50760698318,0.117757923901,2.51119279861,-0.891830921173,0.0328976884484,-0.000547391595319,-0.000194824868231,-9.72589077719e-06,-0.00287143071182,0.00487810000777,5.93971381022e-05,0.000466496770969,0.465037229937,-0.00315058537291,0.168497758354,-0.0310286484867,0.925246502862,0.377782068488,0.0153896174945
0.0136048579589,0.00332950404845,-0.0349944718182,-2.50760483742,0.117757789791,2.51119232178,-0.891832411289,0.0328976884484,0.000398070231313,0.00153091922402,-0.000195953572984,0.000298519269563,-8.70830717759e-06,-0.000236645428231,0.000191810133401,0.465037989868,-0.00315091529123,0.168498071892,-0.0310284658059,0.925246317795,0.377782523397,0.0153899452891
0.0136055247858,0.00332904630341,-0.0349953249097,-2.5076072216,0.117756225169,2.51119017601,-0.891830503941,0.0328865237534,-0.000175357126864,-0.000491595827043,0.000160540119396,0.000184116259334,-9.65461294982e-05,-0.000139369250974,-0.000202065712074,0.465036443568,-0.00315099926755,0.168497182079,-0.0310289727345,0.925246487519,0.377782149557,0.0153878960431
0.0136043103412,0.00332761416212,-0.0349950417876,-2.50760674477,0.117757603526,2.51119184494,-0.891833305359,0.0328865237534,-0.000390803645132,-0.000996354036033,0.000285953748971,-0.000279995758319,-8.22729707579e-05,-3.31572528012e-06,0.000122187891975,0.465037276701,-0.00315140726303,0.16849818077,-0.0310285493719,0.925246329039,0.377782497032,0.015389747963
0.0136041864753,0.00332756759599,-0.0349948741496,-2.5076072216,0.117758706212,2.51119160652,-0.891831040382,0.0328865237534,-0.000750443898141,-0.000205729375011,0.000253853242612,0.000449897081126,-6.5704138251e-05,-1.03139682324e-05,-1.61306179507e-05,0.465037042417,-0.00315161000874,0.168497990526,-0.0310290534468,0.92524714799,0.3777804608,0.0153894801885
0.0136076230556,0.00332880206406,-0.0349944345653,-2.50760674477,0.117757074535,2.51119041443,-0.891831099987,0.0328865237534,-0.00153260293882,-0.000331112853019,7.5849951827e-05,7.60828042985e-05,-7.05770871718e-05,-0.000132153742015,9.3886963441e-05,0.465036779563,-0.00314957199281,0.168497501678,-0.0310290199421,0.925245928362,0.377783494355,0.015388406224
0.0136052882299,0.0033287378028,-0.0349929481745,-2.50760865211,0.117758221924,2.51119041443,-0.891832172871,0.0328865237534,0.000326519977534,0.000354730902473,-0.000516124477144,0.000152394917677,-3.94462622353e-05,0.000186266741366,0.000270881166216,0.46503610763,-0.00315004599468,0.168496866089,-0.0310295777346,0.925246235383,0.377782716752,0.0153879115828
0.013605447486,0.00332690519281,-0.0349948555231,-2.50760674477,0.117756433785,2.51119065285,-0.891829848289,0.0328865237534,-0.000127767634694,-0.000224800664,-0.00366825959645,-0.000350327347405,0.000100484045106,-6.58241915517e-05,0.000216428350541,0.465037130836,-0.00315081979988,0.168498401845,-0.0310284358228,0.925246550185,0.377781981751,0.0153893303279
0.0136059252545,0.00332696782425,-0.0349953509867,-2.50760698318,0.117757514119,2.51118969917,-0.891831338406,0.0328865237534,-0.000175922614289,0.00050513795577,-0.000559103151318,0.000264919857727,-7.17845832696e-05,-7.6483711382e-06,0.000175444787601,0.465036806272,-0.00315073384931,0.168498203041,-0.0310289978316,0.925246422256,0.377782264894,0.0153889379164
0.0136063601822,0.0033267615363,-0.0349928960204,-2.50760793686,0.117758773267,2.51119017601,-0.891831576824,0.0328865237534,-0.000168624756043,0.000181888317456,-0.000476071290905,0.000582373293582,0.00011233274563,0.000287118193228,-8.69337891345e-05,0.465036644207,-0.00314971221447,0.168498156608,-0.0310292610411,0.925246071657,0.377783094432,0.0153891223832
0.0136039108038,0.00332685257308,-0.0349936299026,-2.50760364532,0.117758631706,2.51119065285,-0.891831159592,0.0295788925141,-0.000568162126001,0.000141332042404,-0.000647263834253,-0.000263350841124,7.3010000051e-05,7.02681281837e-05,0.000263054069364,0.465038641394,-0.00315086903865,0.168499617368,-0.0310283801592,0.925246652873,0.377781663262,0.0153910869551
0.0136058777571,0.00333212665282,-0.0349944382906,-2.50760865211,0.117757320404,2.5111887455,-0.891830742359,0.0295788925141,0.000597377482336,-0.000592371041421,-7.12042237865e-05,0.00028661621036,-8.75893329066e-06,-0.00561821088195,-0.000357666314812,0.46503487103,-0.00315000726959,0.168495086177,-0.0310304610958,0.925246203385,0.377782829751,0.015385279798
0.0136061683297,0.00333234830759,-0.0349935367703,-2.50761175156,0.117756731808,2.51118826866,-0.891830861568,0.0295788925141,0.000382796657505,0.00101893476676,-0.000188108155271,0.000581197731663,4.60178816866e-05,-0.000104571816337,-0.000440372386947,0.465033562534,-0.00314969384983,0.168493967815,-0.0310309650965,0.925246054492,0.377783216453,0.015383721977
0.0136031098664,0.00332786445506,-0.0349946692586,-2.5076072216,0.117756418884,2.51118898392,-0.891832172871,0.0295788925141,-0.00131607463118,-0.000528782547917,-7.3790200986e-05,0.000345254549757,-0.000125423888676,-0.00136826478411,-5.55015394639e-05,0.465036374951,-0.00315176568285,0.168497628476,-0.0310290705299,0.925246514337,0.377782071489,0.0153880029373
0.0136037170887,0.00332726840861,-0.0349941253662,-2.50760793686,0.11775700748,2.51118850708,-0.891830861568,0.0295788925141,0.00206538569182,-0.0003701482201,-1.35488662636e-05,0.000122694662423,-2.55115737673e-05,0.00012716105266,0.00586441205814,0.465036033666,-0.00315117256819,0.168497593576,-0.0310293942129,0.925246626035,0.377781780329,0.0153877821424
0.0136048067361,0.00333203421906,-0.0349942147732,-2.50760626793,0.117757163942,2.51118826866,-0.891831874847,0.0295788925141,0.000173977372469,0.000442612712504,-0.000214450177737,-0.000478658737848,-7.99222743808e-06,1.19394926514e-05,0.000185030847206,0.465036003482,-0.00315071869462,0.168495994177,-0.0310300313105,0.925246291748,0.377782609262,0.0153862466275
0.0136053282768,0.00332473870367,-0.0349939465523,-2.50760674477,0.117756284773,2.51118803024,-0.891831696033,0.0295788925141,0.000354294839781,1.43137879149e-06,-0.000746787001844,-0.000415161019191,1.31915621751e-05,4.64505283162e-05,0.000245980394538,0.465036919374,-0.00315037309421,0.168499180035,-0.0310286272764,0.925245994465,0.377783332856,0.015389188254
0.0136047070846,0.00332334078848,-0.0349947623909,-2.50760602951,0.117756456137,2.51118898392,-0.891831994057,0.0295788925141,-0.000371135538444,0.000151687534526,-0.000132321743877,-2.86182512355e-05,4.04127968068e-05,1.03111806311e-05,0.000280492095044,0.465037696364,-0.0031510662054,0.168500186634,-0.0310280303224,0.925246224787,0.377782758965,0.0153906323345
0.0136041808873,0.00332889822312,-0.0349934995174,-2.50760626793,0.117757543921,2.51118803024,-0.891831874847,0.0295788925141,-0.000880470266566,0.0011506807059,-5.76138481847e-05,-0.000116785260616,4.79337995785e-06,-8.67142589414e-05,0.000277610146441,0.465036633809,-0.00315042636375,0.168497891988,-0.0310294198489,0.925246195259,0.377782820682,0.015388090976
0.0136036202312,0.00333022652194,-0.0349962227046,-2.50760650635,0.117757625878,2.51118755341,-0.891831755638,0.0295788925141,0.000269255018793,0.000157597329235,1.07025325633e-05,-0.000129017047584,-2.08212513826e-05,-8.61200805957e-06,-5.02966850036e-06,0.465036024154,-0.00315214973966,0.168496683322,-0.0310300165473,0.92524696626,0.377780937107,0.0153867716647
0.0136063080281,0.00332474475726,-0.0349948853254,-2.50760555267,0.117757111788,2.51118707657,-0.891831278801,0.0264630094171,-0.00325133884326,-0.000395961600589,5.45361617696e-05,0.00012157450692,3.07187110593e-05,-3.56562086381e-05,0.000135801019496,0.465037289408,-0.00315028916107,0.1684995522,-0.0310288421896,0.925246168445,0.377782879892,0.0153894143717
0.0136074721813,0.00332441250794,-0.0349924862385,-2.50760602951,0.117758184671,2.51118898392,-0.891829609871,0.0264630094171,-0.000292564596748,6.9095462095e-05,-0.000770944636315,0.000164597397088,-8.46357434057e-05,-7.7644988778e-05,7.26051366655e-05,0.465037472653,-0.00314825209641,0.168499598612,-0.0310288992043,0.925245836589,0.377783660627,0.0153900855976
0.0136053869501,0.00332713476382,-0.0349954329431,-2.50760936737,0.117758691311,2.51118803024,-0.89183139801,0.0264630094171,0.000121256598504,0.000332483294187,-0.000554442871362,-1.9715344024e-05,0.00023153485381,6.63181417622e-05,-3.08305679937e-05,0.465035178853,-0.00315066965506,0.168497022265,-0.0310302816856,0.925246577328,0.377781852645,0.0153871458081
0.0136038884521,0.00333182956092,-0.034995559603,-2.50760626793,0.117756262422,2.51118707657,-0.891832411289,0.0264630094171,0.000156988287927,0.000725984282326,-0.00370796886273,0.000330956536345,2.07023240364e-05,5.78195249545e-05,9.66425886872e-07,0.46503576518,-0.00315178564337,0.168495981898,-0.0310300199875,0.925246478519,0.377782173156,0.0153857458874
0.0136060528457,0.00333056109957,-0.0349956154823,-2.50760865211,0.117756932974,2.51118469238,-0.891831636429,0.0264630094171,0.000222470858716,-0.000142935445183,0.000215684267459,-0.000337841163855,8.26416508062e-05,-3.57548969987e-07,-0.000151274216478,0.465034322753,-0.00315066423251,0.168495457207,-0.0310310369801,0.925246313007,0.377782556233,0.015384241936
0.0136051820591,0.00332923652604,-0.0349937528372,-2.50760650635,0.117757603526,2.51118588448,-0.891830503941,0.0264630094171,0.00189044303261,0.000280257081613,-0.00019656198856,0.000158050519531,6.41575097688e-05,5.92506921748e-06,-0.000382094411179,0.465035837251,-0.00315021997746,0.168496998049,-0.0310302772471,0.925246417904,0.377782273083,0.0153864185983
0.0136016691104,0.00332480040379,-0.0349959395826,-2.50760602951,0.117759265006,2.51118516922,-0.891830027103,0.0264630094171,0.000199968519155,4.20611868321e-05,0.000496106862556,0.000219992158236,-8.21587673272e-05,2.16917560465e-05,0.00374405109324,0.465036633853,-0.00315274864172,0.168499186933,-0.0310299404645,0.925247779044,0.377778874855,0.0153886830514
0.0136027839035,0.00332593824714,-0.0349940545857,-2.50760912895,0.117756761611,2.5111849308,-0.891832172871,0.0264630094171,-0.000314661825541,0.000498180743307,0.000434144865721,5.69739095226e-05,6.50337369734e-06,4.4973934564e-05,-0.000168569531525,0.465034899427,-0.00315145982424,0.168497444744,-0.0310301700411,0.925246478388,0.37778213893,0.0153862914862
0.0136055741459,0.00332857156172,-0.0349939540029,-2.50760769844,0.117757864296,2.51118516922,-0.891831040382,0.0264630094171,-0.000218326313188,-0.000344769185176,-3.42729144904e-05,1.39513906561e-06,0.000131369786686,-0.0028849944938,3.92412439396e-05,0.465035221381,-0.00315008009172,0.168496791242,-0.0310306313258,0.925246316256,0.377782513767,0.0153859074992
0.0136065930128,0.00333053269424,-0.0349931120872,-2.50760650635,0.117757298052,2.51118588448,-0.891829669476,0.0243971366435,-0.000190040649613,-0.000300461106235,-1.52168931891e-05,-7.11943212082e-05,-2.76383616438e-05,-0.000159730727319,0.000114985683467,0.465035619624,-0.00314943711719,0.168496355103,-0.0310303514255,0.925246218363,0.377782779718,0.0153858287721
0.0136036239564,0.003331289161,-0.0349949337542,-2.5076072216,0.117758177221,2.51118612289,-0.89183062315,0.0243971366435,9.41626858548e-05,0.000628905545454,-0.000138079456519,0.000182056595804,1.06490224425e-05,-8.72040109243e-05,-4.21925760747e-05,0.465035203207,-0.00315146618183,0.168495793957,-0.0310308643202,0.925247018267,0.377780797661,0.0153853582755
0.0136039452627,0.00332686747424,-0.0349944904447,-2.50760746002,0.117757171392,2.51118683815,-0.891831099987,0.0243971366435,0.00300714164041,-0.000507588556502,0.00147833302617,9.57160882535e-05,-2.52352165262e-05,-0.000144997437019,-6.85625200276e-05,0.465035966947,-0.00315117838918,0.168497817142,-0.0310296689674,0.925246611593,0.37778180528,0.0153874839348
0.013606431894,0.00332836178131,-0.034992903471,-2.50760769844,0.117757089436,2.51118564606,-0.891831159592,0.0243971366435,-0.000429670064477,6.14527925791e-06,-0.000240339126321,0.000153909015353,9.33666306082e-05,-4.65609555249e-05,0.00025840071612,0.46503536018,-0.00314925119784,0.168496927181,-0.0310302886469,0.925245823977,0.377783740306,0.0153860860343
0.0136034153402,0.00332747586071,-0.0349945351481,-2.50760889053,0.117758773267,2.51118564606,-0.891831457615,0.0243971366435,-0.000544386275578,0.000358522491297,0.0020026715938,0.000157128655701,-4.62184434582e-05,3.88947373722e-05,-0.000405007100198,0.465034868127,-0.00315148151069,0.168496847412,-0.0310307742828,0.925246839539,0.377781212324,0.0153861063276
0.0136032504961,0.00332711311057,-0.0349954813719,-2.50760865211,0.117757536471,2.51118612289,-0.891829371452,0.0243971366435,-0.000274809106486,-0.000258037820458,8.69673749548e-05,-0.000277907791315,-3.73875591322e-05,-7.1374757681e-05,0.000347698660335,0.465035038841,-0.00315166633566,0.168497076919,-0.0310302632075,0.9252473223,0.377780056456,0.0153864865698
0.0136039080098,0.00333040999249,-0.0349951870739,-2.50760889053,0.117756851017,2.51118421555,-0.89183139801,0.0243971366435,5.93818840571e-05,6.40380167169e-05,0.000609749928117,-0.000349239708157,-7.03216137481e-05,-1.27346766021e-05,0.000260421598796,0.465034123667,-0.00315144910164,0.168495394635,-0.0310311395329,0.925246667605,0.377781688919,0.0153840068454
0.0136058479548,0.00333123793826,-0.0349937677383,-2.50760817528,0.117758609354,2.51118540764,-0.891830801964,0.0243971366435,-0.000511950755026,-0.000276591017609,0.000324063032167,0.000219601686695,6.15664748693e-06,1.79320941243e-05,0.00031722872518,0.465034612075,-0.00314983182212,0.168495393381,-0.0310313578115,0.925246407472,0.377782282355,0.0153846388883
0.0136050302535,0.00333001837134,-0.034993570298,-2.5076072216,0.117759644985,2.51118397713,-0.891832530499,0.0243971366435,-0.000399674696382,-0.000169745733729,0.000256174622336,-0.000339091842761,-6.46576372674e-05,0.000502969021909,0.000191137238289,0.465034965049,-0.00315002256761,0.168496203709,-0.0310315467088,0.925246319497,0.377782459921,0.0153851884821
0.013604699634,0.00332798808813,-0.0349941812456,-2.5076072216,0.117758981884,2.51118445396,-0.891832828522,0.0241206791252,0.00035106705036,0.000440618372522,-9.70222245087e-05,0.000324729364365,-8.18317585072e-06,-0.000396809424274,-7.19752206351e-05,0.465035395088,-0.00315050936124,0.168497186591,-0.031030875288,0.925246333466,0.377782436638,0.0153862743072
0.0136025734246,0.00333120650612,-0.0349935330451,-2.50760746002,0.117758199573,2.5111849308,-0.891830265522,0.0241206791252,7.82201709626e-07,-0.00336565636098,0.000230798614211,-0.000236613952438,2.17568576772e-05,-0.0054440703243,0.000162759446539,0.465034713267,-0.00315102789454,0.168495158663,-0.0310313464754,0.925246909044,0.377781074197,0.015384163989
0.013605825603,0.00333042978309,-0.0349950715899,-2.50760698318,0.11775752157,2.51118421555,-0.891829967499,0.0241206791252,-0.000144450226799,0.000933335686568,-5.33958555025e-05,-5.74782416152e-06,-2.78916686511e-05,-7.84614385339e-05,6.380162813e-05,0.465035047086,-0.00315048459627,0.168496115667,-0.0310309680056,0.925246635956,0.377781743925,0.0153849054594
0.0136062204838,0.00332471029833,-0.0349946916103,-2.50760793686,0.11775740236,2.51118206978,-0.891832053661,0.0241206791252,-0.00010851265688,-7.39824681659e-05,2.66177885351e-05,0.000275361118838,0.000174212123966,0.000313043128699,0.000582015083637,0.46503506584,-0.00315004072034,0.168498223724,-0.0310305902877,0.925246024725,0.377783219433,0.0153861949308
0.0136033128947,0.00332716107368,-0.0349933095276,-2.50760746002,0.117757178843,2.51118302345,-0.891830742359,0.0241206791252,-9.6453979495e-05,0.00063512858469,-0.000133916109917,8.6094278231e-06,2.56196799455e-05,5.35544095328e-05,-0.000244743918302,0.465035092353,-0.00315080264793,0.168497348274,-0.0310306542181,0.925246551229,0.377781946237,0.0153856659809
0.0136029487476,0.00332950800657,-0.0349953323603,-2.50760555267,0.117756761611,2.51118397713,-0.891831934452,0.0241206791252,-7.74600703153e-05,0.000463466538349,4.7571669711e-05,0.000348812143784,5.42544948985e-05,-2.95307982014e-05,-0.000395530107198,0.465035818762,-0.00315199257884,0.168497066096,-0.0310303325668,0.925246728618,0.377781530052,0.0153858661876
0.0136055676267,0.00333250709809,-0.0349949225783,-2.50760984421,0.11775688827,2.51118063927,-0.891830265522,0.0241206791252,0.000487875571707,-0.000404280930525,0.000244220864261,-0.000371312984498,-0.00012146429799,-0.000341564649716,0.000213934865315,0.465032550829,-0.00315043426263,0.168493744387,-0.0310326090383,0.925246521098,0.377782049989,0.0153809870111
0.0136057082564,0.003326326143,-0.0349937304854,-2.50761008263,0.117757573724,2.51118040085,-0.891829013824,0.0241206791252,8.51079676067e-05,-0.000171181527548,0.000274537771475,0.000601608830038,-7.14498401067e-06,0.000222664079047,3.49998808815e-05,0.465033410114,-0.00314975066785,0.168496509202,-0.0310317882281,0.925246555159,0.377781923605,0.0153836980364
0.0136052323505,0.00332218711264,-0.0349942706525,-2.50760364532,0.117758214474,2.51117825508,-0.891831636429,0.0241206791252,9.901086014e-05,0.000222428236157,-0.000263876019744,0.000185381155461,1.51506162638e-06,7.08214211045e-05,0.000328036723658,0.465036716907,-0.00315017557687,0.168500704769,-0.0310304115727,0.925246247783,0.377782623451,0.0153877751125
0.0136035457253,0.00332435616292,-0.0349950455129,-2.50760960579,0.117756798863,2.51117897034,-0.891829848289,0.0210803132504,-3.52697607013e-05,0.000378683471354,0.000179681650479,5.51760276721e-05,4.39278992417e-05,3.02842690871e-05,0.000195161817828,0.465033636397,-0.00315136848386,0.168497479328,-0.031031439251,0.925246913986,0.37778105412,0.0153841726658
0.01360435877,0.00332924118266,-0.0349951833487,-2.5076072216,0.117758177221,2.51118040085,-0.891830682755,0.0210803132504,0.000108355998236,-0.000143703626236,0.000392611313146,0.000110179920739,-4.75738561363e-05,1.45332942338e-05,0.000173031483428,0.465034299499,-0.00315105574089,0.168496247648,-0.0310318746075,0.925246857733,0.377781171283,0.0153838006222
0.013602854684,0.00333569478244,-0.0349952839315,-2.50761008263,0.117757074535,2.51117825508,-0.891829609871,0.0210803132504,-0.000102415004221,-0.00412435038015,-0.000216567437747,-0.000262431363808,-6.96428760421e-05,0.0022346440237,-0.000242208043346,0.465031386034,-0.00315178294976,0.168491964389,-0.0310338440141,0.925247262028,0.377780238661,0.0153784132981
0.0136037534103,0.003331966931,-0.0349935814738,-2.50760507584,0.117759078741,2.51118016243,-0.891829848289,0.0210803132504,-3.94603011955e-05,-0.00127444043756,-0.000175564593519,0.000323240907164,-2.91516917059e-05,0.000163290722412,3.55828851752e-05,0.465034838811,-0.00315056016526,0.1684957816,-0.0310322580531,0.925246960216,0.377780900958,0.0153835017619
0.0136057557538,0.00330517976545,-0.0349936671555,-2.50758671761,0.11775828898,2.51118946075,-0.891830325127,0.0210803132504,0.000211332124309,-0.000388432992622,0.000146627935464,0.00023467867868,0.000151696120156,0.000239432134549,0.000798922090326,0.465050077811,-0.003150135131,0.168516046307,-0.0310212764431,0.925246114796,0.377782861921,0.0154083219631
0.013604705222,0.00328490533866,-0.0349937938154,-2.50758981705,0.117757238448,2.51119089127,-0.891829848289,0.0210803132504,1.41307200465e-05,-0.000862983404659,9.10989765543e-05,-0.000133864232339,4.98402841913e-05,-9.76592200459e-05,1.38299146784e-05,0.465052223941,-0.00315071105755,0.168524411299,-0.0310175623275,0.925246149442,0.377782734843,0.0154168319335
0.013598757796,0.00327437324449,-0.0349977649748,-2.50758862495,0.117759361863,2.51119232178,-0.891830027103,0.0210803132504,-5.31696277903e-05,0.000314823060762,0.000337497564033,0.000799736415502,0.000107582447527,8.86186462594e-05,5.31905934622e-05,0.465054821912,-0.003155237539,0.168529896438,-0.0310155340799,0.925248211785,0.377777584978,0.0154233331354
0.013603059575,0.00327973626554,-0.0349956788123,-2.50759029388,0.117756776512,2.5111913681,-0.891831338406,0.0210803132504,0.000139372219564,0.000303041917505,1.37956521939e-05,-0.000161529707839,9.77027521003e-05,-0.000572013028432,-1.26122322399e-05,0.465052934399,-0.00315237914256,0.168526672599,-0.0310164346185,0.925246434813,0.37778203011,0.0154192431242
0.0136080672964,0.00327994558029,-0.0349952317774,-2.50758957863,0.117756761611,2.51119160652,-0.891830682755,0.0210803132504,2.03942508961e-05,6.4487758209e-05,6.90244007728e-07,0.000243115689955,3.74711780751e-05,-0.000199384769076,0.000219789988478,0.465053312201,-0.00314985830517,0.168526868831,-0.0310163169844,0.925245524235,0.377784260175,0.0154194815745
0.013607153669,0.0032724882476,-0.0349936410785,-2.50758719444,0.117757894099,2.51119160652,-0.891830205917,0.0210803132504,0.000226409450988,-0.000483696407173,6.19460388407e-06,0.000242871697992,0.000142360499012,0.000325185188558,0.00450737355277,0.465055692972,-0.00314948517582,0.168531250274,-0.0310147920424,0.925245571915,0.377784077063,0.0154241734677
0.0136023731902,0.00327670876868,-0.0349973216653,-2.5075917244,0.117757603526,2.51119208336,-0.891830921173,0.0193992462009,0.000130924730911,-0.00040847909986,2.95750105579e-05,0.000142730714288,-0.000100421697425,-2.03337804123e-05,-0.000461669580545,0.465053067499,-0.00315339808343,0.168527846576,-0.0310160297693,0.925247026472,0.377780555635,0.0154206799163
0.0136017380282,0.00327348546125,-0.0349962115288,-2.50758957863,0.117756508291,2.51119184494,-0.891830682755,0.0193992462009,-0.00040063119377,-0.000715132628102,0.000600062310696,0.00273925322108,-2.37036711042e-05,5.89603478147e-05,0.000291674194159,0.465054401628,-0.00315326553786,0.16852989237,-0.0310149551804,0.925246819145,0.37778107037,0.0154226706993
0.0136030968279,0.00327476416714,-0.0349946282804,-2.50759029388,0.117757327855,2.51119065285,-0.891830384731,0.0194248575717,0.000133882393129,2.12961313082e-05,-0.000335282704327,-0.000642249477096,-4.64609511255e-05,0.000716261041816,1.78715680477e-07,0.46505350454,-0.00315169958664,0.168528747315,-0.0310159102547,0.925246379291,0.37778213016,0.0154211781099
0.0136042125523,0.00327361328527,-0.0349948406219,-2.50758910179,0.117757849395,2.51119112968,-0.891830861568,0.0194248575717,-0.000156179114128,-0.00179057428613,-5.3842079069e-05,-0.000456735986518,-6.29607848168e-06,1.63591266755e-05,0.000294298748486,0.465054475417,-0.00315138200657,0.168529957851,-0.0310154410089,0.925246243438,0.377782441939,0.0154226349179
0.013602794148,0.00327491457574,-0.0349947102368,-2.50758910179,0.117757678032,2.51119160652,-0.891829013824,0.0194248575717,-0.000228578632232,0.00332967960276,0.00408388487995,-0.000322212959873,-6.57561758999e-05,-3.47518871422e-05,0.000161179428687,0.465054359704,-0.00315200872552,0.168529393652,-0.0310155227411,0.925246824945,0.377781028481,0.0154222074088
0.0136010311544,0.00327324052341,-0.0349947847426,-2.50759005547,0.117758758366,2.51119112968,-0.891830980778,0.0194248575717,0.000198789173737,0.000351712253178,-0.000214364918065,0.00042103996384,-0.000138720672112,2.52583904512e-05,-6.9514394454e-06,0.465054075141,-0.00315277268039,0.168529771009,-0.0310157776397,0.925246945665,0.37778069834,0.0154225393833
0.0136018963531,0.00327457534149,-0.0349943004549,-2.50759100914,0.117756657302,2.5111913681,-0.891830265522,0.0194248575717,-0.000139032694278,-0.00288620148785,0.000321348197758,0.000373128248611,8.48669787956e-06,-2.6147970857e-05,1.17516701721e-05,0.465053439627,-0.00315226634384,0.168528798883,-0.0310156150292,0.925246544098,0.377781746554,0.01542128118
0.013602972962,0.00327418092638,-0.0349927842617,-2.50759029388,0.117757238448,2.51119232178,-0.891829371452,0.0194248575717,0.000235247382079,0.00159474578686,-0.000210579193663,-0.00374539312907,8.76518461155e-05,5.27334887011e-05,-0.000772623287048,0.465054066963,-0.00315106282809,0.168529340519,-0.0310153533423,0.925246304904,0.377782315043,0.0154222320716
0.0136020593345,0.00327525590546,-0.0349965617061,-2.50759077072,0.11775611341,2.51119041443,-0.891832053661,0.0194248575717,-0.000339267397067,0.0035777289886,-0.00017427840794,0.000140123142046,4.96890170325e-05,-0.000244516471867,-0.000898409809452,0.465053224893,-0.00315324852677,0.168528488179,-0.031015745052,0.925246521582,0.377781816993,0.0154206450075
0.0136013766751,0.00327346962877,-0.0349947549403,-2.50758910179,0.117758028209,2.5111913681,-0.891829967499,0.0194248575717,-0.000232097168919,0.000415468937717,-0.000130586719024,0.00035732408287,6.2831917603e-05,6.14446325926e-05,-0.000611499883235,0.46505454333,-0.00315265786727,0.168530046137,-0.0310153902733,0.925246958012,0.37778068689,0.0154228580935
0.0136072263122,0.0032632057555,-0.034992877394,-2.50758266449,0.117756411433,2.51119422913,-0.891830146313,0.0194248575717,0.000268546398729,-0.00131428230088,-0.000581914442591,0.000274890771834,-4.32445085607e-05,3.41604027199e-05,-4.11583241657e-05,0.465059956165,-0.00314928924686,0.168537517062,-0.0310111803036,0.92524512454,0.377785169644,0.0154315096949
0.0136028956622,0.00324594601989,-0.03499449417,-2.50758051872,0.117756769061,2.51119661331,-0.891830742359,0.019449153915,-0.000163293952937,-0.00250449450687,-4.22102893936e-05,-0.000197393688723,1.95923912543e-05,-7.23831763025e-05,0.000209951715078,0.465064325743,-0.00315209394654,0.168546570291,-0.0310070685205,0.925246051177,0.377782820812,0.0154417118755
0.0135927144438,0.00320253660902,-0.0349991172552,-2.50757670403,0.117756597698,2.51120018959,-0.891831696033,0.019449153915,0.000125427846797,-0.00403161905706,-0.000578691542614,0.00040395942051,-4.60995834146e-05,1.97545232368e-05,-0.000151287676999,0.465074023169,-0.00315904595152,0.168568521442,-0.0309973473067,0.925248296061,0.377777149982,0.0154654366705
0.0135938161984,0.00302538322285,-0.0349987111986,-2.50757408142,0.117757245898,2.51119995117,-0.891828715801,0.019449153915,0.000206521450309,-0.00633311225101,0.0039067203179,2.90160915029e-05,-2.32849579334e-05,-0.000228704462643,0.000636356358882,0.465104358972,-0.00315793069679,0.168651880854,-0.0309647450121,0.92524723507,0.377778994028,0.0155489522513
0.0135959135368,0.00297262752429,-0.0349985919893,-2.50758886337,0.117756791413,2.51119637489,-0.891829133034,0.019449153915,-2.90753978334e-05,-0.00111516029574,0.00046395661775,-0.000954248243943,-1.93367686734e-05,3.71875394194e-05,-0.000233264043345,0.465105160671,-0.00315654395121,0.168670458481,-0.0309588079798,0.925246335758,0.37778101974,0.015565062881
0.0135966548696,0.00296622002497,-0.0349988378584,-2.5075969696,0.11775752157,2.5111925602,-0.891829907894,0.019449153915,-0.000485642871354,0.000215853258851,0.000223537441343,-6.02866748523e-05,0.000139139592648,0.000111661458504,-0.000353285373421,0.465101501279,-0.00315605414088,0.168670014794,-0.0309603604287,0.925246182459,0.377781362975,0.0155627567806
0.0135966204107,0.00298438942991,-0.0349959768355,-2.5075969696,0.117757640779,2.51119303703,-0.89183139801,0.019449153915,0.00212677405216,0.00393780274317,-0.000224010000238,-0.000415564340074,1.7251848476e-05,2.38907182393e-06,0.000193178304471,0.465098628896,-0.00315478688797,0.168661607743,-0.0309636086065,0.925245532602,0.377783027989,0.0155545102753
0.0135984960943,0.00299317482859,-0.0349971242249,-2.50760579109,0.117758192122,2.51118803024,-0.891833007336,0.019449153915,-0.000235673040152,1.45863250509e-05,-0.000481735100038,3.55380725523e-05,-1.53878409037e-05,-7.26340076653e-05,9.08222718863e-05,0.465091870367,-0.00315418858049,0.168653721712,-0.0309683117811,0.925245270181,0.377783706533,0.0155442733429
0.0135963438079,0.00299571803771,-0.03499731794,-2.50760626793,0.117757938802,2.51118779182,-0.891830682755,0.019449153915,-0.000117752511869,0.000761735951528,-0.00384715176187,-0.000420790020144,1.17306817629e-05,-0.000558993488085,0.000162523821928,0.465091162707,-0.00315528762922,0.16865233534,-0.0309688610945,0.925246138271,0.377781598725,0.0155427347898
0.0135938180611,0.00300302635878,-0.0349986478686,-2.50760626793,0.117758080363,2.51118803024,-0.89182972908,0.019449153915,-0.00298722740263,0.000165122997714,0.0030304575339,-0.000524375995155,-0.000129042877234,-4.47449638159e-05,-3.08713197228e-06,0.465090002241,-0.00315709722794,0.168648958332,-0.0309701509111,0.925247127087,0.377779204197,0.0155395022304
0.0135975200683,0.00300244544633,-0.0349950380623,-2.507614851,0.117757491767,2.51118516922,-0.89183151722,0.0171501636505,-0.0052738301456,3.82404141419e-05,0.000357033859473,0.000257216102909,-2.40314602706e-05,-7.03874902683e-05,0.00247195991687,0.465085375998,-0.0031535493325,0.168645701222,-0.0309723338149,0.925245362521,0.377783555725,0.0155344256216
0.0135964173824,0.00300994608551,-0.03499847278,-2.50761651993,0.117758654058,2.51118397713,-0.891829192638,0.0171501636505,-0.000168637983734,-2.85671249003e-05,0.00177596544381,0.000224425515626,3.22714950016e-05,-6.07352558291e-05,6.55099984215e-06,0.46508307705,-0.00315555659897,0.168641477403,-0.0309746078408,0.925246889094,0.377779819279,0.0155298332221
0.0135935572907,0.00301220547408,-0.0349989011884,-2.50761437416,0.117758743465,2.51118540764,-0.891831338406,0.0171501636505,-0.000636159966234,0.000707055500243,0.00024684186792,-1.23070121845e-05,5.36631305295e-05,-2.63628189714e-05,0.000146543476149,0.465084036413,-0.00315715320104,0.168641370703,-0.0309742293947,0.925247130069,0.377779233224,0.0155304874561
0.0136024886742,0.00300910416991,-0.0349936708808,-2.50761342049,0.117756202817,2.51118612289,-0.891830682755,0.0171501636505,8.7536747742e-05,0.000159798408276,9.22148901736e-05,-3.43481515301e-05,-8.53938763612e-05,2.29907200264e-05,-0.000171834006323,0.465085186615,-0.00315073564122,0.168643228738,-0.0309727521467,0.9252441879,0.377786492868,0.0155321238493
0.0135963633657,0.00296926102601,-0.0349959097803,-2.50758576393,0.117758736014,2.51119351387,-0.891830146313,0.0171501636505,-0.000932211230975,-0.00256840884686,-0.000346373883076,0.00157584610861,4.18741365138e-05,0.000212872895645,7.8342105553e-05,0.465106603482,-0.00315490816737,0.168672965035,-0.0309588019086,0.925245760716,0.377782348001,0.015567019111
0.0135887078941,0.00294138398021,-0.0349982120097,-2.50757360458,0.117756821215,2.51119756699,-0.89183062315,0.0171501636505,-0.00207695132121,-0.00604744954035,9.75892544375e-05,-1.2639425222e-05,-9.5275696367e-05,6.39042045805e-05,0.00120099878404,0.465117855159,-0.00315984073773,0.168690914954,-0.0309497265891,0.925246992441,0.377779240897,0.0155872458333
0.0135894557461,0.00282622361556,-0.0350014418364,-2.5075814724,0.117758512497,2.51119709015,-0.891830384731,0.0171501636505,0.000305600173306,-0.00489875208586,8.60094132804e-06,-0.000927701301407,-8.32202204037e-05,-0.000194561784156,-0.00243565184064,0.465132896438,-0.00316054681384,0.1687414314,-0.0309308037962,0.925246881218,0.37777899663,0.0156372491319
0.0135948266834,0.00273676519282,-0.0349986739457,-2.5075814724,0.117757089436,2.51119542122,-0.891831040382,0.0171501636505,-0.000163596108905,-0.00610712124035,-0.000236233041505,0.000400979100959,0.000123151650769,0.000136593604111,0.000210151672945,0.465141294621,-0.00315782980078,0.168770034009,-0.0309196240087,0.925244911383,0.377783601719,0.0156646342356
0.0135916024446,0.00271846633404,-0.034999333322,-2.50758647919,0.117757499218,2.51119565964,-0.891830265522,0.0171501636505,3.08926282742e-05,-0.000531029480044,0.000405721744755,0.000539198052138,4.8948055337e-05,0.000112653120595,-1.20319850794e-06,0.465148282883,-0.00315820048388,0.168789927999,-0.0309120435046,0.925245039597,0.377783074095,0.0156847339409
0.013591545634,0.00271914014593,-0.0349982269108,-2.50758552551,0.117758020759,2.51119351387,-0.891830682755,0.0179775636643,0.000182321688044,0.000393413298298,9.45683132159e-05,-0.000153184155351,-9.08761649043e-05,-4.35497131548e-05,-0.000130786604132,0.465147773852,-0.00315771289529,0.168789369769,-0.0309128341449,0.925244896422,0.377783411444,0.015683496165
0.0135957272723,0.00271573523059,-0.0349975675344,-2.5075905323,0.11775650084,2.51119327545,-0.891831040382,0.0179775636643,6.38081910438e-05,-0.000103278514871,0.00070802483242,-0.000208685625694,-2.4907043553e-05,6.67686572342e-06,-1.15541388368e-05,0.465145883589,-0.00315548180926,0.168789014993,-0.030912899474,0.925243705235,0.377786368397,0.0156824138911
0.0135945063084,0.00270838337019,-0.0349971354008,-2.50758767128,0.117756895721,2.5111925602,-0.891831099987,0.0179775636643,-0.000427658698754,0.000516538042575,-0.000492049905006,0.000273878336884,-0.000105938830529,0.000133055174956,0.000413151574321,0.465148308592,-0.00315581617026,0.168793465418,-0.030911259395,0.925243813724,0.37778605077,0.0156868969343
0.0135813253,0.00271449587308,-0.0350043661892,-2.50758695602,0.117757417262,2.51119327545,-0.891830027103,0.0179775636643,-0.000300324871205,-8.17006584839e-05,-0.000292890297715,-0.000318539125146,5.29129356437e-05,-0.000109005457489,-0.000621741928626,0.465147742462,-0.0031653274186,0.168790960472,-0.0309120376541,0.925247995905,0.377775820631,0.0156850576084
0.0135847255588,0.00271560996771,-0.0350025072694,-2.50758314133,0.117757737637,2.5111925602,-0.891829967499,0.0179775636643,0.000426267128205,-0.001150275697,0.000113298403448,-6.33380041108e-05,3.18984566547e-05,8.74388570082e-05,0.000129966123495,0.465149253672,-0.00316288089549,0.168791837442,-0.0309117842734,0.925247034761,0.37777815893,0.0156859356825
0.0135887283832,0.00271200062707,-0.0349995791912,-2.50758647919,0.117756828666,2.51119375229,-0.891830265522,0.0159294195473,0.000389785855077,-0.00114535691682,-0.00198642071337,-0.000595495279413,-6.95094131515e-05,-4.87220786454e-05,2.84538600681e-05,0.465148519026,-0.00315970328045,0.168792342074,-0.0309113164173,0.925245543477,0.377781830885,0.0156863867463
0.0135891167447,0.002705716528,-0.0349997878075,-2.50758814812,0.117758393288,2.51119041443,-0.891831159592,0.0159294195473,-0.000293093820801,-0.000825379684102,0.000783551426139,-0.000402636040235,-7.78216708568e-05,5.73524557694e-05,0.000188494697795,0.465148036682,-0.00315939350522,0.168794342466,-0.0309117140614,0.925245503061,0.377781859483,0.0156872982816
0.013589175418,0.00270790839568,-0.0349986739457,-2.50758862495,0.117757454515,2.51119208336,-0.891830563545,0.0159294195473,-8.98698708625e-05,0.00075098965317,-1.81107407116e-06,-0.000294542056508,3.17198027915e-05,-3.74714218196e-05,4.2701667553e-05,0.465147807538,-0.003158954185,0.168793282915,-0.0309115733688,0.925245292723,0.377782413411,0.0156866416669
0.0135896867141,0.00272234040312,-0.0349980480969,-2.5075917244,0.117757707834,2.51118779182,-0.891830027103,0.0159294195473,0.000191480838112,0.000205097720027,-7.97728644102e-05,-0.000384819577448,8.93363176147e-05,-5.53057179786e-06,-3.0487188269e-05,0.465143024471,-0.00315827559738,0.168785014478,-0.030915941318,0.925245324537,0.377782393342,0.0156766373483
0.0135884657502,0.00272547733039,-0.0349982492626,-2.50758957863,0.117756262422,2.51118731499,-0.891830682755,0.0159294195473,-0.00039335116162,-0.000738197471946,2.59078060481e-05,5.45064176549e-06,1.54992521857e-05,-0.00204354850575,-1.51429076141e-05,0.465143421391,-0.00315903419737,0.168784327353,-0.0309158042442,0.925245267959,0.377782577967,0.0156757977486
0.0135805504397,0.00272439862601,-0.0350032895803,-2.50758838654,0.117756746709,2.51118707657,-0.891829252243,0.0159294195473,-0.000721129239537,-0.00111599173397,-0.00015548474039,-0.000553086982109,-2.86590639007e-05,-0.000251562421909,0.00162269442808,0.46514408116,-0.00316503712573,0.168785265359,-0.0309154591522,0.925248035596,0.377775778717,0.0156769802433
0.0135919870809,0.00267047365196,-0.0349926538765,-2.50759410858,0.117757774889,2.51116490364,-0.891829669476,0.0159294195473,0.000403599900892,-0.00566608086228,7.74293075665e-05,0.00104709586594,-6.30944705335e-05,-0.00283231795765,0.000200800408493,0.46514567804,-0.00315361856428,0.168807846997,-0.0309122466964,0.925243248114,0.377787199428,0.0156906486692
0.0135920736939,0.00254751951434,-0.034990016371,-2.50758075714,0.117756262422,2.51102375984,-0.891831040382,0.0159294195473,-0.000764856929891,-0.0083991670981,-6.98735093465e-05,0.00542587088421,9.77404852165e-05,-0.0305913370103,-0.0054924110882,0.465141411617,-0.0031480607623,0.168856183373,-0.0309211399413,0.925240302011,0.377793677057,0.0156908858529
0.0135849742219,0.00238141743466,-0.034994173795,-2.50743937492,0.117756083608,2.51039195061,-0.891830563545,0.0159294195473,-0.000348749919794,-0.012511247769,6.05857385381e-05,0.0103234136477,-0.000116337287182,-0.0474837906659,0.000209827441722,0.465096774494,-0.00313341761815,0.168938092181,-0.0310215536793,0.925235233191,0.37780378665,0.015547506078
0.0135815385729,0.00202029617503,-0.0349955521524,-2.50722122192,0.117757275701,2.50952482224,-0.891830265522,0.0159294195473,-7.78285811975e-06,-0.0294256899506,-0.000251099903835,0.0138839846477,-3.95329043386e-05,-0.0427991338074,-6.07516485616e-05,0.465074973353,-0.00311074260679,0.169107944933,-0.0311153764492,0.925225966523,0.377822948781,0.0154454937947
0.0135850068182,4.03202648158e-05,-0.0349946431816,-2.50609469414,0.117756620049,2.50654792786,-0.891827404499,0.0171882491559,-0.000452384352684,-0.0591644309461,-0.000190546779777,0.0438464060426,-9.65708895819e-05,-0.106850467622,3.35646072926e-05,0.465301239603,-0.00301951451681,0.170236572546,-0.0312528516515,0.925178296744,0.377922632395,0.0155840336213
0.0135796936229,-0.0010436483426,-0.0349953696132,-2.50527691841,0.117754280567,2.50468707085,-0.891827642918,0.0171882491559,0.000114391528768,-0.0818801596761,-0.000479518756038,0.0576770454645,1.78780155693e-05,-0.138051956892,0.000180078408448,0.465504507285,-0.0029576008219,0.171054620088,-0.0313587382203,0.92514422094,0.37799365356,0.0156715522317
0.0135876368731,-0.00305040250532,-0.0349945388734,-2.50382351875,0.117754116654,2.50133943558,-0.891819000244,0.0171882491559,0.00172112183645,-0.105754435062,0.000132013461553,0.0852222889662,-2.75566653727e-05,-0.190320491791,0.00278464192525,0.46574700306,-0.00287346745248,0.17205553624,-0.0314880426313,0.925100706597,0.378084914643,0.0157791896633
0.0135896196589,-0.00584424287081,-0.0349915921688,-2.50147008896,0.117755383253,2.49616718292,-0.891775369644,0.0171882491559,0.000102343889012,-0.136508449912,0.000210853075259,0.106471754611,-9.31074901018e-05,-0.23266145587,0.00820805504918,0.466192460299,-0.00272645296972,0.173811969517,-0.0317574746798,0.925029797066,0.378231071876,0.015893183816
0.0135873537511,-0.00848071556538,-0.03499212116,-2.49955606461,0.11775355041,2.49177980423,-0.891423165798,0.0171882491559,0.000103860009403,-0.174648553133,0.000246112729656,0.116409540176,4.93380721309e-05,-0.28611394763,0.0250073224306,0.466566568471,-0.00260393672029,0.175397868575,-0.0319546793511,0.925028136932,0.378211029749,0.0160705012792
0.0135860526934,-0.0122511805966,-0.034994378686,-2.49681425095,0.117753066123,2.48548460007,-0.89099162817,0.0171882491559,-0.000147199054481,-0.207919850945,-4.29716528743e-05,0.150195464492,-2.58418313024e-05,-0.341083079576,0.0168276615441,0.467087447589,-0.00242809270118,0.17767133301,-0.0322397861712,0.925011384468,0.378217214465,0.0163178784829
0.0135597372428,-0.0188682805747,-0.035012178123,-2.49148797989,0.11775084585,2.47401332855,-0.89058059454,0.0171882491559,0.00104280351661,-0.258059740067,5.7059764913e-06,0.214513972402,-0.00147774093784,-0.452743440866,0.0177733190358,0.468116945957,-0.0021302077218,0.181841021186,-0.032733117592,0.924914063862,0.378391398764,0.0168067399537
0.0135547053069,-0.0230421498418,-0.035007968545,-2.48819255829,0.117750823498,2.46685147285,-0.890276968479,0.0171882491559,0.000223581300816,-0.295828670263,9.74308495643e-05,0.232331633568,-7.19429299352e-05,-0.500352263451,0.0197002962232,0.468728356795,-0.0019319369206,0.184463787323,-0.0330379761517,0.924855692326,0.37849371152,0.0171157976081
0.0135705657303,-0.0299366377294,-0.0349941961467,-2.48266077042,0.117750354111,2.45506453514,-0.889659941196,0.0171882491559,-5.22625778103e-05,-0.324163973331,0.00034946174128,0.274203777313,0.000111326880869,-0.574907124043,0.030942235142,0.469748066405,-0.0015933071391,0.188853415123,-0.0335109151255,0.92477227914,0.378629937063,0.0176810843521
0.0135765429586,-0.0352869778872,-0.0349887609482,-2.47804474831,0.117748856544,2.44565153122,-0.889044344425,0.0171882491559,-8.47241608426e-05,-0.3496709764,0.000297658611089,0.295378804207,0.00014069477038,-0.603273272514,0.0469910725951,0.47059464449,-0.00133202918285,0.192381515137,-0.0338749710891,0.924728600688,0.378682164144,0.0181471663473
0.0135592715815,-0.051510989666,-0.0349920615554,-2.46415138245,0.117746472359,2.41822075844,-0.885894238949,0.0179775636643,-0.000108802887553,-0.414952278137,-0.000697202980518,0.407279342413,-0.000422860961407,-0.732750475407,0.112041525543,0.473152676865,-0.000604522115096,0.203226676734,-0.0347290710155,0.924846797915,0.378224156737,0.0199694505845
0.0135624436662,-0.0621099919081,-0.0349923670292,-2.45425057411,0.117741644382,2.40008044243,-0.883050918579,0.0179775636643,0.000814437924419,-0.468207120895,4.09803215007e-05,0.434776693583,-0.000272382050753,-0.779706835747,0.124173738062,0.474975020134,-0.000128207791048,0.210702298655,-0.0351702479981,0.925049446378,0.377608075932,0.0214176582508
0.0135721052065,-0.0678265988827,-0.0349833220243,-2.44893264771,0.117738887668,2.3905107975,-0.881557822227,0.0179775636643,0.00038124868297,-0.476806640625,0.000835657119751,0.448036491871,-5.15534520673e-06,-0.81875282526,0.124165162444,0.476011224754,0.000150411852513,0.215110663754,-0.035375581542,0.925154134364,0.377278387239,0.0223475749244
0.0135628376156,-0.0855523720384,-0.0349839106202,-2.431016922,0.117738164961,2.36047530174,-0.87661075592,0.0179775636643,0.000141592347063,-0.515790760517,-0.00327194994316,0.529923319817,0.000387734675314,-0.860256195068,0.145646497607,0.479173859104,0.000883260962027,0.228059658475,-0.0357298671127,0.925483500614,0.376240446506,0.0254321210913
0.013576136902,-0.0950067341328,-0.034963902086,-2.42121219635,0.11773519218,2.34475708008,-0.87393540144,0.0179775636643,-0.000333266711095,-0.526690721512,0.0017250868259,0.547751903534,0.000148662482388,-0.898795843124,0.149966239929,0.480889323371,0.00128721786497,0.23535449818,-0.0357976628323,0.925650126974,0.375689152326,0.0273501421777
0.0135685652494,-0.104043841362,-0.0349518544972,-2.41132092476,0.117736540735,2.32946014404,-0.871324717999,0.0179775636643,0.000402581150411,-0.529157817364,0.00177184073254,0.611945331097,-8.81564701558e-05,-0.900854289532,0.16098292172,0.482670361169,0.00168254615582,0.243014588291,-0.0358135374748,0.925818338552,0.375115839888,0.0294261938085
0.0135691715404,-0.113655015826,-0.0349249690771,-2.40013194084,0.117732837796,2.31316280365,-0.868620216846,0.0179775636643,-3.50573900505e-05,-0.54154509306,0.00357174966484,0.622021257877,0.000107816194941,-0.91580337286,0.14669239521,0.484466146048,0.00205793385205,0.250594651579,-0.0357067058148,0.925940800982,0.374642005877,0.0316548788095
0.0135619938374,-0.138846129179,-0.0347135178745,-2.36996388435,0.117725230753,2.27101802826,-0.861831247807,0.0179775636643,-6.29138885415e-05,-0.530420899391,0.00864367280155,0.674961984158,0.000162162832567,-0.9227232337,0.14605589211,0.489157879896,0.00311942540647,0.272313605481,-0.0350669772816,0.926143546199,0.373564356838,0.0384461951548
0.013558072038,-0.148651972413,-0.0345895290375,-2.35747861862,0.117722705007,2.25451731682,-0.859266281128,0.0179887264967,-6.45045001875e-05,-0.553688526154,0.00517761474475,0.70323485136,1.81799423444e-05,-0.921858370304,0.141821712255,0.490937897758,0.00354032923819,0.281196739975,-0.0346756511186,0.926165865108,0.373232364635,0.0413762153964
0.0135564096272,-0.165819004178,-0.0342519506812,-2.33462429047,0.117715403438,2.22535967827,-0.855026900768,0.0179887264967,-0.000229061464779,-0.532205164433,0.0163052845746,0.725380539894,0.000317526923027,-0.894083082676,0.116536855698,0.49390805654,0.0043257163477,0.297319302659,-0.0338212112058,0.926082959086,0.372872472372,0.0468251811948
0.0135632958263,-0.191927224398,-0.0333568975329,-2.29718732834,0.117679871619,2.1799967289,-0.849392294884,0.0179887264967,-0.000643671490252,-0.486297160387,0.0207216423005,0.732500851154,-0.0026357548777,-0.879104375839,0.10223005712,0.497873904009,0.00565919434793,0.322821632202,-0.032142383029,0.925601783971,0.37300053685,0.0556669014386
0.0135590434074,-0.199992358685,-0.0329933203757,-2.28492712975,0.117550775409,2.16498064995,-0.847698450089,0.0179887264967,-0.000202905735932,-0.478873491287,0.021077696234,0.737124681473,-0.0215363893658,-0.879012644291,0.094723045826,0.498887406525,0.00614743758233,0.331660782382,-0.0315964679475,0.925370165192,0.373195482291,0.0584538473165
0.0135476822034,-0.222373127937,-0.0317840613425,-2.2489657402,0.115959644318,2.12201309204,-0.843298196793,0.0179887264967,-0.00142798724119,-0.41232407093,0.0276556890458,0.704685389996,-0.0509491711855,-0.832160055637,0.0690141096711,0.500976189066,0.00735137537875,0.355750087159,-0.029500784544,0.924494123401,0.374319793047,0.0657648213317
0.0135637037456,-0.229323893785,-0.031317897141,-2.2373509407,0.114806190133,2.10783958435,-0.842108488083,0.0179887264967,0.00088646466611,-0.38715004921,0.0300285033882,0.661760151386,-0.072006188333,-0.834325432777,0.0705133154988,0.501305909603,0.00769442819697,0.3633962586,-0.0286401089531,0.924110990445,0.374981216628,0.0677326240224
0.0135667184368,-0.2351770401,-0.030853997916,-2.22728872299,0.113523341715,2.09559464455,-0.840932905674,0.0179887264967,-0.000826590461656,-0.378968060017,0.0263736788183,0.661866247654,-0.0884124860168,-0.799081981182,0.0813651233912,0.50149255556,0.00796750691525,0.36994921346,-0.0277866819782,0.923784827543,0.375560401323,0.0693100089991
0.013568142429,-0.242484882474,-0.030231077224,-2.21442103386,0.111323826015,2.07961249352,-0.839251995087,0.0179966073483,0.001581135788,-0.348785430193,0.0300722718239,0.619238436222,-0.119159445167,-0.804720818996,0.0963226258755,0.501512906306,0.00825840743907,0.378601404531,-0.0264922427416,0.923358150693,0.376378517336,0.0710429306399
0.0135768754408,-0.252718925476,-0.0292417127639,-2.19583320618,0.107309065759,2.05578279495,-0.83647531271,0.0179966073483,0.000991496024653,-0.304319232702,0.0249310079962,0.571751236916,-0.1562974751,-0.74461877346,0.069006331265,0.501140239671,0.0085572804295,0.389915446395,-0.0245851292467,0.922821458001,0.377500541529,0.072728735045
0.0135980593041,-0.25821685791,-0.0287613123655,-2.18546628952,0.103851996362,2.041918993,-0.83506166935,0.0179966073483,-0.000114941576612,-0.272530555725,0.021046416834,0.522950530052,-0.19011311233,-0.723837077618,0.0828759595752,0.500672011759,0.00851116018315,0.39626290736,-0.0231123289027,0.922458375757,0.378405568856,0.0731135445059
0.0135958269238,-0.262576878071,-0.028395280242,-2.17726993561,0.100734136999,2.03077816963,-0.833807110786,0.0179966073483,0.000122752477182,-0.273105084896,0.0201618112624,0.505776107311,-0.199033677578,-0.673864543438,0.0760930329561,0.500192355957,0.00838810315081,0.401264821995,-0.0218066306767,0.922195609347,0.379094054791,0.0732627208424
0.0136179057881,-0.266882151365,-0.0281259212643,-2.16915774345,0.0970070436597,2.01959991455,-0.832494199276,0.0179966073483,0.000383264035918,-0.235926538706,0.0153399035335,0.455965667963,-0.227830916643,-0.642498254776,0.0800520181656,0.499623230094,0.00811976185289,0.406185210365,-0.0202694632257,0.921941510631,0.379806078151,0.0732143600543
0.0136138787493,-0.273161947727,-0.0279448367655,-2.15581965446,0.08889015764,2.00001120567,-0.830168604851,0.0179966073483,-0.00136099674273,-0.183004230261,-0.00241465680301,0.385091662407,-0.270724803209,-0.579847157001,0.058964625001,0.498363317949,0.00719371097442,0.413714044103,-0.0172791409994,0.92159026887,0.381066456864,0.0718412329103
0.0135818049312,-0.27577522397,-0.0279670394957,-2.15030932426,0.0846119895577,1.99199509621,-0.829195976257,0.0179966073483,-0.00507119996473,-0.164304494858,-0.0026087241713,0.356097370386,-0.302076131105,-0.5174472332,0.0802353024483,0.49780973099,0.00657722906728,0.41683067013,-0.015616320008,0.921436505085,0.381641018147,0.0711409206892
0.0128845488653,-0.280026227236,-0.0280802752823,-2.13934016228,0.0728846415877,1.97566401958,-0.82649242878,0.0179966073483,-0.0304584242404,-0.0937335416675,-0.00401343638077,0.263023644686,-0.36435469985,-0.413187116385,0.0762503445148,0.496627426506,0.00443712051777,0.422482559558,-0.0111502413677,0.921322931464,0.382551085074,0.0685156556337
0.0098742544651,-0.282741993666,-0.028775986284,-2.12900185585,0.0515100546181,1.9577703476,-0.823231637478,0.0179966073483,-0.0904636532068,-0.0129766874015,-0.021705666557,0.14251743257,-0.45440608263,-0.289673954248,0.0377636514604,0.4949847045,-0.000811082108726,0.426795363028,-0.00318330943788,0.921533741334,0.383246635652,0.0623493870645
0.00831882748753,-0.282832562923,-0.0291721466929,-2.12701296806,0.0442576371133,1.95341765881,-0.822554945946,0.0179966073483,-0.104561284184,0.00143325189129,-0.0258689690381,0.103746294975,-0.463690638542,-0.263304889202,0.0459993444383,0.494491540964,-0.00297120499182,0.427289778456,-0.000549184177985,0.921694654824,0.383254645509,0.0599544664177
0.00630780821666,-0.282753318548,-0.0298516433686,-2.12563633919,0.036217238754,1.94911813736,-0.821802675724,0.0179966073483,-0.127034530044,0.00643949303776,-0.0480246208608,0.0548315532506,-0.479024678469,-0.239410683513,0.0430205054581,0.493868948818,-0.00563673802058,0.427400698022,0.00226728343823,0.921986162877,0.382985906431,0.0570803823343
0.00374808139168,-0.282423347235,-0.0310071967542,-2.12505698204,0.0267562121153,1.94480371475,-0.821121275425,0.0179966073483,-0.143920585513,0.0242129284889,-0.0654020234942,0.00669656926766,-0.519332945347,-0.217175021768,0.0298851523548,0.493055508749,-0.00905469751726,0.426987605409,0.00545456500071,0.922402127703,0.382474640835,0.0534575656872
-0.00374851818196,-0.279617846012,-0.0363999716938,-2.1254556179,0.00096674868837,1.93450164795,-0.8199249506,0.0180012024939,-0.19407916069,0.084239333868,-0.149048089981,-0.0136741949245,-0.565189778805,-0.226906344295,0.0225636512041,0.490721284935,-0.0197667310136,0.424169029493,0.0134316070676,0.923906445286,0.380014144685,0.0424937855878
-0.00680958665907,-0.278203517199,-0.0387896224856,-2.12566542625,-0.00767777534202,1.93125736713,-0.819677829742,0.0180012024939,-0.214485391974,0.105309478939,-0.173058867455,-0.0186258535832,-0.590861141682,-0.215736627579,0.0140589475632,0.489939177204,-0.0239207864147,0.423001968049,0.015972585736,0.924567987888,0.378714511105,0.0386552847584
-0.0109979733825,-0.275906890631,-0.0425796546042,-2.1260612011,-0.0189968664199,1.9275329113,-0.819564044476,0.0180012024939,-0.233966469765,0.130144104362,-0.222247242928,-0.0259679965675,-0.603433489799,-0.173998817801,0.000266770395683,0.488965572291,-0.0297780835866,0.42126844922,0.0192092783087,0.925522006796,0.376710106589,0.0336082406694
-0.0162304639816,-0.27320510149,-0.0477401949465,-2.1267387867,-0.0315937288105,1.92403030396,-0.819565474987,0.0180012024939,-0.264292746782,0.133197784424,-0.26514467597,-0.0404626689851,-0.604251801968,-0.155103802681,2.34577987612e-06,0.487845525493,-0.0370374122302,0.419237189925,0.0227372353226,0.926792146153,0.373830814312,0.0281044109349
-0.0246618390083,-0.268489867449,-0.0563678257167,-2.12788581848,-0.0490879230201,1.92021334171,-0.819589555264,0.0180038306862,-0.303090155125,0.165295392275,-0.319818228483,-0.0386613979936,-0.584012508392,-0.106535591185,-0.00387901440263,0.486256089462,-0.0483917370718,0.415981383172,0.027400545084,0.928948367905,0.368631574537,0.0203691392515
-0.0274096485227,-0.266970455647,-0.0593328773975,-2.12821412086,-0.0544024817646,1.91925048828,-0.81960862875,0.0180038306862,-0.309453368187,0.174802944064,-0.340294778347,-0.0386600494385,-0.599102377892,-0.102018497884,-0.00459278747439,0.485460602424,-0.0542145107297,0.414428843125,0.0295707718415,0.930088074695,0.365759381735,0.016787409577
-0.0348581448197,-0.26281273365,-0.0677166730165,-2.12897777557,-0.0681102126837,1.91707670689,-0.819828510284,0.0180038306862,-0.338736504316,0.196145445108,-0.395591437817,-0.032793328166,-0.581214845181,-0.0831976160407,-0.0187746118754,0.484361749938,-0.0621759542801,0.412379616063,0.0322872611321,0.931657323656,0.361695903835,0.0121752568603
-0.0423724725842,-0.258388221264,-0.0767070353031,-2.12959814072,-0.080304607749,1.91579401493,-0.82066655159,0.0180038306862,-0.363021075726,0.22025129199,-0.443153142929,-0.0272726267576,-0.572226583958,-0.0470590293407,-0.0565499737859,0.482997721149,-0.072305031056,0.409800223517,0.0351843959502,0.933666093152,0.35634574301,0.00688446827399
-0.0528273917735,-0.252546191216,-0.0892291665077,-2.13016867638,-0.0957861021161,1.91489255428,-0.822544455528,0.0180038306862,-0.400223046541,0.217179641128,-0.483513593674,-0.012286930345,-0.567208409309,-0.0282517056912,-0.0819425657392,0.481026162183,-0.0861169021526,0.406594312604,0.0388152990313,0.936316329129,0.349005660754,0.000390915085211
-0.0603182017803,-0.248506098986,-0.09847728163,-2.13027858734,-0.105872362852,1.91459429264,-0.82418680191,0.0180038306862,-0.43460804224,0.232506155968,-0.541265547276,0.00221318402328,-0.547348439693,-0.00630561402068,-0.114489890635,0.479513503452,-0.0959530258174,0.404537764212,0.0410784361415,0.938207652806,0.343605632778,-0.00375913688007
-0.0677101463079,-0.244334980845,-0.108137227595,-2.13022398949,-0.114910893142,1.91459095478,-0.826294064522,0.0180038306862,-0.43640473485,0.249088197947,-0.584926009178,0.00810147728771,-0.502214372158,0.00213543395512,-0.132255241275,0.477912866809,-0.105741074925,0.402506519459,0.0428919506518,0.940090683855,0.338130494103,-0.00758652373203
-0.0764208585024,-0.239646866918,-0.119907386601,-2.13008785248,-0.124508753419,1.91461133957,-0.829466938972,0.0180038306862,-0.440902680159,0.231765657663,-0.598336875439,0.00384623045102,-0.466684699059,-4.56741327071e-05,-0.189411506057,0.475767755662,-0.117238268867,0.400236291702,0.0445613834247,0.942271574265,0.33166199654,-0.0117848706679
-0.0982780307531,-0.227923244238,-0.15091188252,-2.12905168533,-0.144632488489,1.9149312973,-0.842080056667,0.0180038306862,-0.485943287611,0.254137843847,-0.693902373314,0.0456909611821,-0.370162278414,0.0112365661189,-0.320425748825,0.469346335501,-0.145918949116,0.394805270727,0.0469429478491,0.947249446384,0.316323335987,-0.0213164905899
-0.106913782656,-0.223543182015,-0.163531675935,-2.1281106472,-0.150725692511,1.91521406174,-0.848458647728,0.0180038306862,-0.4942740798,0.239695325494,-0.718529462814,0.0594877973199,-0.319369286299,0.0266730748117,-0.379420518875,0.466500350042,-0.157048832152,0.392997376383,0.0472281660955,0.949106924028,0.310439513337,-0.0243486208735
-0.11522591114,-0.219238653779,-0.175928533077,-2.12686944008,-0.15579469502,1.91568756104,-0.855282843113,0.0180057995021,-0.49801248312,0.265233516693,-0.734828174114,0.0897499024868,-0.284334659576,0.0351213552058,-0.420968681574,0.463636501163,-0.167724618323,0.391363984694,0.0472436496232,0.950846635071,0.304849334343,-0.0269369111894
-0.125591993332,-0.213528484106,-0.191645294428,-2.12459135056,-0.161352425814,1.91653835773,-0.864562094212,0.0180057995021,-0.482607781887,0.262515962124,-0.747777998447,0.119302973151,-0.245088741183,0.0429114326835,-0.460801392794,0.459969007316,-0.181035992805,0.389501746723,0.0470978758943,0.952945284995,0.29797662285,-0.0297826428638
-0.147468924522,-0.201459541917,-0.22695825994,-2.11761617661,-0.171903014183,1.91870331764,-0.887329399586,0.0180057995021,-0.473084300756,0.268942803144,-0.785171508789,0.192866206169,-0.193602338433,0.0646164119244,-0.530451476574,0.451208697234,-0.209889297057,0.386503497781,0.0467423321257,0.957155890234,0.283661448002,-0.0346978210596
-0.157103702426,-0.196352705359,-0.243255332112,-2.11345458031,-0.175632476807,1.92026340961,-0.898845553398,0.0180057995021,-0.445396721363,0.231808319688,-0.763047277927,0.203255042434,-0.168669119477,0.0910128876567,-0.557723939419,0.447046201533,-0.222820452233,0.385795045119,0.0466910104915,0.958914401379,0.277506846343,-0.0359592865874
-0.163754343987,-0.192770764232,-0.254796415567,-2.11023736,-0.177859246731,1.92164516449,-0.907424688339,0.0180057995021,-0.442101925611,0.254073441029,-0.767818808556,0.223197609186,-0.123103387654,0.0941331535578,-0.573063910007,0.444061390763,-0.231840969287,0.385447051354,0.0466883456478,0.960085418218,0.273349992823,-0.0365509127169
-0.200766429305,-0.174210891128,-0.326297521591,-2.08510756493,-0.186648517847,1.93371725082,-0.964827239513,0.0180110540241,-0.297238647938,0.102684319019,-0.598063766956,0.24212820828,-0.0494287088513,0.119689576328,-0.509433567524,0.424450547585,-0.286205427195,0.38773932069,0.0492539143245,0.966373203395,0.250006714124,-0.034547449537
-0.213699027896,-0.171590700746,-0.34991517663,-2.07533359528,-0.188657045364,1.9389629364,-0.987099051476,0.0180110540241,-0.233974933624,0.00238606077619,-0.419005542994,0.18429748714,-0.0313870981336,0.0865809842944,-0.444750219584,0.417226713391,-0.303180038091,0.390793654608,0.0516698634404,0.967966272851,0.243655320318,-0.0316797160448
-0.217606127262,-0.17174038291,-0.35678306222,-2.07219576836,-0.189070001245,1.9404386282,-0.994738101959,0.0180110540241,-0.200462803245,-0.0123975006863,-0.347779303789,0.167702302337,-0.0135006140918,0.0665616169572,-0.411361455917,0.414847292191,-0.308407248658,0.392281018998,0.0526626522917,0.968341701449,0.242115452105,-0.0303496595368
-0.221043303609,-0.172419786453,-0.362704753876,-2.06932616234,-0.189193978906,1.94139587879,-1.00210118294,0.0180110540241,-0.163813754916,-0.0585825890303,-0.280283987522,0.135170936584,-0.000952393980697,0.0426320135593,-0.380247950554,0.412677548731,-0.312884980893,0.393867968853,0.05352474439,0.968600745014,0.241055481346,-0.0289819444217
-0.224360466003,-0.174768343568,-0.369148135185,-2.0660943985,-0.189204245806,1.94226670265,-1.01215851307,0.0180110540241,-0.076028585434,-0.0926742851734,-0.181202024221,0.095843270421,-0.000327763031237,0.0220683347434,-0.350396484137,0.410173855916,-0.317768388925,0.396558871824,0.0548557894465,0.968581237442,0.241100553598,-0.026678672906
-0.225392490625,-0.176838517189,-0.371819227934,-2.06418824196,-0.189205318689,1.94262957573,-1.01902210712,0.0180110540241,-0.0252716392279,-0.116992488503,-0.0792559757829,0.0753689780831,-0.000163188567967,0.0109031191096,-0.303847700357,0.409434705339,-0.319389176572,0.398220795064,0.055717914759,0.968243822948,0.242400632202,-0.0253248198125
-0.225129440427,-0.181306138635,-0.372342288494,-2.06264591217,-0.189198851585,1.94268083572,-1.02777051926,0.0180110540241,0.0488883145154,-0.147230371833,0.050825573504,0.0235794242471,0.00310316635296,-0.000372897950001,-0.254169732332,0.409374012405,-0.319697114452,0.401059855787,0.0571687275377,0.967236005981,0.246283018442,-0.0230416979915
-0.218393981457,-0.18905685842,-0.366468846798,-2.06255626678,-0.188923060894,1.94220948219,-1.03770029545,0.0180156491697,0.211427822709,-0.151812314987,0.182223409414,-0.000335655757226,0.0243329312652,-0.0328084081411,-0.173758089542,0.412777597719,-0.31428997133,0.404937208483,0.0592279913184,0.964440067324,0.256816037103,-0.0198223198329
-0.214107945561,-0.191705346107,-0.36254632473,-2.06255483627,-0.188431471586,1.94145131111,-1.04054999352,0.0180156491697,0.261581480503,-0.149095341563,0.263790100813,-0.000420411699452,0.0343295931816,-0.0480112247169,-0.146515414119,0.415041008929,-0.310682246434,0.406261917052,0.0597910672232,0.963049656086,0.261931649723,-0.0187669592247
-0.208900183439,-0.194162964821,-0.357224732637,-2.06258940697,-0.187427431345,1.94056534767,-1.04270076752,0.0180156491697,0.305936396122,-0.127393364906,0.314768493176,-0.00335121108219,0.0806629881263,-0.0491304770112,-0.0985244065523,0.4180022417,-0.305986616765,0.407515482227,0.0602319995167,0.961446682575,0.267732366668,-0.0176567927611
-0.202574715018,-0.196670398116,-0.350674569607,-2.06288194656,-0.185552507639,1.93964254856,-1.04422020912,0.0180156491697,0.356130540371,-0.130022346973,0.372330933809,-0.0210756454617,0.120095491409,-0.0529266148806,-0.0687476918101,0.421620000151,-0.300087740222,0.408697333506,0.0604198957113,0.959629878441,0.274215441362,-0.0163041103814
-0.191896751523,-0.199620932341,-0.338982403278,-2.06360125542,-0.18148675561,1.93831002712,-1.04532301426,0.0180156491697,0.430426836014,-0.0954974666238,0.473010897636,-0.0350106917322,0.161379247904,-0.0611235387623,-0.0132817216218,0.428130920754,-0.289193294971,0.410044892949,0.0601815436934,0.956513577044,0.285058321302,-0.0142025306027
-0.18416389823,-0.201217830181,-0.330397099257,-2.06426405907,-0.17833070457,1.9370828867,-1.045394063,0.0180156491697,0.477735906839,-0.0903586149216,0.526270031929,-0.0455791056156,0.212402999401,-0.0755463242531,-3.55855117959e-05,0.432273014448,-0.281831126352,0.410600762193,0.0597127585105,0.954495542154,0.291891634048,-0.0131118321039
-0.173752114177,-0.202827900648,-0.318620204926,-2.06532502174,-0.17331174016,1.93541777134,-1.04539000988,0.0180156491697,0.534192144871,-0.0621530152857,0.601931810379,-0.0572286359966,0.264691919088,-0.0716910287738,0.00216779741459,0.438080461836,-0.271004820183,0.411048573813,0.0586140572034,0.951566826042,0.301578430796,-0.011636908693
-0.164344012737,-0.203782975674,-0.307872980833,-2.06647968292,-0.168343231082,1.93417716026,-1.04536366463,0.0180156491697,0.574338316917,-0.0475156344473,0.653841614723,-0.0756053999066,0.305264353752,-0.074044123292,0.00106944097206,0.443209591629,-0.261001395551,0.411133884742,0.0573715966136,0.948844589756,0.310313331138,-0.0103961820164
-0.133579671383,-0.204895153642,-0.272468328476,-2.07128596306,-0.150870919228,1.93060910702,-1.04411792755,0.0180156491697,0.66418749094,0.00756198354065,0.778891861439,-0.12221929431,0.416982084513,-0.0594158284366,0.0605277828872,0.458586316977,-0.22724413719,0.409917087767,0.0521417427943,0.93959475738,0.338215604112,-0.00728940220933
-0.123249225318,-0.204794421792,-0.260564357042,-2.07333350182,-0.144634559751,1.92977786064,-1.04315292835,0.0180156491697,0.711001217365,0.00881952885538,0.820313811302,-0.149203985929,0.424704641104,-0.045137796551,0.0723229721189,0.46323312662,-0.215613909296,0.409074206039,0.050082797903,0.936409773031,0.347256061127,-0.00645585185555
-0.110075540841,-0.204500004649,-0.245215952396,-2.07626652718,-0.136948779225,1.92932081223,-1.04151058197,0.0180156491697,0.733328163624,0.0282890852541,0.872429966927,-0.170531377196,0.412939578295,-0.0129682971165,0.116638317704,0.469123791913,-0.199774625004,0.407730319543,0.0474529566415,0.931993483184,0.359313836582,-0.00547089887724
-0.0942262634635,-0.203669145703,-0.226668924093,-2.08014249802,-0.128378137946,1.92926108837,-1.03861296177,0.0180156491697,0.782614767551,0.0418021380901,0.924454152584,-0.194029375911,0.404951989651,0.000894094118848,0.161142364144,0.474955512678,-0.182464111327,0.405919024178,0.0447422540574,0.927105522948,0.372088839467,-0.00483479564225
-0.0785643979907,-0.202673226595,-0.208043172956,-2.08420729637,-0.120399810374,1.92919254303,-1.03472018242,0.0180156491697,0.791808187962,0.0602043494582,0.928043246269,-0.215335845947,0.402384370565,-0.00274895760231,0.22996249795,0.480314296172,-0.164276782886,0.403827848238,0.0419958691417,0.921954628183,0.384986899996,-0.00459315373321
-0.0566134415567,-0.200534671545,-0.181789577007,-2.09021043777,-0.109705626965,1.92904210091,-1.02722525597,0.0180176198483,0.821299493313,0.094866886735,0.989214420319,-0.228649258614,0.381201326847,-0.00448680017143,0.323999226093,0.486626611513,-0.138548919324,0.400326620465,0.0380462327652,0.914775136129,0.402136135769,-0.00504603630465
-0.0417609289289,-0.198741614819,-0.163796618581,-2.09432029724,-0.102976180613,1.92889630795,-1.02084028721,0.0180176198483,0.849219501019,0.107943877578,1.02674055099,-0.229934900999,0.36037632823,-0.00784626696259,0.388354629278,0.490311888102,-0.120003709447,0.397580686173,0.0353487683312,0.909644034399,0.413840334043,-0.00586283708354
-0.0275338254869,-0.196702286601,-0.146316841245,-2.09817409515,-0.0969870239496,1.92881250381,-1.01368916035,0.0180176198483,0.826602637768,0.132989436388,1.0211558342,-0.223736941814,0.338973253965,-0.00780920498073,0.442562639713,0.492958323639,-0.104091502311,0.395106880037,0.0332129019118,0.905271631175,0.423477614478,-0.0068473826668
-0.00242772349156,-0.192365884781,-0.115121431649,-2.10478043556,-0.088104903698,1.92855060101,-0.998869359493,0.0180176198483,0.828769743443,0.159681141376,1.03331971169,-0.207332625985,0.261245429516,-0.00771913584322,0.533926129341,0.496581821532,-0.0742919929427,0.390143033235,0.0298162321625,0.897049445561,0.440818365605,-0.0096152347848
0.0125114750117,-0.189262792468,-0.0964046791196,-2.10831093788,-0.0835547149181,1.92837619781,-0.988627552986,0.0180176198483,0.846464455128,0.176070824265,1.05649960041,-0.188590362668,0.247501343489,-0.00462772930041,0.597849488258,0.498006004121,-0.0566046668814,0.38708383879,0.0281446624419,0.892219165307,0.450574885019,-0.011623755789
0.0271897315979,-0.186020240188,-0.0774552226067,-2.11166453362,-0.079463750124,1.92810761929,-0.977311849594,0.0180176198483,0.7965310812,0.181288421154,1.0394910574,-0.180290743709,0.221104830503,-0.0185060277581,0.660998404026,0.498820521778,-0.0390209535099,0.384004479564,0.0267209390914,0.887493707745,0.459836161653,-0.013842479446
0.0399968773127,-0.18296675384,-0.0607221275568,-2.11452651024,-0.0761363431811,1.92769634724,-0.966218292713,0.0180386342108,0.795089900494,0.201215460896,1.04572093487,-0.169247969985,0.194251149893,-0.0278176758438,0.719348311424,0.499008552198,-0.0236440191766,0.381198104773,0.0255731020063,0.883505801829,0.467446764005,-0.0160323760169
0.0562758594751,-0.178516253829,-0.0389716364443,-2.11791920662,-0.0723794028163,1.92712473869,-0.950566887856,0.0180386342108,0.753403365612,0.217027083039,1.01501441002,-0.150142848492,0.169723004103,-0.0277254134417,0.76906567812,0.498636598546,-0.0039942892019,0.37743267553,0.0243617680681,0.878544867532,0.476653430889,-0.0191553251384
0.0719804689288,-0.174158781767,-0.0174282230437,-2.12087607384,-0.0693725645542,1.92651534081,-0.933747112751,0.0180386342108,0.72573196888,0.200229808688,1.01702356339,-0.133071854711,0.112887911499,-0.0241191014647,0.82744371891,0.497604910961,0.0150563820522,0.373884815723,0.0236492913807,0.873884828842,0.485046618476,-0.0222664435999
0.103806808591,-0.16488969326,0.0278549678624,-2.12659215927,-0.064132258296,1.92512977123,-0.892438590527,0.0180386342108,0.618521571159,0.183885917068,0.912663578987,-0.112897768617,0.077290199697,-0.0344315618277,0.929892838001,0.493110450746,0.0547379766113,0.366351179475,0.0230369092183,0.865338480519,0.499811567904,-0.0291034568855
0.115790888667,-0.16166511178,0.0457262955606,-2.12883687019,-0.0629374235868,1.92434632778,-0.873679339886,0.0180386342108,0.582315921783,0.146625727415,0.877379834652,-0.11146645993,0.041367534548,-0.0405212417245,0.946031153202,0.490648772193,0.0687237383572,0.363759488104,0.0233720103352,0.862766137154,0.504068814913,-0.0316697207402
0.125672891736,-0.159248694777,0.0610514245927,-2.1308836937,-0.0620793476701,1.92365968227,-0.856595098972,0.0180386342108,0.526291251183,0.117505073547,0.835290789604,-0.109899267554,0.0517556034029,-0.0301453340799,0.955661714077,0.488064786762,0.0810450592804,0.361513261656,0.0238574200815,0.860752728677,0.507331637181,-0.0339142029751
0.134107142687,-0.15742559731,0.0744181647897,-2.13289737701,-0.061260484159,1.92316830158,-0.840424418449,0.0180386342108,0.478858560324,0.0910848230124,0.754789173603,-0.123498819768,0.0513420589268,-0.0276285000145,0.944960415363,0.485515563819,0.091626845381,0.359586705495,0.0243569524353,0.859362309308,0.509532748932,-0.0357706253785
